LWingKi/MAS_RnD/log/us2/contactless/31/grasp_log_12_08_2023_15_15_36.csv
Index,joint_angle_0,joint_angle_1,joint_angle_2,joint_angle_3,joint_angle_4,joint_angle_5,joint_angle_6,joint_velocity_0,joint_velocity_1,joint_velocity_2,joint_velocity_3,joint_velocity_4,joint_velocity_5,joint_velocity_6,joint_accel_0,joint_accel_1,joint_accel_2,joint_accel_3,joint_accel_4,joint_accel_5,joint_accel_6,constraint_tau_0,constraint_tau_1,constraint_tau_2,constraint_tau_3,constraint_tau_4,constraint_tau_5,constraint_tau_6,current_pos_x,current_pos_y,current_pos_z,target_pos_x,target_pos_y,target_pos_z,current_vel_x,current_vel_y,current_vel_z,target_vel_x,target_vel_y,target_vel_z,control_signal_linear_x,control_signal_linear_y,control_signal_linear_z,control_signal_angular_x,control_signal_angular_y,control_signal_angular_z,joint_torque_0,joint_torque_1,joint_torque_2,joint_torque_3,joint_torque_4,joint_torque_5,joint_torque_6,actuar_current_0,actuar_current_1,actuar_current_2,actuar_current_3,actuar_current_4,actuar_current_5,actuar_current_6,actuar_voltage_0,actuar_voltage_1,actuar_voltage_2,actuar_voltage_3,actuar_voltage_4,actuar_voltage_5,actuar_voltage_6
0,6.2727,1.38635,3.1535,4.11636,6.2742,1.9751,1.55574,0.00115052,0.0391641,0.000119222,0.0984857,0.000132274,0.00507437,0,0.377456,-7.25888,-0.353364,0.912757,0.754546,-26.7921,1.40756,0.00196687,-20,-0.434602,0.421727,-0.0407016,0.258905,0.0646792,-0.000250635,0.00690078,-3.7492e-06,0.493817,0.00126665,0.0729777,0.0201596,-0.000338707,-0.0168401,1.97539,-0.00159043,0.005,1.77785,-0.00143138,0.0045,-0.676714,18.6321,-0.0101228,1.7628,-0.266258,-0.419417,4.66981,0.346632,5.72706,0.262491,0.169381,0.153288,0.185478,-0.12085,0.157104,-0.555923,-0.12085,23.479,23.3655,23.1952,23.3371,23.252,23.3087,23.1669,
1,6.2727,1.38639,3.1535,4.11645,6.2742,1.97512,1.55574,0.00134067,0.0370788,6.62379e-05,0.0988557,0.000142964,0.00829495,0,0.325967,-2.63388,-0.326599,4.26987,0.373067,-8.82717,0.542932,-0.0117293,-18.8251,-0.37134,1.00651,-0.0410332,2.03748,-0.0028374,0,0,0,0.493817,0.00126665,0.0729777,0.0207099,-0.00038708,-0.0156838,2,0,0.005,1.78186,0.000304836,0.0196561,-0.01031,1.9316,-0.00536415,1.76901,-0.205017,-0.422496,4.59803,0.334719,5.82361,0.255065,0.177246,0.153288,0.209628,-0.0889885,0.157104,-0.55188,-0.121118,23.4932,23.3655,23.1811,23.3371,23.2236,23.2946,23.1527,
2,6.2727,1.38642,3.1535,4.11656,6.2742,1.97513,1.55574,0.00151026,0.0351127,2.64952e-05,0.0967966,0.000153438,0.0120571,0,0.327068,-2.7312,-0.326946,4.19604,0.382972,-9.21343,0.553648,-0.0114363,-18.8846,-0.372675,0.994116,-0.0409935,1.99857,-0.00221773,-1.34709e-06,7.13428e-05,-8.20129e-07,0.493817,0.00126665,0.0729777,0.0205339,-0.00043576,-0.0144687,1.9996,4.61316e-06,0.005,1.781,0.000352524,0.0186154,-0.0163916,2.29447,-0.00406456,1.7307,-0.144918,-0.425673,4.54319,0.31704,5.92061,0.273172,0.169189,0.185478,0.185478,-0.0563965,0.149102,-0.543823,-0.136963,23.479,23.3513,23.1811,23.3371,23.2378,23.3087,23.1527,
3,6.2727,1.38645,3.1535,4.11665,6.2742,1.97515,1.55574,0.0015979,0.0329519,-2.64952e-05,0.0945341,0.00016402,0.0153956,0,0.328099,-2.82149,-0.327212,4.12932,0.392374,-9.57268,0.561888,-0.0111612,-18.9397,-0.373912,0.983082,-0.0409542,1.96255,-0.00181949,-2.26652e-06,0.000154941,-1.63538e-06,0.493817,0.00126665,0.0729777,0.0203398,-0.000449133,-0.0132179,1.99916,1.17004e-05,0.005,1.78076,0.000402715,0.0175218,-0.0202831,2.63023,-0.00268692,1.72333,-0.065897,-0.432772,4.57029,0.321155,6.00244,0.264188,0.161133,0.22573,0.185478,-0.0161133,0.161183,-0.563965,-0.132996,23.4932,23.3371,23.1952,23.3371,23.2378,23.2946,23.1669,
4,6.27271,1.38649,3.1535,4.11675,6.2742,1.97517,1.55574,0.00164885,0.0316014,-2.52564e-05,0.096965,0.000164022,0.0171565,0,0.32905,-2.90225,-0.32823,4.06992,0.39841,-9.89554,0.571144,-0.010907,-18.9892,-0.375079,0.973363,-0.0409375,1.93018,-0.00125519,-3.64931e-06,0.000230678,-2.43402e-06,0.493817,0.00126665,0.0729777,0.0213289,-0.000458478,-0.0125464,1.99876,1.61384e-05,0.005,1.78057,0.000418744,0.0163961,-0.0258273,2.93179,-0.00353128,1.72484,-0.00477028,-0.456841,4.6019,0.309489,6.08419,0.295298,0.185303,0.242236,0.169381,0.0113938,0.161334,-0.567993,-0.128906,23.479,23.3655,23.1811,23.3229,23.2236,23.2946,23.1527,
5,6.27271,1.38649,3.1535,4.11675,6.2742,1.97517,1.55574,0.00164885,0.0316014,-2.52564e-05,0.096965,0.000164022,0.0171565,0,0.330266,-3.00937,-0.328887,3.98803,0.407968,-10.3148,0.578284,-0.0105833,-19.0536,-0.376546,0.958732,-0.0409096,1.88812,-0.00101998,-4.11803e-06,0.000315089,-2.26011e-06,0.493817,0.00126665,0.0729777,0.0213289,-0.000458478,-0.0125464,1.99833,2.53152e-05,0.005,1.77931,0.000435414,0.0157917,-0.0280873,3.32596,-0.00318641,1.72484,-0.00477028,-0.456841,4.6019,0.309489,6.08419,0.295298,0.185303,0.242236,0.169381,0.0113938,0.161334,-0.567993,-0.128906,23.479,23.3655,23.1811,23.3229,23.2236,23.2946,23.1527,
6,6.27271,1.38652,3.1535,4.11684,6.27421,1.97519,1.55574,0.00163659,0.0310953,-5.05128e-05,0.0991258,0.000174997,0.0200159,0,0.330257,-3.00915,-0.328891,3.98799,0.408003,-10.3146,0.578262,-0.0105832,-19.0545,-0.376569,0.959377,-0.0409085,1.88806,-0.00102058,-4.11803e-06,0.000315089,-2.26011e-06,0.493817,0.00126665,0.0729777,0.0220616,-0.000435095,-0.0120855,1.99833,2.53152e-05,0.005,1.77931,0.000435414,0.0157917,-0.0280873,3.32596,-0.00318641,1.70906,0.0891044,-0.420806,4.64196,0.264488,6.17127,0.258318,0.193359,0.265991,0.177977,0,0.161183,-0.572021,-0.128969,23.479,23.3513,23.1811,23.3087,23.2236,23.2946,23.1385,
7,6.27271,1.38655,3.1535,4.11695,6.27421,1.97521,1.55574,0.00163659,0.0315694,-6.01111e-05,0.100307,0.000180165,0.0243088,0,0.331639,-3.11746,-0.332429,3.90599,0.409707,-10.7374,0.586801,-0.0102136,-19.1206,-0.378282,0.945552,-0.040927,1.84569,-0.000613229,-5.00953e-06,0.000400551,-3.6343e-06,0.493817,0.00126665,0.0729777,0.0223047,-0.000423494,-0.0118394,1.99791,2.81879e-05,0.005,1.77826,0.000416954,0.0153769,-0.032073,3.72247,-0.00977412,1.66295,0.185854,-0.386931,4.69038,0.237337,6.24965,0.270981,0.177429,0.105046,0.177246,-0.0322266,0.161183,-0.567993,-0.128906,23.479,23.3513,23.1952,23.3229,23.2378,23.3087,23.1243,
8,6.27271,1.38655,3.1535,4.11695,6.27421,1.97521,1.55574,0.00163659,0.0315694,-6.01111e-05,0.100307,0.000180165,0.0243088,0,0.332995,-3.23285,-0.334325,3.8202,0.41644,-11.1847,0.595108,-0.00985291,-19.19,-0.379949,0.930447,-0.0409228,1.80122,-0.000274911,-6.04363e-06,0.000499732,-3.65138e-06,0.493817,0.00126665,0.0729777,0.0223047,-0.000423494,-0.0118394,1.99743,3.84332e-05,0.005,1.77761,0.000415735,0.0151554,-0.03536,4.14024,-0.0123971,1.66295,0.185854,-0.386931,4.69038,0.237337,6.24965,0.270981,0.177429,0.105046,0.177246,-0.0322266,0.161183,-0.567993,-0.128906,23.479,23.3513,23.1952,23.3229,23.2378,23.3087,23.1243,
9,6.27271,1.38658,3.1535,4.11705,6.27421,1.97524,1.55574,0.00164902,0.0283602,-5.75495e-05,0.102263,0.000180165,0.0289004,0,0.332997,-3.23255,-0.334352,3.81981,0.41649,-11.184,0.595105,-0.00985346,-19.1909,-0.379974,0.931078,-0.0409215,1.80117,-0.000275179,-6.04363e-06,0.000499732,-3.65138e-06,0.493817,0.00126665,0.0729777,0.0235522,-0.000410357,-0.0101259,1.99743,3.84332e-05,0.005,1.77761,0.000415735,0.0151554,-0.03536,4.14024,-0.0123971,1.63601,0.271845,-0.340262,4.77224,0.196482,6.3275,0.242015,0.19403,-0.14502,0.161936,-0.0563965,0.169237,-0.584106,-0.120917,23.479,23.3371,23.1669,23.3229,23.2378,23.2946,23.1669,
10,6.27271,1.3866,3.1535,4.11715,6.27421,1.97527,1.55574,0.00159566,0.0226882,-9.23827e-05,0.103988,0.000190763,0.0320682,0,0.334847,-3.38439,-0.337103,3.70333,0.425234,-11.7859,0.604735,-0.00936295,-19.2835,-0.382214,0.911084,-0.0409099,1.74052,2.68866e-05,-6.59047e-06,0.000601186,-4.20262e-06,0.493817,0.00126665,0.0729777,0.0252535,-0.000357154,-0.00758767,1.99696,4.27674e-05,0.005,1.77607,0.000407812,0.0136133,-0.0382636,4.70684,-0.0162891,1.55696,0.300467,-0.321658,4.84434,0.173195,6.377,0.270077,0.209473,-0.386803,0.177246,-0.0725098,0.16521,-0.58819,-0.116821,23.479,23.3513,23.1811,23.3087,23.2236,23.2946,23.1385,
11,6.27271,1.3866,3.1535,4.11715,6.27421,1.97527,1.55574,0.00159566,0.0226882,-9.23827e-05,0.103988,0.000190763,0.0320682,0,0.336944,-3.55075,-0.341208,3.57606,0.431552,-12.4502,0.61812,-0.00880494,-19.3836,-0.384707,0.888343,-0.0409206,1.6735,0.000661357,-7.63376e-06,0.000715407,-5.3037e-06,0.493817,0.00126665,0.0729777,0.0252535,-0.000357154,-0.00758767,1.99646,4.87279e-05,0.005,1.77409,0.000365293,0.0113289,-0.044449,5.33212,-0.0234004,1.55696,0.300467,-0.321658,4.84434,0.173195,6.377,0.270077,0.209473,-0.386803,0.177246,-0.0725098,0.16521,-0.58819,-0.116821,23.479,23.3513,23.1811,23.3087,23.2236,23.2946,23.1385,
12,6.27271,1.3866,3.1535,4.11715,6.27421,1.97527,1.55574,0.00159566,0.0226882,-9.23827e-05,0.103988,0.000190763,0.0320682,0,0.336944,-3.55075,-0.341208,3.57606,0.431552,-12.4502,0.61812,-0.00880494,-19.3836,-0.384707,0.888343,-0.0409206,1.6735,0.000661357,-7.63376e-06,0.000715407,-5.3037e-06,0.493817,0.00126665,0.0729777,0.0252535,-0.000357154,-0.00758767,1.99646,4.87279e-05,0.005,1.77409,0.000365293,0.0113289,-0.044449,5.33212,-0.0234004,1.55696,0.300467,-0.321658,4.84434,0.173195,6.377,0.270077,0.209473,-0.386803,0.177246,-0.0725098,0.16521,-0.58819,-0.116821,23.479,23.3513,23.1811,23.3087,23.2236,23.2946,23.1385,
13,6.27271,1.38661,3.1535,4.11726,6.27421,1.97531,1.55574,0.00158364,0.0135049,-0.000110744,0.105068,0.000190908,0.0356529,0,0.336977,-3.54985,-0.341284,3.57471,0.431621,-12.448,0.618139,-0.0088016,-19.3845,-0.384736,0.88882,-0.040917,1.67348,0.000661155,-7.63376e-06,0.000715407,-5.3037e-06,0.493817,0.00126665,0.0729777,0.0275133,-0.000318819,-0.00360861,1.99646,4.87279e-05,0.005,1.77409,0.000365293,0.0113289,-0.044449,5.33212,-0.0234004,1.54222,0.30646,-0.274646,4.92338,0.163593,6.4277,0.233949,0.201416,-0.515688,0.153288,-0.088623,0.161334,-0.584162,-0.124943,23.479,23.3513,23.1811,23.3087,23.2236,23.2946,23.1385,
14,6.27271,1.38661,3.1535,4.11726,6.27421,1.97531,1.55574,0.00158364,0.0135049,-0.000110744,0.105068,0.000190908,0.0356529,0,0.339383,-3.74828,-0.343988,3.4223,0.445436,-13.2483,0.634139,-0.00816159,-19.5038,-0.387552,0.861553,-0.04089,1.59244,0.00138792,-8.87974e-06,0.000840956,-5.55441e-06,0.493817,0.00126665,0.0729777,0.0275133,-0.000318819,-0.00360861,1.99592,5.32885e-05,0.005,1.77157,0.000334896,0.00774775,-0.0515123,6.08652,-0.0265595,1.54222,0.30646,-0.274646,4.92338,0.163593,6.4277,0.233949,0.201416,-0.515688,0.153288,-0.088623,0.161334,-0.584162,-0.124943,23.479,23.3513,23.1811,23.3087,23.2236,23.2946,23.1385,
15,6.27272,1.38662,3.1535,4.11737,6.27421,1.97535,1.55574,0.00158364,0.00225692,-0.00010606,0.103066,0.000190763,0.0383538,0,0.339404,-3.74695,-0.34406,3.4206,0.44549,-13.2452,0.634136,-0.00816427,-19.5045,-0.387574,0.862038,-0.0408865,1.59238,0.00138825,-8.87974e-06,0.000840956,-5.55441e-06,0.493817,0.00126665,0.0729777,0.0293197,-0.000295278,0.00115172,1.99592,5.32885e-05,0.005,1.77157,0.000334896,0.00774775,-0.0515123,6.08652,-0.0265595,1.50285,0.350508,-0.24038,5.03683,0.146366,6.46109,0.240188,0.217678,-0.539855,0.145243,-0.0966797,0.169237,-0.588149,-0.124943,23.4932,23.3513,23.1952,23.3087,23.2378,23.2804,23.1669,
16,6.27272,1.38662,3.1535,4.11737,6.27421,1.97535,1.55574,0.00158364,0.00225692,-0.00010606,0.103066,0.000190763,0.0383538,0,0.341717,-3.94265,-0.345365,3.27128,0.463082,-14.0413,0.648483,-0.00754879,-19.6223,-0.390254,0.83543,-0.0408342,1.51167,0.00193614,-9.76475e-06,0.000985949,-5.28422e-06,0.493817,0.00126665,0.0729777,0.0293197,-0.000295278,0.00115172,1.9953,6.42119e-05,0.005,1.76938,0.000323541,0.00346345,-0.0567928,6.83638,-0.0263316,1.50285,0.350508,-0.24038,5.03683,0.146366,6.46109,0.240188,0.217678,-0.539855,0.145243,-0.0966797,0.169237,-0.588149,-0.124943,23.4932,23.3513,23.1952,23.3087,23.2378,23.2804,23.1669,
17,6.27272,1.38661,3.1535,4.11748,6.27421,1.97539,1.55574,0.00158693,-0.00891322,-0.00014849,0.103671,0.000201361,0.041595,0,0.341755,-3.94136,-0.345461,3.2695,0.463152,-14.0383,0.648478,-0.00754764,-19.6232,-0.390285,0.835947,-0.0408307,1.51164,0.00193511,-9.76475e-06,0.000985949,-5.28422e-06,0.493817,0.00126665,0.0729777,0.0318627,-0.000252419,0.00588914,1.9953,6.42119e-05,0.005,1.76938,0.000323541,0.00346345,-0.0567928,6.83638,-0.0263316,1.50698,0.51346,-0.227454,5.19404,0.13294,6.49348,0.24087,0.225586,-0.531738,0.136963,-0.0161133,0.169237,-0.580092,-0.108839,23.4932,23.3371,23.1811,23.3229,23.2378,23.2946,23.1669,
18,6.27272,1.38661,3.1535,4.11748,6.27421,1.97539,1.55574,0.00158693,-0.00891322,-0.00014849,0.103671,0.000201361,0.041595,0,0.344691,-4.17906,-0.349708,3.08713,0.476997,-14.9968,0.669591,-0.0067665,-19.7662,-0.393731,0.80335,-0.0408129,1.4146,0.00301034,-1.17871e-05,0.00115369,-6.7666e-06,0.493817,0.00126665,0.0729777,0.0318627,-0.000252419,0.00588914,1.99458,6.4913e-05,0.005,1.76644,0.000285599,-0.000800227,-0.0672894,7.73974,-0.0324507,1.50698,0.51346,-0.227454,5.19404,0.13294,6.49348,0.24087,0.225586,-0.531738,0.136963,-0.0161133,0.169237,-0.580092,-0.108839,23.4932,23.3371,23.1811,23.3229,23.2378,23.2946,23.1669,
19,6.27272,1.38661,3.1535,4.11748,6.27421,1.97539,1.55574,0.00158693,-0.00891322,-0.00014849,0.103671,0.000201361,0.041595,0,0.344691,-4.17906,-0.349708,3.08713,0.476997,-14.9968,0.669591,-0.0067665,-19.7662,-0.393731,0.80335,-0.0408129,1.4146,0.00301034,-1.17871e-05,0.00115369,-6.7666e-06,0.493817,0.00126665,0.0729777,0.0318627,-0.000252419,0.00588914,1.99458,6.4913e-05,0.005,1.76644,0.000285599,-0.000800227,-0.0672894,7.73974,-0.0324507,1.50698,0.51346,-0.227454,5.19404,0.13294,6.49348,0.24087,0.225586,-0.531738,0.136963,-0.0161133,0.169237,-0.580092,-0.108839,23.4932,23.3371,23.1811,23.3229,23.2378,23.2946,23.1669,
20,6.27272,1.38661,3.1535,4.11748,6.27421,1.97539,1.55574,0.00158693,-0.00891322,-0.00014849,0.103671,0.000201361,0.041595,0,0.344691,-4.17906,-0.349708,3.08713,0.476997,-14.9968,0.669591,-0.0067665,-19.7662,-0.393731,0.80335,-0.0408129,1.4146,0.00301034,-1.17871e-05,0.00115369,-6.7666e-06,0.493817,0.00126665,0.0729777,0.0318627,-0.000252419,0.00588914,1.99458,6.4913e-05,0.005,1.76644,0.000285599,-0.000800227,-0.0672894,7.73974,-0.0324507,1.50698,0.51346,-0.227454,5.19404,0.13294,6.49348,0.24087,0.225586,-0.531738,0.136963,-0.0161133,0.169237,-0.580092,-0.108839,23.4932,23.3371,23.1811,23.3229,23.2378,23.2946,23.1669,
21,6.27272,1.38659,3.1535,4.11759,6.27421,1.97543,1.55574,0.00164902,-0.0145705,-0.000163284,0.103447,0.000201359,0.0432156,0,0.344729,-4.178,-0.3498,3.08615,0.477069,-14.9948,0.669629,-0.00676547,-19.7668,-0.393752,0.804101,-0.0408087,1.41449,0.00301077,-1.17871e-05,0.00115369,-6.7666e-06,0.493817,0.00126665,0.0729777,0.0329968,-0.000258167,0.00829867,1.99458,6.4913e-05,0.005,1.76644,0.000285599,-0.000800227,-0.0672894,7.73974,-0.0324507,1.44875,0.623287,-0.233473,5.28231,0.0904408,6.52146,0.243239,0.22573,-0.515625,0.129158,-0.0241699,0.169381,-0.58412,-0.116821,23.479,23.3655,23.1952,23.3229,23.2378,23.3229,23.1527,
22,6.27272,1.38659,3.1535,4.11759,6.27421,1.97543,1.55574,0.00164902,-0.0145705,-0.000163284,0.103447,0.000201359,0.0432156,0,0.346677,-4.34945,-0.35036,2.95629,0.493794,-15.677,0.683785,-0.00624708,-19.8699,-0.396064,0.781064,-0.0407574,1.34586,0.0036538,-1.33077e-05,0.00131266,-6.57939e-06,0.493817,0.00126665,0.0729777,0.0329968,-0.000258167,0.00829867,1.99393,7.22832e-05,0.005,1.76484,0.000297405,-0.00296881,-0.0735435,8.38055,-0.0308229,1.44875,0.623287,-0.233473,5.28231,0.0904408,6.52146,0.243239,0.22573,-0.515625,0.129158,-0.0241699,0.169381,-0.58412,-0.116821,23.479,23.3655,23.1952,23.3229,23.2378,23.3229,23.1527,
23,6.27272,1.38659,3.1535,4.11759,6.27421,1.97543,1.55574,0.00164902,-0.0145705,-0.000163284,0.103447,0.000201359,0.0432156,0,0.346677,-4.34945,-0.35036,2.95629,0.493794,-15.677,0.683785,-0.00624708,-19.8699,-0.396064,0.781064,-0.0407574,1.34586,0.0036538,-1.33077e-05,0.00131266,-6.57939e-06,0.493817,0.00126665,0.0729777,0.0329968,-0.000258167,0.00829867,1.99393,7.22832e-05,0.005,1.76484,0.000297405,-0.00296881,-0.0735435,8.38055,-0.0308229,1.44875,0.623287,-0.233473,5.28231,0.0904408,6.52146,0.243239,0.22573,-0.515625,0.129158,-0.0241699,0.169381,-0.58412,-0.116821,23.479,23.3655,23.1952,23.3229,23.2378,23.3229,23.1527,
24,6.27272,1.38657,3.1535,4.11769,6.27421,1.97548,1.55574,0.00168922,-0.0186556,-0.000167173,0.103717,0.000201207,0.047646,0,0.346709,-4.34873,-0.350447,2.95535,0.493871,-15.6754,0.683809,-0.00624874,-19.8707,-0.396089,0.781858,-0.0407534,1.34574,0.00365332,-1.33077e-05,0.00131266,-6.57939e-06,0.493817,0.00126665,0.0729777,0.0339419,-0.000256243,0.0103769,1.99393,7.22832e-05,0.005,1.76484,0.000297405,-0.00296881,-0.0735435,8.38055,-0.0308229,1.46698,0.771567,-0.179848,5.45711,0.113498,6.4956,0.249049,0.233643,-0.58819,0.129158,-0.0161133,0.169237,-0.572036,-0.116891,23.4932,23.3513,23.1811,23.3087,23.2236,23.2946,23.1669,
25,6.27272,1.38657,3.1535,4.11769,6.27421,1.97548,1.55574,0.00168922,-0.0186556,-0.000167173,0.103717,0.000201207,0.047646,0,0.349034,-4.54472,-0.353233,2.80821,0.506981,-16.4495,0.698694,-0.00563024,-19.9886,-0.398886,0.755867,-0.0407307,1.26818,0.00428432,-1.50377e-05,0.00148373,-7.44097e-06,0.493817,0.00126665,0.0729777,0.0339419,-0.000256243,0.0103769,1.99326,7.8631e-05,0.005,1.76339,0.000301386,-0.00483925,-0.0796737,9.106,-0.0340811,1.46698,0.771567,-0.179848,5.45711,0.113498,6.4956,0.249049,0.233643,-0.58819,0.129158,-0.0161133,0.169237,-0.572036,-0.116891,23.4932,23.3513,23.1811,23.3087,23.2236,23.2946,23.1669,
26,6.27272,1.38655,3.1535,4.1178,6.27421,1.97553,1.55574,0.0017948,-0.0227985,-0.00017979,0.104723,0.000201361,0.0510484,0,0.349082,-4.54381,-0.353354,2.80723,0.507074,-16.4476,0.698757,-0.00563038,-19.9894,-0.398912,0.756781,-0.0407259,1.26805,0.00428512,-1.50377e-05,0.00148373,-7.44097e-06,0.493817,0.00126665,0.0729777,0.0351107,-0.000277582,0.0123556,1.99326,7.8631e-05,0.005,1.76339,0.000301386,-0.00483925,-0.0796737,9.106,-0.0340811,1.39366,0.981115,-0.117934,5.60593,0.13489,6.44712,0.235273,0.218868,-0.70903,0.121118,0.0290486,0.173405,-0.596205,-0.112865,23.4932,23.3513,23.1811,23.3087,23.2378,23.2804,23.1527,
27,6.27272,1.38655,3.1535,4.1178,6.27421,1.97553,1.55574,0.0017948,-0.0227985,-0.00017979,0.104723,0.000201361,0.0510484,0,0.351377,-4.74894,-0.353801,2.65244,0.527588,-17.2561,0.714705,-0.00501983,-20,-0.401665,0.72939,-0.0406619,1.18702,0.00495554,-1.67393e-05,0.0016696,-6.94581e-06,0.493817,0.00126665,0.0729777,0.0351107,-0.000277582,0.0123556,1.99251,8.91135e-05,0.005,1.76166,0.000330026,-0.00662008,-0.0861818,9.86432,-0.031557,1.39366,0.981115,-0.117934,5.60593,0.13489,6.44712,0.235273,0.218868,-0.70903,0.121118,0.0290486,0.173405,-0.596205,-0.112865,23.4932,23.3513,23.1811,23.3087,23.2378,23.2804,23.1527,
28,6.27273,1.38652,3.1535,4.11791,6.27421,1.97558,1.55574,0.00194693,-0.0286303,-0.000191989,0.108039,0.000211959,0.0529391,-1.0582e-05,0.351429,-4.74785,-0.353945,2.65112,0.527665,-17.2537,0.714743,-0.00501989,-20,-0.401696,0.730093,-0.0406588,1.18696,0.00495529,-1.67393e-05,0.0016696,-6.94581e-06,0.493817,0.00126665,0.0729777,0.0373037,-0.000310099,0.0147955,1.99251,8.91135e-05,0.005,1.76166,0.000330026,-0.00662008,-0.0861818,9.86432,-0.031557,1.38489,1.25843,-0.111211,5.74835,0.128094,6.3977,0.236637,0.217529,-0.789551,0.129909,0.0161133,0.169381,-0.600233,-0.108765,23.479,23.3655,23.1811,23.3371,23.2378,23.2946,23.1527,
29,6.27273,1.38652,3.1535,4.11791,6.27421,1.97558,1.55574,0.00194693,-0.0286303,-0.000191989,0.108039,0.000211959,0.0529391,-1.0582e-05,0.354004,-4.97244,-0.355275,2.47901,0.548123,-18.1418,0.734273,-0.00433467,-20,-0.404768,0.699399,-0.0405948,1.09758,0.00589708,-1.88668e-05,0.00185651,-7.40136e-06,0.493817,0.00126665,0.0729777,0.0373037,-0.000310099,0.0147955,1.99178,9.74972e-05,0.005,1.75903,0.000366837,-0.00881594,-0.0953714,10.7001,-0.030603,1.38489,1.25843,-0.111211,5.74835,0.128094,6.3977,0.236637,0.217529,-0.789551,0.129909,0.0161133,0.169381,-0.600233,-0.108765,23.479,23.3655,23.1811,23.3371,23.2378,23.2946,23.1527,
30,6.27273,1.38649,3.1535,4.11802,6.27421,1.97564,1.55574,0.00211967,-0.0345725,-0.000185703,0.11074,0.000211959,0.0528624,-1.059e-05,0.354041,-4.97103,-0.355404,2.47773,0.548201,-18.1391,0.734302,-0.00434058,-20,-0.404793,0.700213,-0.0405935,1.09748,0.00589751,-1.88668e-05,0.00185651,-7.40136e-06,0.493817,0.00126665,0.0729777,0.039341,-0.000361234,0.0170833,1.99178,9.74972e-05,0.005,1.75903,0.000366837,-0.00881594,-0.0953714,10.7001,-0.030603,1.26489,1.38206,-0.106099,5.81516,0.106724,6.34675,0.232114,0.217678,-0.846101,0.115354,-0.0180152,0.177292,-0.60022,-0.112793,23.479,23.3371,23.1669,23.3087,23.2236,23.2804,23.1527,
31,6.27273,1.38649,3.1535,4.11802,6.27421,1.97564,1.55574,0.00211967,-0.0345725,-0.000185703,0.11074,0.000211959,0.0528624,-1.059e-05,0.356414,-5.18476,-0.355272,2.31381,0.57157,-18.9838,0.750063,-0.00370919,-20,-0.407619,0.67098,-0.0405086,1.01247,0.00649105,-2.01284e-05,0.00205583,-7.406e-06,0.493817,0.00126665,0.0729777,0.039341,-0.000361234,0.0170833,1.991,0.000106247,0.005,1.7565,0.000420733,-0.0108749,-0.101112,11.4953,-0.0263075,1.26489,1.38206,-0.106099,5.81516,0.106724,6.34675,0.232114,0.217678,-0.846101,0.115354,-0.0180152,0.177292,-0.60022,-0.112793,23.479,23.3371,23.1669,23.3087,23.2236,23.2804,23.1527,
32,6.27273,1.38649,3.1535,4.11802,6.27421,1.97564,1.55574,0.00211967,-0.0345725,-0.000185703,0.11074,0.000211959,0.0528624,-1.059e-05,0.356414,-5.18476,-0.355272,2.31381,0.57157,-18.9838,0.750063,-0.00370919,-20,-0.407619,0.67098,-0.0405086,1.01247,0.00649105,-2.01284e-05,0.00205583,-7.406e-06,0.493817,0.00126665,0.0729777,0.039341,-0.000361234,0.0170833,1.991,0.000106247,0.005,1.7565,0.000420733,-0.0108749,-0.101112,11.4953,-0.0263075,1.26489,1.38206,-0.106099,5.81516,0.106724,6.34675,0.232114,0.217678,-0.846101,0.115354,-0.0180152,0.177292,-0.60022,-0.112793,23.479,23.3371,23.1669,23.3087,23.2236,23.2804,23.1527,
33,6.27273,1.38645,3.1535,4.11813,6.27421,1.97569,1.55574,0.00225214,-0.041595,-0.000185703,0.113711,0.000217094,0.0529391,-1.0582e-05,0.35645,-5.18321,-0.355407,2.31229,0.571638,-18.9807,0.750081,-0.00371569,-20,-0.407646,0.671723,-0.0405065,1.0124,0.00649138,-2.01284e-05,0.00205583,-7.406e-06,0.493817,0.00126665,0.0729777,0.0416848,-0.000391062,0.0198092,1.991,0.000106247,0.005,1.7565,0.000420733,-0.0108749,-0.101112,11.4953,-0.0263075,1.26379,1.58208,-0.0160436,5.86192,0.117955,6.26007,0.248902,0.225586,-0.870155,0.105046,-0.041081,0.177246,-0.58412,-0.112793,23.479,23.3655,23.1811,23.3229,23.2236,23.3087,23.1385,
34,6.27273,1.38645,3.1535,4.11813,6.27421,1.97569,1.55574,0.00225214,-0.041595,-0.000185703,0.113711,0.000217094,0.0529391,-1.0582e-05,0.359042,-5.4126,-0.355922,2.13584,0.594855,-19.8899,0.767953,-0.00302605,-20,-0.410725,0.640218,-0.0404281,0.920775,0.00723537,-2.16981e-05,0.00226113,-7.34134e-06,0.493817,0.00126665,0.0729777,0.0416848,-0.000391062,0.0198092,1.99018,0.000117856,0.005,1.75365,0.000458025,-0.0133283,-0.108332,12.3517,-0.0233728,1.26379,1.58208,-0.0160436,5.86192,0.117955,6.26007,0.248902,0.225586,-0.870155,0.105046,-0.041081,0.177246,-0.58412,-0.112793,23.479,23.3655,23.1811,23.3229,23.2236,23.3087,23.1385,
35,6.27273,1.3864,3.1535,4.11825,6.27421,1.97575,1.55574,0.00241591,-0.0488998,-0.000179378,0.116106,0.000227856,0.0540195,-1.0582e-05,0.359087,-5.41095,-0.356084,2.13416,0.594927,-19.8865,0.767965,-0.00303418,-20,-0.410754,0.641073,-0.0404264,0.920686,0.00723488,-2.16981e-05,0.00226113,-7.34134e-06,0.493817,0.00126665,0.0729777,0.043922,-0.00043349,0.0227657,1.99018,0.000117856,0.005,1.75365,0.000458025,-0.0133283,-0.108332,12.3517,-0.0233728,1.175,1.78749,0.0274927,5.89623,0.128749,6.17006,0.232732,0.233781,-0.862098,0.12085,-0.0649547,0.173265,-0.572036,-0.108765,23.4932,23.3513,23.1669,23.3087,23.2378,23.2804,23.1669,
36,6.27273,1.3864,3.1535,4.11825,6.27421,1.97575,1.55574,0.00241591,-0.0488998,-0.000179378,0.116106,0.000227856,0.0540195,-1.0582e-05,0.361967,-5.66316,-0.357289,1.94107,0.61877,-20.8857,0.78782,-0.00226783,-20,-0.414184,0.606685,-0.0403486,0.820104,0.00807687,-2.3688e-05,0.00248959,-7.90977e-06,0.493817,0.00126665,0.0729777,0.043922,-0.00043349,0.0227657,1.98925,0.000127428,0.005,1.75079,0.000504826,-0.0159891,-0.116513,13.2919,-0.0215857,1.175,1.78749,0.0274927,5.89623,0.128749,6.17006,0.232732,0.233781,-0.862098,0.12085,-0.0649547,0.173265,-0.572036,-0.108765,23.4932,23.3513,23.1669,23.3087,23.2378,23.2804,23.1669,
37,6.27274,1.38634,3.1535,4.11837,6.27421,1.9758,1.55574,0.00249105,-0.0550441,-0.000179372,0.120193,0.000227856,0.0529391,-1.0582e-05,0.361998,-5.66133,-0.357418,1.93961,0.618827,-20.8824,0.787819,-0.00227567,-20,-0.414216,0.60761,-0.0403459,0.820027,0.00807631,-2.3688e-05,0.00248959,-7.90977e-06,0.493817,0.00126665,0.0729777,0.0464007,-0.000442665,0.0250038,1.98925,0.000127428,0.005,1.75079,0.000504826,-0.0159891,-0.116513,13.2919,-0.0215857,1.17341,2.08929,0.0762398,5.86648,0.134272,6.08729,0.229551,0.22573,-0.862098,0.11308,-0.0889885,0.177429,-0.563979,-0.120917,23.479,23.3371,23.1811,23.3229,23.2236,23.2662,23.1385,
38,6.27274,1.38634,3.1535,4.11837,6.27421,1.9758,1.55574,0.00249105,-0.0550441,-0.000179372,0.120193,0.000227856,0.0529391,-1.0582e-05,0.364736,-5.89873,-0.359179,1.75653,0.639258,-21.8185,0.806855,-0.00154715,-20,-0.41749,0.574888,-0.0402891,0.72577,0.00892366,-2.56609e-05,0.0027146,-8.40784e-06,0.493817,0.00126665,0.0729777,0.0464007,-0.000442665,0.0250038,1.98833,0.000137142,0.005,1.74774,0.000521827,-0.0180035,-0.124757,14.1739,-0.0216104,1.17341,2.08929,0.0762398,5.86648,0.134272,6.08729,0.229551,0.22573,-0.862098,0.11308,-0.0889885,0.177429,-0.563979,-0.120917,23.479,23.3371,23.1811,23.3229,23.2236,23.2662,23.1385,
39,6.27274,1.38628,3.1535,4.11849,6.27421,1.97585,1.55574,0.00267156,-0.0599616,-0.000179372,0.121544,0.000238454,0.0550999,-1.05821e-05,0.364791,-5.89727,-0.359354,1.75508,0.639344,-21.8156,0.806897,-0.00155609,-20,-0.417516,0.575937,-0.0402864,0.72563,0.00892391,-2.56609e-05,0.0027146,-8.40784e-06,0.493817,0.00126665,0.0729777,0.0478303,-0.000495808,0.0271553,1.98833,0.000137142,0.005,1.74774,0.000521827,-0.0180035,-0.124757,14.1739,-0.0216104,1.09083,2.25405,0.10256,5.78578,0.130018,6.01824,0.214969,0.217678,-0.878211,0.112793,-0.153922,0.177246,-0.53981,-0.104814,23.479,23.3513,23.1669,23.3371,23.2236,23.2946,23.1385,
40,6.27274,1.38628,3.1535,4.11849,6.27421,1.97585,1.55574,0.00267156,-0.0599616,-0.000179372,0.121544,0.000238454,0.0550999,-1.05821e-05,0.367449,-6.13599,-0.359682,1.57414,0.664006,-22.7554,0.825466,-0.000848762,-20,-0.420709,0.543902,-0.0402022,0.631386,0.0096927,-2.76947e-05,0.00294772,-8.41722e-06,0.493817,0.00126665,0.0729777,0.0478303,-0.000495808,0.0271553,1.98739,0.000150728,0.005,1.7456,0.000581882,-0.0199398,-0.132228,15.0562,-0.0179708,1.09083,2.25405,0.10256,5.78578,0.130018,6.01824,0.214969,0.217678,-0.878211,0.112793,-0.153922,0.177246,-0.53981,-0.104814,23.479,23.3513,23.1669,23.3371,23.2236,23.2946,23.1385,
41,6.27274,1.38628,3.1535,4.11849,6.27421,1.97585,1.55574,0.00267156,-0.0599616,-0.000179372,0.121544,0.000238454,0.0550999,-1.05821e-05,0.367449,-6.13599,-0.359682,1.57414,0.664006,-22.7554,0.825466,-0.000848762,-20,-0.420709,0.543902,-0.0402022,0.631386,0.0096927,-2.76947e-05,0.00294772,-8.41722e-06,0.493817,0.00126665,0.0729777,0.0478303,-0.000495808,0.0271553,1.98739,0.000150728,0.005,1.7456,0.000581882,-0.0199398,-0.132228,15.0562,-0.0179708,1.09083,2.25405,0.10256,5.78578,0.130018,6.01824,0.214969,0.217678,-0.878211,0.112793,-0.153922,0.177246,-0.53981,-0.104814,23.479,23.3513,23.1669,23.3371,23.2236,23.2946,23.1385,
42,6.27274,1.38622,3.1535,4.11861,6.27421,1.97591,1.55574,0.00266627,-0.0632028,-0.000173873,0.12196,0.000243753,0.0546675,0,0.367477,-6.13427,-0.359779,1.57324,0.664081,-22.7528,0.825492,-0.00085752,-20,-0.420731,0.545334,-0.0401961,0.631151,0.00969288,-2.76947e-05,0.00294772,-8.41722e-06,0.493817,0.00126665,0.0729777,0.0486332,-0.000487632,0.0283894,1.98739,0.000150728,0.005,1.7456,0.000581882,-0.0199398,-0.132228,15.0562,-0.0179708,1.12936,2.48023,0.151015,5.77021,0.139815,5.93286,0.226748,0.217678,-0.926654,0.104736,-0.161133,0.173405,-0.547852,-0.100789,23.4932,23.3371,23.1811,23.3087,23.2236,23.2946,23.1527,
43,6.27274,1.38622,3.1535,4.11861,6.27421,1.97591,1.55574,0.00266627,-0.0632028,-0.000173873,0.12196,0.000243753,0.0546675,0,0.369804,-6.338,-0.361413,1.41959,0.680852,-23.5498,0.837784,-0.000238382,-20,-0.423553,0.518203,-0.040159,0.551467,0.0100276,-2.8623e-05,0.00318857,-8.54124e-06,0.493817,0.00126665,0.0729777,0.0486332,-0.000487632,0.0283894,1.98643,0.000160859,0.005,1.74402,0.000583642,-0.0210504,-0.135411,15.8032,-0.0185255,1.12936,2.48023,0.151015,5.77021,0.139815,5.93286,0.226748,0.217678,-0.926654,0.104736,-0.161133,0.173405,-0.547852,-0.100789,23.4932,23.3371,23.1811,23.3087,23.2236,23.2946,23.1527,
44,6.27275,1.38615,3.1535,4.11861,6.27422,1.97597,1.55574,0.00272065,-0.0679583,-0.000157314,0.12196,0.000264949,0.0550441,0,0.369839,-6.33728,-0.361527,1.41871,0.680878,-23.5482,0.83782,-0.000243553,-20,-0.423559,0.5183,-0.0401563,0.55141,0.0100274,-2.8623e-05,0.00318857,-8.54124e-06,0.493817,0.00126665,0.0729777,0.0496368,-0.000500774,0.0303086,1.98643,0.000160859,0.005,1.74402,0.000583642,-0.0210504,-0.135411,15.8032,-0.0185255,1.0354,2.66517,0.184434,5.77021,0.157112,5.83461,0.219533,0.234198,-0.966797,0.0970148,-0.161133,0.177429,-0.543883,-0.0966797,23.479,23.3371,23.1669,23.3087,23.2236,23.3087,23.1385,
45,6.27275,1.38615,3.1535,4.11861,6.27422,1.97597,1.55574,0.00272065,-0.0679583,-0.000157314,0.12196,0.000264949,0.0550441,0,0.371361,-6.46953,-0.362277,1.31845,0.693096,-24.0751,0.849511,0.000161305,-20,-0.425366,0.500552,-0.0401173,0.498386,0.010597,-3.02254e-05,0.0033149,-8.65809e-06,0.493817,0.00126665,0.0729777,0.0496368,-0.000500774,0.0303086,1.98612,0.000172787,0.005,1.74284,0.000606204,-0.0227778,-0.140971,16.2983,-0.0178701,1.0354,2.66517,0.184434,5.77021,0.157112,5.83461,0.219533,0.234198,-0.966797,0.0970148,-0.161133,0.177429,-0.543883,-0.0966797,23.479,23.3371,23.1669,23.3087,23.2236,23.3087,23.1385,
46,6.27275,1.38607,3.1535,4.11874,6.27422,1.97602,1.55574,0.00275515,-0.0745469,-0.000157314,0.123629,0.000286145,0.0550999,0,0.371393,-6.46746,-0.362412,1.31676,0.693146,-24.0713,0.849473,0.000151054,-20,-0.425396,0.501656,-0.0401134,0.498245,0.0105943,-3.02254e-05,0.0033149,-8.65809e-06,0.493817,0.00126665,0.0729777,0.0515094,-0.000494362,0.0328932,1.98612,0.000172787,0.005,1.74284,0.000606204,-0.0227778,-0.140971,16.2983,-0.0178701,1.04721,2.9538,0.203968,5.66955,0.178124,5.70551,0.225642,0.225586,-0.982943,0.11308,-0.153076,0.169237,-0.531754,-0.100789,23.479,23.3513,23.1811,23.2946,23.2094,23.2804,23.1669,
47,6.27275,1.38607,3.1535,4.11874,6.27422,1.97602,1.55574,0.00275515,-0.0745469,-0.000157314,0.123629,0.000286145,0.0550999,0,0.374441,-6.72292,-0.366206,1.12176,0.709859,-25.0802,0.870873,0.000961914,-20,-0.429056,0.467009,-0.0400846,0.396852,0.0116201,-3.29274e-05,0.00357384,-1.03102e-05,0.493817,0.00126665,0.0729777,0.0515094,-0.000494362,0.0328932,1.98505,0.000178981,0.005,1.74019,0.000606008,-0.0251038,-0.150972,17.2468,-0.0224837,1.04721,2.9538,0.203968,5.66955,0.178124,5.70551,0.225642,0.225586,-0.982943,0.11308,-0.153076,0.169237,-0.531754,-0.100789,23.479,23.3513,23.1811,23.2946,23.2094,23.2804,23.1669,
48,6.27275,1.38607,3.1535,4.11874,6.27422,1.97602,1.55574,0.00275515,-0.0745469,-0.000157314,0.123629,0.000286145,0.0550999,0,0.374441,-6.72292,-0.366206,1.12176,0.709859,-25.0802,0.870873,0.000961914,-20,-0.429056,0.467009,-0.0400846,0.396852,0.0116201,-3.29274e-05,0.00357384,-1.03102e-05,0.493817,0.00126665,0.0729777,0.0515094,-0.000494362,0.0328932,1.98505,0.000178981,0.005,1.74019,0.000606008,-0.0251038,-0.150972,17.2468,-0.0224837,1.04721,2.9538,0.203968,5.66955,0.178124,5.70551,0.225642,0.225586,-0.982943,0.11308,-0.153076,0.169237,-0.531754,-0.100789,23.479,23.3513,23.1811,23.2946,23.2094,23.2804,23.1669,
49,6.27275,1.38599,3.1535,4.11886,6.27422,1.97608,1.55574,0.00275469,-0.0818395,-0.000152631,0.122084,0.000302042,0.0546675,0,0.374468,-6.72077,-0.366319,1.12026,0.709911,-25.0765,0.87085,0.000951291,-20,-0.429075,0.468134,-0.0400794,0.396634,0.0116186,-3.29274e-05,0.00357384,-1.03102e-05,0.493817,0.00126665,0.0729777,0.0526019,-0.000482186,0.0357654,1.98505,0.000178981,0.005,1.74019,0.000606008,-0.0251038,-0.150972,17.2468,-0.0224837,0.985216,3.14508,0.226711,5.55547,0.17889,5.58926,0.208909,0.217529,-0.942661,0.104736,-0.161334,0.173639,-0.523697,-0.0966797,23.4506,23.3655,23.1811,23.3087,23.2094,23.2946,23.1385,
50,6.27275,1.38599,3.1535,4.11886,6.27422,1.97608,1.55574,0.00275469,-0.0818395,-0.000152631,0.122084,0.000302042,0.0546675,0,0.37719,-6.9514,-0.369066,0.945795,0.726822,-25.9915,0.889815,0.00167518,-20,-0.432331,0.437293,-0.0400449,0.304716,0.0125021,-3.54006e-05,0.00383292,-1.14052e-05,0.493817,0.00126665,0.0729777,0.0526019,-0.000482186,0.0357654,1.98402,0.000186248,0.005,1.73827,0.000601591,-0.0276889,-0.159575,18.1057,-0.02512,0.985216,3.14508,0.226711,5.55547,0.17889,5.58926,0.208909,0.217529,-0.942661,0.104736,-0.161334,0.173639,-0.523697,-0.0966797,23.4506,23.3655,23.1811,23.3087,23.2094,23.2946,23.1385,
51,6.27275,1.38591,3.1535,4.11898,6.27422,1.97613,1.55574,0.00275561,-0.0860738,-0.000152631,0.122084,0.00031264,0.0550999,0,0.377223,-6.94954,-0.369184,0.944597,0.726891,-25.9884,0.889826,0.00166376,-20,-0.432352,0.438717,-0.0400386,0.304485,0.0125014,-3.54006e-05,0.00383292,-1.14052e-05,0.493817,0.00126665,0.0729777,0.0534932,-0.000471773,0.0374939,1.98402,0.000186248,0.005,1.73827,0.000601591,-0.0276889,-0.159575,18.1057,-0.02512,1.02985,3.43607,0.230264,5.42131,0.193365,5.48664,0.226685,0.201416,-0.910721,0.105046,-0.104736,0.177246,-0.511597,-0.0927389,23.479,23.3371,23.1669,23.3087,23.2094,23.2662,23.1385,
52,6.27275,1.38591,3.1535,4.11898,6.27422,1.97613,1.55574,0.00275561,-0.0860738,-0.000152631,0.122084,0.00031264,0.0550999,0,0.379872,-7.17792,-0.371586,0.772265,0.744225,-26.8849,0.907656,0.00236831,-20,-0.435557,0.408305,-0.0400045,0.214753,0.0132875,-3.77044e-05,0.0040924,-1.19528e-05,0.493817,0.00126665,0.0729777,0.0534932,-0.000471773,0.0374939,1.98296,0.000194494,0.005,1.73652,0.000599641,-0.0292445,-0.16722,18.9463,-0.0270557,1.02985,3.43607,0.230264,5.42131,0.193365,5.48664,0.226685,0.201416,-0.910721,0.105046,-0.104736,0.177246,-0.511597,-0.0927389,23.479,23.3371,23.1669,23.3087,23.2094,23.2662,23.1385,
53,6.27276,1.38581,3.1535,4.11911,6.27422,1.97619,1.55574,0.0027202,-0.0892736,-0.000147893,0.121873,0.000338878,0.0550999,0,0.379902,-7.17592,-0.3717,0.771285,0.744273,-26.8819,0.907631,0.00235581,-20,-0.43558,0.410083,-0.0399963,0.214464,0.0132849,-3.77044e-05,0.0040924,-1.19528e-05,0.493817,0.00126665,0.0729777,0.054104,-0.000450312,0.0387736,1.98296,0.000194494,0.005,1.73652,0.000599641,-0.0292445,-0.16722,18.9463,-0.0270557,0.94416,3.68909,0.243378,5.23032,0.209661,5.35896,0.215744,0.209628,-0.910543,0.11308,-0.072956,0.181453,-0.511613,-0.093001,23.479,23.3513,23.1669,23.2946,23.2236,23.2946,23.1385,
54,6.27276,1.38581,3.1535,4.11911,6.27422,1.97619,1.55574,0.0027202,-0.0892736,-0.000147893,0.121873,0.000338878,0.0550999,0,0.382645,-7.40559,-0.375797,0.598562,0.757006,-27.7797,0.927168,0.00308549,-20,-0.438924,0.379656,-0.03999,0.124787,0.0142585,-4.08195e-05,0.00437064,-1.35385e-05,0.493817,0.00126665,0.0729777,0.054104,-0.000450312,0.0387736,1.98181,0.000203021,0.005,1.73494,0.000588,-0.0303963,-0.176722,19.7872,-0.0330161,0.94416,3.68909,0.243378,5.23032,0.209661,5.35896,0.215744,0.209628,-0.910543,0.11308,-0.072956,0.181453,-0.511613,-0.093001,23.479,23.3513,23.1669,23.2946,23.2236,23.2946,23.1385,
55,6.27276,1.38572,3.1535,4.11923,6.27423,1.97624,1.55574,0.00272065,-0.0926434,-0.000147897,0.121544,0.000370929,0.0561803,0,0.382681,-7.4038,-0.37592,0.597395,0.757055,-27.7767,0.927122,0.00307352,-20,-0.438946,0.381208,-0.0399836,0.124528,0.014254,-4.08195e-05,0.00437064,-1.35385e-05,0.493817,0.00126665,0.0729777,0.0547165,-0.000439218,0.0402368,1.98181,0.000203021,0.005,1.73494,0.000588,-0.0303963,-0.176722,19.7872,-0.0330161,0.98806,3.98877,0.229886,5.08028,0.217959,5.20841,0.219538,0.225586,-0.950718,0.11308,-0.0664368,0.181319,-0.50354,-0.0927389,23.479,23.3513,23.1669,23.3229,23.2236,23.2946,23.1527,
56,6.27276,1.38572,3.1535,4.11923,6.27423,1.97624,1.55574,0.00272065,-0.0926434,-0.000147897,0.121544,0.000370929,0.0561803,0,0.38548,-7.6336,-0.380935,0.424745,0.767454,-28.6766,0.947137,0.00381795,-20,-0.442356,0.350813,-0.0399879,0.0346073,0.0152785,-4.4033e-05,0.00463702,-1.60494e-05,0.493817,0.00126665,0.0729777,0.0547165,-0.000439218,0.0402368,1.98073,0.00020684,0.005,1.73342,0.000581452,-0.0317131,-0.186728,20.6301,-0.0410374,0.98806,3.98877,0.229886,5.08028,0.217959,5.20841,0.219538,0.225586,-0.950718,0.11308,-0.0664368,0.181319,-0.50354,-0.0927389,23.479,23.3513,23.1669,23.3229,23.2236,23.2946,23.1527,
57,6.27276,1.38563,3.1535,4.11935,6.27423,1.9763,1.55574,0.00284402,-0.0988557,-0.000143754,0.12223,0.00043424,0.0550999,1.0574e-05,0.385522,-7.63126,-0.381114,0.423244,0.767479,-28.6728,0.947072,0.00380558,-20,-0.442381,0.352078,-0.0399849,0.034414,0.0152743,-4.4033e-05,0.00463702,-1.60494e-05,0.493817,0.00126665,0.0729777,0.0562226,-0.000469866,0.042575,1.98073,0.00020684,0.005,1.73342,0.000581452,-0.0317131,-0.186728,20.6301,-0.0410374,0.985008,4.18494,0.215685,4.94465,0.213342,5.08606,0.206171,0.22573,-0.959045,0.12085,-0.0483398,0.181453,-0.507568,-0.0846906,23.479,23.3513,23.1811,23.3087,23.2236,23.2946,23.1527,
58,6.27276,1.38563,3.1535,4.11935,6.27423,1.9763,1.55574,0.00284402,-0.0988557,-0.000143754,0.12223,0.00043424,0.0550999,1.0574e-05,0.388449,-7.87655,-0.384877,0.236358,0.783503,-29.6402,0.967434,0.00458417,-20,-0.445906,0.318954,-0.0399512,-0.0627434,0.0162288,-4.6593e-05,0.00490912,-1.85136e-05,0.493817,0.00126665,0.0729777,0.0562226,-0.000469866,0.042575,1.97962,0.00021357,0.005,1.73106,0.000615092,-0.0338175,-0.196035,21.5392,-0.04545,0.985008,4.18494,0.215685,4.94465,0.213342,5.08606,0.206171,0.22573,-0.959045,0.12085,-0.0483398,0.181453,-0.507568,-0.0846906,23.479,23.3513,23.1811,23.3087,23.2236,23.2946,23.1527,
59,6.27277,1.38552,3.1535,4.11948,6.27424,1.97635,1.55574,0.0029329,-0.103717,-0.000144065,0.125133,0.000570185,0.053614,1.0582e-05,0.388477,-7.87401,-0.385055,0.234827,0.783497,-29.6362,0.967307,0.00457121,-20,-0.44594,0.320454,-0.0399463,-0.0629276,0.0162217,-4.6593e-05,0.00490912,-1.85136e-05,0.493817,0.00126665,0.0729777,0.0580825,-0.000477449,0.0442972,1.97962,0.00021357,0.005,1.73106,0.000615092,-0.0338175,-0.196035,21.5392,-0.04545,0.978963,4.46324,0.194191,4.74191,0.205321,4.97313,0.224821,0.217678,-0.910436,0.121118,-0.0483398,0.169237,-0.491472,-0.0845947,23.479,23.3513,23.1669,23.3087,23.2236,23.2804,23.1385,
60,6.27277,1.38552,3.1535,4.11948,6.27424,1.97635,1.55574,0.0029329,-0.103717,-0.000144065,0.125133,0.000570185,0.053614,1.0582e-05,0.391774,-8.13929,-0.391786,0.0319424,0.793332,-30.676,0.993715,0.00544803,-20,-0.449943,0.28442,-0.0399554,-0.167248,0.0177338,-5.06621e-05,0.00520144,-2.21381e-05,0.493817,0.00126665,0.0729777,0.0580825,-0.000477449,0.0442972,1.97842,0.000217387,0.005,1.72831,0.000625353,-0.0353675,-0.210853,22.5168,-0.0566469,0.978963,4.46324,0.194191,4.74191,0.205321,4.97313,0.224821,0.217678,-0.910436,0.121118,-0.0483398,0.169237,-0.491472,-0.0845947,23.479,23.3513,23.1669,23.3087,23.2236,23.2804,23.1385,
61,6.27277,1.38552,3.1535,4.11948,6.27424,1.97635,1.55574,0.0029329,-0.103717,-0.000144065,0.125133,0.000570185,0.053614,1.0582e-05,0.391774,-8.13929,-0.391786,0.0319424,0.793332,-30.676,0.993715,0.00544803,-20,-0.449943,0.28442,-0.0399554,-0.167248,0.0177338,-5.06621e-05,0.00520144,-2.21381e-05,0.493817,0.00126665,0.0729777,0.0580825,-0.000477449,0.0442972,1.97842,0.000217387,0.005,1.72831,0.000625353,-0.0353675,-0.210853,22.5168,-0.0566469,0.978963,4.46324,0.194191,4.74191,0.205321,4.97313,0.224821,0.217678,-0.910436,0.121118,-0.0483398,0.169237,-0.491472,-0.0845947,23.479,23.3513,23.1669,23.3087,23.2236,23.2804,23.1385,
62,6.27277,1.38541,3.1535,4.11961,6.27424,1.9764,1.55574,0.00303882,-0.107329,-0.000139837,0.124245,0.000833173,0.0502381,1.0582e-05,0.391793,-8.1367,-0.391957,0.0314296,0.793268,-30.6729,0.993529,0.00543409,-20,-0.449963,0.28648,-0.0399483,-0.167597,0.017724,-5.06621e-05,0.00520144,-2.21381e-05,0.493817,0.00126665,0.0729777,0.058582,-0.000494692,0.0453969,1.97842,0.000217387,0.005,1.72831,0.000625353,-0.0353675,-0.210853,22.5168,-0.0566469,0.91022,4.64108,0.186016,4.49113,0.222687,4.83007,0.224204,0.209628,-0.878322,0.11308,-0.088623,0.177292,-0.479438,-0.093001,23.4648,23.3513,23.1811,23.3087,23.2094,23.2804,23.1385,
63,6.27277,1.38541,3.1535,4.11961,6.27424,1.9764,1.55574,0.00303882,-0.107329,-0.000139837,0.124245,0.000833173,0.0502381,1.0582e-05,0.394487,-8.34177,-0.400038,-0.123314,0.793172,-31.4748,1.01895,0.00615046,-20,-0.453263,0.259179,-0.0399957,-0.247753,0.0194194,-5.53993e-05,0.00548709,-2.69886e-05,0.493817,0.00126665,0.0729777,0.058582,-0.000494692,0.0453969,1.97723,0.000218297,0.005,1.72679,0.000641691,-0.0363572,-0.227522,23.2684,-0.0719236,0.91022,4.64108,0.186016,4.49113,0.222687,4.83007,0.224204,0.209628,-0.878322,0.11308,-0.088623,0.177292,-0.479438,-0.093001,23.4648,23.3513,23.1811,23.3087,23.2094,23.2804,23.1385,
64,6.27277,1.3853,3.1535,4.11973,6.27425,1.97645,1.55574,0.00319196,-0.111167,-0.000139833,0.122084,0.00142232,0.0472671,1.85186e-05,0.394473,-8.33929,-0.400237,-0.123767,0.793014,-31.4719,1.01864,0.00613805,-20,-0.453287,0.261198,-0.0399845,-0.24812,0.0194064,-5.53993e-05,0.00548709,-2.69886e-05,0.493817,0.00126665,0.0729777,0.0587622,-0.0004993,0.0466522,1.97723,0.000218297,0.005,1.72679,0.000641691,-0.0363572,-0.227522,23.2684,-0.0719236,0.946507,4.87521,0.19693,4.29459,0.241504,4.65015,0.21703,0.201416,-0.910543,0.12085,-0.0664368,0.169189,-0.435077,-0.088623,23.4648,23.3371,23.1669,23.3087,23.2236,23.2946,23.1243,
65,6.27277,1.3853,3.1535,4.11973,6.27425,1.97645,1.55574,0.00319196,-0.111167,-0.000139833,0.122084,0.00142232,0.0472671,1.85186e-05,0.39729,-8.5321,-0.412947,-0.268467,0.779259,-32.2282,1.04628,0.00688729,-20,-0.456752,0.235719,-0.0401016,-0.323695,0.021418,-5.99905e-05,0.00576378,-3.3197e-05,0.493817,0.00126665,0.0729777,0.0587622,-0.0004993,0.0466522,1.97607,0.000219635,0.005,1.72558,0.000647041,-0.037487,-0.247308,23.9764,-0.098198,0.946507,4.87521,0.19693,4.29459,0.241504,4.65015,0.21703,0.201416,-0.910543,0.12085,-0.0664368,0.169189,-0.435077,-0.088623,23.4648,23.3371,23.1669,23.3087,23.2236,23.2946,23.1243,
66,6.27277,1.3853,3.1535,4.11973,6.27425,1.97645,1.55574,0.00319196,-0.111167,-0.000139833,0.122084,0.00142232,0.0472671,1.85186e-05,0.39729,-8.5321,-0.412947,-0.268467,0.779259,-32.2282,1.04628,0.00688729,-20,-0.456752,0.235719,-0.0401016,-0.323695,0.021418,-5.99905e-05,0.00576378,-3.3197e-05,0.493817,0.00126665,0.0729777,0.0587622,-0.0004993,0.0466522,1.97607,0.000219635,0.005,1.72558,0.000647041,-0.037487,-0.247308,23.9764,-0.098198,0.946507,4.87521,0.19693,4.29459,0.241504,4.65015,0.21703,0.201416,-0.910543,0.12085,-0.0664368,0.169189,-0.435077,-0.088623,23.4648,23.3371,23.1669,23.3087,23.2236,23.2946,23.1243,
67,6.27278,1.38519,3.1535,4.11985,6.27426,1.97649,1.55574,0.0032977,-0.113981,-0.000132474,0.119653,0.00229621,0.0464568,1.85605e-05,0.397241,-8.53001,-0.413141,-0.269033,0.779006,-32.2256,1.04579,0.00687555,-20,-0.456784,0.237763,-0.0400857,-0.324067,0.0213965,-5.99905e-05,0.00576378,-3.3197e-05,0.493817,0.00126665,0.0729777,0.0586477,-0.000458881,0.0477363,1.97607,0.000219635,0.005,1.72558,0.000647041,-0.037487,-0.247308,23.9764,-0.098198,0.906168,5.07776,0.163629,4.04654,0.274501,4.49813,0.213943,0.201416,-0.918492,0.121118,-0.0180152,0.169237,-0.398824,-0.0849775,23.4648,23.3513,23.1669,23.3087,23.2094,23.2662,23.1243,
68,6.27278,1.38519,3.1535,4.11985,6.27426,1.97649,1.55574,0.0032977,-0.113981,-0.000132474,0.119653,0.00229621,0.0464568,1.85605e-05,0.40058,-8.72991,-0.434053,-0.417926,0.743591,-33.0086,1.08193,0.00776363,-20,-0.460926,0.211612,-0.040328,-0.40214,0.0243197,-6.67925e-05,0.00603963,-4.2823e-05,0.493817,0.00126665,0.0729777,0.0586477,-0.000458881,0.0477363,1.97492,0.000210575,0.005,1.72464,0.00060251,-0.0384626,-0.276079,24.708,-0.14382,0.906168,5.07776,0.163629,4.04654,0.274501,4.49813,0.213943,0.201416,-0.918492,0.121118,-0.0180152,0.169237,-0.398824,-0.0849775,23.4648,23.3513,23.1669,23.3087,23.2094,23.2662,23.1243,
69,6.27278,1.38519,3.1535,4.11985,6.27426,1.97649,1.55574,0.0032977,-0.113981,-0.000132474,0.119653,0.00229621,0.0464568,1.85605e-05,0.40058,-8.72991,-0.434053,-0.417926,0.743591,-33.0086,1.08193,0.00776363,-20,-0.460926,0.211612,-0.040328,-0.40214,0.0243197,-6.67925e-05,0.00603963,-4.2823e-05,0.493817,0.00126665,0.0729777,0.0586477,-0.000458881,0.0477363,1.97492,0.000210575,0.005,1.72464,0.00060251,-0.0384626,-0.276079,24.708,-0.14382,0.906168,5.07776,0.163629,4.04654,0.274501,4.49813,0.213943,0.201416,-0.918492,0.121118,-0.0180152,0.169237,-0.398824,-0.0849775,23.4648,23.3513,23.1669,23.3087,23.2094,23.2662,23.1243,
70,6.27278,1.38519,3.1535,4.11985,6.27426,1.97649,1.55574,0.0032977,-0.113981,-0.000132474,0.119653,0.00229621,0.0464568,1.85605e-05,0.40058,-8.72991,-0.434053,-0.417926,0.743591,-33.0086,1.08193,0.00776363,-20,-0.460926,0.211612,-0.040328,-0.40214,0.0243197,-6.67925e-05,0.00603963,-4.2823e-05,0.493817,0.00126665,0.0729777,0.0586477,-0.000458881,0.0477363,1.97492,0.000210575,0.005,1.72464,0.00060251,-0.0384626,-0.276079,24.708,-0.14382,0.906168,5.07776,0.163629,4.04654,0.274501,4.49813,0.213943,0.201416,-0.918492,0.121118,-0.0180152,0.169237,-0.398824,-0.0849775,23.4648,23.3513,23.1669,23.3087,23.2094,23.2662,23.1243,
71,6.27278,1.38507,3.1535,4.11996,6.27428,1.97654,1.55574,0.0032977,-0.113711,-0.000139833,0.116412,0.00443269,0.0453764,1.85462e-05,0.400378,-8.72805,-0.434242,-0.417837,0.743013,-33.0068,1.08104,0.00775901,-20,-0.460979,0.214172,-0.0402892,-0.402612,0.0242881,-6.67925e-05,0.00603963,-4.2823e-05,0.493817,0.00126665,0.0729777,0.057647,-0.000258648,0.0475863,1.97492,0.000210575,0.005,1.72464,0.00060251,-0.0384626,-0.276079,24.708,-0.14382,0.986061,5.36512,0.124692,3.80776,0.267506,4.37001,0.209988,0.193359,-0.926829,0.12085,0.0332184,0.161133,-0.398824,-0.088623,23.4648,23.3229,23.1811,23.2804,23.2094,23.2662,23.1527,
72,6.27278,1.38507,3.1535,4.11996,6.27428,1.97654,1.55574,0.0032977,-0.113711,-0.000139833,0.116412,0.00443269,0.0453764,1.85462e-05,0.404406,-8.89304,-0.475091,-0.538215,0.64913,-33.6465,1.13298,0.00883014,-20,-0.466074,0.193127,-0.0408605,-0.465889,0.0291859,-7.55216e-05,0.00631102,-5.63544e-05,0.493817,0.00126665,0.0729777,0.057647,-0.000258648,0.0475863,1.97378,0.000191915,0.005,1.72452,0.000405506,-0.0383277,-0.3243,25.3021,-0.237621,0.986061,5.36512,0.124692,3.80776,0.267506,4.37001,0.209988,0.193359,-0.926829,0.12085,0.0332184,0.161133,-0.398824,-0.088623,23.4648,23.3229,23.1811,23.2804,23.2094,23.2662,23.1527,
73,6.27278,1.38495,3.1535,4.12008,6.2743,1.97658,1.55574,0.00319133,-0.113347,-0.000135846,0.113598,0.0101921,0.0420895,1.85462e-05,0.403748,-8.89077,-0.475349,-0.537831,0.647699,-33.6447,1.13108,0.00883287,-20,-0.466188,0.195963,-0.0407643,-0.466397,0.0291413,-7.55216e-05,0.00631102,-5.63544e-05,0.493817,0.00126665,0.0729777,0.0567482,0.000330189,0.0471533,1.97378,0.000191915,0.005,1.72452,0.000405506,-0.0383277,-0.3243,25.3021,-0.237621,0.926734,5.55727,0.108235,3.56391,0.266064,4.20823,0.21744,0.201577,-1.00711,0.11308,0.0980133,0.140991,-0.38269,-0.0765381,23.4506,23.3513,23.1669,23.2946,23.2094,23.2804,23.1385,
74,6.27278,1.38495,3.1535,4.12008,6.2743,1.97658,1.55574,0.00319133,-0.113347,-0.000135846,0.113598,0.0101921,0.0420895,1.85462e-05,0.410386,-9.04963,-0.56463,-0.653693,0.42078,-34.264,1.2255,0.010598,-20,-0.474637,0.175413,-0.0420947,-0.527671,0.0388675,-8.60285e-05,0.00659633,-7.48362e-05,0.493817,0.00126665,0.0729777,0.0567482,0.000330189,0.0471533,1.97258,0.00016061,0.005,1.72425,-0.000152622,-0.037938,-0.419999,25.8761,-0.446898,0.926734,5.55727,0.108235,3.56391,0.266064,4.20823,0.21744,0.201577,-1.00711,0.11308,0.0980133,0.140991,-0.38269,-0.0765381,23.4506,23.3513,23.1669,23.2946,23.2094,23.2804,23.1385,
75,6.27278,1.38495,3.1535,4.12008,6.2743,1.97658,1.55574,0.00319133,-0.113347,-0.000135846,0.113598,0.0101921,0.0420895,1.85462e-05,0.410386,-9.04963,-0.56463,-0.653693,0.42078,-34.264,1.2255,0.010598,-20,-0.474637,0.175413,-0.0420947,-0.527671,0.0388675,-8.60285e-05,0.00659633,-7.48362e-05,0.493817,0.00126665,0.0729777,0.0567482,0.000330189,0.0471533,1.97258,0.00016061,0.005,1.72425,-0.000152622,-0.037938,-0.419999,25.8761,-0.446898,0.926734,5.55727,0.108235,3.56391,0.266064,4.20823,0.21744,0.201577,-1.00711,0.11308,0.0980133,0.140991,-0.38269,-0.0765381,23.4506,23.3513,23.1669,23.2946,23.2094,23.2804,23.1385,
76,6.27278,1.38484,3.1535,4.12019,6.27432,1.97662,1.55574,0.00308495,-0.114521,-0.000136124,0.113596,0.0196621,0.0383538,1.85464e-05,0.409302,-9.04722,-0.565074,-0.653739,0.418476,-34.2617,1.22266,0.0106192,-20,-0.474823,0.177704,-0.0419387,-0.528039,0.0388194,-8.60285e-05,0.00659633,-7.48362e-05,0.493817,0.00126665,0.0729777,0.0569856,0.00129005,0.0472228,1.97258,0.00016061,0.005,1.72425,-0.000152622,-0.037938,-0.419999,25.8761,-0.446898,0.9633,5.83263,0.0884825,3.35926,0.246563,4.02208,0.198176,0.209473,-1.06351,0.11308,0.153076,0.0967636,-0.346459,-0.0805664,23.4648,23.3371,23.1811,23.2804,23.2236,23.2662,23.1243,
77,6.27278,1.38484,3.1535,4.12019,6.27432,1.97662,1.55574,0.00308495,-0.114521,-0.000136124,0.113596,0.0196621,0.0383538,1.85464e-05,0.418611,-9.21807,-0.699821,-0.781123,0.068748,-34.9373,1.36181,0.0130944,-20,-0.486654,0.154626,-0.0439716,-0.59541,0.0534815,-9.77579e-05,0.0068591,-9.5167e-05,0.493817,0.00126665,0.0729777,0.0569856,0.00129005,0.0472228,1.97145,0.000123079,0.005,1.72302,-0.00105028,-0.0380005,-0.564202,26.5048,-0.764252,0.9633,5.83263,0.0884825,3.35926,0.246563,4.02208,0.198176,0.209473,-1.06351,0.11308,0.153076,0.0967636,-0.346459,-0.0805664,23.4648,23.3371,23.1811,23.2804,23.2236,23.2662,23.1243,
78,6.27278,1.38484,3.1535,4.12019,6.27432,1.97662,1.55574,0.00308495,-0.114521,-0.000136124,0.113596,0.0196621,0.0383538,1.85464e-05,0.418611,-9.21807,-0.699821,-0.781123,0.068748,-34.9373,1.36181,0.0130944,-20,-0.486654,0.154626,-0.0439716,-0.59541,0.0534815,-9.77579e-05,0.0068591,-9.5167e-05,0.493817,0.00126665,0.0729777,0.0569856,0.00129005,0.0472228,1.97145,0.000123079,0.005,1.72302,-0.00105028,-0.0380005,-0.564202,26.5048,-0.764252,0.9633,5.83263,0.0884825,3.35926,0.246563,4.02208,0.198176,0.209473,-1.06351,0.11308,0.153076,0.0967636,-0.346459,-0.0805664,23.4648,23.3371,23.1811,23.2804,23.2236,23.2662,23.1243,
79,6.27279,1.38473,3.1535,4.12031,6.27434,1.97666,1.55574,0.00276582,-0.117763,-0.000146565,0.114251,0.022148,0.0367333,2.65149e-05,0.418292,-9.21575,-0.699891,-0.78194,0.0679624,-34.9342,1.36047,0.0130954,-20,-0.486739,0.156449,-0.0439229,-0.595678,0.0534459,-9.77579e-05,0.0068591,-9.5167e-05,0.493817,0.00126665,0.0729777,0.0578513,0.00166658,0.0483312,1.97145,0.000123079,0.005,1.72302,-0.00105028,-0.0380005,-0.564202,26.5048,-0.764252,0.870367,6.03934,0.0397428,3.21478,0.23958,3.85761,0.200704,0.20206,-1.10402,0.11308,0.153076,0.00569691,-0.294095,-0.076961,23.4648,23.3087,23.1385,23.3087,23.2094,23.2804,23.1385,
80,6.27279,1.38473,3.1535,4.12031,6.27434,1.97666,1.55574,0.00276582,-0.117763,-0.000146565,0.114251,0.022148,0.0367333,2.65149e-05,0.423758,-9.42778,-0.75661,-0.942436,-0.0646278,-35.7689,1.42333,0.0145487,-20,-0.493583,0.127842,-0.0447353,-0.679246,0.0594178,-0.000108164,0.00712375,-0.000115038,0.493817,0.00126665,0.0729777,0.0578513,0.00166658,0.0483312,1.97031,8.33161e-05,0.005,1.72121,-0.00142494,-0.0389981,-0.622857,27.2865,-0.895575,0.870367,6.03934,0.0397428,3.21478,0.23958,3.85761,0.200704,0.20206,-1.10402,0.11308,0.153076,0.00569691,-0.294095,-0.076961,23.4648,23.3087,23.1385,23.3087,23.2094,23.2804,23.1385,
81,6.27279,1.38473,3.1535,4.12031,6.27434,1.97666,1.55574,0.00276582,-0.117763,-0.000146565,0.114251,0.022148,0.0367333,2.65149e-05,0.423758,-9.42778,-0.75661,-0.942436,-0.0646278,-35.7689,1.42333,0.0145487,-20,-0.493583,0.127842,-0.0447353,-0.679246,0.0594178,-0.000108164,0.00712375,-0.000115038,0.493817,0.00126665,0.0729777,0.0578513,0.00166658,0.0483312,1.97031,8.33161e-05,0.005,1.72121,-0.00142494,-0.0389981,-0.622857,27.2865,-0.895575,0.870367,6.03934,0.0397428,3.21478,0.23958,3.85761,0.200704,0.20206,-1.10402,0.11308,0.153076,0.00569691,-0.294095,-0.076961,23.4648,23.3087,23.1385,23.3087,23.2094,23.2804,23.1385,
82,6.27279,1.38461,3.1535,4.12042,6.27436,1.97669,1.55574,0.00276582,-0.12196,-0.00015648,0.113171,0.0156657,0.0348568,2.64949e-05,0.424585,-9.42543,-0.756422,-0.943182,-0.0632398,-35.7658,1.4244,0.0145198,-20,-0.493501,0.129688,-0.0448409,-0.679538,0.0594096,-0.000108164,0.00712375,-0.000115038,0.493817,0.00126665,0.0729777,0.0584205,0.00104196,0.0498349,1.97031,8.33161e-05,0.005,1.72121,-0.00142494,-0.0389981,-0.622857,27.2865,-0.895575,0.926757,6.27501,0.00573413,3.06146,0.21439,3.7132,0.189272,0.209628,-1.08768,0.104736,0.121919,-0.0281982,-0.277954,-0.0725098,23.479,23.3229,23.1669,23.2946,23.2094,23.2662,23.1385,
83,6.27279,1.38461,3.1535,4.12042,6.27436,1.97669,1.55574,0.00276582,-0.12196,-0.00015648,0.113171,0.0156657,0.0348568,2.64949e-05,0.423622,-9.63467,-0.697451,-1.10223,0.120717,-36.5797,1.38809,0.0142636,-20,-0.492102,0.101987,-0.0438298,-0.760999,0.0541329,-0.000116985,0.00739249,-0.000127979,0.493817,0.00126665,0.0729777,0.0584205,0.00104196,0.0498349,1.96916,6.42568e-05,0.005,1.71966,-0.000879937,-0.0403514,-0.571104,28.0521,-0.750718,0.926757,6.27501,0.00573413,3.06146,0.21439,3.7132,0.189272,0.209628,-1.08768,0.104736,0.121919,-0.0281982,-0.277954,-0.0725098,23.479,23.3229,23.1669,23.2946,23.2094,23.2662,23.1385,
84,6.27279,1.38448,3.15349,4.12054,6.27437,1.97673,1.55574,0.00266627,-0.127486,-0.000158967,0.115353,0.0105224,0.0340323,3.70929e-05,0.424236,-9.63204,-0.697308,-1.10379,0.121817,-36.5755,1.38893,0.0142356,-20,-0.492056,0.103476,-0.043908,-0.761162,0.0541278,-0.000116985,0.00739249,-0.000127979,0.493817,0.00126665,0.0729777,0.0602112,0.000596636,0.0519156,1.96916,6.42568e-05,0.005,1.71966,-0.000879937,-0.0403514,-0.571104,28.0521,-0.750718,0.837628,6.50662,-0.0194364,2.92005,0.245017,3.51344,0.193347,0.209473,-1.07156,0.0966797,0.129158,0.0180152,-0.261872,-0.0605589,23.479,23.3229,23.1669,23.2946,23.2094,23.2804,23.1243,
85,6.27279,1.38448,3.15349,4.12054,6.27437,1.97673,1.55574,0.00266627,-0.127486,-0.000158967,0.115353,0.0105224,0.0340323,3.70929e-05,0.424674,-9.89483,-0.652726,-1.30594,0.271612,-37.6032,1.36226,0.0143521,-20,-0.492389,0.0678707,-0.0431163,-0.864395,0.0497546,-0.000122928,0.00767394,-0.000138106,0.493817,0.00126665,0.0729777,0.0602112,0.000596636,0.0519156,1.96792,4.59809e-05,0.005,1.71694,-0.00049559,-0.0422241,-0.528186,29.0206,-0.639711,0.837628,6.50662,-0.0194364,2.92005,0.245017,3.51344,0.193347,0.209473,-1.07156,0.0966797,0.129158,0.0180152,-0.261872,-0.0605589,23.479,23.3229,23.1669,23.2946,23.2094,23.2804,23.1243,
86,6.27279,1.38448,3.15349,4.12054,6.27437,1.97673,1.55574,0.00266627,-0.127486,-0.000158967,0.115353,0.0105224,0.0340323,3.70929e-05,0.424674,-9.89483,-0.652726,-1.30594,0.271612,-37.6032,1.36226,0.0143521,-20,-0.492389,0.0678707,-0.0431163,-0.864395,0.0497546,-0.000122928,0.00767394,-0.000138106,0.493817,0.00126665,0.0729777,0.0602112,0.000596636,0.0519156,1.96792,4.59809e-05,0.005,1.71694,-0.00049559,-0.0422241,-0.528186,29.0206,-0.639711,0.837628,6.50662,-0.0194364,2.92005,0.245017,3.51344,0.193347,0.209473,-1.07156,0.0966797,0.129158,0.0180152,-0.261872,-0.0605589,23.479,23.3229,23.1669,23.2946,23.2094,23.2804,23.1243,
87,6.27279,1.38434,3.15349,4.12065,6.27438,1.97676,1.55574,0.00245736,-0.128895,-0.000168092,0.115602,0.00702253,0.0337622,3.70929e-05,0.425138,-9.89268,-0.652614,-1.30669,0.272477,-37.6002,1.36301,0.0143294,-20,-0.492355,0.0701109,-0.0431645,-0.864718,0.0497563,-0.000122928,0.00767394,-0.000138106,0.493817,0.00126665,0.0729777,0.060573,0.000344079,0.0524608,1.96792,4.59809e-05,0.005,1.71694,-0.00049559,-0.0422241,-0.528186,29.0206,-0.639711,0.863257,6.87281,-0.0452484,2.86786,0.201465,3.33392,0.187477,0.22573,-0.999316,0.0966797,0.090076,0.0644531,-0.237671,-0.0685998,23.4648,23.3371,23.1669,23.2946,23.2094,23.2804,23.1385,
88,6.27279,1.38434,3.15349,4.12065,6.27438,1.97676,1.55574,0.00245736,-0.128895,-0.000168092,0.115602,0.00702253,0.0337622,3.70929e-05,0.425941,-10.116,-0.623217,-1.47541,0.375691,-38.4638,1.35012,0.0145428,-20,-0.493245,0.0406411,-0.0426448,-0.950825,0.047149,-0.000128545,0.00795797,-0.000144268,0.493817,0.00126665,0.0729777,0.060573,0.000344079,0.0524608,1.96668,3.4392e-05,0.005,1.7155,-0.000278718,-0.0427147,-0.502644,29.8306,-0.56617,0.863257,6.87281,-0.0452484,2.86786,0.201465,3.33392,0.187477,0.22573,-0.999316,0.0966797,0.090076,0.0644531,-0.237671,-0.0685998,23.4648,23.3371,23.1669,23.2946,23.2094,23.2804,23.1385,
89,6.27279,1.38434,3.15349,4.12065,6.27438,1.97676,1.55574,0.00245736,-0.128895,-0.000168092,0.115602,0.00702253,0.0337622,3.70929e-05,0.425941,-10.116,-0.623217,-1.47541,0.375691,-38.4638,1.35012,0.0145428,-20,-0.493245,0.0406411,-0.0426448,-0.950825,0.047149,-0.000128545,0.00795797,-0.000144268,0.493817,0.00126665,0.0729777,0.060573,0.000344079,0.0524608,1.96668,3.4392e-05,0.005,1.7155,-0.000278718,-0.0427147,-0.502644,29.8306,-0.56617,0.863257,6.87281,-0.0452484,2.86786,0.201465,3.33392,0.187477,0.22573,-0.999316,0.0966797,0.090076,0.0644531,-0.237671,-0.0685998,23.4648,23.3371,23.1669,23.2946,23.2094,23.2804,23.1385,
90,6.2728,1.38422,3.15349,4.12077,6.27438,1.97679,1.55574,0.00245736,-0.128026,-0.000176791,0.113866,0.00594214,0.0318392,3.71209e-05,0.42616,-10.114,-0.623281,-1.47529,0.376038,-38.4619,1.3504,0.0145272,-20,-0.493237,0.0433864,-0.0426566,-0.951272,0.047151,-0.000128545,0.00795797,-0.000144268,0.493817,0.00126665,0.0729777,0.0598814,0.000232307,0.0519617,1.96668,3.4392e-05,0.005,1.7155,-0.000278718,-0.0427147,-0.502644,29.8306,-0.56617,0.767891,7.17284,-0.0903648,2.8305,0.2026,3.14933,0.174602,0.209473,-1.03138,0.0966797,0.072956,0.0966797,-0.233643,-0.0685998,23.4648,23.3513,23.1527,23.3087,23.2236,23.2804,23.1385,
91,6.2728,1.38422,3.15349,4.12077,6.27438,1.97679,1.55574,0.00245736,-0.128026,-0.000176791,0.113866,0.00594214,0.0318392,3.71209e-05,0.427568,-10.28,-0.616632,-1.59839,0.411406,-39.0976,1.35884,0.0149015,-20,-0.494981,0.0220198,-0.0425013,-1.01419,0.0471822,-0.000133611,0.00822777,-0.000148871,0.493817,0.00126665,0.0729777,0.0598814,0.000232307,0.0519617,1.9655,2.96953e-05,0.005,1.71506,-0.000182351,-0.0422655,-0.503037,30.4237,-0.547389,0.767891,7.17284,-0.0903648,2.8305,0.2026,3.14933,0.174602,0.209473,-1.03138,0.0966797,0.072956,0.0966797,-0.233643,-0.0685998,23.4648,23.3513,23.1527,23.3087,23.2236,23.2804,23.1385,
92,6.2728,1.38409,3.15349,4.12088,6.27439,1.97682,1.55574,0.00234041,-0.126676,-0.000191261,0.114521,0.00648234,0.0299808,4.76908e-05,0.427571,-10.2779,-0.616735,-1.59854,0.411333,-39.0953,1.35862,0.0148949,-20,-0.495011,0.024661,-0.0424832,-1.01457,0.0471771,-0.000133611,0.00822777,-0.000148871,0.493817,0.00126665,0.0729777,0.0597787,0.000330395,0.0512337,1.9655,2.96953e-05,0.005,1.71506,-0.000182351,-0.0422655,-0.503037,30.4237,-0.547389,0.816514,7.4872,-0.0695079,2.74974,0.216015,2.95195,0.196949,0.225586,-1.09573,0.0980133,0.0725098,0.0967636,-0.201416,-0.0726216,23.479,23.3371,23.1527,23.2946,23.2094,23.2804,23.1385,
93,6.2728,1.38409,3.15349,4.12088,6.27439,1.97682,1.55574,0.00234041,-0.126676,-0.000191261,0.114521,0.00648234,0.0299808,4.76908e-05,0.430368,-10.4578,-0.632437,-1.73336,0.386701,-39.7854,1.38364,0.0156383,-20,-0.498526,0.000986833,-0.0426814,-1.08303,0.049072,-0.000138211,0.00849504,-0.000155059,0.493817,0.00126665,0.0729777,0.0597787,0.000330395,0.0512337,1.96432,1.4137e-05,0.005,1.71409,-0.000284633,-0.0416103,-0.52163,31.0685,-0.581975,0.816514,7.4872,-0.0695079,2.74974,0.216015,2.95195,0.196949,0.225586,-1.09573,0.0980133,0.0725098,0.0967636,-0.201416,-0.0726216,23.479,23.3371,23.1527,23.2946,23.2094,23.2804,23.1385,
94,6.2728,1.38409,3.15349,4.12088,6.27439,1.97682,1.55574,0.00234041,-0.126676,-0.000191261,0.114521,0.00648234,0.0299808,4.76908e-05,0.430368,-10.4578,-0.632437,-1.73336,0.386701,-39.7854,1.38364,0.0156383,-20,-0.498526,0.000986833,-0.0426814,-1.08303,0.049072,-0.000138211,0.00849504,-0.000155059,0.493817,0.00126665,0.0729777,0.0597787,0.000330395,0.0512337,1.96432,1.4137e-05,0.005,1.71409,-0.000284633,-0.0416103,-0.52163,31.0685,-0.581975,0.816514,7.4872,-0.0695079,2.74974,0.216015,2.95195,0.196949,0.225586,-1.09573,0.0980133,0.0725098,0.0967636,-0.201416,-0.0726216,23.479,23.3371,23.1527,23.2946,23.2094,23.2804,23.1385,
95,6.2728,1.38409,3.15349,4.12088,6.27439,1.97682,1.55574,0.00234041,-0.126676,-0.000191261,0.114521,0.00648234,0.0299808,4.76908e-05,0.430368,-10.4578,-0.632437,-1.73336,0.386701,-39.7854,1.38364,0.0156383,-20,-0.498526,0.000986833,-0.0426814,-1.08303,0.049072,-0.000138211,0.00849504,-0.000155059,0.493817,0.00126665,0.0729777,0.0597787,0.000330395,0.0512337,1.96432,1.4137e-05,0.005,1.71409,-0.000284633,-0.0416103,-0.52163,31.0685,-0.581975,0.816514,7.4872,-0.0695079,2.74974,0.216015,2.95195,0.196949,0.225586,-1.09573,0.0980133,0.0725098,0.0967636,-0.201416,-0.0726216,23.479,23.3371,23.1527,23.2946,23.2094,23.2804,23.1385,
96,6.2728,1.38397,3.15349,4.12099,6.2744,1.97685,1.55574,0.00228958,-0.124785,-0.000216772,0.114521,0.00650186,0.0268322,4.76908e-05,0.430473,-10.4555,-0.632563,-1.73316,0.386744,-39.7834,1.38359,0.0156357,-20,-0.498544,0.00382943,-0.042673,-1.08346,0.0490675,-0.000138211,0.00849504,-0.000155059,0.493817,0.00126665,0.0729777,0.0593735,0.000350084,0.0501676,1.96432,1.4137e-05,0.005,1.71409,-0.000284633,-0.0416103,-0.52163,31.0685,-0.581975,0.682669,7.81733,-0.0831681,2.73555,0.272174,2.71607,0.178221,0.217678,-1.17726,0.0809682,0.0569691,0.0846906,-0.181274,-0.0604248,23.4648,23.3229,23.1669,23.2946,23.2094,23.2662,23.1243,
97,6.2728,1.38397,3.15349,4.12099,6.2744,1.97685,1.55574,0.00228958,-0.124785,-0.000216772,0.114521,0.00650186,0.0268322,4.76908e-05,0.432627,-10.6139,-0.641045,-1.85135,0.379722,-40.3865,1.40696,0.0162081,-20,-0.50126,-0.0168413,-0.0427613,-1.14311,0.0508108,-0.000144457,0.00875949,-0.000161282,0.493817,0.00126665,0.0729777,0.0593735,0.000350084,0.0501676,1.96315,-1.11773e-06,0.005,1.7134,-0.000316081,-0.0406508,-0.538818,31.6313,-0.599559,0.682669,7.81733,-0.0831681,2.73555,0.272174,2.71607,0.178221,0.217678,-1.17726,0.0809682,0.0569691,0.0846906,-0.181274,-0.0604248,23.4648,23.3229,23.1669,23.2946,23.2094,23.2662,23.1243,
98,6.2728,1.38384,3.15349,4.12111,6.2744,1.97688,1.55574,0.00234041,-0.124765,-0.000235605,0.112846,0.00684662,0.0259294,5.82888e-05,0.432697,-10.6118,-0.641216,-1.8516,0.379713,-40.3841,1.40683,0.0162017,-20,-0.501282,-0.0141737,-0.0427498,-1.14353,0.0508074,-0.000144457,0.00875949,-0.000161282,0.493817,0.00126665,0.0729777,0.0588783,0.000363363,0.0501097,1.96315,-1.11773e-06,0.005,1.7134,-0.000316081,-0.0406508,-0.538818,31.6313,-0.599559,0.756909,8.22478,-0.141631,2.80076,0.226711,2.50484,0.181018,0.201416,-1.27297,0.0805664,0.0322266,0.0927389,-0.141221,-0.0605589,23.4648,23.3229,23.1669,23.3087,23.2094,23.252,23.1243,
99,6.2728,1.38384,3.15349,4.12111,6.2744,1.97688,1.55574,0.00234041,-0.124765,-0.000235605,0.112846,0.00684662,0.0259294,5.82888e-05,0.435338,-10.7982,-0.652617,-1.99034,0.368108,-41.1045,1.43263,0.0169036,-20,-0.504578,-0.0384,-0.0428649,-1.21506,0.0526801,-0.00014987,0.00903752,-0.000167454,0.493817,0.00126665,0.0729777,0.0588783,0.000363363,0.0501097,1.9619,-1.23152e-05,0.005,1.71272,-0.00033811,-0.0405987,-0.557249,32.3039,-0.623324,0.756909,8.22478,-0.141631,2.80076,0.226711,2.50484,0.181018,0.201416,-1.27297,0.0805664,0.0322266,0.0927389,-0.141221,-0.0605589,23.4648,23.3229,23.1669,23.3087,23.2094,23.252,23.1243,
100,6.2728,1.38384,3.15349,4.12111,6.2744,1.97688,1.55574,0.00234041,-0.124765,-0.000235605,0.112846,0.00684662,0.0259294,5.82888e-05,0.435338,-10.7982,-0.652617,-1.99034,0.368108,-41.1045,1.43263,0.0169036,-20,-0.504578,-0.0384,-0.0428649,-1.21506,0.0526801,-0.00014987,0.00903752,-0.000167454,0.493817,0.00126665,0.0729777,0.0588783,0.000363363,0.0501097,1.9619,-1.23152e-05,0.005,1.71272,-0.00033811,-0.0405987,-0.557249,32.3039,-0.623324,0.756909,8.22478,-0.141631,2.80076,0.226711,2.50484,0.181018,0.201416,-1.27297,0.0805664,0.0322266,0.0927389,-0.141221,-0.0605589,23.4648,23.3229,23.1669,23.3087,23.2094,23.252,23.1243,
101,6.2728,1.38384,3.15349,4.12111,6.2744,1.97688,1.55574,0.00234041,-0.124765,-0.000235605,0.112846,0.00684662,0.0259294,5.82888e-05,0.435338,-10.7982,-0.652617,-1.99034,0.368108,-41.1045,1.43263,0.0169036,-20,-0.504578,-0.0384,-0.0428649,-1.21506,0.0526801,-0.00014987,0.00903752,-0.000167454,0.493817,0.00126665,0.0729777,0.0588783,0.000363363,0.0501097,1.9619,-1.23152e-05,0.005,1.71272,-0.00033811,-0.0405987,-0.557249,32.3039,-0.623324,0.756909,8.22478,-0.141631,2.80076,0.226711,2.50484,0.181018,0.201416,-1.27297,0.0805664,0.0322266,0.0927389,-0.141221,-0.0605589,23.4648,23.3229,23.1669,23.3087,23.2094,23.252,23.1243,
102,6.2728,1.38371,3.15349,4.12122,6.27441,1.9769,1.55574,0.00218973,-0.127486,-0.00024787,0.113711,0.00702052,0.0232284,6.62874e-05,0.435353,-10.7956,-0.652681,-1.99094,0.368043,-41.1014,1.43238,0.0168963,-20,-0.504608,-0.0363335,-0.0428531,-1.21534,0.0526745,-0.00014987,0.00903752,-0.000167454,0.493817,0.00126665,0.0729777,0.0596949,0.000446539,0.0509001,1.9619,-1.23152e-05,0.005,1.71272,-0.00033811,-0.0405987,-0.557249,32.3039,-0.623324,0.673024,8.53639,-0.190279,2.89083,0.221096,2.30546,0.148313,0.209473,-1.29722,0.0821619,0.0433863,0.0889885,-0.132935,-0.0605589,23.4648,23.3229,23.1527,23.2804,23.2094,23.2804,23.1385,
103,6.2728,1.38371,3.15349,4.12122,6.27441,1.9769,1.55574,0.00218973,-0.127486,-0.00024787,0.113711,0.00702052,0.0232284,6.62874e-05,0.438215,-10.9948,-0.664959,-2.14289,0.355088,-41.8788,1.4568,0.017657,-20,-0.508132,-0.0632118,-0.0429865,-1.29317,0.0543763,-0.000154888,0.00929811,-0.000173975,0.493817,0.00126665,0.0729777,0.0596949,0.000446539,0.0509001,1.96072,-2.55037e-05,0.005,1.71093,-0.000424838,-0.0413101,-0.573957,33.034,-0.649404,0.673024,8.53639,-0.190279,2.89083,0.221096,2.30546,0.148313,0.209473,-1.29722,0.0821619,0.0433863,0.0889885,-0.132935,-0.0605589,23.4648,23.3229,23.1527,23.2804,23.2094,23.2804,23.1385,
104,6.27281,1.38358,3.15349,4.12134,6.27442,1.97692,1.55574,0.00211392,-0.129647,-0.000265266,0.115062,0.00715298,0.022148,6.62366e-05,0.438259,-10.9924,-0.665068,-2.14377,0.355057,-41.8755,1.4566,0.0176517,-20,-0.508163,-0.0611815,-0.0429761,-1.29343,0.0543706,-0.000154888,0.00929811,-0.000173975,0.493817,0.00126665,0.0729777,0.0605332,0.000499952,0.0516327,1.96072,-2.55037e-05,0.005,1.71093,-0.000424838,-0.0413101,-0.573957,33.034,-0.649404,0.741836,8.86239,-0.161776,2.88206,0.266208,2.08847,0.185897,0.225586,-1.24138,0.072956,0.0241699,0.0849775,-0.0966797,-0.0604248,23.4506,23.3229,23.1527,23.2946,23.2094,23.2804,23.1101,
105,6.27281,1.38358,3.15349,4.12134,6.27442,1.97692,1.55574,0.00211392,-0.129647,-0.000265266,0.115062,0.00715298,0.022148,6.62366e-05,0.441237,-11.2064,-0.676579,-2.30673,0.345857,-42.7096,1.48439,0.0184431,-20,-0.511831,-0.0899648,-0.0430896,-1.37687,0.0563319,-0.000160918,0.0095611,-0.00018059,0.493817,0.00126665,0.0729777,0.0605332,0.000499952,0.0516327,1.95953,-4.34745e-05,0.005,1.7091,-0.000489084,-0.0419695,-0.593254,33.817,-0.673284,0.741836,8.86239,-0.161776,2.88206,0.266208,2.08847,0.185897,0.225586,-1.24138,0.072956,0.0241699,0.0849775,-0.0966797,-0.0604248,23.4506,23.3229,23.1527,23.2946,23.2094,23.2804,23.1101,
106,6.27281,1.38358,3.15349,4.12134,6.27442,1.97692,1.55574,0.00211392,-0.129647,-0.000265266,0.115062,0.00715298,0.022148,6.62366e-05,0.441237,-11.2064,-0.676579,-2.30673,0.345857,-42.7096,1.48439,0.0184431,-20,-0.511831,-0.0899648,-0.0430896,-1.37687,0.0563319,-0.000160918,0.0095611,-0.00018059,0.493817,0.00126665,0.0729777,0.0605332,0.000499952,0.0516327,1.95953,-4.34745e-05,0.005,1.7091,-0.000489084,-0.0419695,-0.593254,33.817,-0.673284,0.741836,8.86239,-0.161776,2.88206,0.266208,2.08847,0.185897,0.225586,-1.24138,0.072956,0.0241699,0.0849775,-0.0966797,-0.0604248,23.4506,23.3229,23.1527,23.2946,23.2094,23.2804,23.1101,
107,6.27281,1.38358,3.15349,4.12134,6.27442,1.97692,1.55574,0.00211392,-0.129647,-0.000265266,0.115062,0.00715298,0.022148,6.62366e-05,0.441237,-11.2064,-0.676579,-2.30673,0.345857,-42.7096,1.48439,0.0184431,-20,-0.511831,-0.0899648,-0.0430896,-1.37687,0.0563319,-0.000160918,0.0095611,-0.00018059,0.493817,0.00126665,0.0729777,0.0605332,0.000499952,0.0516327,1.95953,-4.34745e-05,0.005,1.7091,-0.000489084,-0.0419695,-0.593254,33.817,-0.673284,0.741836,8.86239,-0.161776,2.88206,0.266208,2.08847,0.185897,0.225586,-1.24138,0.072956,0.0241699,0.0849775,-0.0966797,-0.0604248,23.4506,23.3229,23.1527,23.2946,23.2094,23.2804,23.1101,
108,6.27281,1.38345,3.15349,4.12145,6.27443,1.97694,1.55575,0.00213694,-0.131267,-0.000275987,0.115602,0.00728544,0.0210463,7.41857e-05,0.441295,-11.204,-0.676718,-2.30745,0.345845,-42.7066,1.48422,0.0184341,-20,-0.511857,-0.0877728,-0.0430817,-1.37717,0.0563271,-0.000160918,0.0095611,-0.00018059,0.493817,0.00126665,0.0729777,0.0610237,0.000509379,0.052164,1.95953,-4.34745e-05,0.005,1.7091,-0.000489084,-0.0419695,-0.593254,33.817,-0.673284,0.66313,9.2583,-0.148478,2.89241,0.329161,1.82588,0.155227,0.218125,-1.22472,0.072956,0.00805664,0.0726216,-0.0889885,-0.0565402,23.4648,23.3229,23.1669,23.3087,23.2094,23.2946,23.1385,
109,6.27281,1.38345,3.15349,4.12145,6.27443,1.97694,1.55575,0.00213694,-0.131267,-0.000275987,0.115602,0.00728544,0.0210463,7.41857e-05,0.444079,-11.4083,-0.686792,-2.46229,0.339838,-43.5011,1.50841,0.019174,-20,-0.515295,-0.115042,-0.0431684,-1.45652,0.0579411,-0.000165983,0.00982529,-0.000187106,0.493817,0.00126665,0.0729777,0.0610237,0.000509379,0.052164,1.95833,-5.68298e-05,0.005,1.70757,-0.000509587,-0.0424476,-0.609134,34.562,-0.693601,0.66313,9.2583,-0.148478,2.89241,0.329161,1.82588,0.155227,0.218125,-1.22472,0.072956,0.00805664,0.0726216,-0.0889885,-0.0565402,23.4648,23.3229,23.1669,23.3087,23.2094,23.2946,23.1385,
110,6.27281,1.38345,3.15349,4.12145,6.27443,1.97694,1.55575,0.00213694,-0.131267,-0.000275987,0.115602,0.00728544,0.0210463,7.41857e-05,0.444079,-11.4083,-0.686792,-2.46229,0.339838,-43.5011,1.50841,0.019174,-20,-0.515295,-0.115042,-0.0431684,-1.45652,0.0579411,-0.000165983,0.00982529,-0.000187106,0.493817,0.00126665,0.0729777,0.0610237,0.000509379,0.052164,1.95833,-5.68298e-05,0.005,1.70757,-0.000509587,-0.0424476,-0.609134,34.562,-0.693601,0.66313,9.2583,-0.148478,2.89241,0.329161,1.82588,0.155227,0.218125,-1.22472,0.072956,0.00805664,0.0726216,-0.0889885,-0.0565402,23.4648,23.3229,23.1669,23.3087,23.2094,23.2946,23.1385,
111,6.27281,1.38331,3.15349,4.12157,6.27443,1.97696,1.55575,0.00205343,-0.131403,-0.000292096,0.113992,0.00702052,0.0180723,8.47837e-05,0.444201,-11.4058,-0.686868,-2.46223,0.339963,-43.4987,1.5084,0.0191646,-20,-0.515305,-0.112155,-0.0431654,-1.45697,0.057939,-0.000165983,0.00982529,-0.000187106,0.493817,0.00126665,0.0729777,0.0605806,0.000512988,0.0519483,1.95833,-5.68298e-05,0.005,1.70757,-0.000509587,-0.0424476,-0.609134,34.562,-0.693601,0.708201,9.72303,-0.160612,2.92299,0.319398,1.59296,0.162419,0.209628,-1.2329,0.0725098,-0.0290486,0.0805664,-0.076644,-0.0563965,23.4648,23.3087,23.1669,23.2804,23.1952,23.2946,23.1385,
112,6.27281,1.38331,3.15349,4.12157,6.27443,1.97696,1.55575,0.00205343,-0.131403,-0.000292096,0.113992,0.00702052,0.0180723,8.47837e-05,0.446361,-11.5785,-0.692272,-2.59141,0.34291,-44.1643,1.52582,0.0197385,-20,-0.517994,-0.134715,-0.0432012,-1.52308,0.0589829,-0.000171052,0.0101051,-0.000193281,0.493817,0.00126665,0.0729777,0.0605806,0.000512988,0.0519483,1.95704,-7.45162e-05,0.005,1.70681,-0.000528754,-0.0422535,-0.619426,35.184,-0.703663,0.708201,9.72303,-0.160612,2.92299,0.319398,1.59296,0.162419,0.209628,-1.2329,0.0725098,-0.0290486,0.0805664,-0.076644,-0.0563965,23.4648,23.3087,23.1669,23.2804,23.1952,23.2946,23.1385,
113,6.27281,1.38318,3.15349,4.12168,6.27444,1.97698,1.55575,0.00192095,-0.130187,-0.00030227,0.113171,0.00635979,0.01538,8.48478e-05,0.446512,-11.5763,-0.692301,-2.59128,0.343142,-44.1622,1.52597,0.0197264,-20,-0.517996,-0.131901,-0.0432029,-1.52349,0.0589851,-0.000171052,0.0101051,-0.000193281,0.493817,0.00126665,0.0729777,0.0600816,0.000495043,0.0512126,1.95704,-7.45162e-05,0.005,1.70681,-0.000528754,-0.0422535,-0.619426,35.184,-0.703663,0.634162,10.0867,-0.167512,2.93803,0.305696,1.41251,0.115956,0.209473,-1.24072,0.0649547,-0.0180152,0.0809682,-0.0485074,-0.0565402,23.479,23.3229,23.1669,23.2804,23.2094,23.252,23.1243,
114,6.27281,1.38318,3.15349,4.12168,6.27444,1.97698,1.55575,0.00192095,-0.130187,-0.00030227,0.113171,0.00635979,0.01538,8.48478e-05,0.448121,-11.7298,-0.691773,-2.70592,0.360011,-44.7482,1.53778,0.0201541,-20,-0.520008,-0.151872,-0.0431583,-1.58153,0.0594985,-0.000175961,0.0103602,-0.000197769,0.493817,0.00126665,0.0729777,0.0600816,0.000495043,0.0512126,1.95585,-8.65694e-05,0.005,1.70619,-0.000523451,-0.0415914,-0.624554,35.7314,-0.700086,0.634162,10.0867,-0.167512,2.93803,0.305696,1.41251,0.115956,0.209473,-1.24072,0.0649547,-0.0180152,0.0809682,-0.0485074,-0.0565402,23.479,23.3229,23.1669,23.2804,23.2094,23.252,23.1243,
115,6.27281,1.38318,3.15349,4.12168,6.27444,1.97698,1.55575,0.00192095,-0.130187,-0.00030227,0.113171,0.00635979,0.01538,8.48478e-05,0.448121,-11.7298,-0.691773,-2.70592,0.360011,-44.7482,1.53778,0.0201541,-20,-0.520008,-0.151872,-0.0431583,-1.58153,0.0594985,-0.000175961,0.0103602,-0.000197769,0.493817,0.00126665,0.0729777,0.0600816,0.000495043,0.0512126,1.95585,-8.65694e-05,0.005,1.70619,-0.000523451,-0.0415914,-0.624554,35.7314,-0.700086,0.634162,10.0867,-0.167512,2.93803,0.305696,1.41251,0.115956,0.209473,-1.24072,0.0649547,-0.0180152,0.0809682,-0.0485074,-0.0565402,23.479,23.3229,23.1669,23.2804,23.2094,23.252,23.1243,
116,6.27281,1.38306,3.15348,4.12179,6.27444,1.97699,1.55575,0.00185471,-0.128566,-0.000317253,0.11182,0.00582981,0.0145853,9.53816e-05,0.44828,-11.7279,-0.691848,-2.70602,0.360231,-44.7462,1.53792,0.0201453,-20,-0.520012,-0.149135,-0.0431591,-1.58194,0.0594982,-0.000175961,0.0103602,-0.000197769,0.493817,0.00126665,0.0729777,0.0593442,0.000466004,0.0505262,1.95585,-8.65694e-05,0.005,1.70619,-0.000523451,-0.0415914,-0.624554,35.7314,-0.700086,0.665849,10.4247,-0.122714,2.85028,0.348533,1.24305,0.154542,0.209473,-1.31326,0.041081,0.0113938,0.080667,-0.0127387,-0.0483398,23.4648,23.3229,23.1527,23.2946,23.1952,23.2662,23.1243,
117,6.27281,1.38306,3.15348,4.12179,6.27444,1.97699,1.55575,0.00185471,-0.128566,-0.000317253,0.11182,0.00582981,0.0145853,9.53816e-05,0.450037,-11.8864,-0.693017,-2.82363,0.373137,-45.3524,1.54912,0.0206121,-20,-0.522213,-0.169547,-0.043136,-1.64191,0.0599378,-0.000180172,0.0106114,-0.00020281,0.493817,0.00126665,0.0729777,0.0593442,0.000466004,0.0505262,1.95468,-0.00010417,0.005,1.70581,-0.000513157,-0.0409735,-0.628927,36.2968,-0.700319,0.665849,10.4247,-0.122714,2.85028,0.348533,1.24305,0.154542,0.209473,-1.31326,0.041081,0.0113938,0.080667,-0.0127387,-0.0483398,23.4648,23.3229,23.1527,23.2946,23.1952,23.2662,23.1243,
118,6.27281,1.38306,3.15348,4.12179,6.27444,1.97699,1.55575,0.00185471,-0.128566,-0.000317253,0.11182,0.00582981,0.0145853,9.53816e-05,0.450037,-11.8864,-0.693017,-2.82363,0.373137,-45.3524,1.54912,0.0206121,-20,-0.522213,-0.169547,-0.043136,-1.64191,0.0599378,-0.000180172,0.0106114,-0.00020281,0.493817,0.00126665,0.0729777,0.0593442,0.000466004,0.0505262,1.95468,-0.00010417,0.005,1.70581,-0.000513157,-0.0409735,-0.628927,36.2968,-0.700319,0.665849,10.4247,-0.122714,2.85028,0.348533,1.24305,0.154542,0.209473,-1.31326,0.041081,0.0113938,0.080667,-0.0127387,-0.0483398,23.4648,23.3229,23.1527,23.2946,23.1952,23.2662,23.1243,
119,6.27281,1.38293,3.15348,4.1219,6.27445,1.977,1.55575,0.00172201,-0.128026,-0.000315897,0.107499,0.00543097,0.0135049,0.00010598,0.450138,-11.8847,-0.693018,-2.82343,0.373312,-45.3509,1.54913,0.0205945,-20,-0.522211,-0.166804,-0.0431361,-1.64238,0.0599341,-0.000180172,0.0106114,-0.00020281,0.493817,0.00126665,0.0729777,0.0579763,0.000466965,0.0502876,1.95468,-0.00010417,0.005,1.70581,-0.000513157,-0.0409735,-0.628927,36.2968,-0.700319,0.580587,10.7857,-0.121473,2.76627,0.393184,1.03166,0.130959,0.209628,-1.37771,0.0433863,0.0227876,0.080667,-0.0090076,-0.0483398,23.4506,23.3229,23.1527,23.2662,23.1952,23.2662,23.1243,
120,6.27281,1.38293,3.15348,4.1219,6.27445,1.977,1.55575,0.00172201,-0.128026,-0.000315897,0.107499,0.00543097,0.0135049,0.00010598,0.451791,-12.0203,-0.69671,-2.92216,0.376966,-45.8724,1.55832,0.0210337,-20,-0.524284,-0.183772,-0.0431599,-1.69385,0.0603005,-0.000183845,0.0108568,-0.00020862,0.493817,0.00126665,0.0729777,0.0579763,0.000466965,0.0502876,1.95354,-0.00011912,0.005,1.70601,-0.000527477,-0.0407589,-0.632522,36.7814,-0.706981,0.580587,10.7857,-0.121473,2.76627,0.393184,1.03166,0.130959,0.209628,-1.37771,0.0433863,0.0227876,0.080667,-0.0090076,-0.0483398,23.4506,23.3229,23.1527,23.2662,23.1952,23.2662,23.1243,
121,6.27282,1.3828,3.15348,4.12201,6.27445,1.97702,1.55575,0.00158955,-0.126769,-0.000326093,0.105574,0.00476865,0.0107729,0.000105981,0.45193,-12.0181,-0.696731,-2.92191,0.377215,-45.8704,1.55852,0.0210172,-20,-0.524282,-0.180825,-0.0431609,-1.6943,0.0603064,-0.000183845,0.0108568,-0.00020862,0.493817,0.00126665,0.0729777,0.0571503,0.000446388,0.0495498,1.95354,-0.00011912,0.005,1.70601,-0.000527477,-0.0407589,-0.632522,36.7814,-0.706981,0.610504,11.2434,-0.119144,2.73727,0.395163,0.863827,0.122283,0.217529,-1.38658,0.0360304,0.0966797,0.0889885,0.00569691,-0.0523682,23.4648,23.3087,23.1811,23.2946,23.2236,23.2662,23.1101,
122,6.27282,1.3828,3.15348,4.12201,6.27445,1.97702,1.55575,0.00158955,-0.126769,-0.000326093,0.105574,0.00476865,0.0107729,0.000105981,0.453375,-12.1642,-0.694723,-3.03031,0.397291,-46.4277,1.56815,0.0214011,-20,-0.526091,-0.199614,-0.0430974,-1.7494,0.0606189,-0.000188132,0.011115,-0.000212032,0.493817,0.00126665,0.0729777,0.0571503,0.000446388,0.0495498,1.95233,-0.000127764,0.005,1.70566,-0.000516737,-0.0400948,-0.635693,37.3012,-0.700045,0.610504,11.2434,-0.119144,2.73727,0.395163,0.863827,0.122283,0.217529,-1.38658,0.0360304,0.0966797,0.0889885,0.00569691,-0.0523682,23.4648,23.3087,23.1811,23.2946,23.2236,23.2662,23.1101,
123,6.27282,1.38268,3.15348,4.12212,6.27445,1.97702,1.55575,0.00145709,-0.123164,-0.000330057,0.103717,0.00450373,0.00757041,0.000114015,0.45348,-12.1623,-0.694765,-3.02969,0.397448,-46.4264,1.56824,0.0213874,-20,-0.526092,-0.196539,-0.0430929,-1.74987,0.0606212,-0.000188132,0.011115,-0.000212032,0.493817,0.00126665,0.0729777,0.0558515,0.000457079,0.0478281,1.95233,-0.000127764,0.005,1.70566,-0.000516737,-0.0400948,-0.635693,37.3012,-0.700045,0.520637,11.5942,-0.119971,2.67438,0.395434,0.721215,0.0908791,0.217529,-1.42603,0.041081,0.1372,0.0966797,0.0293266,-0.045038,23.479,23.3229,23.1527,23.2946,23.2094,23.2662,23.1385,
124,6.27282,1.38268,3.15348,4.12212,6.27445,1.97702,1.55575,0.00145709,-0.123164,-0.000330057,0.103717,0.00450373,0.00757041,0.000114015,0.454717,-12.2681,-0.697382,-3.10664,0.400537,-46.8201,1.57607,0.0217163,-20,-0.527695,-0.209752,-0.0431164,-1.78831,0.0609886,-0.000191274,0.0113463,-0.000215804,0.493817,0.00126665,0.0729777,0.0558515,0.000457079,0.0478281,1.95122,-0.000139509,0.005,1.70584,-0.000536929,-0.0385453,-0.639315,37.6661,-0.704823,0.520637,11.5942,-0.119971,2.67438,0.395434,0.721215,0.0908791,0.217529,-1.42603,0.041081,0.1372,0.0966797,0.0293266,-0.045038,23.479,23.3229,23.1527,23.2946,23.2094,23.2662,23.1385,
125,6.27282,1.38268,3.15348,4.12212,6.27445,1.97702,1.55575,0.00145709,-0.123164,-0.000330057,0.103717,0.00450373,0.00757041,0.000114015,0.454717,-12.2681,-0.697382,-3.10664,0.400537,-46.8201,1.57607,0.0217163,-20,-0.527695,-0.209752,-0.0431164,-1.78831,0.0609886,-0.000191274,0.0113463,-0.000215804,0.493817,0.00126665,0.0729777,0.0558515,0.000457079,0.0478281,1.95122,-0.000139509,0.005,1.70584,-0.000536929,-0.0385453,-0.639315,37.6661,-0.704823,0.520637,11.5942,-0.119971,2.67438,0.395434,0.721215,0.0908791,0.217529,-1.42603,0.041081,0.1372,0.0966797,0.0293266,-0.045038,23.479,23.3229,23.1527,23.2946,23.2094,23.2662,23.1385,
126,6.27282,1.38255,3.15348,4.12221,6.27446,1.97703,1.55575,0.00132479,-0.122084,-0.000331188,0.101016,0.0042388,0.0067456,0.000113928,0.454795,-12.2664,-0.697401,-3.1066,0.400684,-46.8185,1.5761,0.0216996,-20,-0.527697,-0.207192,-0.0431132,-1.78871,0.0609887,-0.000191274,0.0113463,-0.000215804,0.493817,0.00126665,0.0729777,0.0548389,0.00047443,0.0473722,1.95122,-0.000139509,0.005,1.70584,-0.000536929,-0.0385453,-0.639315,37.6661,-0.704823,0.546504,11.9004,-0.0364592,2.57938,0.427952,0.580107,0.123578,0.20206,-1.51467,0.0332184,0.19403,0.100708,0.0644531,-0.0443115,23.4506,23.3229,23.1527,23.2804,23.1811,23.252,23.1385,
127,6.27282,1.38255,3.15348,4.12221,6.27446,1.97703,1.55575,0.00132479,-0.122084,-0.000331188,0.101016,0.0042388,0.0067456,0.000113928,0.456413,-12.3991,-0.70104,-3.20421,0.404035,-47.3273,1.58761,0.0221294,-20,-0.52973,-0.224047,-0.0431405,-1.83898,0.0616077,-0.000195054,0.0115729,-0.000220014,0.493817,0.00126665,0.0729777,0.0548389,0.00047443,0.0473722,1.95014,-0.000153782,0.005,1.70577,-0.000565391,-0.038135,-0.645415,38.1398,-0.711542,0.546504,11.9004,-0.0364592,2.57938,0.427952,0.580107,0.123578,0.20206,-1.51467,0.0332184,0.19403,0.100708,0.0644531,-0.0443115,23.4506,23.3229,23.1527,23.2804,23.1811,23.252,23.1385,
128,6.27282,1.38255,3.15348,4.12221,6.27446,1.97703,1.55575,0.00132479,-0.122084,-0.000331188,0.101016,0.0042388,0.0067456,0.000113928,0.456413,-12.3991,-0.70104,-3.20421,0.404035,-47.3273,1.58761,0.0221294,-20,-0.52973,-0.224047,-0.0431405,-1.83898,0.0616077,-0.000195054,0.0115729,-0.000220014,0.493817,0.00126665,0.0729777,0.0548389,0.00047443,0.0473722,1.95014,-0.000153782,0.005,1.70577,-0.000565391,-0.038135,-0.645415,38.1398,-0.711542,0.546504,11.9004,-0.0364592,2.57938,0.427952,0.580107,0.123578,0.20206,-1.51467,0.0332184,0.19403,0.100708,0.0644531,-0.0443115,23.4506,23.3229,23.1527,23.2804,23.1811,23.252,23.1385,
129,6.27282,1.38244,3.15348,4.12231,6.27446,1.97704,1.55575,0.00119231,-0.118843,-0.000331188,0.100105,0.00405146,0.00594214,0.000121877,0.456479,-12.3975,-0.70107,-3.20417,0.404153,-47.3257,1.5876,0.0221106,-20,-0.529737,-0.221352,-0.0431355,-1.83937,0.0616059,-0.000195054,0.0115729,-0.000220014,0.493817,0.00126665,0.0729777,0.0538892,0.000498263,0.046031,1.95014,-0.000153782,0.005,1.70577,-0.000565391,-0.038135,-0.645415,38.1398,-0.711542,0.465775,12.3054,-0.0106917,2.50279,0.459702,0.401732,0.0884945,0.209628,-1.53085,0.041081,0.233643,0.108839,0.076961,-0.0483398,23.4506,23.3087,23.1527,23.2662,23.2094,23.2804,23.1243,
130,6.27282,1.38244,3.15348,4.12231,6.27446,1.97704,1.55575,0.00119231,-0.118843,-0.000331188,0.100105,0.00405146,0.00594214,0.000121877,0.458112,-12.5255,-0.706283,-3.29842,0.402612,-47.8089,1.59692,0.0225446,-20,-0.53182,-0.237647,-0.0431895,-1.88689,0.0620459,-0.000198018,0.0117944,-0.000224599,0.493817,0.00126665,0.0729777,0.0538892,0.000498263,0.046031,1.94908,-0.0001642,0.005,1.70567,-0.000596217,-0.0369279,-0.649711,38.5892,-0.72205,0.465775,12.3054,-0.0106917,2.50279,0.459702,0.401732,0.0884945,0.209628,-1.53085,0.041081,0.233643,0.108839,0.076961,-0.0483398,23.4506,23.3087,23.1527,23.2662,23.2094,23.2804,23.1243,
131,6.27282,1.38232,3.15348,4.12242,6.27447,1.97704,1.55575,0.00105983,-0.115353,-0.000331188,0.100307,0.00450485,0.00275845,0.000121877,0.458138,-12.5234,-0.706369,-3.29815,0.402551,-47.807,1.59669,0.0225326,-20,-0.53184,-0.234708,-0.0431757,-1.88729,0.0620379,-0.000198018,0.0117944,-0.000224599,0.493817,0.00126665,0.0729777,0.0532105,0.000582549,0.0443199,1.94908,-0.0001642,0.005,1.70567,-0.000596217,-0.0369279,-0.649711,38.5892,-0.72205,0.483145,12.7525,0.00125615,2.49715,0.484349,0.22414,0.114439,0.217529,-1.62776,0.0402832,0.22573,0.104814,0.0809682,-0.0404841,23.4364,23.2946,23.1385,23.2804,23.1952,23.2662,23.0959,
132,6.27282,1.38232,3.15348,4.12242,6.27447,1.97704,1.55575,0.00105983,-0.115353,-0.000331188,0.100307,0.00450485,0.00275845,0.000121877,0.460215,-12.6469,-0.720541,-3.39007,0.376058,-48.271,1.61837,0.0230844,-20,-0.534501,-0.250745,-0.0433702,-1.93294,0.0638416,-0.000202981,0.0120264,-0.000230838,0.493817,0.00126665,0.0729777,0.0532105,0.000582549,0.0443199,1.94795,-0.000184388,0.005,1.70526,-0.000690243,-0.0353879,-0.667345,39.0213,-0.75403,0.483145,12.7525,0.00125615,2.49715,0.484349,0.22414,0.114439,0.217529,-1.62776,0.0402832,0.22573,0.104814,0.0809682,-0.0404841,23.4364,23.2946,23.1385,23.2804,23.1952,23.2662,23.0959,
133,6.27282,1.38232,3.15348,4.12242,6.27447,1.97704,1.55575,0.00105983,-0.115353,-0.000331188,0.100307,0.00450485,0.00275845,0.000121877,0.460215,-12.6469,-0.720541,-3.39007,0.376058,-48.271,1.61837,0.0230844,-20,-0.534501,-0.250745,-0.0433702,-1.93294,0.0638416,-0.000202981,0.0120264,-0.000230838,0.493817,0.00126665,0.0729777,0.0532105,0.000582549,0.0443199,1.94795,-0.000184388,0.005,1.70526,-0.000690243,-0.0353879,-0.667345,39.0213,-0.75403,0.483145,12.7525,0.00125615,2.49715,0.484349,0.22414,0.114439,0.217529,-1.62776,0.0402832,0.22573,0.104814,0.0809682,-0.0404841,23.4364,23.2946,23.1385,23.2804,23.1952,23.2662,23.0959,
134,6.27282,1.3822,3.15348,4.12252,6.27448,1.97704,1.55575,0.000993593,-0.114405,-0.000331182,0.100206,0.00499974,0.00108039,0.000121877,0.460206,-12.645,-0.720615,-3.39022,0.375957,-48.269,1.61805,0.023068,-20,-0.534522,-0.248394,-0.0433588,-1.93325,0.0638317,-0.000202981,0.0120264,-0.000230838,0.493817,0.00126665,0.0729777,0.052978,0.000651878,0.0437794,1.94795,-0.000184388,0.005,1.70526,-0.000690243,-0.0353879,-0.667345,39.0213,-0.75403,0.430617,13.0704,0.0123526,2.4639,0.46106,0.0608675,0.0919643,0.217529,-1.71608,0.041081,0.217529,0.105046,0.112865,-0.0483398,23.4506,23.2804,23.1385,23.2662,23.1952,23.2662,23.1101,
135,6.27282,1.3822,3.15348,4.12252,6.27448,1.97704,1.55575,0.000993593,-0.114405,-0.000331182,0.100206,0.00499974,0.00108039,0.000121877,0.462479,-12.782,-0.735144,-3.49319,0.350391,-48.7951,1.64096,0.023672,-20,-0.537386,-0.266445,-0.0435441,-1.98549,0.0656838,-0.000207675,0.0122389,-0.000237306,0.493817,0.00126665,0.0729777,0.052978,0.000651878,0.0437794,1.9469,-0.000198614,0.005,1.70453,-0.000765443,-0.0349015,-0.685453,39.5131,-0.786362,0.430617,13.0704,0.0123526,2.4639,0.46106,0.0608675,0.0919643,0.217529,-1.71608,0.041081,0.217529,0.105046,0.112865,-0.0483398,23.4506,23.2804,23.1385,23.2662,23.1952,23.2662,23.1101,
136,6.27282,1.3822,3.15348,4.12252,6.27448,1.97704,1.55575,0.000993593,-0.114405,-0.000331182,0.100206,0.00499974,0.00108039,0.000121877,0.462479,-12.782,-0.735144,-3.49319,0.350391,-48.7951,1.64096,0.023672,-20,-0.537386,-0.266445,-0.0435441,-1.98549,0.0656838,-0.000207675,0.0122389,-0.000237306,0.493817,0.00126665,0.0729777,0.052978,0.000651878,0.0437794,1.9469,-0.000198614,0.005,1.70453,-0.000765443,-0.0349015,-0.685453,39.5131,-0.786362,0.430617,13.0704,0.0123526,2.4639,0.46106,0.0608675,0.0919643,0.217529,-1.71608,0.041081,0.217529,0.105046,0.112865,-0.0483398,23.4506,23.2804,23.1385,23.2662,23.1952,23.2662,23.1101,
137,6.27282,1.38209,3.15348,4.12262,6.27448,1.97704,1.55575,0.000861114,-0.112901,-0.000331182,0.0983155,0.00524454,-0.00216078,0.000121877,0.462496,-12.7801,-0.735168,-3.49283,0.350357,-48.7936,1.64069,0.0236545,-20,-0.537395,-0.263858,-0.0435373,-1.98587,0.065672,-0.000207675,0.0122389,-0.000237306,0.493817,0.00126665,0.0729777,0.0521129,0.000715647,0.0428829,1.9469,-0.000198614,0.005,1.70453,-0.000765443,-0.0349015,-0.685453,39.5131,-0.786362,0.454025,13.3239,0.107242,2.41385,0.478514,-0.111272,0.114639,0.209628,-1.6922,0.041081,0.201577,0.108839,0.128969,-0.0371393,23.4364,23.3087,23.1527,23.2946,23.1811,23.2662,23.1101,
138,6.27282,1.38209,3.15348,4.12262,6.27448,1.97704,1.55575,0.000861114,-0.112901,-0.000331182,0.0983155,0.00524454,-0.00216078,0.000121877,0.464237,-12.8812,-0.747331,-3.56741,0.327266,-49.1774,1.65793,0.0241168,-20,-0.539612,-0.276807,-0.0437028,-2.02369,0.0670986,-0.00021213,0.0124449,-0.000244284,0.493817,0.00126665,0.0729777,0.0521129,0.000715647,0.0428829,1.94588,-0.000220001,0.005,1.70439,-0.000842084,-0.0340946,-0.699373,39.8702,-0.813823,0.454025,13.3239,0.107242,2.41385,0.478514,-0.111272,0.114639,0.209628,-1.6922,0.041081,0.201577,0.108839,0.128969,-0.0371393,23.4364,23.3087,23.1527,23.2946,23.1811,23.2662,23.1101,
139,6.27282,1.38209,3.15348,4.12262,6.27448,1.97704,1.55575,0.000861114,-0.112901,-0.000331182,0.0983155,0.00524454,-0.00216078,0.000121877,0.464237,-12.8812,-0.747331,-3.56741,0.327266,-49.1774,1.65793,0.0241168,-20,-0.539612,-0.276807,-0.0437028,-2.02369,0.0670986,-0.00021213,0.0124449,-0.000244284,0.493817,0.00126665,0.0729777,0.0521129,0.000715647,0.0428829,1.94588,-0.000220001,0.005,1.70439,-0.000842084,-0.0340946,-0.699373,39.8702,-0.813823,0.454025,13.3239,0.107242,2.41385,0.478514,-0.111272,0.114639,0.209628,-1.6922,0.041081,0.201577,0.108839,0.128969,-0.0371393,23.4364,23.3087,23.1527,23.2946,23.1811,23.2662,23.1101,
140,6.27282,1.38209,3.15348,4.12262,6.27448,1.97704,1.55575,0.000861114,-0.112901,-0.000331182,0.0983155,0.00524454,-0.00216078,0.000121877,0.464237,-12.8812,-0.747331,-3.56741,0.327266,-49.1774,1.65793,0.0241168,-20,-0.539612,-0.276807,-0.0437028,-2.02369,0.0670986,-0.00021213,0.0124449,-0.000244284,0.493817,0.00126665,0.0729777,0.0521129,0.000715647,0.0428829,1.94588,-0.000220001,0.005,1.70439,-0.000842084,-0.0340946,-0.699373,39.8702,-0.813823,0.454025,13.3239,0.107242,2.41385,0.478514,-0.111272,0.114639,0.209628,-1.6922,0.041081,0.201577,0.108839,0.128969,-0.0371393,23.4364,23.3087,23.1527,23.2946,23.1811,23.2662,23.1101,
141,6.27282,1.38198,3.15348,4.12271,6.27449,1.97703,1.55575,0.000794875,-0.11074,-0.000326093,0.0993959,0.0058658,-0.00234067,0.000132474,0.464221,-12.8795,-0.747421,-3.5678,0.327142,-49.1753,1.65756,0.0241011,-20,-0.539639,-0.274508,-0.04369,-2.02398,0.0670848,-0.00021213,0.0124449,-0.000244284,0.493817,0.00126665,0.0729777,0.0519668,0.000798204,0.0419997,1.94588,-0.000220001,0.005,1.70439,-0.000842084,-0.0340946,-0.699373,39.8702,-0.813823,0.38405,13.6563,0.153833,2.36831,0.504366,-0.333308,0.0923098,0.217678,-1.70818,0.0241699,0.242236,0.0967636,0.16521,-0.0525229,23.4506,23.2946,23.1385,23.2662,23.1952,23.252,23.1243,
142,6.27282,1.38198,3.15348,4.12271,6.27449,1.97703,1.55575,0.000794875,-0.11074,-0.000326093,0.0993959,0.0058658,-0.00234067,0.000132474,0.466729,-13.0233,-0.765004,-3.67596,0.293905,-49.7251,1.67937,0.0247673,-20,-0.542812,-0.293481,-0.0439209,-2.07849,0.0688289,-0.000216059,0.0126493,-0.000251709,0.493817,0.00126665,0.0729777,0.0519668,0.000798204,0.0419997,1.94485,-0.000239175,0.005,1.7036,-0.000933641,-0.0332997,-0.716338,40.384,-0.853296,0.38405,13.6563,0.153833,2.36831,0.504366,-0.333308,0.0923098,0.217678,-1.70818,0.0241699,0.242236,0.0967636,0.16521,-0.0525229,23.4506,23.2946,23.1385,23.2662,23.1952,23.252,23.1243,
143,6.27282,1.38186,3.15348,4.12282,6.2745,1.97703,1.55575,0.000662396,-0.11109,-0.000326093,0.100714,0.00702073,-0.00245776,0.000132474,0.466638,-13.0212,-0.765087,-3.67667,0.293617,-49.7224,1.67874,0.0247521,-20,-0.542853,-0.291334,-0.0438997,-2.07874,0.06881,-0.000216059,0.0126493,-0.000251709,0.493817,0.00126665,0.0729777,0.0524162,0.000966462,0.0421154,1.94485,-0.000239175,0.005,1.7036,-0.000933641,-0.0332997,-0.716338,40.384,-0.853296,0.388912,14.0614,0.19156,2.37755,0.501406,-0.517267,0.0663737,0.201416,-1.74837,0.0241699,0.218125,0.0927389,0.161133,-0.0324774,23.4506,23.2946,23.1385,23.2946,23.1952,23.2378,23.1243,
144,6.27282,1.38186,3.15348,4.12282,6.2745,1.97703,1.55575,0.000662396,-0.11109,-0.000326093,0.100714,0.00702073,-0.00245776,0.000132474,0.470038,-13.1984,-0.791699,-3.81146,0.239259,-50.4111,1.71349,0.0256553,-20,-0.547112,-0.315141,-0.0442611,-2.14752,0.0718043,-0.000221713,0.0128714,-0.000260707,0.493817,0.00126665,0.0729777,0.0524162,0.000966462,0.0421154,1.94374,-0.000262224,0.005,1.70219,-0.00110582,-0.0334038,-0.745499,41.0298,-0.913892,0.388912,14.0614,0.19156,2.37755,0.501406,-0.517267,0.0663737,0.201416,-1.74837,0.0241699,0.218125,0.0927389,0.161133,-0.0324774,23.4506,23.2946,23.1385,23.2946,23.1952,23.2378,23.1243,
145,6.27282,1.38186,3.15348,4.12282,6.2745,1.97703,1.55575,0.000662396,-0.11109,-0.000326093,0.100714,0.00702073,-0.00245776,0.000132474,0.470038,-13.1984,-0.791699,-3.81146,0.239259,-50.4111,1.71349,0.0256553,-20,-0.547112,-0.315141,-0.0442611,-2.14752,0.0718043,-0.000221713,0.0128714,-0.000260707,0.493817,0.00126665,0.0729777,0.0524162,0.000966462,0.0421154,1.94374,-0.000262224,0.005,1.70219,-0.00110582,-0.0334038,-0.745499,41.0298,-0.913892,0.388912,14.0614,0.19156,2.37755,0.501406,-0.517267,0.0663737,0.201416,-1.74837,0.0241699,0.218125,0.0927389,0.161133,-0.0324774,23.4506,23.2946,23.1385,23.2946,23.1952,23.2378,23.1243,
146,6.27282,1.38186,3.15348,4.12282,6.2745,1.97703,1.55575,0.000662396,-0.11109,-0.000326093,0.100714,0.00702073,-0.00245776,0.000132474,0.470038,-13.1984,-0.791699,-3.81146,0.239259,-50.4111,1.71349,0.0256553,-20,-0.547112,-0.315141,-0.0442611,-2.14752,0.0718043,-0.000221713,0.0128714,-0.000260707,0.493817,0.00126665,0.0729777,0.0524162,0.000966462,0.0421154,1.94374,-0.000262224,0.005,1.70219,-0.00110582,-0.0334038,-0.745499,41.0298,-0.913892,0.388912,14.0614,0.19156,2.37755,0.501406,-0.517267,0.0663737,0.201416,-1.74837,0.0241699,0.218125,0.0927389,0.161133,-0.0324774,23.4506,23.2946,23.1385,23.2946,23.1952,23.2378,23.1243,
147,6.27282,1.38176,3.15348,4.12292,6.27451,1.97703,1.55575,0.000596156,-0.106959,-0.000320055,0.0991258,0.00794973,-0.00284795,0.000132575,0.470023,-13.197,-0.791801,-3.81139,0.239094,-50.4098,1.71304,0.0256398,-20,-0.547134,-0.31248,-0.0442466,-2.14791,0.0717852,-0.000221713,0.0128714,-0.000260707,0.493817,0.00126665,0.0729777,0.0510859,0.00106835,0.0404717,1.94374,-0.000262224,0.005,1.70219,-0.00110582,-0.0334038,-0.745499,41.0298,-0.913892,0.311512,14.3471,0.211611,2.356,0.446177,-0.696553,0.0654618,0.20206,-1.71654,0.0332184,0.193527,0.0849775,0.161183,-0.0324774,23.4506,23.3087,23.1243,23.2662,23.1811,23.2378,23.1243,
148,6.27282,1.38176,3.15348,4.12292,6.27451,1.97703,1.55575,0.000596156,-0.106959,-0.000320055,0.0991258,0.00794973,-0.00284795,0.000132575,0.472303,-13.2994,-0.813871,-3.88533,0.189207,-50.7932,1.73935,0.0262453,-20,-0.550076,-0.325214,-0.0445614,-2.18534,0.0742185,-0.000227163,0.0130708,-0.00026958,0.493817,0.00126665,0.0729777,0.0510859,0.00106835,0.0404717,1.94273,-0.000284298,0.005,1.70248,-0.00121738,-0.0319245,-0.769172,41.3843,-0.964753,0.311512,14.3471,0.211611,2.356,0.446177,-0.696553,0.0654618,0.20206,-1.71654,0.0332184,0.193527,0.0849775,0.161183,-0.0324774,23.4506,23.3087,23.1243,23.2662,23.1811,23.2378,23.1243,
149,6.27282,1.38176,3.15348,4.12292,6.27451,1.97703,1.55575,0.000596156,-0.106959,-0.000320055,0.0991258,0.00794973,-0.00284795,0.000132575,0.472303,-13.2994,-0.813871,-3.88533,0.189207,-50.7932,1.73935,0.0262453,-20,-0.550076,-0.325214,-0.0445614,-2.18534,0.0742185,-0.000227163,0.0130708,-0.00026958,0.493817,0.00126665,0.0729777,0.0510859,0.00106835,0.0404717,1.94273,-0.000284298,0.005,1.70248,-0.00121738,-0.0319245,-0.769172,41.3843,-0.964753,0.311512,14.3471,0.211611,2.356,0.446177,-0.696553,0.0654618,0.20206,-1.71654,0.0332184,0.193527,0.0849775,0.161183,-0.0324774,23.4506,23.3087,23.1243,23.2662,23.1811,23.2378,23.1243,
150,6.27282,1.38176,3.15348,4.12292,6.27451,1.97703,1.55575,0.000596156,-0.106959,-0.000320055,0.0991258,0.00794973,-0.00284795,0.000132575,0.472303,-13.2994,-0.813871,-3.88533,0.189207,-50.7932,1.73935,0.0262453,-20,-0.550076,-0.325214,-0.0445614,-2.18534,0.0742185,-0.000227163,0.0130708,-0.00026958,0.493817,0.00126665,0.0729777,0.0510859,0.00106835,0.0404717,1.94273,-0.000284298,0.005,1.70248,-0.00121738,-0.0319245,-0.769172,41.3843,-0.964753,0.311512,14.3471,0.211611,2.356,0.446177,-0.696553,0.0654618,0.20206,-1.71654,0.0332184,0.193527,0.0849775,0.161183,-0.0324774,23.4506,23.3087,23.1243,23.2662,23.1811,23.2378,23.1243,
151,6.27282,1.38166,3.15348,4.12301,6.27452,1.97702,1.55575,0.000596156,-0.103447,-0.000320055,0.0975052,0.00847761,-0.00340408,0.000143181,0.472331,-13.2979,-0.813966,-3.88529,0.189137,-50.7918,1.73902,0.026229,-20,-0.550092,-0.322681,-0.0445543,-2.1857,0.0742021,-0.000227163,0.0130708,-0.00026958,0.493817,0.00126665,0.0729777,0.0498773,0.00110765,0.0390568,1.94273,-0.000284298,0.005,1.70248,-0.00121738,-0.0319245,-0.769172,41.3843,-0.964753,0.308626,14.6426,0.309935,2.31812,0.478808,-0.87308,0.0682811,0.209473,-1.81274,0.0254773,0.193359,0.0849775,0.177292,-0.0402832,23.4222,23.3087,23.1527,23.2804,23.1952,23.2662,23.1101,
152,6.27282,1.38166,3.15348,4.12301,6.27452,1.97702,1.55575,0.000596156,-0.103447,-0.000320055,0.0975052,0.00847761,-0.00340408,0.000143181,0.474257,-13.398,-0.829993,-3.95797,0.155736,-51.1679,1.75794,0.0267407,-20,-0.552574,-0.335197,-0.0447705,-2.22249,0.0758272,-0.000231418,0.013263,-0.000277919,0.493817,0.00126665,0.0729777,0.0498773,0.00110765,0.0390568,1.94175,-0.000305049,0.005,1.70268,-0.00127143,-0.0306512,-0.784971,41.7326,-1.00105,0.308626,14.6426,0.309935,2.31812,0.478808,-0.87308,0.0682811,0.209473,-1.81274,0.0254773,0.193359,0.0849775,0.177292,-0.0402832,23.4222,23.3087,23.1527,23.2804,23.1952,23.2662,23.1101,
153,6.27282,1.38156,3.15348,4.12311,6.27453,1.97702,1.55575,0.000590043,-0.101557,-0.000313792,0.0972351,0.00871249,-0.00399941,0.000151021,0.47429,-13.3964,-0.830066,-3.9582,0.155676,-51.1661,1.75759,0.0267245,-20,-0.552591,-0.332954,-0.0447667,-2.22279,0.0758089,-0.000231418,0.013263,-0.000277919,0.493817,0.00126665,0.0729777,0.0493994,0.00112548,0.0382583,1.94175,-0.000305049,0.005,1.70268,-0.00127143,-0.0306512,-0.784971,41.7326,-1.00105,0.232522,14.9107,0.368798,2.27407,0.491698,-1.07903,0.0554176,0.201416,-1.86115,0.0332184,0.225586,0.076961,0.169381,-0.0371393,23.4506,23.3087,23.1527,23.2804,23.2094,23.252,23.1101,
154,6.27282,1.38156,3.15348,4.12311,6.27453,1.97702,1.55575,0.000590043,-0.101557,-0.000313792,0.0972351,0.00871249,-0.00399941,0.000151021,0.476319,-13.5165,-0.843658,-4.04786,0.131186,-51.6245,1.77546,0.0272634,-20,-0.555164,-0.348595,-0.0449349,-2.26815,0.0772063,-0.00023586,0.0134521,-0.000286729,0.493817,0.00126665,0.0729777,0.0493994,0.00112548,0.0382583,1.94077,-0.000326708,0.005,1.70224,-0.00130697,-0.0299324,-0.798577,42.1603,-1.03113,0.232522,14.9107,0.368798,2.27407,0.491698,-1.07903,0.0554176,0.201416,-1.86115,0.0332184,0.225586,0.076961,0.169381,-0.0371393,23.4506,23.3087,23.1527,23.2804,23.2094,23.252,23.1101,
155,6.27282,1.38156,3.15348,4.12311,6.27453,1.97702,1.55575,0.000590043,-0.101557,-0.000313792,0.0972351,0.00871249,-0.00399941,0.000151021,0.476319,-13.5165,-0.843658,-4.04786,0.131186,-51.6245,1.77546,0.0272634,-20,-0.555164,-0.348595,-0.0449349,-2.26815,0.0772063,-0.00023586,0.0134521,-0.000286729,0.493817,0.00126665,0.0729777,0.0493994,0.00112548,0.0382583,1.94077,-0.000326708,0.005,1.70224,-0.00130697,-0.0299324,-0.798577,42.1603,-1.03113,0.232522,14.9107,0.368798,2.27407,0.491698,-1.07903,0.0554176,0.201416,-1.86115,0.0332184,0.225586,0.076961,0.169381,-0.0371393,23.4506,23.3087,23.1527,23.2804,23.2094,23.252,23.1101,
156,6.27282,1.38146,3.15348,4.12321,6.27453,1.97701,1.55575,0.000468042,-0.099666,-0.000303143,0.0977753,0.00794776,-0.00460532,0.000151021,0.476417,-13.5148,-0.843638,-4.04817,0.131378,-51.6225,1.77548,0.0272447,-20,-0.555169,-0.346403,-0.0449404,-2.26842,0.0772006,-0.00023586,0.0134521,-0.000286729,0.493817,0.00126665,0.0729777,0.0491561,0.00109257,0.0374463,1.94077,-0.000326708,0.005,1.70224,-0.00130697,-0.0299324,-0.798577,42.1603,-1.03113,0.229361,15.2205,0.421085,2.25809,0.474496,-1.25781,0.0502699,0.209473,-1.88527,0.0402832,0.225586,0.0685998,0.169189,-0.0281982,23.4364,23.3087,23.1385,23.2662,23.1811,23.252,23.1101,
