LWingKi/MAS_RnD/log/us1/contactless/41/grasp_log_11_08_2023_18_55_36.csv
Index,joint_angle_0,joint_angle_1,joint_angle_2,joint_angle_3,joint_angle_4,joint_angle_5,joint_angle_6,joint_velocity_0,joint_velocity_1,joint_velocity_2,joint_velocity_3,joint_velocity_4,joint_velocity_5,joint_velocity_6,joint_accel_0,joint_accel_1,joint_accel_2,joint_accel_3,joint_accel_4,joint_accel_5,joint_accel_6,constraint_tau_0,constraint_tau_1,constraint_tau_2,constraint_tau_3,constraint_tau_4,constraint_tau_5,constraint_tau_6,current_pos_x,current_pos_y,current_pos_z,target_pos_x,target_pos_y,target_pos_z,current_vel_x,current_vel_y,current_vel_z,target_vel_x,target_vel_y,target_vel_z,control_signal_linear_x,control_signal_linear_y,control_signal_linear_z,control_signal_angular_x,control_signal_angular_y,control_signal_angular_z,joint_torque_0,joint_torque_1,joint_torque_2,joint_torque_3,joint_torque_4,joint_torque_5,joint_torque_6,actuar_current_0,actuar_current_1,actuar_current_2,actuar_current_3,actuar_current_4,actuar_current_5,actuar_current_6,actuar_voltage_0,actuar_voltage_1,actuar_voltage_2,actuar_voltage_3,actuar_voltage_4,actuar_voltage_5,actuar_voltage_6
0,6.27153,1.52739,3.15365,4.23822,6.27087,2.00111,1.55357,-5.29498e-06,0,0,0,0,0,0,0.267399,0.00578361,-0.276321,0.00803243,0.280778,0.00537579,0.393264,0.000869983,-16.5739,-0.326535,-3.33328,-0.0354586,2.19979,-0.00393608,0,0,0,0.395042,0.00134017,0.0172573,-7.09076e-09,2.09174e-06,1.53668e-11,0,0,0,0,0,0,0,0,0,1.70186,3.50056,-0.798749,-6.55408,0.949985,-2.76353,-0.0110373,-0.0809682,-0.0809682,0.161936,0.435059,-0.0254773,0.58412,-0.0284845,23.479,23.3513,23.1811,23.2946,23.3229,23.3229,23.1527,
1,6.27309,1.5286,3.15289,4.23603,6.27098,2.00128,1.55357,0.00851811,0.00676193,-0.0129647,-0.030521,0.00702102,0.00139458,1.05901e-05,0.288915,0.00669243,-0.297403,0.00844719,0.302583,0.00600334,0.424916,0.00663987,-16.5497,-0.32811,-3.36105,-0.0338569,2.1994,-0.00405944,0,0,0,0.395042,0.00134017,0.0172573,-0.0105624,0.000914213,-0.00161136,0,0,0,2.12723e-07,-6.27521e-05,-4.61003e-10,1.41903e-21,7.77981e-11,-1.059e-05,0.734189,0.916829,-1.24967,-1.2247,0.58651,-0.466929,0.0561129,0.531799,0.354584,-0.225586,-0.136963,0.153129,0.402832,-0.0404841,23.479,23.3371,23.1811,23.3087,23.3229,23.3087,23.1669,
2,6.27309,1.5286,3.15287,4.236,6.27099,2.00129,1.55357,0.00918331,0.00676193,-0.0129647,-0.0280861,0.0107321,0.00141305,1.0582e-05,0.374465,-2.7638,-1.88087,2.52935,0.535776,-4.86798,2.27298,0.030141,-18.3564,-0.501364,-2.38801,0.0519357,2.38628,-0.000647797,-0.000775951,-0.00323426,0.00143898,0.395042,0.00134017,0.0172573,-0.009867,0.00101543,-0.00167833,0.0379468,0.0157177,0.0158113,1.45528,0.444105,0.52268,-0.108655,-0.395659,0.147744,0.727869,0.868593,-1.21728,-1.07602,0.614686,-0.507882,0.00939398,0.547852,0.346529,-0.241699,-0.185478,0.128969,0.398824,-0.0284845,23.4648,23.3371,23.1811,23.3229,23.3229,23.3087,23.1669,
3,6.2731,1.52861,3.15286,4.23598,6.27101,2.00128,1.55357,0.00972351,0.00701897,-0.0129515,-0.0253892,0.014571,0.00118381,1.0582e-05,0.374162,-2.76403,-1.86616,2.49904,0.529504,-4.8396,2.26034,0.0300391,-18.3563,-0.500156,-2.39633,0.0509884,2.38678,-6.97515e-05,-0.000794384,-0.00326896,0.00143474,0.395042,0.00134017,0.0172573,-0.0091659,0.001174,-0.00188008,0.0383574,0.0156632,0.0158691,1.44673,0.439433,0.526424,-0.113668,-0.394328,0.141862,0.738492,0.865995,-1.18684,-0.901137,0.571277,-0.531157,-0.000114173,0.523682,0.346529,-0.233643,-0.241833,0.100789,0.394796,-0.036478,23.479,23.3371,23.1811,23.3087,23.3229,23.3229,23.1669,
4,6.2731,1.52861,3.15286,4.23598,6.27101,2.00128,1.55357,0.00972351,0.00701897,-0.0129515,-0.0253892,0.014571,0.00118381,1.0582e-05,0.373068,-2.77509,-1.84393,2.45331,0.521996,-4.80612,2.23988,0.0297382,-18.3634,-0.498506,-2.40729,0.0495868,2.38847,0.000566763,-0.000814645,-0.00330373,0.00142717,0.395042,0.00134017,0.0172573,-0.0091659,0.001174,-0.00188008,0.0387247,0.0156006,0.0159648,1.43672,0.432797,0.535348,-0.118946,-0.393492,0.135168,0.738492,0.865995,-1.18684,-0.901137,0.571277,-0.531157,-0.000114173,0.523682,0.346529,-0.233643,-0.241833,0.100789,0.394796,-0.036478,23.479,23.3371,23.1811,23.3087,23.3229,23.3229,23.1669,
5,6.27311,1.52862,3.15285,4.23595,6.27103,2.00128,1.55357,0.0095292,0.00766845,-0.0135049,-0.0237686,0.0189762,0.000449031,1.0582e-05,0.373555,-2.77519,-1.84439,2.4532,0.522436,-4.80623,2.24054,0.0298477,-18.3632,-0.498539,-2.4076,0.0496199,2.38847,0.000564575,-0.000814645,-0.00330373,0.00142717,0.395042,0.00134017,0.0172573,-0.00888015,0.00183301,-0.00225757,0.0387247,0.0156006,0.0159648,1.43672,0.432797,0.535348,-0.118946,-0.393492,0.135168,0.745177,0.835086,-1.20425,-0.761356,0.529731,-0.532873,0.0012621,0.515877,0.34681,-0.225586,-0.290151,0.0725098,0.386803,-0.0444942,23.479,23.3371,23.1669,23.3229,23.3371,23.3087,23.1669,
6,6.27312,1.52862,3.15283,4.23593,6.27105,2.00128,1.55357,0.00918331,0.00754216,-0.014043,-0.0224181,0.0205274,-0.000163284,1.05901e-05,0.370008,-2.81459,-1.7662,2.42295,0.512582,-4.81323,2.16529,0.0288587,-18.3886,-0.492758,-2.41126,0.0450893,2.39204,0.00161227,-0.000836119,-0.00333972,0.00141867,0.395042,0.00134017,0.0172573,-0.00846321,0.00227436,-0.00230535,0.0390825,0.0155342,0.0160832,1.43888,0.411035,0.550222,-0.125926,-0.396754,0.125878,0.73465,0.844571,-1.20139,-0.640625,0.53864,-0.574609,0.00563613,0.523744,0.210091,-0.218125,-0.33042,0.0180152,0.394858,-0.0402832,23.4648,23.3513,23.1669,23.3229,23.3229,23.2946,23.1669,
7,6.27312,1.52862,3.15283,4.23593,6.27105,2.00128,1.55357,0.00918331,0.00754216,-0.014043,-0.0224181,0.0205274,-0.000163284,1.05901e-05,0.366888,-2.82362,-1.70642,2.40495,0.507206,-4.80333,2.10792,0.0280008,-18.3944,-0.488011,-2.41479,0.0417157,2.3931,0.00235069,-0.000859211,-0.00337346,0.00140903,0.395042,0.00134017,0.0172573,-0.00846321,0.00227436,-0.00230535,0.0394152,0.0154326,0.0161876,1.43635,0.394747,0.554789,-0.130648,-0.398454,0.121352,0.73465,0.844571,-1.20139,-0.640625,0.53864,-0.574609,0.00563613,0.523744,0.210091,-0.218125,-0.33042,0.0180152,0.394858,-0.0402832,23.4648,23.3513,23.1669,23.3229,23.3229,23.2946,23.1669,
8,6.27312,1.52862,3.15283,4.23593,6.27105,2.00128,1.55357,0.00918331,0.00754216,-0.014043,-0.0224181,0.0205274,-0.000163284,1.05901e-05,0.366888,-2.82362,-1.70642,2.40495,0.507206,-4.80333,2.10792,0.0280008,-18.3944,-0.488011,-2.41479,0.0417157,2.3931,0.00235069,-0.000859211,-0.00337346,0.00140903,0.395042,0.00134017,0.0172573,-0.00846321,0.00227436,-0.00230535,0.0394152,0.0154326,0.0161876,1.43635,0.394747,0.554789,-0.130648,-0.398454,0.121352,0.73465,0.844571,-1.20139,-0.640625,0.53864,-0.574609,0.00563613,0.523744,0.210091,-0.218125,-0.33042,0.0180152,0.394858,-0.0402832,23.4648,23.3513,23.1669,23.3229,23.3229,23.2946,23.1669,
9,6.27313,1.52863,3.15282,4.23591,6.27107,2.00128,1.55357,0.0102637,0.00594214,-0.0148554,-0.0225479,0.0172862,-0.000208741,0,0.367297,-2.8237,-1.70696,2.40496,0.507404,-4.80344,2.10839,0.0281244,-18.3942,-0.488067,-2.41502,0.0417695,2.39311,0.00234727,-0.000859211,-0.00337346,0.00140903,0.395042,0.00134017,0.0172573,-0.00807254,0.00177166,-0.00166421,0.0394152,0.0154326,0.0161876,1.43635,0.394747,0.554789,-0.130648,-0.398454,0.121352,0.735505,0.860907,-1.19743,-0.515125,0.545385,-0.564983,0.0462001,0.531738,0,-0.233643,-0.394775,-0.00569691,0.410889,-0.0483398,23.479,23.3655,23.1952,23.3229,23.3229,23.3087,23.1669,
10,6.27314,1.52863,3.1528,4.23588,6.27109,2.00128,1.55357,0.00972351,0.00189068,-0.0153956,-0.0240387,0.0151255,-0.000141846,0,0.370067,-2.77727,-1.75387,2.4422,0.515328,-4.79352,2.15946,0.0288836,-18.3637,-0.491173,-2.41054,0.0445846,2.38916,0.00226126,-0.000881642,-0.0034033,0.00140333,0.395042,0.00134017,0.0172573,-0.00741446,0.00193759,-1.33275e-05,0.0397392,0.0153628,0.0162335,1.43435,0.407734,0.536932,-0.131839,-0.398511,0.128759,0.732714,0.848675,-1.19106,-0.422137,0.543488,-0.52415,0.0404254,0.507632,-0.201416,-0.209628,-0.410968,0.0322266,0.422993,-0.0523682,23.4932,23.3513,23.1811,23.3229,23.3087,23.3087,23.1669,
11,6.27314,1.52862,3.15279,4.23586,6.2711,2.00128,1.55357,0.00972351,-0.00520149,-0.016746,-0.0261995,0.0125384,0.000123491,0,0.368741,-2.64176,-1.72651,2.52774,0.515621,-4.74696,2.13285,0.028517,-18.2751,-0.486811,-2.40245,0.0433567,2.37716,0.00254424,-0.00090284,-0.00342551,0.00139897,0.395042,0.00134017,0.0172573,-0.00613495,0.00208678,0.00288197,0.0400016,0.015286,0.0161854,1.42248,0.400452,0.485963,-0.133274,-0.395426,0.131149,0.732714,0.920592,-1.18263,-0.334992,0.574512,-0.464598,0.0349418,0.507632,-0.394775,-0.201577,-0.378662,0.0443115,0.43103,-0.036478,23.4932,23.3513,23.1669,23.3229,23.3371,23.3087,23.1669,
12,6.27315,1.52862,3.15279,4.23586,6.2711,2.00128,1.55357,0.00971366,-0.00520149,-0.016746,-0.0261995,0.0125384,0.000123491,0,0.365811,-2.38287,-1.68262,2.65599,0.51456,-4.62608,2.08983,0.0277112,-18.1063,-0.479177,-2.3962,0.0414218,2.35472,0.00305693,-0.00092475,-0.00343734,0.00138638,0.395042,0.00134017,0.0172573,-0.00613494,0.00209072,0.00288197,0.0401961,0.0150481,0.0159818,1.38993,0.38884,0.392994,-0.136088,-0.386169,0.134507,0.746808,0.920592,-1.18263,-0.334992,0.574512,-0.464598,0.0349418,0.523929,-0.394775,-0.201577,-0.378662,0.0443115,0.43103,-0.036478,23.4648,23.3513,23.1669,23.3229,23.3371,23.3087,23.1669,
13,6.27316,1.5286,3.15277,4.23583,6.27111,2.00129,1.55357,0.0100307,-0.00912883,-0.0178046,-0.0283602,0.0108039,0.000529916,0,0.367255,-2.38259,-1.69961,2.65664,0.516046,-4.62625,2.10733,0.0280994,-18.1059,-0.480558,-2.39627,0.042377,2.35474,0.00298203,-0.000924767,-0.00343733,0.00139597,0.395042,0.00134017,0.0172573,-0.00570231,0.00210578,0.00454137,0.0401958,0.0151992,0.0159818,1.38992,0.393255,0.392994,-0.13609,-0.386168,0.135446,0.765653,1.00265,-1.17122,-0.276493,0.578582,-0.410958,0.0248097,0.515688,-0.467355,-0.185478,-0.354584,0.0605589,0.439105,-0.0443115,23.479,23.3371,23.1669,23.3087,23.3229,23.3229,23.1527,
14,6.27317,1.52858,3.15275,4.2358,6.27112,2.00129,1.55357,0.0102637,-0.0237445,-0.0194273,-0.030343,0.00971366,0.000889385,0,0.366772,-2.22921,-1.68761,2.77021,0.517633,-4.5905,2.09821,0.0279518,-18.0055,-0.477154,-2.38278,0.0420214,2.34075,0.00336078,-0.000948031,-0.00344195,0.00139632,0.395042,0.00134017,0.0172573,-0.00235735,0.00240536,0.0104065,0.0403345,0.0151115,0.0156494,1.3811,0.390172,0.333241,-0.139109,-0.382255,0.139207,0.777485,1.08672,-1.13973,-0.182648,0.599619,-0.371428,0.0244036,0.507632,-0.604302,-0.153288,-0.314312,0.0814677,0.447162,-0.0371393,23.4648,23.3371,23.1952,23.3087,23.3371,23.3087,23.1669,
15,6.27317,1.52858,3.15275,4.2358,6.27113,2.0013,1.55357,0.0102637,-0.0237445,-0.0194273,-0.030343,0.00864312,0.00126852,0,0.363301,-1.66926,-1.64529,2.95585,0.510129,-4.24246,2.0533,0.0269982,-17.6406,-0.464931,-2.39417,0.0405612,2.29393,0.00413129,-0.000971137,-0.00344455,0.00139715,0.395042,0.00134017,0.0172573,-0.00235699,0.00230295,0.0104482,0.0404549,0.0150162,0.0152138,1.28437,0.378326,0.144217,-0.143999,-0.356533,0.141628,0.777485,1.08672,-1.13973,-0.182648,0.603972,-0.331709,-0.00336803,0.507632,-0.604302,-0.153288,-0.314312,0.088623,0.455218,-0.0362549,23.4648,23.3371,23.1952,23.3087,23.3229,23.3229,23.1811,
16,6.27318,1.52855,3.15273,4.23576,6.27113,2.0013,1.55357,0.00972351,-0.0302509,-0.0205274,-0.0321416,0.00864312,0.00126852,0,0.364307,-1.66427,-1.6533,2.961,0.5117,-4.24405,2.06133,0.0272569,-17.6371,-0.465493,-2.39354,0.0410272,2.29328,0.0040414,-0.000974704,-0.00343709,0.00138929,0.395042,0.00134017,0.0172573,-0.0011318,0.00284158,0.0130691,0.0404548,0.0149829,0.0151821,1.28435,0.380398,0.142016,-0.143454,-0.354998,0.142771,0.77265,1.24062,-1.09656,-0.111829,0.603972,-0.331709,-0.00336803,0.507568,-0.467563,-0.153922,-0.282097,0.088623,0.455218,-0.0362549,23.4648,23.3513,23.1811,23.3087,23.3229,23.3229,23.1811,
17,6.27319,1.52851,3.15271,4.23573,6.27114,2.00131,1.55357,0.0102637,-0.0345725,-0.0213377,-0.0329185,0.00902766,0.00159454,0,0.360708,-1.40012,-1.58531,3.08395,0.506809,-4.11295,1.9939,0.026248,-17.4646,-0.455798,-2.38925,0.0376984,2.27052,0.00481614,-0.000994936,-0.00343903,0.00139834,0.395042,0.00134017,0.0172573,-0.000198329,0.00290626,0.0148336,0.040498,0.0149037,0.0146694,1.24889,0.361864,0.0480093,-0.147771,-0.345798,0.142541,0.711991,1.50932,-1.10159,-0.0218899,0.605889,-0.299436,0.0037805,0.507568,-0.531799,-0.128906,-0.249886,0.100789,0.455218,-0.0402832,23.4648,23.3513,23.1811,23.3087,23.3229,23.3087,23.1669,
18,6.27319,1.52851,3.15271,4.23573,6.27114,2.00131,1.55357,0.0102637,-0.0345725,-0.0213377,-0.0329185,0.00902766,0.00159454,0,0.359189,-1.19884,-1.56554,3.17535,0.503638,-4.01191,1.97605,0.0258303,-17.3334,-0.451034,-2.38669,0.0369099,2.25314,0.00539257,-0.00102002,-0.00343034,0.00139907,0.395042,0.00134017,0.0172573,-0.000198329,0.00290626,0.0148336,0.0405075,0.014786,0.014061,1.22118,0.356393,-0.0231786,-0.152292,-0.337214,0.142932,0.711991,1.50932,-1.10159,-0.0218899,0.605889,-0.299436,0.0037805,0.507568,-0.531799,-0.128906,-0.249886,0.100789,0.455218,-0.0402832,23.4648,23.3513,23.1811,23.3087,23.3229,23.3087,23.1669,
19,6.2732,1.52847,3.15268,4.2357,6.27115,2.00132,1.55357,0.0100307,-0.0376153,-0.0225692,-0.033222,0.00936268,0.00204013,0,0.359925,-1.19884,-1.56628,3.17552,0.504168,-4.01211,1.97691,0.0260117,-17.3333,-0.45109,-2.38667,0.0369544,2.25314,0.00538873,-0.00102002,-0.00343034,0.00139907,0.395042,0.00134017,0.0172573,0.00052552,0.00338845,0.0160982,0.0405075,0.014786,0.014061,1.22118,0.356393,-0.0231786,-0.152292,-0.337214,0.142932,0.763369,1.75966,-1.11471,0.0225539,0.600877,-0.27832,0.00436147,0.499512,-0.612358,-0.11308,-0.233781,0.10103,0.467303,-0.0402832,23.479,23.3513,23.1527,23.3087,23.3229,23.3087,23.1385,
20,6.27321,1.52843,3.15266,4.23566,6.27115,2.00133,1.55357,0.00972351,-0.0405146,-0.0232284,-0.0331014,0.00877772,0.00361974,0,0.356557,-1.03197,-1.49733,3.24982,0.500198,-3.92845,1.91079,0.0250647,-17.2242,-0.44284,-2.38473,0.0334203,2.23846,0.00628143,-0.00104808,-0.00341302,0.00140014,0.395042,0.00134017,0.0172573,0.0013343,0.00365123,0.0174115,0.0404562,0.0146426,0.0133444,1.19792,0.337626,-0.0826154,-0.157895,-0.329146,0.141851,0.845455,1.94274,-1.03936,0.0976002,0.606496,-0.293079,0.00621094,0.499577,-0.692918,-0.0970148,-0.249756,0.0974321,0.467355,-0.0402832,23.479,23.3371,23.1811,23.3087,23.3229,23.2946,23.1243,
21,6.27321,1.52843,3.15266,4.23566,6.27115,2.00133,1.55357,0.00972351,-0.0405146,-0.0232284,-0.0331014,0.00877772,0.00361974,0,0.353781,-0.859883,-1.45238,3.32313,0.497556,-3.84082,1.86712,0.0243016,-17.1121,-0.436475,-2.38369,0.0312355,2.22319,0.00685702,-0.00107416,-0.00339899,0.00140218,0.395042,0.00134017,0.0172573,0.0013343,0.00365123,0.0174115,0.0404322,0.0145031,0.0126294,1.17294,0.325556,-0.143463,-0.161383,-0.318541,0.142389,0.845455,1.94274,-1.03936,0.0976002,0.606496,-0.293079,0.00621094,0.499577,-0.692918,-0.0970148,-0.249756,0.0974321,0.467355,-0.0402832,23.479,23.3371,23.1811,23.3087,23.3229,23.2946,23.1243,
22,6.27322,1.52839,3.15264,4.23563,6.27116,2.00134,1.55357,0.00917401,-0.0448362,-0.0232284,-0.0337622,0.00864312,0.00737554,0,0.354478,-0.859876,-1.45308,3.32318,0.498202,-3.84086,1.86799,0.0244726,-17.1119,-0.436528,-2.38373,0.0312757,2.2232,0.00685349,-0.00107416,-0.00339899,0.00140218,0.395042,0.00134017,0.0172573,0.00230334,0.00387096,0.0195299,0.0404322,0.0145031,0.0126294,1.17294,0.325556,-0.143463,-0.161383,-0.318541,0.142389,0.841213,2.21028,-0.999859,0.196538,0.59014,-0.283048,0.00471449,0.507568,-0.78166,-0.0889885,-0.233643,0.108765,0.467285,-0.0404841,23.4648,23.3513,23.1811,23.3087,23.3087,23.2946,23.1669,
23,6.27323,1.52834,3.15261,4.2356,6.27117,2.00136,1.55357,0.00810292,-0.0480286,-0.0232284,-0.0329519,0.0077244,0.0118554,0,0.352452,-0.617684,-1.41313,3.43836,0.493667,-3.73143,1.82722,0.0238952,-16.9539,-0.429475,-2.37917,0.0294197,2.20122,0.00733432,-0.00110075,-0.00337632,0.00140265,0.395042,0.00134017,0.0172573,0.0033897,0.00422247,0.0212424,0.0403427,0.0143502,0.0118402,1.14118,0.314378,-0.230692,-0.163992,-0.301437,0.141471,0.760542,2.52918,-0.960067,0.194726,0.603118,-0.174927,0.00107476,0.547911,-0.838046,-0.0966797,-0.234198,0.112865,0.447144,-0.0362549,23.4648,23.3371,23.1811,23.3229,23.3229,23.3087,23.1669,
24,6.27323,1.52834,3.15261,4.2356,6.27117,2.00136,1.55357,0.00810292,-0.0480286,-0.0232284,-0.0329519,0.0077244,0.0118554,0,0.348939,-0.396191,-1.35591,3.51721,0.488915,-3.60946,1.76834,0.0229291,-16.8095,-0.42133,-2.382,0.0266089,2.18114,0.00781572,-0.00112693,-0.00334658,0.00140295,0.395042,0.00134017,0.0172573,0.0033897,0.00422247,0.0212424,0.0402098,0.0141841,0.0109884,1.1046,0.298848,-0.307622,-0.165902,-0.281473,0.140861,0.760542,2.52918,-0.960067,0.194726,0.603118,-0.174927,0.00107476,0.547911,-0.838046,-0.0966797,-0.234198,0.112865,0.447144,-0.0362549,23.4648,23.3371,23.1811,23.3229,23.3229,23.3087,23.1669,
25,6.27323,1.52834,3.15261,4.2356,6.27117,2.00136,1.55357,0.00810292,-0.0480286,-0.0232284,-0.0329519,0.0077244,0.0118554,0,0.348939,-0.396191,-1.35591,3.51721,0.488915,-3.60946,1.76834,0.0229291,-16.8095,-0.42133,-2.382,0.0266089,2.18114,0.00781572,-0.00112693,-0.00334658,0.00140295,0.395042,0.00134017,0.0172573,0.0033897,0.00422247,0.0212424,0.0402098,0.0141841,0.0109884,1.1046,0.298848,-0.307622,-0.165902,-0.281473,0.140861,0.760542,2.52918,-0.960067,0.194726,0.603118,-0.174927,0.00107476,0.547911,-0.838046,-0.0966797,-0.234198,0.112865,0.447144,-0.0362549,23.4648,23.3371,23.1811,23.3229,23.3229,23.3087,23.1669,
26,6.27324,1.52829,3.15259,4.23557,6.27118,2.00138,1.55357,0.00902766,-0.0521598,-0.0220469,-0.0316014,0.00772185,0.0167666,0,0.349677,-0.396083,-1.35672,3.51702,0.489806,-3.60917,1.76936,0.0231015,-16.8093,-0.421391,-2.38203,0.0266517,2.18115,0.00781153,-0.00112693,-0.00334658,0.00140295,0.395042,0.00134017,0.0172573,0.00488708,0.0035443,0.0233447,0.0402098,0.0141841,0.0109884,1.1046,0.298848,-0.307622,-0.165902,-0.281473,0.140861,0.787702,2.81326,-0.95572,0.113954,0.590577,-0.0650318,0.0119155,0.555967,-0.870266,-0.088623,-0.257938,0.116821,0.40686,-0.0485074,23.479,23.3371,23.1811,23.3087,23.3087,23.3087,23.1669,
27,6.27324,1.52829,3.15259,4.23557,6.27118,2.00138,1.55357,0.00902766,-0.0521598,-0.0220469,-0.0316014,0.00772185,0.0167666,0,0.352297,-0.117175,-1.41787,3.59686,0.487686,-3.43453,1.82771,0.0238218,-16.6276,-0.422017,-2.39151,0.030397,2.15685,0.0076392,-0.00115375,-0.00330353,0.00140475,0.395042,0.00134017,0.0172573,0.00488708,0.0035443,0.0233447,0.0399733,0.0140358,0.00999185,1.05259,0.314745,-0.400586,-0.166314,-0.256359,0.142805,0.787702,2.81326,-0.95572,0.113954,0.590577,-0.0650318,0.0119155,0.555967,-0.870266,-0.088623,-0.257938,0.116821,0.40686,-0.0485074,23.479,23.3371,23.1811,23.3087,23.3087,23.3087,23.1669,
28,6.27325,1.52823,3.15257,4.23553,6.27119,2.00139,1.55357,0.00810292,-0.0564504,-0.0218779,-0.0315968,0.00754635,0.0180752,0,0.352927,-0.117177,-1.41849,3.59688,0.488258,-3.43453,1.82849,0.0239776,-16.6275,-0.42207,-2.3915,0.0304376,2.15686,0.00763543,-0.00115375,-0.00330353,0.00140475,0.395042,0.00134017,0.0172573,0.00603613,0.00385714,0.0251728,0.0399733,0.0140358,0.00999185,1.05259,0.314745,-0.400586,-0.166314,-0.256359,0.142805,0.770211,3.07787,-0.88969,0.076675,0.576207,0.0407152,0.0178133,0.531799,-0.894614,-0.12085,-0.282097,0.120917,0.362638,-0.036478,23.4506,23.3229,23.1527,23.3087,23.3229,23.2946,23.1385,
29,6.27325,1.52823,3.15257,4.23553,6.27119,2.00139,1.55357,0.00810292,-0.0564504,-0.0218779,-0.0315968,0.00754635,0.0180752,0,0.349661,0.129332,-1.36755,3.68442,0.481931,-3.29141,1.77522,0.0230797,-16.4668,-0.414048,-2.39477,0.0279717,2.13547,0.00811487,-0.0011789,-0.00326379,0.00140459,0.395042,0.00134017,0.0172573,0.00603613,0.00385714,0.0251728,0.0397627,0.0138818,0.00899588,1.0118,0.300739,-0.485308,-0.168425,-0.24117,0.141227,0.770211,3.07787,-0.88969,0.076675,0.576207,0.0407152,0.0178133,0.531799,-0.894614,-0.12085,-0.282097,0.120917,0.362638,-0.036478,23.4506,23.3229,23.1527,23.3087,23.3229,23.2946,23.1385,
30,6.27326,1.52817,3.15255,4.2355,6.27119,2.00141,1.55357,0.00810292,-0.0615822,-0.0218779,-0.0334921,0.00789735,0.0172687,0,0.350291,0.129299,-1.36814,3.6847,0.482377,-3.29174,1.77591,0.0232324,-16.4667,-0.414095,-2.39467,0.0280087,2.13548,0.00811129,-0.0011789,-0.00326379,0.00140459,0.395042,0.00134017,0.0172573,0.00686706,0.00389834,0.0271593,0.0397627,0.0138818,0.00899588,1.0118,0.300739,-0.485308,-0.168425,-0.24117,0.141227,0.778612,3.35617,-0.871078,0.0663357,0.589235,0.0916079,0.0189945,0.539795,-0.894323,-0.12085,-0.281982,0.125138,0.350464,-0.0371393,23.4648,23.3371,23.1811,23.2946,23.3087,23.2946,23.1527,
31,6.27326,1.52817,3.15255,4.2355,6.27119,2.00141,1.55357,0.00810292,-0.0615822,-0.0218779,-0.0334921,0.00789735,0.0172687,0,0.34853,0.386093,-1.34722,3.80948,0.477138,-3.16931,1.75417,0.0227483,-16.2993,-0.408369,-2.38922,0.0272031,2.11334,0.00854152,-0.00120433,-0.0032194,0.00140395,0.395042,0.00134017,0.0172573,0.00686706,0.00389834,0.0271593,0.0394932,0.0137252,0.00792623,0.978785,0.294805,-0.576993,-0.17133,-0.23188,0.140591,0.778612,3.35617,-0.871078,0.0663357,0.589235,0.0916079,0.00146924,0.539795,-0.894323,-0.12085,-0.281982,0.125138,0.350464,-0.0324774,23.4648,23.3371,23.1811,23.2946,23.3087,23.2946,23.1669,
32,6.27326,1.52811,3.15253,4.23547,6.2712,2.00143,1.55357,0.00783283,-0.0656337,-0.0205274,-0.0350771,0.00781529,0.0180553,0,0.34913,0.386094,-1.34786,3.80962,0.477761,-3.16943,1.75501,0.0228916,-16.2992,-0.408424,-2.38911,0.0272468,2.11334,0.00853734,-0.00120433,-0.0032194,0.00140395,0.395042,0.00134017,0.0172573,0.00750167,0.00362093,0.0288694,0.0394932,0.0137252,0.00792623,0.978785,0.294805,-0.576993,-0.17133,-0.23188,0.140591,0.69266,3.73348,-0.807548,0.0568118,0.611741,0.195869,0.00146924,0.547911,-0.878322,-0.1372,-0.241833,0.132996,0.370627,-0.0324774,23.479,23.3371,23.1669,23.2804,23.3087,23.3087,23.1669,
33,6.27326,1.52811,3.15253,4.23547,6.2712,2.00143,1.55357,0.00783283,-0.0656337,-0.0205274,-0.0350771,0.00781529,0.0180553,0,0.349374,0.62265,-1.364,3.93372,0.473631,-3.06826,1.76773,0.0229587,-16.1451,-0.406044,-2.3818,0.0284301,2.09248,0.00847648,-0.00122801,-0.00317059,0.00140379,0.395042,0.00134017,0.0172573,0.00750167,0.00362093,0.0288694,0.0391977,0.013579,0.00678233,0.950882,0.298743,-0.662611,-0.170978,-0.220463,0.140304,0.69266,3.73348,-0.807548,0.0568118,0.611741,0.195869,0.00146924,0.547911,-0.878322,-0.1372,-0.241833,0.132996,0.370627,-0.0324774,23.479,23.3371,23.1669,23.2804,23.3087,23.3087,23.1669,
34,6.27327,1.52804,3.15251,4.23543,6.27121,2.00145,1.55357,0.0075589,-0.0671427,-0.0200426,-0.0376153,0.00781724,0.0183666,0,0.350001,0.622703,-1.36465,3.93392,0.474245,-3.0684,1.76863,0.0231075,-16.1449,-0.406099,-2.38154,0.0284765,2.09247,0.00847212,-0.00122801,-0.00317059,0.00140379,0.395042,0.00134017,0.0172573,0.00718016,0.00358936,0.0295599,0.0391977,0.013579,0.00678233,0.950882,0.298743,-0.662611,-0.170978,-0.220463,0.140304,0.742694,4.06261,-0.818391,-0.0301921,0.588054,0.26181,0.030013,0.555967,-0.886267,-0.153288,-0.201577,0.124943,0.366599,-0.0404841,23.479,23.3371,23.1811,23.2946,23.3087,23.2946,23.1669,
35,6.27327,1.52804,3.15251,4.23543,6.27121,2.00145,1.55357,0.0075589,-0.0671427,-0.0200426,-0.0376153,0.00781724,0.0183666,0,0.348842,0.762117,-1.35075,4.06626,0.471491,-3.06499,1.75494,0.0227889,-16.0541,-0.402791,-2.36121,0.0278935,2.07904,0.00870907,-0.00125277,-0.00312152,0.00140365,0.395042,0.00134017,0.0172573,0.00718016,0.00358936,0.0295599,0.0388934,0.0134207,0.00553353,0.951397,0.29494,-0.72079,-0.172467,-0.216982,0.139822,0.742694,4.06261,-0.818391,-0.0301921,0.588054,0.26181,0.030013,0.555967,-0.886267,-0.153288,-0.201577,0.124943,0.366599,-0.0404841,23.479,23.3371,23.1811,23.2946,23.3087,23.2946,23.1669,
36,6.27328,1.52797,3.15249,4.23539,6.27122,2.00147,1.55357,0.00753847,-0.0669842,-0.0200075,-0.0394342,0.00781724,0.0191769,0,0.349428,0.76223,-1.35137,4.06634,0.472092,-3.06496,1.7558,0.0229257,-16.0539,-0.402841,-2.36094,0.0279367,2.07903,0.008705,-0.00125277,-0.00312152,0.00140365,0.395042,0.00134017,0.0172573,0.00661675,0.00358371,0.029631,0.0388934,0.0134207,0.00553353,0.951397,0.29494,-0.72079,-0.172467,-0.216982,0.139822,0.768674,4.3518,-0.727955,0.00316364,0.589435,0.252665,0.038318,0.563965,-0.934709,-0.169189,-0.153288,0.136963,0.366599,-0.0322266,23.479,23.3371,23.1669,23.2946,23.3087,23.2946,23.1527,
37,6.27329,1.5279,3.15247,4.23535,6.27122,2.00149,1.55357,0.00754216,-0.0675244,-0.019967,-0.0405146,0.0074258,0.022148,0,0.348985,0.841545,-1.3375,4.17206,0.471554,-3.09378,1.74416,0.0227769,-16.0021,-0.400474,-2.34096,0.0272918,2.07059,0.00900333,-0.00127611,-0.00307577,0.00140361,0.395042,0.00134017,0.0172573,0.00645209,0.00353661,0.0301875,0.0386324,0.0132873,0.00436491,0.960469,0.291107,-0.757984,-0.17469,-0.21474,0.13979,0.736304,4.71476,-0.668199,0.126717,0.574257,0.244623,0.0330147,0.564195,-1.00708,-0.153288,-0.1372,0.128906,0.366577,-0.0362549,23.4648,23.3229,23.1527,23.2946,23.2946,23.2946,23.1385,
38,6.27329,1.52784,3.15245,4.23531,6.27123,2.00151,1.55357,0.00729263,-0.0680646,-0.0199872,-0.0399744,0.00688806,0.0222974,0,0.348675,0.969243,-1.3281,4.28201,0.471045,-3.08584,1.73613,0.0226663,-15.9188,-0.397715,-2.32515,0.0269797,2.05774,0.0092515,-0.00129877,-0.00302747,0.00140444,0.395042,0.00134017,0.0172573,0.00674869,0.00359164,0.0304032,0.0383779,0.0131514,0.0031737,0.957773,0.288445,-0.810413,-0.176527,-0.205036,0.14052,0.620157,5.1154,-0.633274,0.181202,0.56748,0.306519,0.0236454,0.564022,-1.03125,-0.169381,-0.112793,0.14502,0.342431,-0.0444942,23.479,23.3371,23.1669,23.2946,23.3229,23.2946,23.1527,
39,6.27329,1.52784,3.15245,4.23531,6.27123,2.00151,1.55357,0.00729263,-0.0680646,-0.0199872,-0.0399744,0.00688806,0.0222974,0,0.347206,1.08937,-1.30609,4.33513,0.469459,-3.02669,1.71455,0.0222624,-15.8406,-0.394038,-2.32394,0.0259655,2.04706,0.00955412,-0.00132122,-0.00297637,0.00140519,0.395042,0.00134017,0.0172573,0.00674869,0.00359164,0.0304032,0.0381116,0.0130091,0.00196728,0.940889,0.282523,-0.853077,-0.17838,-0.197451,0.14105,0.620157,5.1154,-0.633274,0.181202,0.56748,0.306519,0.0236454,0.564022,-1.03125,-0.169381,-0.112793,0.14502,0.342431,-0.0444942,23.479,23.3371,23.1669,23.2946,23.3229,23.2946,23.1527,
40,6.2733,1.52776,3.15242,4.23527,6.27124,2.00154,1.55357,0.00702253,-0.0712182,-0.0208138,-0.0397043,0.00649067,0.0243088,0,0.347847,1.08948,-1.30669,4.33497,0.470051,-3.02641,1.71532,0.022412,-15.8404,-0.394083,-2.32385,0.0259984,2.04707,0.00955057,-0.00132122,-0.00297637,0.00140519,0.395042,0.00134017,0.0172573,0.00766513,0.00390683,0.0318602,0.0381116,0.0130091,0.00196728,0.940889,0.282523,-0.853077,-0.17838,-0.197451,0.14105,0.623461,5.48339,-0.649417,0.201974,0.575235,0.374742,0.0150555,0.563965,-1.07986,-0.177246,-0.12085,0.137022,0.342502,-0.036478,23.4648,23.3371,23.1527,23.2946,23.3229,23.3087,23.1385,
41,6.2733,1.52776,3.15242,4.23527,6.27124,2.00156,1.55357,0.00702253,-0.0712182,-0.0208138,-0.0397043,0.00582836,0.0243088,0,0.344419,1.33108,-1.25283,4.42634,0.465754,-2.89371,1.66186,0.0214646,-15.683,-0.385902,-2.32549,0.0234161,2.0257,0.0102163,-0.00134615,-0.00291623,0.00140582,0.395042,0.00134017,0.0172573,0.00766511,0.00384302,0.0318611,0.0377501,0.0128385,0.000623276,0.90255,0.26795,-0.937107,-0.182251,-0.180573,0.141149,0.623461,5.48339,-0.649417,0.201974,0.564723,0.382911,0.00842933,0.563965,-1.07986,-0.177246,-0.12085,0.153288,0.322366,-0.0404841,23.4648,23.3371,23.1527,23.2946,23.2946,23.2804,23.1527,
42,6.27331,1.52769,3.1524,4.23523,6.27124,2.00156,1.55357,0.00701858,-0.0740067,-0.0213377,-0.0368283,0.00582836,0.0243088,0,0.345246,1.33812,-1.2579,4.43257,0.467034,-2.89524,1.66703,0.0216667,-15.6784,-0.386205,-2.3245,0.0237172,2.0248,0.0101608,-0.00134837,-0.00289248,0.00140059,0.395042,0.00134017,0.0172573,0.00922845,0.00400753,0.0328894,0.0377498,0.0128164,0.000522588,0.902542,0.269201,-0.940155,-0.181916,-0.178179,0.141828,0.558973,5.77012,-0.55131,0.282653,0.564723,0.382911,0.00842933,0.58819,-1.03138,-0.145243,-0.145243,0.153288,0.322366,-0.0404841,23.4648,23.3229,23.1527,23.3087,23.2946,23.2804,23.1527,
43,6.27331,1.52761,3.15238,4.2352,6.27125,2.00159,1.55357,0.00702201,-0.0750871,-0.0218779,-0.0348426,0.00543232,0.0259294,0,0.343727,1.56,-1.227,4.44027,0.464057,-2.69612,1.63572,0.0212188,-15.5338,-0.380203,-2.34632,0.0223681,2.00727,0.0106626,-0.00136977,-0.00285887,0.00140751,0.395042,0.00134017,0.0172573,0.0100808,0.00413161,0.0334405,0.0374185,0.0126908,-0.000676315,0.845701,0.260497,-1.00697,-0.185211,-0.163501,0.142401,0.584152,6.01879,-0.484734,0.376949,0.543391,0.382911,0.014103,0.588135,-1.02323,-0.129909,-0.217529,0.161183,0.326319,-0.0404841,23.479,23.3513,23.1385,23.2946,23.3229,23.3087,23.1385,
44,6.27331,1.52761,3.15238,4.2352,6.27125,2.00159,1.55357,0.00702201,-0.0750871,-0.0218779,-0.0348426,0.00543232,0.0259294,0,0.341667,1.73341,-1.1955,4.47104,0.461631,-2.56972,1.60483,0.0206524,-15.4208,-0.374912,-2.3569,0.0209234,1.99234,0.011151,-0.00139376,-0.00279406,0.00140904,0.395042,0.00134017,0.0172573,0.0100808,0.00413161,0.0334405,0.0370223,0.01253,-0.00199313,0.808242,0.251952,-1.06301,-0.188409,-0.147646,0.143136,0.584152,6.01879,-0.484734,0.376949,0.543391,0.382911,0.014103,0.588135,-1.02323,-0.129909,-0.217529,0.161183,0.326319,-0.0404841,23.479,23.3513,23.1385,23.2946,23.3229,23.3087,23.1385,
45,6.27332,1.52753,3.15236,4.23516,6.27125,2.00161,1.55357,0.00729263,-0.0741576,-0.0232284,-0.0343024,0.00543232,0.0259294,0,0.342332,1.73367,-1.19614,4.47093,0.462291,-2.56937,1.60568,0.0208035,-15.4207,-0.374962,-2.35649,0.0209608,1.99234,0.0111469,-0.00139376,-0.00279406,0.00140904,0.395042,0.00134017,0.0172573,0.00997977,0.00440729,0.0330726,0.0370223,0.01253,-0.00199313,0.808242,0.251952,-1.06301,-0.188409,-0.147646,0.143136,0.496087,6.34514,-0.424094,0.429038,0.520926,0.432579,-0.0203516,0.564022,-1.03128,-0.128906,-0.265869,0.165161,0.318237,-0.0402832,23.479,23.3229,23.1527,23.2946,23.3087,23.2804,23.1527,
46,6.27332,1.52753,3.15236,4.23516,6.27125,2.00161,1.55357,0.00729263,-0.0741576,-0.0232284,-0.0343024,0.00543232,0.0259294,0,0.339432,1.81792,-1.14547,4.51194,0.461108,-2.53296,1.55934,0.0200063,-15.3658,-0.369506,-2.35445,0.0183474,1.9845,0.0119108,-0.00141957,-0.00272355,0.00141007,0.395042,0.00134017,0.0172573,0.00997977,0.00440729,0.0330726,0.0365661,0.0123578,-0.00339016,0.797589,0.238516,-1.09388,-0.193679,-0.141399,0.143647,0.496087,6.34514,-0.424094,0.429038,0.520926,0.432579,-0.0203516,0.564022,-1.03128,-0.128906,-0.265869,0.165161,0.318237,-0.0402832,23.479,23.3229,23.1527,23.2946,23.3087,23.2804,23.1527,
47,6.27332,1.52753,3.15236,4.23516,6.27125,2.00161,1.55357,0.00729263,-0.0741576,-0.0232284,-0.0343024,0.00543232,0.0259294,0,0.339432,1.81792,-1.14547,4.51194,0.461108,-2.53296,1.55934,0.0200063,-15.3658,-0.369506,-2.35445,0.0183474,1.9845,0.0119108,-0.00141957,-0.00272355,0.00141007,0.395042,0.00134017,0.0172573,0.00997977,0.00440729,0.0330726,0.0365661,0.0123578,-0.00339016,0.797589,0.238516,-1.09388,-0.193679,-0.141399,0.143647,0.496087,6.34514,-0.424094,0.429038,0.520926,0.432579,-0.0203516,0.564022,-1.03128,-0.128906,-0.265869,0.165161,0.318237,-0.0402832,23.479,23.3229,23.1527,23.2946,23.3087,23.2804,23.1527,
48,6.27333,1.52746,3.15233,4.23513,6.27126,2.00164,1.55357,0.00728894,-0.0750871,-0.0248027,-0.0351127,0.00531888,0.027083,0,0.340173,1.81809,-1.14612,4.51184,0.461797,-2.5327,1.56024,0.0201801,-15.3657,-0.369558,-2.35419,0.0183844,1.9845,0.0119068,-0.00141957,-0.00272355,0.00141007,0.395042,0.00134017,0.0172573,0.0099898,0.00484735,0.0335971,0.0365661,0.0123578,-0.00339016,0.797589,0.238516,-1.09388,-0.193679,-0.141399,0.143647,0.462443,6.6676,-0.398467,0.474365,0.512223,0.432664,-0.00934355,0.547852,-1.10379,-0.0966797,-0.249886,0.177292,0.314312,-0.0362549,23.4648,23.3229,23.1811,23.2946,23.2946,23.2804,23.1527,
49,6.27333,1.52746,3.15233,4.23513,6.27126,2.00164,1.55357,0.00728894,-0.0750871,-0.0248027,-0.0351127,0.00531888,0.027083,0,0.335856,1.96291,-1.07216,4.60433,0.459153,-2.4905,1.49054,0.0189933,-15.2713,-0.361255,-2.34483,0.0145815,1.97072,0.0128491,-0.00144834,-0.00265598,0.00141134,0.395042,0.00134017,0.0172573,0.0099898,0.00484735,0.0335971,0.0361737,0.0121424,-0.00472198,0.785516,0.218851,-1.14957,-0.199605,-0.132125,0.143813,0.462443,6.6676,-0.398467,0.474365,0.512223,0.432664,-0.00934355,0.547852,-1.10379,-0.0966797,-0.249886,0.177292,0.314312,-0.0362549,23.4648,23.3229,23.1811,23.2946,23.2946,23.2804,23.1527,
50,6.27334,1.52738,3.15231,4.23509,6.27126,2.00167,1.55357,0.00702201,-0.0772479,-0.0240387,-0.0348568,0.00531888,0.0269824,0,0.336521,1.96305,-1.07284,4.60423,0.459914,-2.49026,1.4915,0.0191508,-15.2712,-0.361318,-2.34464,0.0146296,1.97073,0.0128443,-0.00144834,-0.00265598,0.00141134,0.395042,0.00134017,0.0172573,0.0106401,0.00474113,0.0344251,0.0361737,0.0121424,-0.00472198,0.785516,0.218851,-1.14957,-0.199605,-0.132125,0.143813,0.35669,6.90455,-0.303998,0.580565,0.51012,0.352042,-0.0294279,0.555967,-1.07986,-0.0664368,-0.250275,0.173405,0.310285,-0.0444942,23.4648,23.3087,23.1669,23.2804,23.2946,23.2804,23.1385,
51,6.27334,1.52738,3.15231,4.23509,6.27126,2.00167,1.55357,0.00702201,-0.0772479,-0.0240387,-0.0348568,0.00531888,0.0269824,0,0.335636,2.15467,-1.06555,4.67408,0.456168,-2.37981,1.48243,0.0189077,-15.1464,-0.357724,-2.34683,0.0144851,1.95426,0.0130296,-0.0014749,-0.0025904,0.00141235,0.395042,0.00134017,0.0172573,0.0106401,0.00474113,0.0344251,0.0357828,0.0119617,-0.00608465,0.75428,0.216616,-1.21529,-0.20078,-0.120919,0.14344,0.35669,6.90455,-0.303998,0.580565,0.51012,0.352042,-0.0294279,0.555967,-1.07986,-0.0664368,-0.250275,0.173405,0.310285,-0.0444942,23.4648,23.3087,23.1669,23.2804,23.2946,23.2804,23.1385,
52,6.27334,1.52731,3.15229,4.23505,6.27127,2.00169,1.55357,0.00650186,-0.0783283,-0.0232284,-0.0370034,0.00533254,0.0240387,0,0.336262,2.15477,-1.0662,4.67443,0.456791,-2.38004,1.48336,0.0190584,-15.1462,-0.357786,-2.34639,0.0145375,1.95424,0.0130246,-0.0014749,-0.0025904,0.00141235,0.395042,0.00134017,0.0172573,0.0103145,0.00470959,0.0345888,0.0357828,0.0119617,-0.00608465,0.75428,0.216616,-1.21529,-0.20078,-0.120919,0.14344,0.331353,7.1718,-0.246665,0.710212,0.468906,0.281235,-0.00561927,0.564022,-1.06348,-0.0644531,-0.241699,0.177292,0.314209,-0.0371393,23.4506,23.3087,23.1527,23.2946,23.2946,23.2804,23.1385,
53,6.27335,1.52723,3.15226,4.23502,6.27127,2.00172,1.55357,0.00593913,-0.0772479,-0.0224181,-0.0372357,0.00535353,0.0259294,0,0.335555,2.26884,-1.04893,4.77216,0.454701,-2.36231,1.46596,0.0188413,-15.0719,-0.354613,-2.33212,0.0137452,1.94408,0.0132128,-0.00150044,-0.00252641,0.00141232,0.395042,0.00134017,0.0172573,0.00995918,0.0047025,0.0343626,0.0353774,0.011767,-0.00744672,0.751886,0.211722,-1.26107,-0.201716,-0.122522,0.142577,0.210553,7.50869,-0.221576,0.7833,0.429393,0.30462,-0.0131312,0.580134,-1.05591,-0.0649547,-0.193527,0.181453,0.334351,-0.0402832,23.479,23.3371,23.1527,23.2946,23.3087,23.2946,23.1527,
54,6.27335,1.52723,3.15226,4.23502,6.27127,2.00172,1.55357,0.00593913,-0.0772479,-0.0224181,-0.0372357,0.00535353,0.0259294,0,0.334263,2.35017,-1.0291,4.84403,0.452094,-2.36078,1.44578,0.0184863,-15.0189,-0.351723,-2.32162,0.0127471,1.9356,0.0134036,-0.0015254,-0.00246148,0.00141181,0.395042,0.00134017,0.0172573,0.00995918,0.0047025,0.0343626,0.0349835,0.0115793,-0.00880464,0.750731,0.206304,-1.29502,-0.202578,-0.114858,0.141374,0.210553,7.50869,-0.221576,0.7833,0.429393,0.30462,-0.0131312,0.580134,-1.05591,-0.0649547,-0.193527,0.181453,0.334351,-0.0402832,23.479,23.3371,23.1527,23.2946,23.3087,23.2946,23.1527,
55,6.27335,1.52715,3.15224,4.23498,6.27128,2.00174,1.55357,0.00567205,-0.0757321,-0.0213153,-0.0380837,0.00570458,0.0243088,0,0.334893,2.35039,-1.0298,4.84412,0.45289,-2.36063,1.44683,0.018635,-15.0188,-0.351792,-2.32111,0.0128055,1.93558,0.0133982,-0.0015254,-0.00246148,0.00141181,0.395042,0.00134017,0.0172573,0.00931177,0.0045191,0.0336059,0.0349835,0.0115793,-0.00880464,0.750731,0.206304,-1.29502,-0.202578,-0.114858,0.141374,0.182784,7.86193,-0.239269,0.860781,0.407865,0.279245,0.0218245,0.596191,-1.09573,-0.0996551,-0.186002,0.189374,0.318237,-0.0404841,23.4648,23.3087,23.1527,23.2946,23.3087,23.2804,23.1385,
56,6.27335,1.52715,3.15224,4.23498,6.27128,2.00174,1.55357,0.00567205,-0.0757321,-0.0213153,-0.0380837,0.00570458,0.0243088,0,0.334618,2.39113,-1.0276,4.90539,0.450978,-2.37987,1.44468,0.0185593,-14.9923,-0.35098,-2.30911,0.0127042,1.9314,0.0134827,-0.00155137,-0.00239524,0.00140981,0.395042,0.00134017,0.0172573,0.00931177,0.0045191,0.0336059,0.0345563,0.0113729,-0.0102186,0.757337,0.205613,-1.31474,-0.203225,-0.116189,0.140164,0.182784,7.86193,-0.239269,0.860781,0.407865,0.279245,0.0218245,0.596191,-1.09573,-0.0996551,-0.186002,0.189374,0.318237,-0.0404841,23.4648,23.3087,23.1527,23.2946,23.3087,23.2804,23.1385,
57,6.27335,1.52715,3.15224,4.23498,6.27128,2.00174,1.55357,0.00567205,-0.0757321,-0.0213153,-0.0380837,0.00570458,0.0243088,0,0.334618,2.39113,-1.0276,4.90539,0.450978,-2.37987,1.44468,0.0185593,-14.9923,-0.35098,-2.30911,0.0127042,1.9314,0.0134827,-0.00155137,-0.00239524,0.00140981,0.395042,0.00134017,0.0172573,0.00931177,0.0045191,0.0336059,0.0345563,0.0113729,-0.0102186,0.757337,0.205613,-1.31474,-0.203225,-0.116189,0.140164,0.182784,7.86193,-0.239269,0.860781,0.407865,0.279245,0.0218245,0.596191,-1.09573,-0.0996551,-0.186002,0.189374,0.318237,-0.0404841,23.4648,23.3087,23.1527,23.2946,23.3087,23.2804,23.1385,
58,6.27336,1.52708,3.15222,4.23494,6.27129,2.00177,1.55357,0.00540195,-0.0758205,-0.0205274,-0.0378136,0.00568805,0.0260799,0,0.335185,2.39134,-1.02822,4.90509,0.451752,-2.37935,1.4456,0.0186914,-14.9921,-0.351037,-2.30887,0.0127493,1.9314,0.0134783,-0.00155137,-0.00239524,0.00140981,0.395042,0.00134017,0.0172573,0.00941264,0.00440353,0.0338147,0.0345563,0.0113729,-0.0102186,0.757337,0.205613,-1.31474,-0.203225,-0.116189,0.140164,0.0899956,8.1324,-0.128065,0.998052,0.397723,0.244707,0.0320846,0.572078,-1.13601,-0.11308,-0.169381,0.189374,0.334375,-0.045038,23.479,23.3229,23.1669,23.2946,23.3229,23.2946,23.1527,
59,6.27336,1.52708,3.15222,4.23494,6.27129,2.00177,1.55357,0.00540195,-0.0758205,-0.0205274,-0.0378136,0.00568805,0.0260799,0,0.334533,2.51741,-1.02249,4.97328,0.449109,-2.33233,1.4388,0.0185122,-14.91,-0.348597,-2.30433,0.0125944,1.91958,0.0135985,-0.00157422,-0.00233042,0.00140931,0.395042,0.00134017,0.0172573,0.00941264,0.00440353,0.0338147,0.0341842,0.0112001,-0.0115613,0.743148,0.203898,-1.36128,-0.203923,-0.105432,0.139608,0.0899956,8.1324,-0.128065,0.998052,0.397723,0.244707,0.0320846,0.572078,-1.13601,-0.11308,-0.169381,0.189374,0.334375,-0.045038,23.479,23.3229,23.1669,23.2946,23.3229,23.2946,23.1527,
60,6.27336,1.527,3.1522,4.2349,6.27129,2.00179,1.55357,0.004939,-0.0767077,-0.0180782,-0.0358599,0.00604456,0.0270097,0,0.335024,2.51761,-1.02311,4.9729,0.449933,-2.33172,1.43972,0.0186301,-14.9099,-0.348662,-2.30416,0.0126484,1.91959,0.0135934,-0.00157422,-0.00233042,0.00140931,0.395042,0.00134017,0.0172573,0.0102124,0.00393247,0.0341898,0.0341842,0.0112001,-0.0115613,0.743148,0.203898,-1.36128,-0.203923,-0.105432,0.139608,0.082757,8.40054,-0.0571772,1.12251,0.358412,0.248745,0.0671794,0.572021,-1.13601,-0.1372,-0.161133,0.185347,0.314235,-0.0284845,23.479,23.3229,23.2236,23.2804,23.3087,23.2804,23.1527,
61,6.27336,1.527,3.1522,4.2349,6.27129,2.00179,1.55357,0.004939,-0.0767077,-0.0180782,-0.0358599,0.00604456,0.0270097,0,0.336584,2.68024,-1.06015,5.00216,0.445538,-2.21197,1.47096,0.0190588,-14.804,-0.349137,-2.3143,0.0148299,1.90593,0.0132223,-0.00159535,-0.00226639,0.00140695,0.395042,0.00134017,0.0172573,0.0102124,0.00393247,0.0341898,0.0338111,0.0110402,-0.0129147,0.707961,0.21323,-1.41314,-0.201492,-0.0914495,0.13794,0.082757,8.40054,-0.0571772,1.12251,0.358412,0.248745,0.0671794,0.572021,-1.13601,-0.1372,-0.161133,0.185347,0.314235,-0.0284845,23.479,23.3229,23.2236,23.2804,23.3087,23.2804,23.1527,
62,6.27337,1.52692,3.15219,4.23487,6.2713,2.00182,1.55357,0.00468134,-0.0777881,-0.016746,-0.0329519,0.00639201,0.0269824,0,0.337035,2.68047,-1.06068,5.00177,0.446205,-2.21133,1.4717,0.0191655,-14.8039,-0.349192,-2.31411,0.0148736,1.90595,0.0132179,-0.00159535,-0.00226639,0.00140695,0.395042,0.00134017,0.0172573,0.0113326,0.00369833,0.0345249,0.0338111,0.0110402,-0.0129147,0.707961,0.21323,-1.41314,-0.201492,-0.0914495,0.13794,-0.0320148,8.76334,-0.0254586,1.19586,0.340823,0.278306,0.0773156,0.58819,-1.10402,-0.169381,-0.22573,0.189374,0.306152,-0.041081,23.4648,23.3371,23.1527,23.3087,23.3087,23.2946,23.1385,
63,6.27337,1.52684,3.15217,4.23484,6.27131,2.00185,1.55357,0.00432156,-0.0772367,-0.0160492,-0.0312996,0.00680816,0.0289004,0,0.337716,2.85358,-1.07288,4.99832,0.442298,-2.04969,1.47997,0.0193351,-14.6913,-0.347485,-2.33357,0.0157511,1.89218,0.0131681,-0.00161543,-0.00219583,0.00140411,0.395042,0.00134017,0.0172573,0.0116563,0.00368754,0.0344614,0.0333641,0.0108926,-0.0142764,0.660946,0.215829,-1.46404,-0.201205,-0.0764553,0.136563,-0.0547978,9.144,-0.0245394,1.23722,0.324692,0.301502,0.0571276,0.588135,-1.11208,-0.209628,-0.281982,0.177429,0.318237,-0.0284845,23.4648,23.3087,23.1669,23.2946,23.2946,23.2946,23.1527,
64,6.27337,1.52684,3.15217,4.23484,6.27131,2.00185,1.55357,0.00432156,-0.0772367,-0.0160492,-0.0312996,0.00680816,0.0289004,0,0.336528,2.97949,-1.0562,5.02686,0.437983,-1.96655,1.46144,0.0190085,-14.6093,-0.344149,-2.3396,0.0149698,1.88088,0.013372,-0.00163612,-0.00211636,0.00140012,0.395042,0.00134017,0.0172573,0.0116563,0.00368754,0.0344614,0.0328407,0.0107214,-0.0157306,0.635531,0.211017,-1.50576,-0.202245,-0.0624681,0.134653,-0.0547978,9.144,-0.0245394,1.23722,0.324692,0.301502,0.0571276,0.588135,-1.11208,-0.209628,-0.281982,0.177429,0.318237,-0.0284845,23.4648,23.3087,23.1669,23.2946,23.2946,23.2946,23.1527,
65,6.27337,1.52684,3.15217,4.23484,6.27131,2.00185,1.55357,0.00432156,-0.0772367,-0.0160492,-0.0312996,0.00680816,0.0289004,0,0.336528,2.97949,-1.0562,5.02686,0.437983,-1.96655,1.46144,0.0190085,-14.6093,-0.344149,-2.3396,0.0149698,1.88088,0.013372,-0.00163612,-0.00211636,0.00140012,0.395042,0.00134017,0.0172573,0.0116563,0.00368754,0.0344614,0.0328407,0.0107214,-0.0157306,0.635531,0.211017,-1.50576,-0.202245,-0.0624681,0.134653,-0.0547978,9.144,-0.0245394,1.23722,0.324692,0.301502,0.0571276,0.588135,-1.11208,-0.209628,-0.281982,0.177429,0.318237,-0.0284845,23.4648,23.3087,23.1669,23.2946,23.2946,23.2946,23.1527,
66,6.27337,1.52677,3.15216,4.23481,6.27132,2.00188,1.55357,0.00351127,-0.0750871,-0.0143152,-0.0291705,0.00712729,0.0285876,0,0.336902,2.97978,-1.05667,5.02655,0.438639,-1.96594,1.46221,0.0190996,-14.6092,-0.344207,-2.33917,0.0150206,1.88088,0.0133672,-0.00163612,-0.00211636,0.00140012,0.395042,0.00134017,0.0172573,0.0116918,0.00354359,0.0335098,0.0328407,0.0107214,-0.0157306,0.635531,0.211017,-1.50576,-0.202245,-0.0624681,0.134653,-0.137378,9.42304,0.0786234,1.34347,0.334294,0.266529,0.023688,0.580302,-1.10388,-0.217678,-0.306258,0.181274,0.298123,-0.0332184,23.4648,23.3229,23.1669,23.2662,23.2946,23.2946,23.1243,
67,6.27337,1.52677,3.15216,4.23481,6.27132,2.00188,1.55357,0.00351127,-0.0750871,-0.0143152,-0.0291705,0.00712729,0.0285876,0,0.33687,3.02242,-1.05745,5.01423,0.435,-1.91792,1.45948,0.0190906,-14.5814,-0.343599,-2.34716,0.0150513,1.87733,0.0132373,-0.00165426,-0.00204087,0.00139471,0.395042,0.00134017,0.0172573,0.0116918,0.00354359,0.0335098,0.0323795,0.0105716,-0.0170619,0.620631,0.21084,-1.51715,-0.200861,-0.0555601,0.132027,-0.137378,9.42304,0.0786234,1.34347,0.334294,0.266529,0.023688,0.580302,-1.10388,-0.217678,-0.306258,0.181274,0.298123,-0.0332184,23.4648,23.3229,23.1669,23.2662,23.2946,23.2946,23.1243,
68,6.27338,1.52669,3.15214,4.23478,6.27133,2.00191,1.55357,0.00338097,-0.0740067,-0.0145853,-0.0278353,0.00847761,0.0280901,0,0.337225,3.02267,-1.05781,5.01398,0.43542,-1.91745,1.45995,0.0191798,-14.5814,-0.343638,-2.34678,0.0150864,1.87733,0.0132339,-0.00165426,-0.00204087,0.00139471,0.395042,0.00134017,0.0172573,0.0117806,0.00380097,0.0329975,0.0323795,0.0105716,-0.0170619,0.620631,0.21084,-1.51715,-0.200861,-0.0555601,0.132027,-0.163758,9.71107,0.122406,1.44825,0.325037,0.23822,0.0163036,0.580134,-1.16016,-0.233781,-0.33042,0.181319,0.294095,-0.0404841,23.4648,23.3229,23.1669,23.2804,23.2946,23.3087,23.1669,
69,6.27338,1.52662,3.15213,4.23476,6.27134,2.00193,1.55357,0.00311937,-0.0726562,-0.0135049,-0.0272798,0.00967218,0.0270097,0,0.33503,3.09572,-1.01353,5.02583,0.430566,-1.86337,1.41656,0.0185666,-14.5339,-0.338893,-2.35086,0.0127184,1.87097,0.0138051,-0.00167355,-0.0019702,0.00138794,0.395042,0.00134017,0.0172573,0.0115787,0.00370781,0.0323254,0.031939,0.0104193,-0.0183648,0.604753,0.198549,-1.54087,-0.204467,-0.0490202,0.128601,-0.229296,10.0845,0.119691,1.49092,0.30854,0.257774,-0.0167587,0.588135,-1.17638,-0.241833,-0.362549,0.165161,0.302151,-0.034418,23.4506,23.3229,23.1527,23.2946,23.3087,23.2804,23.1527,
70,6.27338,1.52662,3.15213,4.23476,6.27134,2.00193,1.55357,0.00311937,-0.0726562,-0.0135049,-0.0272798,0.00967218,0.0270097,0,0.33456,3.14722,-1.00723,5.04713,0.425813,-1.83665,1.40865,0.0184376,-14.5003,-0.337573,-2.35075,0.0123507,1.86642,0.0139209,-0.00169245,-0.00189915,0.00137869,0.395042,0.00134017,0.0172573,0.0115787,0.00370781,0.0323254,0.0314823,0.0102561,-0.0196396,0.59711,0.196448,-1.55895,-0.205188,-0.0456762,0.1251,-0.229296,10.0845,0.119691,1.49092,0.30854,0.257774,-0.0167587,0.588135,-1.17638,-0.241833,-0.362549,0.165161,0.302151,-0.034418,23.4506,23.3229,23.1527,23.2946,23.3087,23.2804,23.1527,
71,6.27338,1.52655,3.15211,4.23473,6.27135,2.00196,1.55357,0.00269961,-0.0701542,-0.0127772,-0.0275499,0.0119338,0.0278091,0,0.334867,3.14747,-1.00757,5.04692,0.42629,-1.83621,1.40919,0.0185226,-14.5002,-0.337617,-2.35029,0.0123959,1.8664,0.0139169,-0.00169245,-0.00189915,0.00137869,0.395042,0.00134017,0.0172573,0.0108327,0.00387803,0.0314217,0.0314823,0.0102561,-0.0196396,0.59711,0.196448,-1.55895,-0.205188,-0.0456762,0.1251,-0.211224,10.4677,0.107702,1.52219,0.328728,0.232293,-0.0175435,0.572078,-1.20055,-0.241699,-0.354492,0.157156,0.306152,-0.041081,23.4364,23.3229,23.1811,23.2804,23.3087,23.2804,23.1669,
72,6.27338,1.52655,3.15211,4.23473,6.27135,2.00196,1.55357,0.00269961,-0.0701542,-0.0127772,-0.0275499,0.0119338,0.0278091,0,0.332888,3.16057,-0.971126,5.09206,0.419525,-1.87191,1.37263,0.0179786,-14.4917,-0.334439,-2.33941,0.010276,1.86381,0.0143251,-0.00171203,-0.00182772,0.00136842,0.395042,0.00134017,0.0172573,0.0108327,0.00387803,0.0314217,0.031053,0.0100858,-0.0208914,0.606609,0.186234,-1.56939,-0.207535,-0.0425246,0.119172,-0.211224,10.4677,0.107702,1.52219,0.328728,0.232293,-0.0175435,0.572078,-1.20055,-0.241699,-0.354492,0.157156,0.306152,-0.041081,23.4364,23.3229,23.1811,23.2804,23.3087,23.2804,23.1669,
73,6.27339,1.52648,3.1521,4.2347,6.27137,2.00199,1.55357,0.00270097,-0.0641967,-0.0126946,-0.0289004,0.0145779,0.0270097,0,0.333212,3.16088,-0.971459,5.09208,0.419991,-1.87166,1.37319,0.0180552,-14.4915,-0.334473,-2.33873,0.0103148,1.86377,0.0143216,-0.00171203,-0.00182772,0.00136842,0.395042,0.00134017,0.0172573,0.00885383,0.00408814,0.0290196,0.031053,0.0100858,-0.0208914,0.606609,0.186234,-1.56939,-0.207535,-0.0425246,0.119172,-0.239979,10.7207,0.179377,1.62847,0.329223,0.179436,-0.0153528,0.588135,-1.24072,-0.249886,-0.33042,0.132996,0.302151,-0.036478,23.479,23.3229,23.1385,23.2804,23.3229,23.2804,23.1243,
74,6.27339,1.52643,3.15209,4.23467,6.27138,2.00202,1.55357,0.00263332,-0.0578009,-0.0124245,-0.0293123,0.0159358,0.0259294,0,0.331698,3.0238,-0.930318,5.12888,0.416401,-2.03642,1.33641,0.0176153,-14.5808,-0.333276,-2.31304,0.00774837,1.8734,0.0148729,-0.00173142,-0.00176163,0.00135633,0.395042,0.00134017,0.0172573,0.00702732,0.00414908,0.0263902,0.0306502,0.00991995,-0.0221149,0.653892,0.174954,-1.53404,-0.211389,-0.0521984,0.113224,-0.239505,11.0067,0.214006,1.72638,0.302349,0.131351,0.0029382,0.580134,-1.34556,-0.249886,-0.298205,0.104814,0.314235,-0.0324774,23.4648,23.3229,23.1669,23.3087,23.2946,23.2804,23.1385,
75,6.27339,1.52643,3.15209,4.23467,6.27138,2.00202,1.55357,0.00263332,-0.0578009,-0.0124245,-0.0293123,0.0159358,0.0259294,0,0.330777,2.8574,-0.905105,5.13864,0.415201,-2.2022,1.31506,0.0173621,-14.6892,-0.333828,-2.29208,0.00604866,1.88595,0.0152006,-0.00175062,-0.00171046,0.00134382,0.395042,0.00134017,0.0172573,0.00702732,0.00414908,0.0263902,0.0303988,0.00975654,-0.0231586,0.701145,0.168224,-1.48647,-0.213779,-0.0628874,0.109438,-0.239505,11.0067,0.214006,1.72638,0.302349,0.131351,0.0029382,0.580134,-1.34556,-0.249886,-0.298205,0.104814,0.314235,-0.0324774,23.4648,23.3229,23.1669,23.3087,23.2946,23.2804,23.1385,
76,6.27339,1.52637,3.15208,4.23464,6.2714,2.00204,1.55357,0.00245776,-0.0534793,-0.0126946,-0.0299808,0.0176851,0.0259294,0,0.331118,2.85763,-0.905415,5.13856,0.415658,-2.20193,1.31561,0.0174404,-14.689,-0.333859,-2.29169,0.00608407,1.88593,0.0151974,-0.00175062,-0.00171046,0.00134382,0.395042,0.00134017,0.0172573,0.00568,0.00445032,0.0247041,0.0303988,0.00975654,-0.0231586,0.701145,0.168224,-1.48647,-0.213779,-0.0628874,0.109438,-0.284062,11.3224,0.256925,1.79527,0.291983,0.130941,0.0349102,0.547852,-1.46631,-0.257938,-0.282097,0.0846906,0.326319,-0.0324774,23.4648,23.3229,23.1527,23.2804,23.2946,23.2946,23.1527,
77,6.27339,1.52637,3.15208,4.23464,6.2714,2.00204,1.55357,0.00245776,-0.0534793,-0.0126946,-0.0299808,0.0176851,0.0259294,0,0.328435,2.76831,-0.85077,5.17242,0.411347,-2.3206,1.26459,0.0167031,-14.7472,-0.330802,-2.27254,0.00285793,1.89172,0.0158341,-0.00177185,-0.00166188,0.00132688,0.395042,0.00134017,0.0172573,0.00568,0.00445032,0.0247041,0.0301734,0.00956559,-0.0241355,0.734802,0.153458,-1.46519,-0.217813,-0.0680612,0.104206,-0.284062,11.3224,0.256925,1.79527,0.291983,0.130941,0.0349102,0.547852,-1.46631,-0.257938,-0.282097,0.0846906,0.326319,-0.0324774,23.4648,23.3229,23.1527,23.2804,23.2946,23.2946,23.1527,
78,6.27339,1.52632,3.15206,4.23461,6.27142,2.00207,1.55357,0.00210596,-0.0515886,-0.0125384,-0.0291705,0.0189068,0.0259294,0,0.328781,2.76849,-0.851114,5.17226,0.411798,-2.32028,1.26512,0.0167881,-14.7471,-0.33084,-2.2723,0.00289652,1.89171,0.0158308,-0.00177185,-0.00166188,0.00132688,0.395042,0.00134017,0.0172573,0.00540523,0.00465904,0.0239347,0.0301734,0.00956559,-0.0241355,0.734802,0.153458,-1.46519,-0.217813,-0.0680612,0.104206,-0.265791,11.6319,0.262579,1.8435,0.280722,0.0996802,0.028994,0.555967,-1.52271,-0.217678,-0.242236,0.0765381,0.318263,-0.0402832,23.4648,23.3087,23.1669,23.2804,23.2946,23.2946,23.1527,
79,6.27339,1.52632,3.15206,4.23461,6.27142,2.00207,1.55357,0.00210596,-0.0515886,-0.0125384,-0.0291705,0.0189068,0.0259294,0,0.326391,2.77755,-0.806249,5.18672,0.406439,-2.32879,1.22093,0.0161311,-14.7411,-0.327036,-2.26918,0.000356965,1.89022,0.0163193,-0.00179319,-0.00161462,0.00131081,0.395042,0.00134017,0.0172573,0.00540523,0.00465904,0.0239347,0.0299603,0.00936345,-0.0250798,0.736653,0.141132,-1.47043,-0.220639,-0.0655252,0.099674,-0.265791,11.6319,0.262579,1.8435,0.280722,0.0996802,0.028994,0.555967,-1.52271,-0.217678,-0.242236,0.0765381,0.318263,-0.0402832,23.4648,23.3087,23.1669,23.2804,23.2946,23.2946,23.1527,
80,6.27339,1.52627,3.15205,4.23458,6.27144,2.0021,1.55357,0.00162004,-0.0506552,-0.0126946,-0.0280901,0.019447,0.0260799,0,0.326715,2.77772,-0.806569,5.18653,0.406835,-2.32845,1.22139,0.0162105,-14.741,-0.327071,-2.26896,0.000392904,1.89022,0.0163161,-0.00179319,-0.00161462,0.00131081,0.395042,0.00134017,0.0172573,0.00546208,0.00494722,0.0235553,0.0299603,0.00936345,-0.0250798,0.736653,0.141132,-1.47043,-0.220639,-0.0655252,0.099674,-0.300731,11.8241,0.313011,1.93948,0.309279,0.0211815,0.0253357,0.555967,-1.52271,-0.22573,-0.265991,0.0485074,0.322291,-0.0362549,23.4648,23.3229,23.1385,23.2946,23.3087,23.2804,23.1527,
81,6.27339,1.52622,3.15204,4.23455,6.27146,2.00212,1.55357,0.00122848,-0.0512665,-0.0118722,-0.0268322,0.016746,0.0232284,0,0.324116,2.8308,-0.752885,5.20252,0.401937,-2.2979,1.16804,0.0154634,-14.7064,-0.321861,-2.26997,-0.00253015,1.88519,0.0168494,-0.00181399,-0.00156124,0.00129372,0.395042,0.00134017,0.0172573,0.00598524,0.00460786,0.023458,0.0297038,0.00915941,-0.0260779,0.727251,0.126366,-1.489,-0.223486,-0.0596088,0.0959697,-0.298853,11.9655,0.360219,2.03244,0.284984,-0.0381909,0.0470235,0.572078,-1.52271,-0.22573,-0.281982,0.0523682,0.318263,-0.036478,23.479,23.3087,23.1527,23.2804,23.2946,23.2946,23.1243,
82,6.27339,1.52622,3.15204,4.23455,6.27146,2.00212,1.55357,0.00122848,-0.0512665,-0.0118722,-0.0268322,0.016746,0.0232284,0,0.32479,2.91561,-0.769993,5.20469,0.403509,-2.21761,1.18289,0.0156485,-14.6512,-0.321928,-2.27875,-0.0014108,1.87901,0.0165849,-0.00183284,-0.00151686,0.00127917,0.395042,0.00134017,0.0172573,0.00598524,0.00460786,0.023458,0.0294919,0.00897545,-0.0270034,0.705199,0.131027,-1.51384,-0.221504,-0.0570465,0.0987676,-0.298853,11.9655,0.360219,2.03244,0.284984,-0.0381909,0.0470235,0.572078,-1.52271,-0.22573,-0.281982,0.0523682,0.318263,-0.036478,23.479,23.3087,23.1527,23.2804,23.2946,23.2946,23.1243,
83,6.2734,1.52617,3.15203,4.23453,6.27147,2.00214,1.55357,0.000877772,-0.0502381,-0.0126946,-0.0245789,0.0140298,0.0243088,0,0.325177,2.91579,-0.770389,5.2044,0.403965,-2.21712,1.18344,0.0157276,-14.6511,-0.321962,-2.27857,-0.00138252,1.87902,0.0165821,-0.00183284,-0.00151686,0.00127917,0.395042,0.00134017,0.0172573,0.00635062,0.0047228,0.0231195,0.0294919,0.00897545,-0.0270034,0.705199,0.131027,-1.51384,-0.221504,-0.0570465,0.0987676,-0.352419,12.1718,0.355983,2.0845,0.263292,-0.0681819,0.0729561,0.564195,-1.47437,-0.234198,-0.298205,0.0685998,0.350487,-0.0324774,23.4648,23.3087,23.1527,23.2946,23.3087,23.2946,23.1385,
84,6.2734,1.52612,3.15201,4.23451,6.27148,2.00216,1.55357,0.000702218,-0.0483474,-0.01304,-0.0237686,0.00972351,0.0232048,0,0.323642,2.97543,-0.735015,5.19465,0.406219,-2.15762,1.14957,0.015258,-14.6123,-0.318134,-2.2872,-0.00313751,1.87378,0.0168685,-0.00185186,-0.00146794,0.00126544,0.395042,0.00134017,0.0172573,0.00607563,0.00447091,0.022245,0.02924,0.00877976,-0.0279167,0.686681,0.121709,-1.53108,-0.222787,-0.0474875,0.101469,-0.349733,12.4155,0.38041,2.13267,0.281631,-0.141284,0.0337875,0.556142,-1.45827,-0.193527,-0.33042,0.0926514,0.338475,-0.0324774,23.479,23.3229,23.1527,23.2804,23.2946,23.2804,23.1527,
85,6.2734,1.52612,3.15201,4.23451,6.27148,2.00216,1.55357,0.000702218,-0.0483474,-0.01304,-0.0237686,0.00972351,0.0232048,0,0.323858,2.97442,-0.739366,5.19749,0.413491,-2.16173,1.15588,0.0153175,-14.6129,-0.318507,-2.28635,-0.00272224,1.87376,0.0167229,-0.00186996,-0.00142122,0.00125649,0.395042,0.00134017,0.0172573,0.00607563,0.00447091,0.022245,0.0290005,0.00858965,-0.0287939,0.687745,0.123562,-1.53117,-0.221653,-0.0470753,0.108024,-0.349733,12.4155,0.38041,2.13267,0.281631,-0.141284,0.0337875,0.556142,-1.45827,-0.193527,-0.33042,0.0926514,0.338475,-0.0324774,23.479,23.3229,23.1527,23.2804,23.2946,23.2804,23.1527,
86,6.2734,1.52607,3.152,4.23448,6.27149,2.00219,1.55357,0.00072026,-0.0461414,-0.0129647,-0.0218779,0.00756273,0.0240738,0,0.324267,2.97462,-0.73981,5.19727,0.414052,-2.16129,1.15654,0.0153986,-14.6129,-0.318543,-2.28609,-0.0026948,1.87376,0.0167199,-0.00186996,-0.00142122,0.00125649,0.395042,0.00134017,0.0172573,0.0060265,0.00423455,0.0214203,0.0290005,0.00858965,-0.0287939,0.687745,0.123562,-1.53117,-0.221653,-0.0470753,0.108024,-0.331486,12.5653,0.471543,2.22705,0.294105,-0.267597,0.000908449,0.547852,-1.48262,-0.177246,-0.346529,0.120917,0.346529,-0.0293266,23.4648,23.3229,23.1527,23.2946,23.2946,23.2946,23.1385,
87,6.2734,1.52603,3.15199,4.23446,6.2715,2.00221,1.55357,0.000794776,-0.0456465,-0.0135049,-0.0197921,0.00702253,0.0243088,0,0.325018,2.98718,-0.747496,5.18483,0.417958,-2.14262,1.1652,0.0155858,-14.6048,-0.318977,-2.2906,-0.00216384,1.87241,0.0166466,-0.00188613,-0.0013682,0.00124999,0.395042,0.00134017,0.0172573,0.00648743,0.00431065,0.0212016,0.0287239,0.00842773,-0.0297045,0.680921,0.125795,-1.53374,-0.221296,-0.0406072,0.111271,-0.29863,12.7503,0.523004,2.29657,0.280397,-0.387287,-0.0047897,0.547911,-1.49856,-0.186002,-0.370956,0.145075,0.338403,-0.0284845,23.4648,23.3229,23.1669,23.3087,23.2946,23.2804,23.1385,
88,6.2734,1.52598,3.15197,4.23444,6.2715,2.00224,1.55357,0.000744643,-0.0461399,-0.0129429,-0.0191769,0.00601844,0.0232284,0,0.323893,3.05321,-0.720886,5.1725,0.417589,-2.07297,1.13988,0.0152524,-14.5618,-0.315774,-2.30075,-0.00348966,1.86697,0.0170025,-0.00190258,-0.00132064,0.00124397,0.395042,0.00134017,0.0172573,0.00679537,0.004075,0.0212622,0.0284854,0.00826231,-0.0305417,0.659939,0.11855,-1.5523,-0.223595,-0.0321955,0.111699,-0.305923,12.9336,0.524415,2.32434,0.265321,-0.450477,0.0225538,0.531982,-1.48244,-0.153288,-0.394858,0.149048,0.338403,-0.0324774,23.4506,23.3087,23.1811,23.2804,23.3087,23.2804,23.1243,
89,6.2734,1.52598,3.15197,4.23444,6.2715,2.00224,1.55357,0.000744643,-0.0461399,-0.0129429,-0.0191769,0.00601844,0.0232284,0,0.323876,3.13703,-0.725039,5.1903,0.417422,-2.0119,1.14314,0.0152476,-14.5072,-0.3148,-2.30515,-0.00311788,1.8601,0.0169895,-0.00192122,-0.0012715,0.00123779,0.395042,0.00134017,0.0172573,0.00679537,0.004075,0.0212622,0.0282173,0.00806312,-0.0313815,0.642657,0.119643,-1.57931,-0.223518,-0.0271869,0.112873,-0.305923,12.9336,0.524415,2.32434,0.265321,-0.450477,0.0225538,0.531982,-1.48244,-0.153288,-0.394858,0.149048,0.338403,-0.0324774,23.4506,23.3087,23.1811,23.2804,23.3087,23.2804,23.1243,
90,6.2734,1.52594,3.15196,4.23443,6.27151,2.00226,1.55357,0.000744643,-0.0459166,-0.0129647,-0.0178264,0.00810292,0.0243088,0,0.32417,3.13718,-0.725323,5.19004,0.417821,-2.01153,1.14356,0.0153281,-14.5072,-0.314835,-2.30498,-0.00308766,1.86011,0.0169868,-0.00192122,-0.0012715,0.00123779,0.395042,0.00134017,0.0172573,0.00712,0.00428603,0.0212511,0.0282173,0.00806312,-0.0313815,0.642657,0.119643,-1.57931,-0.223518,-0.0271869,0.112873,-0.269533,13.1038,0.539119,2.35246,0.285913,-0.534055,-0.00419833,0.539795,-1.44216,-0.161334,-0.394858,0.169237,0.350487,-0.038216,23.4648,23.3229,23.1527,23.2804,23.2946,23.2804,23.1527,
91,6.2734,1.52594,3.15196,4.23443,6.27151,2.00226,1.55357,0.000744643,-0.0459166,-0.0129647,-0.0178264,0.00810292,0.0243088,0,0.321809,3.21469,-0.684142,5.1982,0.411163,-1.95222,1.10232,0.0146792,-14.4567,-0.310257,-2.31106,-0.00533326,1.85315,0.017535,-0.00193762,-0.00122009,0.00123026,0.395042,0.00134017,0.0172573,0.00712,0.00428603,0.0212511,0.027935,0.00789089,-0.0322211,0.62445,0.108146,-1.60417,-0.226968,-0.0176867,0.108272,-0.269533,13.1038,0.539119,2.35246,0.285913,-0.534055,-0.00419833,0.539795,-1.44216,-0.161334,-0.394858,0.169237,0.350487,-0.038216,23.4648,23.3229,23.1527,23.2804,23.2946,23.2804,23.1527,
92,6.2734,1.52594,3.15196,4.23443,6.27152,2.00229,1.55357,0.000744643,-0.0459166,-0.0129647,-0.0178264,0.00728894,0.023049,0,0.321833,3.21469,-0.684164,5.19828,0.411192,-1.95229,1.10234,0.0146791,-14.4567,-0.310259,-2.311,-0.00533091,1.85315,0.0175344,-0.00193762,-0.00122009,0.00123026,0.395042,0.00134017,0.0172573,0.00711981,0.00420563,0.0211188,0.027935,0.00789089,-0.0322211,0.62445,0.108146,-1.60417,-0.226968,-0.0176867,0.108272,-0.269533,13.1038,0.539119,2.35246,0.315568,-0.619924,-0.00413333,0.539795,-1.44216,-0.161334,-0.394858,0.137022,0.338403,-0.0284845,23.4648,23.3229,23.1527,23.2804,23.2946,23.2946,23.1385,
93,6.2734,1.52589,3.15195,4.23441,6.27152,2.00229,1.55357,0.00062213,-0.0456465,-0.0124245,-0.0175563,0.00728894,0.023049,0,0.322479,3.2129,-0.690304,5.19642,0.412664,-1.9521,1.10867,0.0148414,-14.4579,-0.310794,-2.31108,-0.00497107,1.85336,0.0174635,-0.00194028,-0.00119555,0.00122405,0.395042,0.00134017,0.0172573,0.00712554,0.00410034,0.0210006,0.0279349,0.0078647,-0.0323252,0.624453,0.109772,-1.60332,-0.226555,-0.0177304,0.109168,-0.309294,13.2391,0.549839,2.39227,0.315568,-0.619924,-0.00413333,0.523929,-1.42603,-0.153076,-0.402913,0.137022,0.338403,-0.0284845,23.4648,23.3371,23.1669,23.2946,23.2946,23.2946,23.1385,
94,6.2734,1.52589,3.15195,4.23441,6.27152,2.00229,1.55357,0.00062213,-0.0456465,-0.0124245,-0.0175563,0.00728894,0.023049,0,0.322117,3.26652,-0.686458,5.21633,0.411448,-1.92121,1.10412,0.0147417,-14.423,-0.309641,-2.31157,-0.00511315,1.84878,0.0175076,-0.00195282,-0.00116798,0.00122365,0.395042,0.00134017,0.0172573,0.00712554,0.00410034,0.0210006,0.027654,0.00772243,-0.0330575,0.615853,0.108663,-1.62174,-0.226728,-0.0149628,0.108924,-0.309294,13.2391,0.549839,2.39227,0.315568,-0.619924,-0.00413333,0.523929,-1.42603,-0.153076,-0.402913,0.137022,0.338403,-0.0284845,23.4648,23.3371,23.1669,23.2946,23.2946,23.2946,23.1385,
95,6.2734,1.52585,3.15193,4.23439,6.27152,2.00231,1.55357,0.000526577,-0.0436337,-0.0126946,-0.0172862,0.00674901,0.022148,0,0.32248,3.26669,-0.686816,5.21628,0.411898,-1.92098,1.10465,0.0148195,-14.4229,-0.309673,-2.31125,-0.00508767,1.84877,0.0175049,-0.00195282,-0.00116798,0.00122365,0.395042,0.00134017,0.0172573,0.0066638,0.00415666,0.0201078,0.027654,0.00772243,-0.0330575,0.615853,0.108663,-1.62174,-0.226728,-0.0149628,0.108924,-0.266911,13.3533,0.558903,2.39261,0.320077,-0.694652,0.0223009,0.523682,-1.41797,-0.153288,-0.394775,0.161183,0.354515,-0.0254773,23.4648,23.3087,23.1669,23.2946,23.3087,23.2946,23.1527,
96,6.2734,1.52585,3.15193,4.23439,6.27152,2.00231,1.55357,0.000526577,-0.0436337,-0.0126946,-0.0172862,0.00674901,0.022148,0,0.321112,3.25726,-0.660553,5.22437,0.412019,-1.93862,1.08028,0.0144433,-14.4291,-0.307679,-2.30791,-0.00651894,1.84915,0.01778,-0.00196852,-0.00111695,0.00121659,0.395042,0.00134017,0.0172573,0.0066638,0.00415666,0.0201078,0.0273558,0.00754891,-0.0339034,0.620759,0.101767,-1.62034,-0.228353,-0.0151374,0.109003,-0.266911,13.3533,0.558903,2.39261,0.320077,-0.694652,0.0223009,0.523682,-1.41797,-0.153288,-0.394775,0.161183,0.354515,-0.0254773,23.4648,23.3087,23.1669,23.2946,23.3087,23.2946,23.1527,
97,6.2734,1.52581,3.15192,4.23437,6.27153,2.00233,1.55357,0.000351051,-0.0391641,-0.0126946,-0.0172867,0.00594214,0.022148,0,0.321485,3.25744,-0.660952,5.22433,0.412539,-1.93839,1.08092,0.0145221,-14.429,-0.307712,-2.30758,-0.00649181,1.84914,0.0177772,-0.00196852,-0.00111695,0.00121659,0.395042,0.00134017,0.0172573,0.00547082,0.00413651,0.0183465,0.0273558,0.00754891,-0.0339034,0.620759,0.101767,-1.62034,-0.228353,-0.0151374,0.109003,-0.23579,13.4721,0.524414,2.38479,0.320548,-0.718809,0.0614429,0.523744,-1.44216,-0.14502,-0.378748,0.173265,0.362571,-0.036478,23.4648,23.3229,23.1669,23.2946,23.3087,23.2804,23.1385,
98,6.2734,1.52581,3.15192,4.23437,6.27153,2.00233,1.55357,0.000351051,-0.0391641,-0.0126946,-0.0172867,0.00594214,0.022148,0,0.320853,3.14933,-0.643552,5.22749,0.415142,-2.04509,1.06656,0.0143483,-14.4994,-0.307988,-2.29483,-0.00756566,1.85708,0.0179039,-0.00198324,-0.00107507,0.00121148,0.395042,0.00134017,0.0172573,0.00547082,0.00413651,0.0183465,0.0271552,0.00738453,-0.0346284,0.650531,0.0974405,-1.58925,-0.22906,-0.019868,0.109606,-0.23579,13.4721,0.524414,2.38479,0.320548,-0.718809,0.0614429,0.523744,-1.44216,-0.14502,-0.378748,0.173265,0.362571,-0.036478,23.4648,23.3229,23.1669,23.2946,23.3087,23.2804,23.1385,
99,6.2734,1.52577,3.15191,4.23436,6.27153,2.00235,1.55357,0.000177781,-0.0340323,-0.0125266,-0.0180965,0.00442126,0.0210676,0,0.321263,3.1495,-0.644005,5.22757,0.415685,-2.04496,1.06725,0.0144331,-14.4993,-0.308023,-2.29449,-0.00753702,1.85706,0.017901,-0.00198324,-0.00107507,0.00121148,0.395042,0.00134017,0.0172573,0.00387098,0.00399365,0.0162299,0.0271552,0.00738453,-0.0346284,0.650531,0.0974405,-1.58925,-0.22906,-0.019868,0.109606,-0.20724,13.6472,0.528418,2.37736,0.340974,-0.771756,0.0403149,0.515877,-1.53076,-0.128906,-0.379005,0.173265,0.354584,-0.0284845,23.4648,23.3229,23.1527,23.2946,23.3087,23.2946,23.1243,
100,6.2734,1.52577,3.15191,4.23436,6.27153,2.00235,1.55357,0.000177781,-0.0340323,-0.0125266,-0.0180965,0.00442126,0.0210676,0,0.321386,2.99577,-0.638884,5.23608,0.420741,-2.19684,1.06583,0.0144669,-14.5994,-0.310018,-2.27537,-0.00797259,1.8688,0.0178724,-0.00199848,-0.00103866,0.00120684,0.395042,0.00134017,0.0172573,0.00387098,0.00399365,0.0162299,0.0270026,0.00721366,-0.0352695,0.69395,0.0966001,-1.54498,-0.22886,-0.0302258,0.111619,-0.20724,13.6472,0.528418,2.37736,0.340974,-0.771756,0.0403149,0.515877,-1.53076,-0.128906,-0.379005,0.173265,0.354584,-0.0284845,23.4648,23.3229,23.1527,23.2946,23.3087,23.2946,23.1243,
101,6.2734,1.52574,3.1519,4.23434,6.27154,2.00237,1.55357,8.88757e-05,-0.0302509,-0.0118843,-0.0180965,0.00494141,0.0215661,0,0.321708,2.99591,-0.639238,5.23602,0.421213,-2.19665,1.06639,0.0145424,-14.5993,-0.310052,-2.27517,-0.00794376,1.86879,0.0178698,-0.00199848,-0.00103866,0.00120684,0.395042,0.00134017,0.0172573,0.00286406,0.00388711,0.0147851,0.0270026,0.00721366,-0.0352695,0.69395,0.0966001,-1.54498,-0.22886,-0.0302258,0.111619,-0.209226,13.7433,0.512118,2.41792,0.366719,-0.839989,0.0126567,0.515688,-1.61151,-0.121118,-0.322668,0.185303,0.362571,-0.0281982,23.4648,23.3087,23.1952,23.2946,23.2946,23.3087,23.1527,
102,6.2734,1.52574,3.1519,4.23434,6.27154,2.00237,1.55357,8.88757e-05,-0.0302509,-0.0118843,-0.0180965,0.00494141,0.0215661,0,0.321644,2.90417,-0.633325,5.24425,0.421113,-2.2936,1.06205,0.0145247,-14.659,-0.311008,-2.2629,-0.00843762,1.87531,0.0179344,-0.00201276,-0.00100398,0.00120079,0.395042,0.00134017,0.0172573,0.00286406,0.00388711,0.0147851,0.0268897,0.00705506,-0.0358595,0.720768,0.0950385,-1.51934,-0.229366,-0.0333247,0.109934,-0.209226,13.7433,0.512118,2.41792,0.366719,-0.839989,0.0126567,0.515688,-1.61151,-0.121118,-0.322668,0.185303,0.362571,-0.0281982,23.4648,23.3087,23.1952,23.2946,23.2946,23.3087,23.1527,
103,6.2734,1.52572,3.15188,4.23432,6.27154,2.00239,1.55357,0,-0.0255543,-0.0116142,-0.0197171,0.00491552,0.0210676,0,0.321975,2.90432,-0.63369,5.24431,0.421554,-2.2935,1.06261,0.0145984,-14.6589,-0.311037,-2.26268,-0.00841187,1.87529,0.017932,-0.00201276,-0.00100398,0.00120079,0.395042,0.00134017,0.0172573,0.00114941,0.00382593,0.0129199,0.0268897,0.00705506,-0.0358595,0.720768,0.0950385,-1.51934,-0.229366,-0.0333247,0.109934,-0.148123,13.8275,0.529138,2.46293,0.359628,-0.887372,0.00307813,0.499772,-1.65169,-0.1372,-0.322266,0.185347,0.358543,-0.0324774,23.4506,23.3229,23.1527,23.2946,23.2946,23.2662,23.1669,
104,6.2734,1.52572,3.15188,4.23432,6.27154,2.00239,1.55357,0,-0.0255543,-0.0116142,-0.0197171,0.00491552,0.0210676,0,0.32175,2.75463,-0.622478,5.27783,0.423758,-2.46601,1.055,0.0145365,-14.7564,-0.312474,-2.23726,-0.00924473,1.88616,0.0180235,-0.00202628,-0.000975673,0.00119577,0.395042,0.00134017,0.0172573,0.00114941,0.00382593,0.0129199,0.0268248,0.00690417,-0.0363985,0.770261,0.0923473,-1.47955,-0.230036,-0.0441185,0.109374,-0.148123,13.8275,0.529138,2.46293,0.359628,-0.887372,0.00307813,0.499772,-1.65169,-0.1372,-0.322266,0.185347,0.358543,-0.0324774,23.4506,23.3229,23.1527,23.2946,23.2946,23.2662,23.1669,
105,6.2734,1.52569,3.15187,4.2343,6.27155,2.00241,1.55357,7.54971e-05,-0.0232284,-0.0117861,-0.0193092,0.00594214,0.0202573,0,0.322086,2.75471,-0.622805,5.27779,0.42418,-2.46591,1.05551,0.0146179,-14.7563,-0.312505,-2.23717,-0.00921806,1.88616,0.0180212,-0.00202628,-0.000975673,0.00119577,0.395042,0.00134017,0.0172573,0.000644645,0.00393731,0.0119064,0.0268248,0.00690417,-0.0363985,0.770261,0.0923473,-1.47955,-0.230036,-0.0441185,0.109374,-0.144476,13.9027,0.50082,2.48901,0.351647,-0.900173,-0.00271017,0.507568,-1.71608,-0.137907,-0.281982,0.185303,0.366599,-0.0322266,23.4506,23.3229,23.1385,23.2804,23.3087,23.3087,23.1385,
106,6.2734,1.52569,3.15187,4.2343,6.27155,2.00241,1.55357,7.54971e-05,-0.0232284,-0.0117861,-0.0193092,0.00594214,0.0202573,0,0.32063,2.69888,-0.592282,5.27733,0.422415,-2.51838,1.02759,0.0142178,-14.7926,-0.310889,-2.23104,-0.0110107,1.89033,0.0184207,-0.00204171,-0.0009534,0.00118933,0.395042,0.00134017,0.0172573,0.000644645,0.00393731,0.0119064,0.0268148,0.00674196,-0.036872,0.785104,0.0841395,-1.46335,-0.232747,-0.0473779,0.107017,-0.144476,13.9027,0.50082,2.48901,0.351647,-0.900173,-0.00271017,0.507568,-1.71608,-0.137907,-0.281982,0.185303,0.366599,-0.0322266,23.4506,23.3229,23.1385,23.2804,23.3087,23.3087,23.1385,
107,6.2734,1.52567,3.15186,4.23428,6.27156,2.00243,1.55357,6.62395e-05,-0.0218779,-0.0110628,-0.0191769,0.00600041,0.0194273,0,0.320935,2.69894,-0.592592,5.27732,0.422795,-2.5183,1.02805,0.0142892,-14.7925,-0.310919,-2.23096,-0.0109851,1.89033,0.0184184,-0.00204171,-0.0009534,0.00118933,0.395042,0.00134017,0.0172573,0.000324253,0.00373644,0.0112759,0.0268148,0.00674196,-0.036872,0.785104,0.0841395,-1.46335,-0.232747,-0.0473779,0.107017,-0.129892,14.0181,0.497136,2.54057,0.344727,-0.93483,-0.00468425,0.491455,-1.74025,-0.121919,-0.265869,0.177246,0.358543,-0.0284845,23.4506,23.3371,23.1669,23.2804,23.2946,23.2946,23.1385,
108,6.2734,1.52567,3.15186,4.23428,6.27156,2.00243,1.55357,6.62395e-05,-0.0218779,-0.0110628,-0.0191769,0.00600041,0.0194273,0,0.321271,2.67561,-0.597955,5.28793,0.422451,-2.55025,1.03361,0.0143818,-14.8077,-0.311723,-2.22559,-0.0107502,1.89195,0.0183918,-0.00205576,-0.000931918,0.00118194,0.395042,0.00134017,0.0172573,0.000324253,0.00373644,0.0112759,0.026802,0.00658751,-0.0373162,0.794332,0.0855323,-1.45776,-0.232735,-0.0493131,0.106242,-0.129892,14.0181,0.497136,2.54057,0.344727,-0.93483,-0.00468425,0.491455,-1.74025,-0.121919,-0.265869,0.177246,0.358543,-0.0284845,23.4506,23.3371,23.1669,23.2804,23.2946,23.2946,23.1385,
109,6.2734,1.52565,3.15185,4.23426,6.27156,2.00246,1.55357,0.000132479,-0.0205274,-0.0108039,-0.0191575,0.00609254,0.020563,0,0.321562,2.67569,-0.598245,5.28787,0.422835,-2.55012,1.03406,0.0144514,-14.8076,-0.31175,-2.22554,-0.0107271,1.89195,0.0183898,-0.00205576,-0.000931918,0.00118194,0.395042,0.00134017,0.0172573,-2.94487e-05,0.0036439,0.0108607,0.026802,0.00658751,-0.0373162,0.794332,0.0855323,-1.45776,-0.232735,-0.0493131,0.106242,-0.124981,14.1056,0.520948,2.62262,0.349028,-0.95467,0.00379953,0.491521,-1.71608,-0.1372,-0.265991,0.185478,0.374655,-0.0205405,23.4648,23.3087,23.1385,23.2804,23.3087,23.2662,23.1527,
110,6.2734,1.52565,3.15185,4.23426,6.27156,2.00246,1.55357,0.000132479,-0.0205274,-0.0108039,-0.0191575,0.00609254,0.020563,0,0.3213,2.66436,-0.592999,5.31471,0.422475,-2.59025,1.02995,0.0143794,-14.815,-0.311501,-2.21707,-0.0110458,1.89179,0.0184999,-0.00206909,-0.000909086,0.00117603,0.395042,0.00134017,0.0172573,-2.94487e-05,0.0036439,0.0108607,0.0268048,0.00644858,-0.0377491,0.805027,0.0841403,-1.45829,-0.233599,-0.047418,0.105604,-0.124981,14.1056,0.520948,2.62262,0.349028,-0.95467,0.00379953,0.491521,-1.71608,-0.1372,-0.265991,0.185478,0.374655,-0.0205405,23.4648,23.3087,23.1385,23.2804,23.3087,23.2662,23.1527,
111,6.2734,1.52563,3.15184,4.23424,6.27157,2.00248,1.55357,0.000117023,-0.0200615,-0.0108039,-0.0185569,0.00650433,0.0210676,0,0.321583,2.66442,-0.593267,5.31464,0.422828,-2.59014,1.03035,0.0144487,-14.8149,-0.311527,-2.21704,-0.0110225,1.89179,0.0184979,-0.00206909,-0.000909086,0.00117603,0.395042,0.00134017,0.0172573,1.75241e-05,0.00369057,0.0107143,0.0268048,0.00644858,-0.0377491,0.805027,0.0841403,-1.45829,-0.233599,-0.047418,0.105604,-0.0992997,14.15,0.552467,2.67665,0.332366,-0.943465,0.00536025,0.475615,-1.73218,-0.136963,-0.249886,0.185478,0.366599,-0.0284845,23.4648,23.3087,23.1669,23.2946,23.2946,23.3229,23.1385,
112,6.2734,1.52563,3.15184,4.23424,6.27157,2.00248,1.55357,0.000117023,-0.0200615,-0.0108039,-0.0185569,0.00650433,0.0210676,0,0.320355,2.68648,-0.571233,5.33013,0.420621,-2.58731,1.00909,0.0141112,-14.8005,-0.309384,-2.21518,-0.0122278,1.88935,0.0187764,-0.00208309,-0.000886943,0.00116815,0.395042,0.00134017,0.0172573,1.75241e-05,0.00369057,0.0107143,0.0268054,0.00629511,-0.0381955,0.803635,0.0781365,-1.4673,-0.235346,-0.0439361,0.10401,-0.0992997,14.15,0.552467,2.67665,0.332366,-0.943465,0.00536025,0.475615,-1.73218,-0.136963,-0.249886,0.185478,0.366599,-0.0284845,23.4648,23.3087,23.1669,23.2946,23.2946,23.3229,23.1385,
113,6.2734,1.52561,3.15183,4.23422,6.27158,2.0025,1.55357,0.000117996,-0.0186367,-0.00972351,-0.0172862,0.00712211,0.0210676,0,0.320613,2.68653,-0.571494,5.33007,0.420978,-2.5872,1.00949,0.0141743,-14.8004,-0.309412,-2.21513,-0.0122028,1.88934,0.0187742,-0.00208309,-0.000886943,0.00116815,0.395042,0.00134017,0.0172573,3.56136e-06,0.00344193,0.0101089,0.0268054,0.00629511,-0.0381955,0.803635,0.0781365,-1.4673,-0.235346,-0.0439361,0.10401,-0.0857763,14.227,0.50932,2.71763,0.322379,-0.947922,-0.00351465,0.491455,-1.70803,-0.12085,-0.265991,0.181274,0.358521,-0.038216,23.4364,23.3229,23.1669,23.2946,23.2946,23.2946,23.1527,
114,6.2734,1.52561,3.15183,4.23422,6.27158,2.0025,1.55357,0.000117996,-0.0186367,-0.00972351,-0.0172862,0.00712211,0.0210676,0,0.321351,2.67082,-0.584197,5.31699,0.419291,-2.59162,1.02118,0.0143771,-14.8107,-0.310692,-2.217,-0.0115883,1.89055,0.0186878,-0.00209625,-0.00086493,0.00115982,0.395042,0.00134017,0.0172573,3.56136e-06,0.00344193,0.0101089,0.0268052,0.00615175,-0.0385947,0.80405,0.0812947,-1.46111,-0.235017,-0.0420382,0.102128,-0.0857763,14.227,0.50932,2.71763,0.322379,-0.947922,-0.00351465,0.491455,-1.70803,-0.12085,-0.265991,0.181274,0.358521,-0.038216,23.4364,23.3229,23.1669,23.2946,23.2946,23.2946,23.1527,
115,6.2734,1.5256,3.15182,4.23421,6.27159,2.00252,1.55357,0.000106378,-0.0178084,-0.0102815,-0.016746,0.00781529,0.0213377,0,0.321637,2.67087,-0.58446,5.31693,0.419645,-2.59153,1.02159,0.0144483,-14.8106,-0.310719,-2.21697,-0.0115654,1.89055,0.0186859,-0.00209625,-0.00086493,0.00115982,0.395042,0.00134017,0.0172573,-6.5139e-05,0.00367122,0.009801,0.0268052,0.00615175,-0.0385947,0.80405,0.0812947,-1.46111,-0.235017,-0.0420382,0.102128,-0.0835361,14.3491,0.507397,2.78498,0.314152,-0.938197,-0.0010539,0.491455,-1.70801,-0.145912,-0.274044,0.165161,0.354515,-0.0281982,23.4648,23.3229,23.1811,23.2804,23.2946,23.2946,23.1527,
116,6.2734,1.5256,3.15182,4.23421,6.27159,2.00252,1.55357,0.000106378,-0.0178084,-0.0102815,-0.016746,0.00781529,0.0213377,0,0.319353,2.67257,-0.541245,5.32569,0.416978,-2.60119,0.980515,0.0138204,-14.8095,-0.307166,-2.21458,-0.0139597,1.88977,0.019193,-0.00211073,-0.000843197,0.00115141,0.395042,0.00134017,0.0172573,-6.5139e-05,0.00367122,0.009801,0.0268091,0.00599329,-0.0389797,0.806228,0.0696621,-1.46342,-0.238156,-0.0399301,0.0999361,-0.0835361,14.3491,0.507397,2.78498,0.314152,-0.938197,-0.0010539,0.491455,-1.70801,-0.145912,-0.274044,0.165161,0.354515,-0.0281982,23.4648,23.3229,23.1811,23.2804,23.2946,23.2946,23.1527,
117,6.2734,1.52558,3.15181,4.23419,6.2716,2.00254,1.55357,0.000159566,-0.0162058,-0.00999361,-0.0148554,0.00834515,0.0202573,0,0.31962,2.67261,-0.541513,5.32564,0.417321,-2.60112,0.980906,0.0138854,-14.8094,-0.307194,-2.21453,-0.0139354,1.88977,0.0191909,-0.00211073,-0.000843197,0.00115141,0.395042,0.00134017,0.0172573,4.80003e-05,0.00361799,0.00900223,0.0268091,0.00599329,-0.0389797,0.806228,0.0696621,-1.46342,-0.238156,-0.0399301,0.0999361,-0.0920961,14.4354,0.498946,2.83886,0.313642,-0.921044,0.0025882,0.483398,-1.71608,-0.1372,-0.265991,0.169189,0.346459,-0.0322266,23.4506,23.3371,23.1527,23.3087,23.2946,23.2946,23.1527,
118,6.2734,1.52558,3.15181,4.23419,6.2716,2.00254,1.55357,0.000159566,-0.0162058,-0.00999361,-0.0148554,0.00834515,0.0202573,0,0.319273,2.64401,-0.532587,5.2866,0.415887,-2.59132,0.97251,0.01379,-14.828,-0.30691,-2.22185,-0.0144983,1.89261,0.0193498,-0.00212415,-0.000821985,0.00114358,0.395042,0.00134017,0.0172573,4.80003e-05,0.00361799,0.00900223,0.0268058,0.00585537,-0.0393368,0.802734,0.0671215,-1.45017,-0.239374,-0.0394015,0.0983178,-0.0920961,14.4354,0.498946,2.83886,0.313642,-0.921044,0.0025882,0.483398,-1.71608,-0.1372,-0.265991,0.169189,0.346459,-0.0322266,23.4506,23.3371,23.1527,23.3087,23.2946,23.2946,23.1527,
119,6.2734,1.52556,3.1518,4.23418,6.27161,2.00256,1.55357,0.000144267,-0.0145446,-0.00917401,-0.0135049,0.00874471,0.020563,0,0.319518,2.64406,-0.532836,5.28656,0.416223,-2.59123,0.972889,0.0138498,-14.828,-0.306936,-2.22179,-0.0144742,1.89261,0.0193477,-0.00212415,-0.000821985,0.00114358,0.395042,0.00134017,0.0172573,-6.90729e-06,0.00342894,0.00833647,0.0268058,0.00585537,-0.0393368,0.802734,0.0671215,-1.45017,-0.239374,-0.0394015,0.0983178,-0.0410542,14.4936,0.513172,2.91857,0.282727,-0.90479,0.00209858,0.483466,-1.71614,-0.129158,-0.298096,0.161133,0.362571,-0.0281982,23.4648,23.3229,23.1385,23.2946,23.3087,23.3087,23.1527,
120,6.2734,1.52556,3.1518,4.23418,6.27161,2.00256,1.55357,0.000144267,-0.0145446,-0.00917401,-0.0135049,0.00874471,0.020563,0,0.319935,2.61951,-0.538858,5.26811,0.414903,-2.59967,0.978427,0.0139645,-14.8439,-0.307809,-2.2241,-0.0142259,1.89448,0.019321,-0.00213723,-0.000798117,0.00113425,0.395042,0.00134017,0.0172573,-6.90729e-06,0.00342894,0.00833647,0.0267929,0.00571384,-0.0396917,0.803994,0.068547,-1.44085,-0.239372,-0.0370194,0.0966656,-0.0410542,14.4936,0.513172,2.91857,0.282727,-0.90479,0.00209858,0.483466,-1.71614,-0.129158,-0.298096,0.161133,0.362571,-0.0281982,23.4648,23.3229,23.1385,23.2946,23.3087,23.3087,23.1527,
121,6.2734,1.52555,3.15179,4.23417,6.27162,2.00258,1.55357,0.000144267,-0.0129647,-0.00918331,-0.0115245,0.0096555,0.0210463,0,0.320168,2.61954,-0.539087,5.26805,0.415225,-2.5996,0.978782,0.0140244,-14.8439,-0.307836,-2.22407,-0.0142019,1.89448,0.019319,-0.00213723,-0.000798117,0.00113425,0.395042,0.00134017,0.0172573,0.000137018,0.00352054,0.00771212,0.0267929,0.00571384,-0.0396917,0.803994,0.068547,-1.44085,-0.239372,-0.0370194,0.0966656,-0.0493926,14.5742,0.488812,2.96227,0.275878,-0.901745,-0.0101942,0.467563,-1.74025,-0.14502,-0.314622,0.165161,0.354515,-0.0234889,23.479,23.3229,23.1811,23.3087,23.3087,23.2946,23.1385,
122,6.2734,1.52555,3.15179,4.23417,6.27162,2.00258,1.55357,0.000144267,-0.0129647,-0.00918331,-0.0115245,0.0096555,0.0210463,0,0.318903,2.59965,-0.513127,5.23441,0.412303,-2.59005,0.953656,0.0136768,-14.8568,-0.306025,-2.2308,-0.0157053,1.89608,0.0196505,-0.00215096,-0.000776802,0.00112347,0.395042,0.00134017,0.0172573,0.000137018,0.00352054,0.00771212,0.0267962,0.0055664,-0.0399995,0.799776,0.0613758,-1.43135,-0.241533,-0.0331448,0.0938786,-0.0493926,14.5742,0.488812,2.96227,0.275878,-0.901745,-0.0101942,0.467563,-1.74025,-0.14502,-0.314622,0.165161,0.354515,-0.0234889,23.479,23.3229,23.1811,23.3087,23.3087,23.2946,23.1385,
123,6.2734,1.52554,3.15178,4.23416,6.27163,2.0026,1.55357,0.000132474,-0.0116142,-0.00999361,-0.0102741,0.0107088,0.0202573,0,0.319162,2.59967,-0.513371,5.23438,0.412628,-2.59002,0.95402,0.0137419,-14.8568,-0.306052,-2.23076,-0.0156814,1.89608,0.0196485,-0.00215096,-0.000776802,0.00112347,0.395042,0.00134017,0.0172573,0.000130974,0.00385488,0.00706955,0.0267962,0.0055664,-0.0399995,0.799776,0.0613758,-1.43135,-0.241533,-0.0331448,0.0938786,-0.0136837,14.6754,0.492047,2.98625,0.264818,-0.915855,-0.0186503,0.483466,-1.7322,-0.128906,-0.338475,0.157156,0.354584,-0.0324774,23.479,23.3229,23.1669,23.2662,23.3087,23.2946,23.1385,
124,6.2734,1.52554,3.15178,4.23416,6.27163,2.0026,1.55357,0.000132474,-0.0116142,-0.00999361,-0.0102741,0.0107088,0.0202573,0,0.316383,2.57188,-0.458597,5.20792,0.40923,-2.59226,0.901885,0.0129782,-14.8748,-0.302015,-2.23455,-0.0187643,1.89841,0.0202858,-0.00216572,-0.00075577,0.00111216,0.395042,0.00134017,0.0172573,0.000130974,0.00385488,0.00706955,0.0267909,0.00540784,-0.0402782,0.799799,0.0465888,-1.42043,-0.245511,-0.032863,0.0907372,-0.0136837,14.6754,0.492047,2.98625,0.264818,-0.915855,-0.0186503,0.483466,-1.7322,-0.128906,-0.338475,0.157156,0.354584,-0.0324774,23.479,23.3229,23.1669,23.2662,23.3087,23.2946,23.1385,
125,6.2734,1.52553,3.15177,4.23415,6.27164,2.00262,1.55357,0.000176646,-0.0108039,-0.00852613,-0.00890419,0.0112318,0.0210676,0,0.316619,2.57191,-0.458839,5.20789,0.409542,-2.59221,0.902242,0.0130387,-14.8748,-0.302044,-2.23452,-0.0187384,1.89841,0.0202836,-0.00216572,-0.00075577,0.00111216,0.395042,0.00134017,0.0172573,0.00031068,0.00347326,0.00678628,0.0267909,0.00540784,-0.0402782,0.799799,0.0465888,-1.42043,-0.245511,-0.032863,0.0907372,-0.0039171,14.7414,0.483234,3.01068,0.264869,-0.940433,-0.027719,0.47541,-1.74829,-0.105046,-0.346529,0.145075,0.350464,-0.0245033,23.4506,23.2946,23.1669,23.2946,23.2946,23.2804,23.1527,
126,6.2734,1.52553,3.15177,4.23415,6.27164,2.00262,1.55357,0.000176646,-0.0108039,-0.00852613,-0.00890419,0.0112318,0.0210676,0,0.318139,2.57641,-0.487268,5.19239,0.407699,-2.57692,0.928551,0.0134565,-14.8719,-0.304289,-2.23932,-0.0172431,1.89793,0.0200545,-0.00217947,-0.000733389,0.00110188,0.395042,0.00134017,0.0172573,0.00031068,0.00347326,0.00678628,0.0267803,0.00526873,-0.0405446,0.794088,0.0538639,-1.41993,-0.2444,-0.0278703,0.0889287,-0.0039171,14.7414,0.483234,3.01068,0.264869,-0.940433,-0.027719,0.47541,-1.74829,-0.105046,-0.346529,0.145075,0.350464,-0.0245033,23.4506,23.2946,23.1669,23.2946,23.2946,23.2804,23.1527,
127,6.2734,1.52552,3.15176,4.23414,6.27165,2.00264,1.55357,0.000163284,-0.00952024,-0.00945341,-0.00756273,0.0118803,0.0210676,0,0.318383,2.57644,-0.487503,5.19236,0.408019,-2.57688,0.928902,0.0135182,-14.8719,-0.304315,-2.23927,-0.0172197,1.89793,0.0200525,-0.00217947,-0.000733389,0.00110188,0.395042,0.00134017,0.0172573,0.000348262,0.00380416,0.00625286,0.0267803,0.00526873,-0.0405446,0.794088,0.0538639,-1.41993,-0.2444,-0.0278703,0.0889287,0.0093267,14.7979,0.485291,3.00143,0.261198,-0.981956,-0.0156494,0.467285,-1.7322,-0.153076,-0.362549,0.137495,0.342431,-0.0281982,23.4648,23.3087,23.1669,23.2946,23.3087,23.2946,23.1385,
128,6.2734,1.52552,3.15176,4.23414,6.27165,2.00264,1.55357,0.000163284,-0.00952024,-0.00945341,-0.00756273,0.0118803,0.0210676,0,0.315618,2.55662,-0.433348,5.16705,0.405221,-2.57442,0.87743,0.0127581,-14.8847,-0.300204,-2.24363,-0.0202397,1.89941,0.020674,-0.00219393,-0.000710095,0.00109007,0.395042,0.00134017,0.0172573,0.000348262,0.00380416,0.00625286,0.0267587,0.005114,-0.0408033,0.792314,0.0392952,-1.41168,-0.248244,-0.0254604,0.0864328,0.0093267,14.7979,0.485291,3.00143,0.261198,-0.981956,-0.0156494,0.467285,-1.7322,-0.153076,-0.362549,0.137495,0.342431,-0.0281982,23.4648,23.3087,23.1669,23.2946,23.3087,23.2946,23.1385,
129,6.2734,1.52551,3.15175,4.23413,6.27167,2.00266,1.55357,0.000163284,-0.00756273,-0.00864312,-0.00601844,0.0130037,0.0205437,0,0.315843,2.55664,-0.433578,5.16706,0.405517,-2.57442,0.877771,0.0128152,-14.8847,-0.300232,-2.24358,-0.0202136,1.89941,0.0206718,-0.00219393,-0.000710095,0.00109007,0.395042,0.00134017,0.0172573,0.000269582,0.00367974,0.00537652,0.0267587,0.005114,-0.0408033,0.792314,0.0392952,-1.41168,-0.248244,-0.0254604,0.0864328,0.0437967,14.8597,0.498449,2.97478,0.258265,-0.990927,-0.00186542,0.459511,-1.74025,-0.11308,-0.378662,0.132996,0.346436,-0.0245033,23.4648,23.3229,23.1527,23.2804,23.2946,23.2804,23.1243,
130,6.2734,1.52551,3.15175,4.23413,6.27167,2.00266,1.55357,0.000163284,-0.00756273,-0.00864312,-0.00601844,0.0130037,0.0205437,0,0.315929,2.50597,-0.431506,5.12758,0.402656,-2.58605,0.875411,0.0128389,-14.9177,-0.300852,-2.24864,-0.0204843,1.90383,0.0207559,-0.00220847,-0.000687489,0.00107633,0.395042,0.00134017,0.0172573,0.000269582,0.00367974,0.00537652,0.0267547,0.00496028,-0.0410209,0.794555,0.038416,-1.39192,-0.249013,-0.0250875,0.083078,0.0437967,14.8597,0.498449,2.97478,0.258265,-0.990927,-0.00186542,0.459511,-1.74025,-0.11308,-0.378662,0.132996,0.346436,-0.0245033,23.4648,23.3229,23.1527,23.2804,23.2946,23.2804,23.1243,
131,6.2734,1.52551,3.15175,4.23413,6.27168,2.00269,1.55357,0.000151812,-0.00594214,-0.00836454,-0.00567205,0.0130037,0.0210676,0,0.316156,2.506,-0.431727,5.1276,0.402951,-2.58605,0.87575,0.012894,-14.9177,-0.300876,-2.2486,-0.0204623,1.90383,0.020754,-0.00220847,-0.000687489,0.00107633,0.395042,0.00134017,0.0172573,-6.25948e-05,0.0036025,0.00478142,0.0267547,0.00496028,-0.0410209,0.794555,0.038416,-1.39192,-0.249013,-0.0250875,0.083078,0.0760937,14.9284,0.503796,2.96112,0.267095,-1.01497,-0.0080584,0.451459,-1.76442,-0.121919,-0.402913,0.12085,0.350464,-0.0241699,23.479,23.3229,23.1527,23.2946,23.3087,23.2946,23.1385,
132,6.2734,1.52551,3.15175,4.23413,6.27168,2.00269,1.55357,0.000151812,-0.00594214,-0.00836454,-0.00567205,0.0130037,0.0210676,0,0.315908,2.46503,-0.424561,5.12431,0.402391,-2.62442,0.869524,0.0128256,-14.9444,-0.300932,-2.24497,-0.0209387,1.90663,0.0208568,-0.00222185,-0.000666448,0.00106456,0.395042,0.00134017,0.0172573,-6.25948e-05,0.0036025,0.00478142,0.0267558,0.00481791,-0.0412122,0.804552,0.0364622,-1.37981,-0.249768,-0.0244783,0.0818802,0.0760937,14.9284,0.503796,2.96112,0.267095,-1.01497,-0.0080584,0.451459,-1.76442,-0.121919,-0.402913,0.12085,0.350464,-0.0241699,23.479,23.3229,23.1527,23.2946,23.3087,23.2946,23.1385,
133,6.2734,1.5255,3.15174,4.23412,6.27169,2.00271,1.55357,0.000151812,-0.00459166,-0.00891322,-0.004587,0.0129647,0.0210676,1.0598e-05,0.316146,2.46504,-0.424798,5.12431,0.402698,-2.62443,0.869862,0.0128847,-14.9443,-0.300959,-2.24494,-0.0209152,1.90663,0.0208549,-0.00222185,-0.000666448,0.00106456,0.395042,0.00134017,0.0172573,-0.000114595,0.00375364,0.00422576,0.0267558,0.00481791,-0.0412122,0.804552,0.0364622,-1.37981,-0.249768,-0.0244783,0.0818802,0.101835,14.9503,0.53265,2.94693,0.269081,-1.05821,-0.0166559,0.451244,-1.77246,-0.137907,-0.394775,0.108839,0.354515,-0.0293266,23.479,23.3371,23.1669,23.2946,23.3087,23.2946,23.1385,
134,6.2734,1.5255,3.15174,4.23412,6.27169,2.00271,1.55357,0.000151812,-0.00459166,-0.00891322,-0.004587,0.0129647,0.0210676,1.0598e-05,0.31452,2.43372,-0.391683,5.10065,0.401662,-2.63398,0.838824,0.0124377,-14.9647,-0.298745,-2.24771,-0.0227791,1.90906,0.0212339,-0.00223526,-0.000645826,0.00105231,0.395042,0.00134017,0.0172573,-0.000114595,0.00375364,0.00422576,0.0267604,0.00467385,-0.0413794,0.806249,0.0276062,-1.36815,-0.252147,-0.0229566,0.0806551,0.101835,14.9503,0.53265,2.94693,0.269081,-1.05821,-0.0166559,0.451244,-1.77246,-0.137907,-0.394775,0.108839,0.354515,-0.0293266,23.479,23.3371,23.1669,23.2946,23.3087,23.2946,23.1385,
135,6.2734,1.5255,3.15173,4.23412,6.27171,2.00273,1.55357,0.000141846,-0.00300922,-0.0087769,-0.00405558,0.0140379,0.0202573,1.0598e-05,0.314772,2.43373,-0.391924,5.10068,0.401974,-2.63401,0.839187,0.0125004,-14.9647,-0.298773,-2.24768,-0.0227538,1.90906,0.0212318,-0.00223526,-0.000645826,0.00105231,0.395042,0.00134017,0.0172573,-0.000384573,0.0038179,0.00349951,0.0267604,0.00467385,-0.0413794,0.806249,0.0276062,-1.36815,-0.252147,-0.0229566,0.0806551,0.115347,14.9965,0.552537,2.93287,0.28142,-1.10846,-0.00860444,0.459299,-1.78052,-0.112793,-0.402913,0.109063,0.334351,-0.0241699,23.4648,23.3371,23.1669,23.2804,23.3087,23.2662,23.1527,
136,6.2734,1.5255,3.15173,4.23412,6.27171,2.00275,1.55357,0.000141123,-0.00162058,-0.0087769,-0.00350746,0.0140379,0.020563,1.0598e-05,0.31365,2.38176,-0.367276,5.08148,0.399111,-2.66524,0.815885,0.0121909,-14.9985,-0.297574,-2.24702,-0.0242478,1.91326,0.0215508,-0.00225059,-0.000626823,0.00103855,0.395042,0.00134017,0.0172573,-0.000598196,0.00381633,0.00297003,0.0267717,0.00451137,-0.0415233,0.814689,0.0208042,-1.35068,-0.254288,-0.0248039,0.0773371,0.124524,15.0328,0.552537,2.90192,0.28142,-1.14281,0.0107808,0.459299,-1.78859,-0.112793,-0.402832,0.109063,0.346436,-0.0254773,23.4648,23.3371,23.1669,23.2946,23.3087,23.2946,23.1527,
137,6.2734,1.5255,3.15173,4.23412,6.27171,2.00275,1.55357,0.000141123,-0.00162058,-0.0087769,-0.00350746,0.0140379,0.020563,1.0598e-05,0.31377,2.34393,-0.367155,5.07115,0.399773,-2.69365,0.816326,0.0122237,-15.0231,-0.298156,-2.24566,-0.0243067,1.91601,0.0215432,-0.00225056,-0.000606985,0.00103824,0.395042,0.00134017,0.0172573,-0.000598196,0.00381633,0.00297003,0.0267957,0.00451017,-0.041647,0.821818,0.0208151,-1.33851,-0.254268,-0.0238898,0.0772844,0.124524,15.0328,0.552537,2.90192,0.28142,-1.14281,0.0107808,0.459299,-1.78859,-0.112793,-0.402832,0.109063,0.346436,-0.0254773,23.4648,23.3371,23.1669,23.2946,23.3087,23.2946,23.1527,
138,6.2734,1.52549,3.15172,4.23411,6.27172,2.00277,1.55357,0.000141123,-0.00162058,-0.00864312,-0.00243088,0.0140379,0.0213377,1.0606e-05,0.313987,2.34393,-0.36737,5.07114,0.400038,-2.69366,0.816617,0.0122815,-15.0231,-0.298182,-2.24565,-0.0242827,1.91601,0.0215413,-0.00225056,-0.000606985,0.00103824,0.395042,0.00134017,0.0172573,-0.000290447,0.00378207,0.00302296,0.0267957,0.00451017,-0.041647,0.821818,0.0208151,-1.33851,-0.254268,-0.0238898,0.0772844,0.135425,15.0618,0.557516,2.83944,0.275584,-1.18071,0.00864851,0.459511,-1.80469,-0.105046,-0.394775,0.112793,0.350487,-0.0293266,23.479,23.3087,23.1669,23.2804,23.3087,23.2946,23.1385,
139,6.2734,1.52549,3.15172,4.23411,6.27172,2.00277,1.55357,0.000141123,-0.00162058,-0.00864312,-0.00243088,0.0140379,0.0213377,1.0606e-05,0.313353,2.36455,-0.35598,5.05927,0.398227,-2.66699,0.805297,0.0121073,-15.0097,-0.296927,-2.25104,-0.024902,1.9141,0.0217135,-0.00226463,-0.00058716,0.00102598,0.395042,0.00134017,0.0172573,-0.000290447,0.00378207,0.00302296,0.0268086,0.00436925,-0.0417642,0.812971,0.0176152,-1.34361,-0.255427,-0.0182022,0.0760265,0.135425,15.0618,0.557516,2.83944,0.275584,-1.18071,0.00864851,0.459511,-1.80469,-0.105046,-0.394775,0.112793,0.350487,-0.0293266,23.479,23.3087,23.1669,23.2804,23.3087,23.2946,23.1385,
140,6.2734,1.52549,3.15172,4.23411,6.27172,2.00277,1.55357,0.000141123,-0.00162058,-0.00864312,-0.00243088,0.0140379,0.0213377,1.0606e-05,0.313353,2.36455,-0.35598,5.05927,0.398227,-2.66699,0.805297,0.0121073,-15.0097,-0.296927,-2.25104,-0.024902,1.9141,0.0217135,-0.00226463,-0.00058716,0.00102598,0.395042,0.00134017,0.0172573,-0.000290447,0.00378207,0.00302296,0.0268086,0.00436925,-0.0417642,0.812971,0.0176152,-1.34361,-0.255427,-0.0182022,0.0760265,0.135425,15.0618,0.557516,2.83944,0.275584,-1.18071,0.00864851,0.459511,-1.80469,-0.105046,-0.394775,0.112793,0.350487,-0.0293266,23.479,23.3087,23.1669,23.2804,23.3087,23.2946,23.1385,
141,6.2734,1.52549,3.15171,4.23411,6.27174,2.00279,1.55357,0.000132471,-0.000810292,-0.00864312,-0.00216078,0.0130037,0.0183666,0,0.313614,2.36455,-0.356232,5.0593,0.398478,-2.66702,0.805575,0.0121649,-15.0097,-0.296952,-2.25102,-0.0248804,1.9141,0.0217115,-0.00226463,-0.00058716,0.00102598,0.395042,0.00134017,0.0172573,-0.000429399,0.00367979,0.00238309,0.0268086,0.00436925,-0.0417642,0.812971,0.0176152,-1.34361,-0.255427,-0.0182022,0.0760265,0.176671,15.096,0.589451,2.82289,0.276742,-1.2217,0.0157377,0.459299,-1.78052,-0.12085,-0.419023,0.112793,0.334375,-0.0293266,23.4648,23.3371,23.1385,23.2946,23.2946,23.2946,23.1385,
142,6.2734,1.52549,3.15171,4.23411,6.27174,2.00279,1.55357,0.000132471,-0.000810292,-0.00864312,-0.00216078,0.0130037,0.0183666,0,0.313452,2.31954,-0.35049,5.0345,0.399849,-2.68184,0.801194,0.0121205,-15.039,-0.297188,-2.25273,-0.0252331,1.91851,0.021782,-0.00227869,-0.000571595,0.00101324,0.395042,0.00134017,0.0172573,-0.000429399,0.00367979,0.00238309,0.0268341,0.00422024,-0.041845,0.817904,0.0162136,-1.32684,-0.255983,-0.0236402,0.0766963,0.176671,15.096,0.589451,2.82289,0.276742,-1.2217,0.0157377,0.459299,-1.78052,-0.12085,-0.419023,0.112793,0.334375,-0.0293266,23.4648,23.3371,23.1385,23.2946,23.2946,23.2946,23.1385,
143,6.2734,1.52549,3.15171,4.23411,6.27174,2.00279,1.55357,0.000132471,-0.000810292,-0.00864312,-0.00216078,0.0130037,0.0183666,0,0.313452,2.31954,-0.35049,5.0345,0.399849,-2.68184,0.801194,0.0121205,-15.039,-0.297188,-2.25273,-0.0252331,1.91851,0.021782,-0.00227869,-0.000571595,0.00101324,0.395042,0.00134017,0.0172573,-0.000429399,0.00367979,0.00238309,0.0268341,0.00422024,-0.041845,0.817904,0.0162136,-1.32684,-0.255983,-0.0236402,0.0766963,0.176671,15.096,0.589451,2.82289,0.276742,-1.2217,0.0157377,0.459299,-1.78052,-0.12085,-0.419023,0.112793,0.334375,-0.0293266,23.4648,23.3371,23.1385,23.2946,23.2946,23.2946,23.1385,
144,6.2734,1.52549,3.1517,4.23411,6.27175,2.00281,1.55357,0.000166375,0.000259947,-0.00891322,-0.00189068,0.0122235,0.0183666,0,0.313706,2.31954,-0.350735,5.03453,0.400154,-2.68187,0.801537,0.0121819,-15.039,-0.297214,-2.25272,-0.0252108,1.91851,0.0217801,-0.00227869,-0.000571595,0.00101324,0.395042,0.00134017,0.0172573,-0.000638204,0.00366591,0.00195753,0.0268341,0.00422024,-0.041845,0.817904,0.0162136,-1.32684,-0.255983,-0.0236402,0.0766963,0.168286,15.1869,0.624745,2.80469,0.296598,-1.26215,0.018951,0.475342,-1.77248,-0.088623,-0.402832,0.104814,0.362549,-0.0281982,23.479,23.3229,23.1669,23.3087,23.3087,23.2946,23.1669,
145,6.2734,1.52549,3.1517,4.23411,6.27175,2.00281,1.55357,0.000166375,0.000259947,-0.00891322,-0.00189068,0.0122235,0.0183666,0,0.313037,2.28555,-0.336015,5.02755,0.4011,-2.70898,0.788787,0.0119981,-15.0611,-0.296545,-2.25081,-0.026042,1.92099,0.0219641,-0.00229262,-0.000556145,0.00100246,0.395042,0.00134017,0.0172573,-0.000638204,0.00366591,0.00195753,0.0268622,0.00407976,-0.0419179,0.825012,0.0124157,-1.31626,-0.257245,-0.0236801,0.0770725,0.168286,15.1869,0.624745,2.80469,0.296598,-1.26215,0.018951,0.475342,-1.77248,-0.088623,-0.402832,0.104814,0.362549,-0.0281982,23.479,23.3229,23.1669,23.3087,23.3087,23.2946,23.1669,
146,6.2734,1.5255,3.15169,4.23411,6.27176,2.00283,1.55357,0.000156721,0.000614238,-0.00902766,-0.00125384,0.0116083,0.0179884,0,0.3133,2.28554,-0.336267,5.02756,0.401403,-2.709,0.789123,0.0120633,-15.0611,-0.296573,-2.2508,-0.0260186,1.92099,0.0219621,-0.00229262,-0.000556145,0.00100246,0.395042,0.00134017,0.0172573,-0.000551161,0.003643,0.0017631,0.0268622,0.00407976,-0.0419179,0.825012,0.0124157,-1.31626,-0.257245,-0.0236801,0.0770725,0.126215,15.2551,0.632279,2.7767,0.305132,-1.2823,0.0190125,0.467285,-1.78052,-0.088623,-0.394775,0.11308,0.366599,-0.0201416,23.4506,23.3371,23.1669,23.2946,23.3087,23.2946,23.1527,
147,6.2734,1.5255,3.15169,4.23411,6.27176,2.00283,1.55357,0.000156721,0.000614238,-0.00902766,-0.00125384,0.0116083,0.0179884,0,0.31256,2.27804,-0.32151,5.01447,0.401415,-2.70528,0.775475,0.01186,-15.066,-0.295485,-2.25343,-0.0268248,1.92155,0.0221393,-0.00230684,-0.000537232,0.000991533,0.395042,0.00134017,0.0172573,-0.000551161,0.003643,0.0017631,0.0268928,0.00392668,-0.0419937,0.82332,0.00851026,-1.31271,-0.258386,-0.0219661,0.0770661,0.126215,15.2551,0.632279,2.7767,0.305132,-1.2823,0.0190125,0.467285,-1.78052,-0.088623,-0.394775,0.11308,0.366599,-0.0201416,23.4506,23.3371,23.1669,23.2946,23.3087,23.2946,23.1527,
148,6.2734,1.5255,3.15169,4.23411,6.27176,2.00283,1.55357,0.000156721,0.000614238,-0.00902766,-0.00125384,0.0116083,0.0179884,0,0.31256,2.27804,-0.32151,5.01447,0.401415,-2.70528,0.775475,0.01186,-15.066,-0.295485,-2.25343,-0.0268248,1.92155,0.0221393,-0.00230684,-0.000537232,0.000991533,0.395042,0.00134017,0.0172573,-0.000551161,0.003643,0.0017631,0.0268928,0.00392668,-0.0419937,0.82332,0.00851026,-1.31271,-0.258386,-0.0219661,0.0770661,0.126215,15.2551,0.632279,2.7767,0.305132,-1.2823,0.0190125,0.467285,-1.78052,-0.088623,-0.394775,0.11308,0.366599,-0.0201416,23.4506,23.3371,23.1669,23.2946,23.3087,23.2946,23.1527,
149,6.2734,1.5255,3.15168,4.23411,6.27177,2.00285,1.55357,0.000156032,0.000596082,-0.00944383,-0.00161894,0.0106578,0.0183666,0,0.312816,2.27805,-0.321748,5.01448,0.401712,-2.70529,0.775803,0.011923,-15.066,-0.29551,-2.25342,-0.0268035,1.92155,0.0221375,-0.00230684,-0.000537232,0.000991533,0.395042,0.00134017,0.0172573,-0.000651665,0.00366978,0.00182487,0.0268928,0.00392668,-0.0419937,0.82332,0.00851026,-1.31271,-0.258386,-0.0219661,0.0770661,0.1484,15.305,0.663121,2.74997,0.304077,-1.30325,0.013291,0.459299,-1.75635,-0.0805664,-0.402832,0.117099,0.362549,-0.0284845,23.4648,23.3371,23.1669,23.2946,23.3087,23.2946,23.1385,
150,6.2734,1.5255,3.15168,4.23411,6.27177,2.00285,1.55357,0.000156032,0.000596082,-0.00944383,-0.00161894,0.0106578,0.0183666,0,0.311724,2.28277,-0.301573,5.03187,0.402288,-2.71982,0.757424,0.0116228,-15.0629,-0.293792,-2.24916,-0.0278707,1.92051,0.0223656,-0.00232059,-0.000521504,0.000981166,0.395042,0.00134017,0.0172573,-0.000651665,0.00366978,0.00182487,0.026918,0.00377885,-0.0420666,0.827089,0.00327192,-1.31674,-0.259788,-0.0203139,0.0777125,0.1484,15.305,0.663121,2.74997,0.304077,-1.30325,0.013291,0.459299,-1.75635,-0.0805664,-0.402832,0.117099,0.362549,-0.0284845,23.4648,23.3371,23.1669,23.2946,23.3087,23.2946,23.1385,
151,6.2734,1.5255,3.15167,4.23411,6.27178,2.00286,1.55357,0.000187239,0.000662313,-0.0102637,-0.000944862,0.00936268,0.018348,0,0.312003,2.28277,-0.301843,5.03188,0.40262,-2.71984,0.757784,0.0116916,-15.0629,-0.293821,-2.24915,-0.0278484,1.92051,0.0223637,-0.00232059,-0.000521504,0.000981166,0.395042,0.00134017,0.0172573,-0.000479241,0.00376716,0.00178847,0.026918,0.00377885,-0.0420666,0.827089,0.00327192,-1.31674,-0.259788,-0.0203139,0.0777125,0.177339,15.3335,0.678994,2.70741,0.313253,-1.32503,0.00114884,0.459299,-1.74023,-0.072956,-0.386719,0.12085,0.362638,-0.0245033,23.4648,23.3229,23.1527,23.3087,23.3229,23.2946,23.1527,
152,6.2734,1.5255,3.15167,4.23411,6.27178,2.00286,1.55357,0.000187239,0.000662313,-0.0102637,-0.000944862,0.00936268,0.018348,0,0.310543,2.28968,-0.274316,5.02082,0.403975,-2.70505,0.732599,0.0112903,-15.0584,-0.291465,-2.25274,-0.029282,1.91983,0.0226746,-0.00233426,-0.000504288,0.000973216,0.395042,0.00134017,0.0172573,-0.000479241,0.00376716,0.00178847,0.0269266,0.0036384,-0.0421405,0.822174,-0.00386286,-1.31787,-0.261718,-0.017396,0.0792442,0.177339,15.3335,0.678994,2.70741,0.313253,-1.32503,0.00114884,0.459299,-1.74023,-0.072956,-0.386719,0.12085,0.362638,-0.0245033,23.4648,23.3229,23.1527,23.3087,23.3229,23.2946,23.1527,
153,6.2734,1.5255,3.15166,4.23411,6.27178,2.00289,1.55357,0.000177003,0.000523935,-0.0105338,-0.000405146,0.00810292,0.0215661,0,0.310816,2.28969,-0.274572,5.02083,0.404343,-2.70505,0.732989,0.0113607,-15.0584,-0.291494,-2.25273,-0.02926,1.91983,0.0226727,-0.00233426,-0.000504288,0.000973216,0.395042,0.00134017,0.0172573,-0.000288692,0.0037334,0.00217401,0.0269266,0.0036384,-0.0421405,0.822174,-0.00386286,-1.31787,-0.261718,-0.017396,0.0792442,0.166167,15.3868,0.709864,2.68339,0.305713,-1.33384,0.0112904,0.459229,-1.73218,-0.0254773,-0.394858,0.132996,0.350487,-0.0161133,23.4648,23.3371,23.1527,23.2946,23.3087,23.2804,23.1385,
154,6.2734,1.5255,3.15166,4.23411,6.27178,2.00289,1.55357,0.000177003,0.000523935,-0.0105338,-0.000405146,0.00810292,0.0215661,0,0.310001,2.32841,-0.261204,5.03758,0.40526,-2.69323,0.720623,0.0111367,-15.0331,-0.289796,-2.25239,-0.0298901,1.91539,0.0228202,-0.00234774,-0.000482268,0.000965615,0.395042,0.00134017,0.0172573,-0.000288692,0.0037334,0.00217401,0.0269339,0.00349031,-0.042241,0.816679,-0.0072927,-1.33245,-0.262555,-0.00737466,0.0806203,0.166167,15.3868,0.709864,2.68339,0.305713,-1.33384,0.0112904,0.459229,-1.73218,-0.0254773,-0.394858,0.132996,0.350487,-0.0161133,23.4648,23.3371,23.1527,23.2946,23.3087,23.2804,23.1385,
155,6.2734,1.5255,3.15165,4.23411,6.27179,2.00291,1.55357,0.000177003,0.00042551,-0.0100307,-0.000270097,0.00675244,0.0202573,0,0.310304,2.32842,-0.261489,5.0376,0.40557,-2.69323,0.720987,0.0112087,-15.0331,-0.289825,-2.25236,-0.0298686,1.91539,0.0228182,-0.00234774,-0.000482268,0.000965615,0.395042,0.00134017,0.0172573,-0.000222164,0.00345907,0.00206787,0.0269339,0.00349031,-0.042241,0.816679,-0.0072927,-1.33245,-0.262555,-0.00737466,0.0806203,0.172416,15.433,0.739518,2.65757,0.302055,-1.33305,0.01047,0.467285,-1.70803,-0.0241699,-0.402913,0.153288,0.326393,-0.0293266,23.4648,23.3229,23.1669,23.2946,23.3087,23.2946,23.1669,
156,6.2734,1.5255,3.15165,4.23411,6.27179,2.00291,1.55357,0.000177003,0.00042551,-0.0100307,-0.000270097,0.00675244,0.0202573,0,0.311088,2.32966,-0.276406,5.03207,0.407798,-2.68614,0.735929,0.0114242,-15.0323,-0.291022,-2.25406,-0.0290057,1.91552,0.0226674,-0.00236083,-0.000462489,0.000960025,0.395042,0.00134017,0.0172573,-0.000222164,0.00345907,0.00206787,0.0269353,0.00335387,-0.0423292,0.814723,-0.0031558,-1.33191,-0.261733,-0.00750199,0.0825951,0.172416,15.433,0.739518,2.65757,0.302055,-1.33305,0.01047,0.467285,-1.70803,-0.0241699,-0.402913,0.153288,0.326393,-0.0293266,23.4648,23.3229,23.1669,23.2946,23.3087,23.2946,23.1669,
157,6.2734,1.5255,3.15164,4.23411,6.2718,2.00293,1.55357,0.00016717,0.000372321,-0.011074,-0.000260074,0.00546156,0.022148,0,0.311385,2.32967,-0.276683,5.03208,0.408188,-2.68614,0.736345,0.0114981,-15.0323,-0.291051,-2.25405,-0.0289852,1.91552,0.0226656,-0.00236083,-0.000462489,0.000960025,0.395042,0.00134017,0.0172573,-0.000208087,0.0036382,0.00230008,0.0269353,0.00335387,-0.0423292,0.814723,-0.0031558,-1.33191,-0.261733,-0.00750199,0.0825951,0.183102,15.497,0.795434,2.59668,0.285263,-1.32783,0.0100077,0.459229,-1.67578,-0.0433863,-0.410968,0.16521,0.334375,-0.0205405,23.4648,23.3371,23.1385,23.3087,23.3087,23.3087,23.1527,
