LWingKi/MAS_RnD/main/log/us2/contactless/45/grasp_log_12_08_2023_16_22_31.csv
Index,joint_angle_0,joint_angle_1,joint_angle_2,joint_angle_3,joint_angle_4,joint_angle_5,joint_angle_6,joint_velocity_0,joint_velocity_1,joint_velocity_2,joint_velocity_3,joint_velocity_4,joint_velocity_5,joint_velocity_6,joint_accel_0,joint_accel_1,joint_accel_2,joint_accel_3,joint_accel_4,joint_accel_5,joint_accel_6,constraint_tau_0,constraint_tau_1,constraint_tau_2,constraint_tau_3,constraint_tau_4,constraint_tau_5,constraint_tau_6,current_pos_x,current_pos_y,current_pos_z,target_pos_x,target_pos_y,target_pos_z,current_vel_x,current_vel_y,current_vel_z,target_vel_x,target_vel_y,target_vel_z,control_signal_linear_x,control_signal_linear_y,control_signal_linear_z,control_signal_angular_x,control_signal_angular_y,control_signal_angular_z,joint_torque_0,joint_torque_1,joint_torque_2,joint_torque_3,joint_torque_4,joint_torque_5,joint_torque_6,actuar_current_0,actuar_current_1,actuar_current_2,actuar_current_3,actuar_current_4,actuar_current_5,actuar_current_6,actuar_voltage_0,actuar_voltage_1,actuar_voltage_2,actuar_voltage_3,actuar_voltage_4,actuar_voltage_5,actuar_voltage_6
0,6.27285,1.37973,3.15334,4.11407,6.27426,1.97448,1.55577,0.00171113,0.0264696,0.000164022,0.0888621,6.88867e-05,0.0259294,1.85605e-05,0.357489,-4.56189,-0.37901,2.92387,0.453853,-16.4567,0.787696,-0.0045814,-19.9585,-0.399909,0.812986,-0.0407998,1.28034,0.0128483,-6.0636e-05,0.00332585,-2.97454e-05,0.49455,0.00126599,0.0755672,0.0201569,-0.000540842,-0.00934954,1.98962,-0.000911547,0.005,1.79066,-0.000820392,0.0045,-0.163717,8.97979,-0.0803126,1.6807,0.607091,0.0671076,5.12899,0.211103,5.71723,0.127769,0.257938,0.265991,0.136963,-0.088623,0.116821,-0.455271,-0.121452,23.5074,23.3655,23.1811,23.2946,23.2378,23.3371,23.1527,
1,6.27285,1.37975,3.15334,4.11416,6.27426,1.97451,1.55577,0.00164885,0.0256593,0.000163897,0.0907527,6.88347e-05,0.0289004,1.85464e-05,0.335886,-2.80149,-0.334174,4.1583,0.408583,-9.60057,0.562013,-0.0103133,-18.9032,-0.373448,1.02587,-0.0402484,1.95502,-0.00298032,0,0,0,0.49455,0.00126599,0.0755672,0.0208732,-0.000505759,-0.00874913,2,0,0.005,1.78186,0.000486758,0.0129146,-0.00877953,2.64937,0.0079115,1.66947,0.613591,0.0653729,5.15252,0.207901,5.71661,0.141807,0.257938,0.290151,0.128906,-0.0809682,0.117099,-0.45119,-0.120917,23.479,23.3797,23.1811,23.3087,23.2378,23.3087,23.1811,
2,6.27285,1.37978,3.15334,4.11426,6.27426,1.97455,1.55577,0.00159566,0.0245789,0.00016402,0.0924465,6.8886e-05,0.0313461,1.85605e-05,0.337308,-2.91624,-0.337025,4.07193,0.412649,-10.0493,0.568873,-0.00993527,-18.973,-0.375194,1.01122,-0.0402589,1.9101,-0.00277068,-4.61824e-07,9.26672e-05,-3.95772e-07,0.49455,0.00126599,0.0755672,0.0215889,-0.000475007,-0.00809385,1.99959,4.77636e-06,0.005,1.78084,0.000459482,0.0123742,-0.0107313,3.06971,0.00297934,1.66735,0.637711,0.0714619,5.21916,0.202704,5.70162,0.152165,0.265869,0.306258,0.137907,-0.104736,0.11308,-0.459246,-0.141049,23.4932,23.3655,23.1952,23.2946,23.252,23.3229,23.1527,
3,6.27285,1.3798,3.15334,4.11435,6.27426,1.97458,1.55577,0.0015838,0.0245753,0.00016402,0.0904827,7.94847e-05,0.0329519,1.06059e-05,0.338773,-3.03797,-0.339274,3.98029,0.41908,-10.5256,0.576359,-0.00954454,-19.0468,-0.376985,0.995573,-0.0402577,1.86236,-0.00253562,-1.00539e-06,0.00019998,-4.32405e-07,0.49455,0.00126599,0.0755672,0.0210218,-0.000470955,-0.00788481,1.99912,1.31832e-05,0.005,1.77978,0.000439372,0.0117845,-0.0129321,3.51604,-0.000406222,1.62744,0.677153,0.0795035,5.27938,0.171805,5.67299,0.159411,0.274044,0.314312,0.136963,-0.128906,0.124878,-0.443134,-0.132996,23.4932,23.3655,23.1811,23.3087,23.2236,23.3087,23.1527,
4,6.27285,1.37983,3.15334,4.11444,6.27426,1.97461,1.55577,0.00153086,0.0248238,0.000169313,0.091563,7.94847e-05,0.0329519,1.0606e-05,0.339591,-3.10625,-0.341077,3.93134,0.421225,-10.7917,0.584047,-0.0093253,-19.0887,-0.378041,0.987784,-0.0402639,1.83598,-0.00204941,-2.8087e-06,0.000295296,-1.32567e-06,0.49455,0.00126599,0.0755672,0.0212813,-0.000449827,-0.0080017,1.99872,2.00176e-05,0.005,1.77992,0.000441875,0.0115963,-0.0176815,3.76275,-0.00351096,1.64016,0.705825,0.0717781,5.34879,0.165584,5.607,0.171744,0.282097,0.290151,0.1372,-0.0805664,0.125138,-0.435077,-0.132996,23.4932,23.3655,23.1952,23.3229,23.2236,23.3229,23.1527,
5,6.27286,1.37985,3.15334,4.11453,6.27426,1.97464,1.55577,0.00159566,0.0251191,0.000169182,0.0956145,7.94246e-05,0.0329185,0,0.340527,-3.18675,-0.342256,3.87108,0.426289,-11.1021,0.587454,-0.00907575,-19.138,-0.379217,0.977795,-0.0402591,1.80505,-0.00205049,-2.76296e-06,0.000393561,-1.1552e-06,0.49455,0.00126599,0.0755672,0.0223897,-0.000467491,-0.00819535,1.9983,3.17886e-05,0.005,1.77931,0.000433454,0.0117015,-0.0175834,4.05302,-0.0049844,1.61633,0.772817,0.0834168,5.37338,0.172462,5.51772,0.144292,0.282097,0.282097,0.137907,-0.0821619,0.124943,-0.410908,-0.141221,23.5074,23.3797,23.1952,23.3087,23.252,23.2946,23.1669,
6,6.27286,1.37988,3.15334,4.11463,6.27426,1.97468,1.55577,0.00148929,0.0256593,0.000169313,0.0962951,7.94847e-05,0.0356091,0,0.341684,-3.29357,-0.342211,3.78912,0.437619,-11.5135,0.594928,-0.00876635,-19.203,-0.380655,0.963868,-0.0402194,1.76384,-0.00178084,-3.26815e-06,0.000495415,-5.99178e-07,0.49455,0.00126599,0.0755672,0.0224732,-0.000420997,-0.00813461,1.99785,4.46253e-05,0.005,1.77792,0.000460905,0.0118758,-0.0201567,4.4397,-0.00292312,1.62675,0.800501,0.0730526,5.43998,0.158078,5.45439,0.121186,0.274044,0.129158,0.12085,-0.128906,0.132935,-0.386719,-0.128906,23.479,23.3797,23.1952,23.3229,23.2236,23.3087,23.1669,
7,6.27286,1.3799,3.15334,4.11473,6.27426,1.97472,1.55577,0.00153101,0.0225692,0.000158729,0.0974064,8.47837e-05,0.0378136,0,0.343087,-3.40289,-0.345669,3.7078,0.439361,-11.9367,0.600984,-0.008395,-19.2697,-0.382375,0.95023,-0.0402457,1.72172,-0.00161663,-3.83223e-06,0.000610317,-1.28476e-06,0.49455,0.00126599,0.0755672,0.0234408,-0.000421479,-0.00670044,1.99737,4.8559e-05,0.005,1.77741,0.000422601,0.0118211,-0.0216644,4.83486,-0.00941741,1.60832,0.82727,0.107712,5.53747,0.138142,5.40554,0.114423,0.290151,-0.1372,0.1372,-0.129158,0.128969,-0.386803,-0.128906,23.4932,23.3797,23.1952,23.3087,23.2378,23.3229,23.1527,
8,6.27286,1.37992,3.15334,4.11483,6.27426,1.97476,1.55577,0.0014428,0.0162058,0.000158729,0.099666,8.47837e-05,0.0424053,0,0.344671,-3.53399,-0.347591,3.60764,0.448186,-12.4552,0.611907,-0.00797779,-19.3497,-0.384277,0.933053,-0.0402274,1.66954,-0.00109838,-5.09539e-06,0.000719748,-1.94496e-06,0.49455,0.00126599,0.0755672,0.0254259,-0.000360824,-0.00374223,1.99691,5.2897e-05,0.005,1.77612,0.000426938,0.0105304,-0.0266671,5.32248,-0.0115312,1.60723,0.89059,0.107596,5.59686,0.161596,5.3749,0.111368,0.282097,-0.386719,0.12085,-0.128906,0.124943,-0.370605,-0.137022,23.479,23.3655,23.2094,23.3229,23.2236,23.3087,23.1527,
9,6.27286,1.37992,3.15334,4.11483,6.27426,1.97476,1.55577,0.0014428,0.0162058,0.000158729,0.099666,8.47837e-05,0.0424053,0,0.347156,-3.72898,-0.352637,3.4595,0.454826,-13.2331,0.624572,-0.00731828,-19.4668,-0.387209,0.906525,-0.0402457,1.59118,-0.000651381,-5.7216e-06,0.000843704,-3.1751e-06,0.49455,0.00126599,0.0755672,0.0254259,-0.000360824,-0.00374223,1.99641,5.22775e-05,0.005,1.77389,0.000371792,0.00786801,-0.0308634,6.05356,-0.0203521,1.60723,0.89059,0.107596,5.59686,0.161596,5.3749,0.111368,0.282097,-0.386719,0.12085,-0.128906,0.124943,-0.370605,-0.137022,23.479,23.3655,23.2094,23.3229,23.2236,23.3087,23.1527,
10,6.27286,1.37992,3.15334,4.11503,6.27426,1.97486,1.55577,0.00140421,-0.00513185,0.000156085,0.102907,9.53816e-05,0.047646,0,0.34719,-3.72681,-0.352777,3.45608,0.454942,-13.2275,0.624552,-0.00732278,-19.4686,-0.387265,0.90724,-0.0402405,1.59115,-0.000652772,-5.7216e-06,0.000843704,-3.1751e-06,0.49455,0.00126599,0.0755672,0.0308276,-0.000282649,0.00518191,1.99641,5.22775e-05,0.005,1.77389,0.000371792,0.00786801,-0.0308634,6.05356,-0.0203521,1.58053,1.11047,0.129527,5.62971,0.164718,5.33285,0.132463,0.314209,-0.507632,0.11308,-0.169381,0.128969,-0.378662,-0.124878,23.4932,23.3655,23.1952,23.3087,23.2378,23.3087,23.1669,
11,6.27286,1.3799,3.15334,4.11514,6.27426,1.97491,1.55577,0.00135186,-0.00935811,0.000150794,0.102564,9.53816e-05,0.0521288,0,0.352741,-4.17221,-0.360541,3.11325,0.481642,-15.0242,0.657751,-0.00585754,-19.7373,-0.393724,0.846661,-0.0401979,1.409,0.000719198,-7.75986e-06,0.00113994,-5.25717e-06,0.49455,0.00126599,0.0755672,0.0316127,-0.000245018,0.00733547,1.99525,5.96288e-05,0.005,1.76798,0.00030805,-0.000163716,-0.0439402,7.74791,-0.0309169,1.55172,1.30961,0.135544,5.63278,0.185054,5.3236,0.127888,0.306258,-0.47541,0.112793,-0.153288,0.128969,-0.370627,-0.128906,23.4932,23.3371,23.1952,23.3087,23.2236,23.3087,23.1527,
12,6.27286,1.37989,3.15334,4.11524,6.27426,1.97496,1.55577,0.00130825,-0.0186367,0.000150793,0.102367,9.53816e-05,0.0539648,0,0.355151,-4.36636,-0.364517,2.96613,0.491311,-15.7934,0.670428,-0.00522547,-19.8553,-0.396609,0.821381,-0.0401979,1.33168,0.00115763,-8.78412e-06,0.00131449,-6.22137e-06,0.49455,0.00126599,0.0755672,0.0334963,-0.000205345,0.011201,1.99456,6.11475e-05,0.005,1.76665,0.000275549,-0.00210192,-0.0480668,8.47016,-0.0370242,1.56623,1.55955,0.12515,5.65739,0.184884,5.32891,0.125149,0.306576,-0.620571,0.11308,-0.121118,0.141049,-0.378662,-0.129158,23.4932,23.3655,23.1811,23.3087,23.2236,23.3229,23.1385,
13,6.27287,1.37986,3.15334,4.11534,6.27426,1.97502,1.55577,0.00135197,-0.0226882,0.000145392,0.104152,0.0001059,0.0536645,0,0.357748,-4.57537,-0.367972,2.80582,0.50439,-16.6353,0.685373,-0.00454496,-19.9821,-0.399648,0.793788,-0.0401778,1.24638,0.00173826,-9.78583e-06,0.00148704,-7.12143e-06,0.49455,0.00126599,0.0755672,0.0348582,-0.000208095,0.0127409,1.9939,6.27699e-05,0.005,1.76436,0.000241303,-0.00558092,-0.0535835,9.26356,-0.0415188,1.50134,1.83758,0.116731,5.61769,0.199537,5.2989,0.121402,0.322266,-0.62847,0.088623,-0.0980133,0.133178,-0.378684,-0.124878,23.4932,23.3655,23.1811,23.3229,23.2236,23.3087,23.1527,
14,6.27287,1.37986,3.15334,4.11534,6.27426,1.97502,1.55577,0.00135197,-0.0226882,0.000145392,0.104152,0.0001059,0.0536645,0,0.359888,-4.75373,-0.370724,2.67078,0.51569,-17.3367,0.699316,-0.00397709,-20,-0.402204,0.769692,-0.0401597,1.17607,0.00235866,-1.12657e-05,0.0016693,-8.54459e-06,0.49455,0.00126599,0.0755672,0.0348582,-0.000208095,0.0127409,1.99321,6.61489e-05,0.005,1.76251,0.00024682,-0.00696678,-0.0595425,9.92173,-0.0448482,1.50134,1.83758,0.116731,5.61769,0.199537,5.2989,0.121402,0.322266,-0.62847,0.088623,-0.0980133,0.133178,-0.378684,-0.124878,23.4932,23.3655,23.1811,23.3229,23.2236,23.3087,23.1527,
15,6.27287,1.37984,3.15334,4.11545,6.27426,1.97507,1.55577,0.00130836,-0.0264696,0.000134818,0.103988,0.0001059,0.0550999,0,0.359919,-4.75265,-0.37079,2.66993,0.515767,-17.3348,0.699344,-0.00397698,-20,-0.402225,0.77063,-0.0401546,1.17591,0.00235821,-1.12657e-05,0.0016693,-8.54459e-06,0.49455,0.00126599,0.0755672,0.0356003,-0.000177882,0.014394,1.99321,6.61489e-05,0.005,1.76251,0.00024682,-0.00696678,-0.0595425,9.92173,-0.0448482,1.55526,2.04553,0.127327,5.5845,0.19384,5.25895,0.111155,0.330322,-0.70903,0.090076,-0.090076,0.136963,-0.346436,-0.120917,23.479,23.3655,23.1811,23.3087,23.2236,23.3087,23.1669,
16,6.27287,1.3798,3.15334,4.11556,6.27426,1.97513,1.55577,0.00135186,-0.0310953,0.000132274,0.104069,0.000116578,0.0578009,0,0.362068,-4.92657,-0.374071,2.53804,0.525241,-18.0219,0.712817,-0.00341894,-20,-0.404791,0.748397,-0.0401496,1.10681,0.00296228,-1.28824e-05,0.00185211,-9.5775e-06,0.49455,0.00126599,0.0755672,0.0365901,-0.000178973,0.0165109,1.99251,6.43564e-05,0.005,1.76121,0.000218015,-0.00845459,-0.0653372,10.5669,-0.0495912,1.52126,2.29315,0.157336,5.48347,0.198433,5.21707,0.103104,0.338475,-0.789592,0.0966797,-0.0725098,0.132996,-0.34262,-0.128969,23.479,23.3655,23.1811,23.3087,23.2236,23.2946,23.1385,
17,6.27287,1.37977,3.15334,4.11566,6.27426,1.97519,1.55577,0.00130825,-0.0361931,0.000126985,0.105878,0.00010598,0.0578009,0,0.364541,-5.13216,-0.376896,2.38203,0.539555,-18.8356,0.728218,-0.00277168,-20,-0.40775,0.721817,-0.0401195,1.02498,0.00359842,-1.45333e-05,0.00205288,-1.05588e-05,0.49455,0.00126599,0.0755672,0.0381772,-0.000146536,0.0184971,1.99173,7.1154e-05,0.005,1.75962,0.000225115,-0.0103598,-0.0714254,11.3312,-0.0524875,1.53852,2.55485,0.150478,5.41016,0.187897,5.17128,0.111439,0.33042,-0.854042,0.0809682,-0.041081,0.124878,-0.342431,-0.124878,23.479,23.3655,23.1811,23.2946,23.2236,23.3087,23.1669,
18,6.27287,1.37973,3.15334,4.11577,6.27426,1.97524,1.55577,0.00126464,-0.0426322,0.000121602,0.109389,0.000116489,0.0578009,0,0.366963,-5.33052,-0.380188,2.22899,0.551614,-19.6208,0.742318,-0.00213731,-20,-0.410654,0.695512,-0.0401046,0.94581,0.00415449,-1.57413e-05,0.0022502,-1.15564e-05,0.49455,0.00126599,0.0755672,0.0405363,-0.000105534,0.0209834,1.99097,7.17596e-05,0.005,1.75752,0.000196466,-0.0121474,-0.0767244,12.0711,-0.056849,1.46033,2.85246,0.157059,5.31443,0.201549,5.10632,0.123591,0.322266,-0.902344,0.090076,-0.0490066,0.132935,-0.330322,-0.128906,23.479,23.3371,23.1811,23.3087,23.2236,23.2946,23.1669,
19,6.27287,1.37968,3.15334,4.11588,6.27426,1.97531,1.55577,0.00130016,-0.0486175,0.00011367,0.11128,0.000116489,0.0608794,0,0.369837,-5.5599,-0.384811,2.05094,0.563547,-20.5295,0.760271,-0.00138839,-20,-0.414054,0.664646,-0.0400968,0.854005,0.00496461,-1.74636e-05,0.00245722,-1.30373e-05,0.49455,0.00126599,0.0755672,0.042332,-9.56276e-05,0.0236468,1.99017,7.40817e-05,0.005,1.75467,0.000161654,-0.014385,-0.0844902,12.9286,-0.063685,1.48371,3.08695,0.187119,5.178,0.207312,5.02752,0.109271,0.338379,-0.90238,0.0889885,-0.105969,0.136963,-0.314209,-0.121118,23.4932,23.3655,23.1669,23.2804,23.2236,23.3087,23.1527,
20,6.27287,1.37968,3.15334,4.11588,6.27426,1.97531,1.55577,0.00130016,-0.0486175,0.00011367,0.11128,0.000116489,0.0608794,0,0.372809,-5.81054,-0.387849,1.86166,0.581585,-21.5193,0.778462,-0.000599775,-20,-0.417587,0.630965,-0.0400625,0.754721,0.00569099,-1.90975e-05,0.00267944,-1.37279e-05,0.49455,0.00126599,0.0755672,0.042332,-9.56276e-05,0.0236468,1.98934,7.64209e-05,0.005,1.75231,0.000154844,-0.0167821,-0.0914212,13.8572,-0.0665664,1.48371,3.08695,0.187119,5.178,0.207312,5.02752,0.109271,0.338379,-0.90238,0.0889885,-0.105969,0.136963,-0.314209,-0.121118,23.4932,23.3655,23.1669,23.2804,23.2236,23.3087,23.1527,
21,6.27288,1.37962,3.15334,4.116,6.27426,1.97537,1.55577,0.00132396,-0.0544168,0.000111112,0.1141,0.000116578,0.063743,0,0.372836,-5.80915,-0.387957,1.8599,0.581674,-21.5161,0.778483,-0.000608271,-20,-0.417619,0.631852,-0.0400578,0.754618,0.00569114,-1.90975e-05,0.00267944,-1.37279e-05,0.49455,0.00126599,0.0755672,0.0443564,-8.13715e-05,0.0261989,1.98934,7.64209e-05,0.005,1.75231,0.000154844,-0.0167821,-0.0914212,13.8572,-0.0665664,1.45152,3.3669,0.195672,5.04577,0.196692,4.97882,0.11784,0.338475,-0.918598,0.0809682,-0.12085,0.140991,-0.330347,-0.120917,23.479,23.3371,23.1527,23.3087,23.2236,23.2946,23.1527,
22,6.27288,1.37956,3.15334,4.11611,6.27426,1.97544,1.55577,0.00133158,-0.0591513,0.000105821,0.116142,0.000121877,0.0656337,0,0.376064,-6.07745,-0.39151,1.65417,0.600586,-22.5758,0.797324,0.000233448,-20,-0.421464,0.596461,-0.0400201,0.64791,0.00640206,-2.06652e-05,0.00292123,-1.44718e-05,0.49455,0.00126599,0.0755672,0.045933,-6.49576e-05,0.0282416,1.9884,7.93978e-05,0.005,1.74964,0.000144692,-0.019079,-0.0981821,14.8545,-0.0701402,1.49182,3.68859,0.211211,4.93527,0.187897,4.95778,0.11745,0.346436,-0.918775,0.0889885,-0.153922,0.1372,-0.342502,-0.12085,23.479,23.3655,23.1811,23.3087,23.2378,23.3087,23.1527,
23,6.27288,1.3795,3.15334,4.11623,6.27426,1.9755,1.55577,0.00145252,-0.0623925,0.000100453,0.114405,0.000132476,0.0675244,0,0.379039,-6.32059,-0.395384,1.46857,0.616022,-23.5345,0.815045,0.00100159,-20,-0.424984,0.564969,-0.0399975,0.551378,0.00711731,-2.23944e-05,0.00315876,-1.56561e-05,0.49455,0.00126599,0.0755672,0.0461052,-0.000104084,0.0297625,1.98749,8.15413e-05,0.005,1.7474,0.000131849,-0.0209175,-0.105006,15.7558,-0.0748395,1.37115,4.04543,0.201757,4.76164,0.188956,4.89512,0.104021,0.346529,-0.942765,0.0805664,-0.19403,0.141049,-0.350487,-0.116821,23.4648,23.3513,23.1952,23.3087,23.2378,23.2804,23.1527,
24,6.27288,1.37943,3.15334,4.11634,6.27426,1.97559,1.55577,0.00147363,-0.0680646,9.78093e-05,0.11128,0.000132374,0.0697599,0,0.381435,-6.52462,-0.397114,1.31493,0.633408,-24.3372,0.8306,0.00161934,-20,-0.42784,0.53929,-0.0399466,0.47079,0.00775569,-2.43524e-05,0.00339974,-1.68065e-05,0.49455,0.00126599,0.0755672,0.0463832,-0.000102729,0.0323057,1.98658,8.67316e-05,0.005,1.74643,0.000171734,-0.0222863,-0.111132,16.5083,-0.0748872,1.43801,4.34783,0.217355,4.54569,0.204025,4.79786,0.0823467,0.322266,-0.991,0.0742786,-0.14502,0.136963,-0.358543,-0.12085,23.4932,23.3655,23.1811,23.2946,23.2236,23.3087,23.1385,
25,6.27288,1.37936,3.15334,4.11646,6.27427,1.97566,1.55577,0.00163502,-0.0740067,8.21342e-05,0.11109,0.000143072,0.0704954,0,0.384201,-6.75286,-0.399733,1.1431,0.650946,-25.2426,0.846289,0.00233027,-20,-0.431083,0.510454,-0.0399089,0.379789,0.00831199,-2.59194e-05,0.0036611,-1.77446e-05,0.49455,0.00126599,0.0755672,0.0475657,-0.000147725,0.0347456,1.98567,8.91123e-05,0.005,1.74536,0.000172658,-0.0245751,-0.116409,17.3574,-0.0767215,1.40128,4.70298,0.233321,4.40565,0.238539,4.71484,0.069509,0.33042,-0.96683,0.072956,-0.0725098,0.140991,-0.374655,-0.112865,23.479,23.3513,23.1811,23.2946,23.2236,23.3087,23.1243,
26,6.27288,1.37928,3.15334,4.11656,6.27427,1.97572,1.55577,0.00163643,-0.0794188,7.67199e-05,0.108849,0.00015367,0.0686048,0,0.387031,-6.99366,-0.401502,0.959498,0.672278,-26.1974,0.866917,0.00306309,-20,-0.434432,0.47949,-0.0398432,0.283542,0.00928982,-2.85574e-05,0.00392152,-1.90973e-05,0.49455,0.00126599,0.0755672,0.048044,-0.000142025,0.0367345,1.98468,9.05221e-05,0.005,1.7434,0.000214422,-0.026771,-0.125888,18.2552,-0.0761731,1.41626,5.10496,0.251723,4.31591,0.24035,4.62776,0.0849472,0.346436,-0.950718,0.0725098,-0.0725098,0.140991,-0.382712,-0.116891,23.479,23.3513,23.1811,23.2946,23.2094,23.2946,23.1527,
27,6.27288,1.37928,3.15334,4.11656,6.27427,1.97572,1.55577,0.00163643,-0.0794188,7.67199e-05,0.108849,0.00015367,0.0686048,0,0.389444,-7.19375,-0.404845,0.81011,0.684115,-26.9863,0.883018,0.00370335,-20,-0.43732,0.453106,-0.0398318,0.204636,0.0100392,-3.07058e-05,0.00418074,-2.12619e-05,0.49455,0.00126599,0.0755672,0.048044,-0.000142025,0.0367345,1.98371,8.65245e-05,0.005,1.7421,0.000205694,-0.0285611,-0.133096,18.9935,-0.0806637,1.41626,5.10496,0.251723,4.31591,0.24035,4.62776,0.0849472,0.346436,-0.950718,0.0725098,-0.0725098,0.140991,-0.382712,-0.116891,23.479,23.3513,23.1811,23.2946,23.2094,23.2946,23.1527,
28,6.27288,1.3792,3.15334,4.11667,6.27427,1.97579,1.55577,0.00163643,-0.0815694,7.40178e-05,0.106418,0.000158851,0.0654506,1.0598e-05,0.389472,-7.19172,-0.404912,0.809841,0.684195,-26.984,0.883007,0.00369271,-20,-0.437326,0.454951,-0.0398286,0.204252,0.0100363,-3.07058e-05,0.00418074,-2.12619e-05,0.49455,0.00126599,0.0755672,0.047786,-0.000146426,0.0373034,1.98371,8.65245e-05,0.005,1.7421,0.000205694,-0.0285611,-0.133096,18.9935,-0.0806637,1.41626,5.51484,0.198314,4.21966,0.260731,4.51502,0.0953986,0.346436,-0.926514,0.0809682,-0.0161133,0.14502,-0.366666,-0.116891,23.479,23.3371,23.1669,23.2946,23.2094,23.2946,23.1385,
29,6.27289,1.37912,3.15334,4.11678,6.27427,1.97586,1.55577,0.00164885,-0.0815694,6.87308e-05,0.107478,0.000158851,0.063743,1.0606e-05,0.391462,-7.35129,-0.408399,0.690443,0.691704,-27.6091,0.892559,0.00420009,-20,-0.439725,0.436029,-0.0398278,0.141613,0.0103048,-3.16525e-05,0.00443557,-2.4006e-05,0.49455,0.00126599,0.0755672,0.0480874,-0.000150506,0.0371139,1.98277,7.53521e-05,0.005,1.74148,0.0001996,-0.029073,-0.135558,19.5785,-0.0859629,1.27454,5.82885,0.222315,4.08104,0.251026,4.37766,0.107392,0.346529,-0.999153,0.0725098,0.0433863,0.153129,-0.326294,-0.116821,23.479,23.3513,23.1811,23.3087,23.2094,23.3087,23.1385,
30,6.27289,1.37903,3.15334,4.11689,6.27427,1.97592,1.55577,0.00164902,-0.0826498,6.34917e-05,0.108849,0.000169441,0.0618523,1.0606e-05,0.393596,-7.53721,-0.409637,0.549763,0.70785,-28.3293,0.905988,0.00474764,-20,-0.442319,0.413065,-0.0397889,0.0695904,0.0108331,-3.33905e-05,0.00469281,-2.41342e-05,0.49455,0.00126599,0.0755672,0.0487044,-0.000145985,0.0373267,1.98177,8.18928e-05,0.005,1.74031,0.000209159,-0.0289025,-0.140646,20.2536,-0.0855593,1.32325,6.13679,0.226314,3.99355,0.253038,4.25462,0.103983,0.362549,-1.04736,0.0644531,0.0180152,0.149048,-0.314209,-0.116821,23.4648,23.3371,23.1669,23.2946,23.2236,23.2946,23.1527,
31,6.27289,1.37895,3.15334,4.117,6.27427,1.97598,1.55577,0.00168922,-0.0836779,5.82008e-05,0.109119,0.000180165,0.0607104,1.0606e-05,0.395928,-7.72623,-0.413437,0.405989,0.717546,-29.0653,0.920981,0.00534363,-20,-0.445129,0.389566,-0.0397847,-0.0042283,0.0115251,-3.55063e-05,0.00494245,-2.62002e-05,0.49455,0.00126599,0.0755672,0.0489921,-0.000158595,0.037618,1.98081,7.82415e-05,0.005,1.7389,0.000201804,-0.029094,-0.147298,20.9444,-0.0910713,1.25594,6.45643,0.247806,3.93296,0.257091,4.14426,0.115503,0.346529,-1.10376,0.072956,0.0332184,0.145075,-0.294067,-0.112865,23.479,23.3371,23.1811,23.2946,23.2094,23.2946,23.1527,
32,6.27289,1.37886,3.15334,4.1171,6.27427,1.97604,1.55577,0.00164902,-0.0861611,5.03023e-05,0.108849,0.000190763,0.0591814,1.0598e-05,0.398188,-7.91709,-0.415518,0.261434,0.732158,-29.8089,0.936142,0.00592605,-20,-0.447847,0.365876,-0.0397509,-0.0787353,0.012204,-3.77004e-05,0.00519901,-2.71877e-05,0.49455,0.00126599,0.0755672,0.0494275,-0.000137269,0.0384533,1.97982,8.2711e-05,0.005,1.73774,0.000217175,-0.0293562,-0.15387,21.6418,-0.0924314,1.30147,6.76891,0.24041,3.79463,0.267926,3.99622,0.0977394,0.354584,-1.16846,0.0725098,0,0.157156,-0.298123,-0.108839,23.479,23.3655,23.1811,23.2946,23.2094,23.2804,23.1527,
33,6.27289,1.37878,3.15334,4.11721,6.27427,1.9761,1.55577,0.00164885,-0.0864312,4.50073e-05,0.10993,0.000201209,0.0588813,1.0606e-05,0.400594,-8.10993,-0.419769,0.115299,0.740937,-30.5644,0.952859,0.00654326,-20,-0.450741,0.342015,-0.0397546,-0.154579,0.01306,-4.03747e-05,0.00545396,-2.93797e-05,0.49455,0.00126599,0.0755672,0.0497909,-0.000132473,0.0385199,1.97884,7.58691e-05,0.005,1.73647,0.000191825,-0.030108,-0.162143,22.3507,-0.0991032,1.19659,7.01837,0.255336,3.63767,0.261054,3.83527,0.0925945,0.338379,-1.15213,0.0725098,0,0.149048,-0.273955,-0.121118,23.479,23.3513,23.1669,23.2946,23.2378,23.2946,23.1385,
34,6.27289,1.37878,3.15334,4.11721,6.27427,1.9761,1.55577,0.00164885,-0.0864312,4.50073e-05,0.10993,0.000201209,0.0588813,1.0606e-05,0.402927,-8.30702,-0.423108,-0.0318667,0.75208,-31.3255,0.967903,0.00716233,-20,-0.453596,0.316067,-0.0397503,-0.230222,0.013731,-4.2537e-05,0.00570573,-3.0881e-05,0.49455,0.00126599,0.0755672,0.0497909,-0.000132473,0.0385199,1.97786,7.6317e-05,0.005,1.73526,0.000187911,-0.0301679,-0.168588,23.062,-0.103714,1.19659,7.01837,0.255336,3.63767,0.261054,3.83527,0.0925945,0.338379,-1.15213,0.0725098,0,0.149048,-0.273955,-0.121118,23.479,23.3513,23.1669,23.2946,23.2378,23.2946,23.1385,
35,6.27289,1.37869,3.15334,4.11733,6.27427,1.97615,1.55577,0.00158364,-0.0880518,3.97419e-05,0.107329,0.000206504,0.0578009,1.0606e-05,0.402952,-8.30508,-0.423173,-0.0323687,0.752156,-31.3231,0.967911,0.0071501,-20,-0.453605,0.318021,-0.0397434,-0.230605,0.01373,-4.2537e-05,0.00570573,-3.0881e-05,0.49455,0.00126599,0.0755672,0.0493727,-0.000108601,0.0391027,1.97786,7.6317e-05,0.005,1.73526,0.000187911,-0.0301679,-0.168588,23.062,-0.103714,1.21028,7.20923,0.268973,3.51259,0.257379,3.67691,0.0881877,0.354584,-1.23269,0.0725098,-0.0161133,0.149048,-0.2659,-0.108839,23.4648,23.3655,23.1669,23.2946,23.2236,23.2804,23.1243,
36,6.27289,1.37858,3.15334,4.11743,6.27427,1.97621,1.55577,0.00147821,-0.0919164,3.70932e-05,0.104798,0.000227858,0.0559102,1.0598e-05,0.405069,-8.47808,-0.426534,-0.161998,0.761065,-32.0009,0.980942,0.00769258,-20,-0.456175,0.297284,-0.0397424,-0.29854,0.0143019,-4.45503e-05,0.00596362,-3.24759e-05,0.49455,0.00126599,0.0755672,0.0494421,-6.43291e-05,0.0404869,1.97684,7.33188e-05,0.005,1.73472,0.000163728,-0.0306924,-0.174103,23.6965,-0.108762,1.10139,7.41374,0.30155,3.40315,0.260751,3.51395,0.0893182,0.362638,-1.25686,0.0664368,0.0322266,0.149102,-0.261965,-0.108765,23.479,23.3371,23.1527,23.2946,23.2236,23.2946,23.1527,
37,6.27289,1.37858,3.15334,4.11743,6.27427,1.97621,1.55577,0.00147821,-0.0919164,3.70932e-05,0.104798,0.000227858,0.0559102,1.0598e-05,0.407521,-8.67245,-0.432002,-0.306598,0.766146,-32.7629,0.997744,0.00834293,-20,-0.459141,0.271839,-0.0397743,-0.37456,0.0151844,-4.73624e-05,0.00623362,-3.53854e-05,0.49455,0.00126599,0.0755672,0.0494421,-6.43291e-05,0.0404869,1.97578,6.66675e-05,0.005,1.7337,0.000117897,-0.0319382,-0.182601,24.4088,-0.118652,1.10139,7.41374,0.30155,3.40315,0.260751,3.51395,0.0893182,0.362638,-1.25686,0.0664368,0.0322266,0.149102,-0.261965,-0.108765,23.479,23.3371,23.1527,23.2946,23.2236,23.2946,23.1527,
38,6.27289,1.3785,3.15334,4.11753,6.27428,1.97626,1.55577,0.0014361,-0.0935619,3.17699e-05,0.102263,0.000238454,0.0539648,1.0598e-05,0.407543,-8.6706,-0.432062,-0.306966,0.766205,-32.7607,0.997733,0.00833205,-20,-0.459149,0.273622,-0.0397687,-0.374916,0.0151826,-4.73624e-05,0.00623362,-3.53854e-05,0.49455,0.00126599,0.0755672,0.0490488,-5.02284e-05,0.0409854,1.97578,6.66675e-05,0.005,1.7337,0.000117897,-0.0319382,-0.182601,24.4088,-0.118652,1.13847,7.63768,0.291742,3.29185,0.292534,3.31442,0.0751862,0.362638,-1.21658,0.0563965,0.0742786,0.153076,-0.245728,-0.104814,23.4648,23.3371,23.1669,23.2804,23.2236,23.2946,23.1385,
39,6.2729,1.37839,3.15334,4.11763,6.27428,1.97632,1.55577,0.00127666,-0.0936085,2.11799e-05,0.100206,0.000254159,0.0511568,1.0598e-05,0.409386,-8.81817,-0.435207,-0.417127,0.773158,-33.3399,1.00983,0.0088032,-20,-0.461363,0.256626,-0.0397673,-0.433053,0.0157647,-4.93894e-05,0.00646581,-3.72613e-05,0.49455,0.00126599,0.0755672,0.0484589,8.5164e-06,0.0407526,1.97487,6.36922e-05,0.005,1.73324,0.000102529,-0.0323869,-0.188247,24.9507,-0.123547,1.0725,7.84533,0.305294,3.20007,0.286212,3.11639,0.0683245,0.362638,-1.24096,0.0563965,0.1372,0.157156,-0.225622,-0.104814,23.479,23.3655,23.1811,23.2804,23.1952,23.3087,23.1385,
40,6.2729,1.37831,3.15334,4.11774,6.27428,1.97636,1.55577,0.00126704,-0.0934498,1.58969e-05,0.0993043,0.000275339,0.0464568,1.06059e-05,0.411406,-8.97131,-0.440975,-0.531073,0.773053,-33.9351,1.0243,0.00932114,-20,-0.46384,0.238842,-0.0398207,-0.492508,0.0166118,-5.24263e-05,0.00672529,-4.02481e-05,0.49455,0.00126599,0.0755672,0.0481624,6.01169e-06,0.0402171,1.97385,5.13187e-05,0.005,1.73285,3.8522e-05,-0.0321774,-0.196463,25.5067,-0.134906,1.05783,8.0224,0.316507,3.19137,0.259388,2.94008,0.0474567,0.354492,-1.28906,0.0569691,0.177429,0.165358,-0.193527,-0.10103,23.4648,23.3229,23.1527,23.2804,23.1952,23.2662,23.1243,
41,6.2729,1.3782,3.15334,4.11783,6.27428,1.9764,1.55577,0.00110855,-0.0950658,1.32474e-05,0.0988557,0.000302042,0.041595,1.0606e-05,0.412952,-9.09402,-0.444442,-0.623864,0.776483,-34.4108,1.03637,0.00971398,-20,-0.465757,0.224734,-0.0398319,-0.540163,0.0173116,-5.49099e-05,0.0069544,-4.30406e-05,0.49455,0.00126599,0.0755672,0.0483656,6.6764e-05,0.0403607,1.97292,4.63225e-05,0.005,1.73228,3.62797e-05,-0.0316954,-0.203316,25.9525,-0.140918,0.957354,8.2453,0.301414,3.15828,0.275286,2.73587,0.0698404,0.362907,-1.32937,0.0569691,0.185303,0.157156,-0.157104,-0.112865,23.4648,23.3229,23.1669,23.2804,23.2236,23.2946,23.1101,
42,6.2729,1.3782,3.15334,4.11783,6.27428,1.9764,1.55577,0.00110855,-0.0950658,1.32474e-05,0.0988557,0.000302042,0.041595,1.0606e-05,0.415042,-9.25251,-0.450908,-0.74288,0.774826,-35.0243,1.05177,0.0102685,-20,-0.468321,0.203698,-0.0398953,-0.601234,0.0182367,-5.79237e-05,0.00720801,-4.66903e-05,0.49455,0.00126599,0.0755672,0.0483656,6.6764e-05,0.0403607,1.97187,3.49699e-05,0.005,1.73116,-2.86147e-05,-0.0318246,-0.212248,26.5264,-0.153931,0.957354,8.2453,0.301414,3.15828,0.275286,2.73587,0.0698404,0.362907,-1.32937,0.0569691,0.185303,0.157156,-0.157104,-0.112865,23.4648,23.3229,23.1669,23.2804,23.2236,23.2946,23.1101,
43,6.2729,1.3781,3.15334,4.11793,6.27428,1.9764,1.55577,0.00105576,-0.0963271,1.32373e-05,0.100476,0.000323238,0.041595,1.0598e-05,0.415064,-9.25088,-0.450987,-0.743457,0.774816,-35.0221,1.05168,0.0102543,-20,-0.468339,0.205382,-0.0398902,-0.601416,0.0182325,-5.79237e-05,0.00720801,-4.66903e-05,0.49455,0.00126599,0.0755672,0.0490927,9.57922e-05,0.0408427,1.97187,3.49699e-05,0.005,1.73116,-2.86147e-05,-0.0318246,-0.212248,26.5264,-0.153931,0.983106,8.53569,0.291863,3.09047,0.309364,2.73587,0.0642588,0.362638,-1.32944,0.072956,0.161133,0.157104,-0.157104,-0.10103,23.479,23.3229,23.1811,23.2662,23.1952,23.2946,23.1243,
44,6.2729,1.37801,3.15334,4.11803,6.27429,1.97644,1.55577,0.000904299,-0.0983155,7.94847e-06,0.101287,0.000349733,0.0376153,1.0598e-05,0.417197,-9.41608,-0.456232,-0.870815,0.777828,-35.6704,1.06673,0.010807,-20,-0.47095,0.184697,-0.039917,-0.666732,0.0190631,-6.05367e-05,0.00740211,-4.9255e-05,0.49455,0.00126599,0.0755672,0.0497377,0.000159399,0.0412054,1.97091,2.67537e-05,0.005,1.72963,-6.21347e-05,-0.0322584,-0.220324,27.1369,-0.163581,0.92525,8.81301,0.319106,3.08192,0.283454,2.4879,0.0535085,0.354584,-1.35361,0.0490066,0.129158,0.161183,-0.112793,-0.100708,23.4648,23.3371,23.1527,23.2804,23.2094,23.2662,23.1243,
45,6.2729,1.37791,3.15334,4.11814,6.27429,1.97648,1.55577,0.00084461,-0.099666,5.29898e-06,0.102718,0.000390662,0.0329519,1.85605e-05,0.419419,-9.5794,-0.463117,-0.996599,0.776045,-36.3113,1.08233,0.0113793,-20,-0.473652,0.164485,-0.0399771,-0.731272,0.0199834,-6.33785e-05,0.00763868,-5.29189e-05,0.49455,0.00126599,0.0755672,0.0504299,0.000186208,0.0412334,1.96993,1.61241e-05,0.005,1.72817,-0.000128947,-0.0325848,-0.229282,27.7402,-0.177264,0.928415,9.00319,0.319297,3.09396,0.250531,2.27852,0.0364232,0.370693,-1.36167,0.0586532,0.0970148,0.157311,-0.072956,-0.100789,23.4648,23.3513,23.1669,23.2662,23.2094,23.2804,23.1243,
46,6.2729,1.3778,3.15334,4.11824,6.2743,1.97651,1.55577,0.0007919,-0.103818,0,0.103447,0.000499811,0.0307599,1.85464e-05,0.421597,-9.74007,-0.470231,-1.12127,0.773573,-36.9382,1.09715,0.0119414,-20,-0.476338,0.144098,-0.0400338,-0.79436,0.0208365,-6.60601e-05,0.00787842,-5.76046e-05,0.49455,0.00126599,0.0755672,0.0515012,0.000226024,0.0426452,1.96888,1.71063e-06,0.005,1.72661,-0.000166047,-0.03261,-0.237617,28.3311,-0.191242,0.847802,9.28829,0.330317,3.09572,0.275152,2.07779,0.0459101,0.354492,-1.36965,0.0644531,0.0809682,0.169237,-0.0241699,-0.112865,23.4648,23.3513,23.1669,23.2946,23.1952,23.2804,23.1243,
47,6.2729,1.3778,3.15334,4.11824,6.2743,1.97651,1.55577,0.0007919,-0.103818,0,0.103447,0.000499811,0.0307599,1.85464e-05,0.424362,-9.93972,-0.480099,-1.27304,0.767625,-37.7219,1.11984,0.0126744,-20,-0.479687,0.117117,-0.0401213,-0.872914,0.0223203,-7.0314e-05,0.00812107,-6.3555e-05,0.49455,0.00126599,0.0755672,0.0515012,0.000226024,0.0426452,1.96784,-1.12818e-05,0.005,1.7247,-0.000213575,-0.0338807,-0.251993,29.0669,-0.211195,0.847802,9.28829,0.330317,3.09572,0.275152,2.07779,0.0459101,0.354492,-1.36965,0.0644531,0.0809682,0.169237,-0.0241699,-0.112865,23.4648,23.3513,23.1669,23.2946,23.1952,23.2804,23.1243,
48,6.2729,1.37769,3.15334,4.11835,6.2743,1.97653,1.55577,0.000691523,-0.106148,0,0.106148,0.00072977,0.0289004,1.85464e-05,0.424347,-9.93747,-0.480157,-1.27391,0.767528,-37.7188,1.11952,0.0126609,-20,-0.479714,0.118819,-0.0401146,-0.87312,0.0223042,-7.0314e-05,0.00812107,-6.3555e-05,0.49455,0.00126599,0.0755672,0.0527625,0.000295891,0.0433376,1.96784,-1.12818e-05,0.005,1.7247,-0.000213575,-0.0338807,-0.251993,29.0669,-0.211195,0.855709,9.59798,0.311743,3.04094,0.308068,1.87779,0.0387164,0.346436,-1.3219,0.0569691,0.0490066,0.165161,-0.00402832,-0.100789,23.4648,23.3371,23.1527,23.2804,23.2094,23.2804,23.1385,
49,6.2729,1.37759,3.15334,4.11845,6.27431,1.97656,1.55577,0.000638329,-0.105231,0,0.105068,0.00119655,0.027083,1.85605e-05,0.427298,-10.137,-0.493633,-1.42757,0.751763,-38.5017,1.14253,0.0134333,-20,-0.483358,0.0937954,-0.040252,-0.952041,0.0238805,-7.45352e-05,0.00835879,-7.05718e-05,0.49455,0.00126599,0.0755672,0.052255,0.00035516,0.042811,1.9668,-3.25236e-05,0.005,1.72263,-0.000295573,-0.0345038,-0.267457,29.8038,-0.239596,0.793584,9.87346,0.358978,3.05751,0.276255,1.65267,0.0389709,0.362638,-1.28916,0.0644531,0.00805664,0.157311,0.0281982,-0.100708,23.479,23.3229,23.1669,23.2804,23.2094,23.2662,23.1385,
50,6.2729,1.37759,3.15334,4.11845,6.27431,1.97656,1.55577,0.000638329,-0.105231,0,0.105068,0.00119655,0.027083,1.85605e-05,0.429866,-10.2831,-0.511607,-1.53534,0.717952,-39.0628,1.16792,0.0141142,-20,-0.486575,0.0748832,-0.0404832,-1.00753,0.0259668,-8.0205e-05,0.00859473,-8.04726e-05,0.49455,0.00126599,0.0755672,0.052255,0.00035516,0.042811,1.96576,-5.67251e-05,0.005,1.72216,-0.000370697,-0.0340299,-0.287684,30.3262,-0.279623,0.793584,9.87346,0.358978,3.05751,0.276255,1.65267,0.0389709,0.362638,-1.28916,0.0644531,0.00805664,0.157311,0.0281982,-0.100708,23.479,23.3229,23.1669,23.2804,23.2094,23.2662,23.1385,
51,6.2729,1.37749,3.15334,4.11856,6.27433,1.97659,1.55577,0.000580727,-0.105338,0,0.104821,0.00221237,0.024849,1.85605e-05,0.429791,-10.281,-0.51172,-1.5356,0.717589,-39.0605,1.16715,0.0141027,-20,-0.486611,0.0771422,-0.0404685,-1.00788,0.0259301,-8.0205e-05,0.00859473,-8.04726e-05,0.49455,0.00126599,0.0755672,0.0522018,0.000472916,0.0426316,1.96576,-5.67251e-05,0.005,1.72216,-0.000370697,-0.0340299,-0.287684,30.3262,-0.279623,0.811588,10.1233,0.372982,3.10674,0.249156,1.43935,0.0222926,0.354584,-1.34548,0.0569691,-0.00805664,0.16521,0.036478,-0.0927389,23.4506,23.3229,23.1669,23.2946,23.2094,23.2804,23.1385,
52,6.2729,1.37749,3.15334,4.11856,6.27433,1.97659,1.55577,0.000580727,-0.105338,0,0.104821,0.00221237,0.024849,1.85605e-05,0.43313,-10.4402,-0.540814,-1.65435,0.655101,-39.6765,1.20396,0.014988,-20,-0.490788,0.056127,-0.0408611,-1.06907,0.0292144,-8.76123e-05,0.0088342,-9.43192e-05,0.49455,0.00126599,0.0755672,0.0522018,0.000472916,0.0426316,1.96469,-8.9415e-05,0.005,1.72124,-0.000506098,-0.0338684,-0.319538,30.9011,-0.345706,0.811588,10.1233,0.372982,3.10674,0.249156,1.43935,0.0222926,0.354584,-1.34548,0.0569691,-0.00805664,0.16521,0.036478,-0.0927389,23.4506,23.3229,23.1669,23.2946,23.2094,23.2804,23.1385,
53,6.2729,1.37738,3.15334,4.11867,6.27434,1.97661,1.55577,0.000527881,-0.106148,0,0.106148,0.00483377,0.0202573,1.85605e-05,0.432881,-10.4378,-0.540987,-1.65445,0.654312,-39.674,1.20262,0.0149815,-20,-0.490853,0.0582952,-0.0408261,-1.06937,0.0291637,-8.76123e-05,0.0088342,-9.43192e-05,0.49455,0.00126599,0.0755672,0.0527509,0.000746187,0.0424528,1.96469,-8.9415e-05,0.005,1.72124,-0.000506098,-0.0338684,-0.319538,30.9011,-0.345706,0.753011,10.4596,0.377055,3.12448,0.270329,1.25107,0.039254,0.362907,-1.37778,0.0644531,-0.0113938,0.141221,0.0685998,-0.100789,23.4506,23.3371,23.1527,23.2946,23.2094,23.2804,23.1243,
54,6.2729,1.37738,3.15334,4.11867,6.27434,1.97661,1.55577,0.000527881,-0.106148,0,0.106148,0.00483377,0.0202573,1.85605e-05,0.437406,-10.5872,-0.593309,-1.76757,0.527688,-40.2553,1.26096,0.0161813,-20,-0.496543,0.0379735,-0.041576,-1.12734,0.0348982,-9.66536e-05,0.00906323,-0.000112469,0.49455,0.00126599,0.0755672,0.0527509,0.000746187,0.0424528,1.96365,-0.000134227,0.005,1.71981,-0.000792373,-0.0337075,-0.375167,31.4448,-0.467111,0.753011,10.4596,0.377055,3.12448,0.270329,1.25107,0.039254,0.362907,-1.37778,0.0644531,-0.0113938,0.141221,0.0685998,-0.100789,23.4506,23.3371,23.1527,23.2946,23.2094,23.2804,23.1243,
55,6.2729,1.37727,3.15334,4.11877,6.27437,1.97663,1.55577,0.000478699,-0.105072,0,0.104692,0.0114739,0.018348,1.85184e-05,0.436781,-10.5853,-0.593679,-1.7675,0.52605,-40.2535,1.25861,0.0161846,-20,-0.496663,0.0404359,-0.0414847,-1.12773,0.0348319,-9.66536e-05,0.00906323,-0.000112469,0.49455,0.00126599,0.0755672,0.0521,0.00140336,0.0418514,1.96365,-0.000134227,0.005,1.71981,-0.000792373,-0.0337075,-0.375167,31.4448,-0.467111,0.756893,10.8136,0.373898,3.04799,0.318071,1.04879,0.0156288,0.354492,-1.39464,0.0644531,-0.0241699,0.120917,0.116891,-0.0967636,23.4506,23.3371,23.1527,23.2804,23.2094,23.2946,23.1385,
56,6.2729,1.37717,3.15334,4.11887,6.2744,1.97664,1.55577,0.000478747,-0.102097,-2.64949e-06,0.101557,0.0241206,0.0160492,2.64949e-05,0.442878,-10.7198,-0.698687,-1.86615,0.253245,-40.7844,1.36053,0.018123,-20,-0.506061,0.0252874,-0.0428815,-1.18081,0.045854,-0.000108056,0.00929591,-0.000135429,0.49455,0.00126599,0.0755672,0.0505682,0.00261805,0.0404747,1.96259,-0.000186399,0.005,1.71944,-0.00143079,-0.0331663,-0.482822,31.937,-0.712686,0.708823,11.1847,0.409869,2.95488,0.30387,0.802395,0.00463752,0.346436,-1.4502,0.072956,0.0254773,0.0609595,0.137022,-0.0967636,23.4648,23.3229,23.1669,23.2804,23.1952,23.2662,23.1385,
57,6.2729,1.37717,3.15334,4.11887,6.2744,1.97664,1.55577,0.000478747,-0.102097,-2.64949e-06,0.101557,0.0241206,0.0160492,2.64949e-05,0.453703,-10.8119,-0.877016,-1.92929,-0.223107,-41.1477,1.5299,0.0209931,-20,-0.51991,0.0136455,-0.0456044,-1.21623,0.0643637,-0.00012048,0.00951334,-0.000163236,0.49455,0.00126599,0.0755672,0.0505682,0.00261805,0.0404747,1.96159,-0.000248298,0.005,1.71992,-0.00257971,-0.0319272,-0.662144,32.2666,-1.13512,0.708823,11.1847,0.409869,2.95488,0.30387,0.802395,0.00463752,0.346436,-1.4502,0.072956,0.0254773,0.0609595,0.137022,-0.0967636,23.4648,23.3229,23.1669,23.2804,23.1952,23.2662,23.1385,
58,6.2729,1.37707,3.15334,4.11898,6.27443,1.97666,1.55577,0.000432839,-0.102637,-2.64949e-06,0.100307,0.0295907,0.0145853,2.64751e-05,0.453227,-10.8099,-0.877266,-1.92956,-0.224508,-41.1456,1.52755,0.0209937,-20,-0.520016,0.0157694,-0.0455408,-1.21657,0.0642864,-0.00012048,0.00951334,-0.000163236,0.49455,0.00126599,0.0755672,0.0503145,0.00316469,0.0405585,1.96159,-0.000248298,0.005,1.71992,-0.00257971,-0.0319272,-0.662144,32.2666,-1.13512,0.727903,11.4221,0.421422,2.8867,0.28765,0.594879,0.00185273,0.338475,-1.53884,0.041081,0.041081,-0.0485074,0.173265,-0.104736,23.4648,23.3371,23.1669,23.2804,23.2094,23.2804,23.1243,
59,6.2729,1.37707,3.15334,4.11898,6.27443,1.97666,1.55577,0.000432839,-0.102637,-2.64949e-06,0.100307,0.0295907,0.0145853,2.64751e-05,0.460311,-10.9548,-0.976783,-2.03635,-0.479713,-41.7165,1.62862,0.0228719,-20,-0.528988,-0.003436,-0.0470088,-1.27334,0.0748197,-0.000134728,0.00973473,-0.000193566,0.49455,0.00126599,0.0755672,0.0503145,0.00316469,0.0405585,1.96056,-0.000318768,0.005,1.71922,-0.00313511,-0.0320026,-0.764193,32.797,-1.36852,0.727903,11.4221,0.421422,2.8867,0.28765,0.594879,0.00185273,0.338475,-1.53884,0.041081,0.041081,-0.0485074,0.173265,-0.104736,23.4648,23.3371,23.1669,23.2804,23.2094,23.2804,23.1243,
60,6.2729,1.37697,3.15334,4.11908,6.27445,1.97667,1.55577,0.0004328,-0.102907,-2.64949e-06,0.0999361,0.022148,0.0124245,2.64549e-05,0.461094,-10.9529,-0.976497,-2.03655,-0.47842,-41.7144,1.62941,0.0228382,-20,-0.528904,-0.00131975,-0.047121,-1.27363,0.0747833,-0.000134728,0.00973473,-0.000193566,0.49455,0.00126599,0.0755672,0.050263,0.0024367,0.0404635,1.96056,-0.000318768,0.005,1.71922,-0.00313511,-0.0320026,-0.764193,32.797,-1.36852,0.689208,11.7607,0.405562,2.80042,0.287317,0.406253,0.0183759,0.338379,-1.52273,0.0483398,0.0805664,-0.100708,0.185478,-0.100789,23.4648,23.3371,23.1527,23.2804,23.1952,23.2662,23.1243,
61,6.2729,1.37686,3.15334,4.11917,6.27446,1.97668,1.55577,0.000384711,-0.103219,-1.32576e-05,0.100206,0.0118843,0.0105338,2.64552e-05,0.460281,-11.0931,-0.91464,-2.1442,-0.292598,-42.2529,1.58412,0.0223088,-20,-0.526322,-0.0177371,-0.0462276,-1.32764,0.0686797,-0.000145136,0.0099468,-0.000214432,0.49455,0.00126599,0.0755672,0.050406,0.00145815,0.0404076,1.95957,-0.000365971,0.005,1.71837,-0.00252241,-0.0319172,-0.70531,33.3048,-1.21814,0.706148,12.0694,0.404378,2.64823,0.30105,0.252247,0.0151517,0.346436,-1.51484,0.0563965,0.0889885,-0.0485074,0.201456,-0.0967636,23.4506,23.3229,23.1385,23.2804,23.1952,23.2804,23.1101,
62,6.2729,1.37675,3.15334,4.11927,6.27447,1.97669,1.55577,0.000387369,-0.105338,-1.32473e-05,0.0983155,0.00378136,0.010783,2.64549e-05,0.45706,-11.2475,-0.810924,-2.26352,0.0081332,-42.8405,1.50092,0.021204,-20,-0.520975,-0.0363064,-0.044662,-1.38656,0.0583075,-0.000152172,0.0101655,-0.000226602,0.49455,0.00126599,0.0755672,0.0502984,0.000669381,0.0413267,1.95854,-0.000400988,0.005,1.71732,-0.00167322,-0.0318669,-0.604987,33.8603,-0.968125,0.658308,12.3736,0.445434,2.52224,0.311631,0.0727276,0.0242853,0.346436,-1.50659,0.0569691,0.072956,0.0324774,0.237705,-0.0927389,23.4506,23.3229,23.1385,23.2804,23.1952,23.252,23.1243,
63,6.2729,1.37665,3.15334,4.11938,6.27447,1.9767,1.55577,0.000355503,-0.106148,-1.32474e-05,0.099712,0.00108039,0.00975279,2.64749e-05,0.454269,-11.4089,-0.722806,-2.38724,0.26649,-43.4662,1.43054,0.0203648,-20,-0.516893,-0.0554625,-0.043263,-1.44943,0.0494736,-0.000155464,0.0103777,-0.00023079,0.49455,0.00126599,0.0755672,0.0508676,0.000422229,0.0415315,1.95755,-0.000412946,0.005,1.71652,-0.000974095,-0.032694,-0.519571,34.4509,-0.754863,0.681972,12.6577,0.437506,2.40497,0.30472,-0.0980642,0.00232816,0.346436,-1.47439,0.072956,0.105046,0.0927389,0.225586,-0.0966797,23.479,23.3229,23.1527,23.2662,23.2094,23.2662,23.1243,
64,6.2729,1.37655,3.15334,4.11948,6.27447,1.97671,1.55577,0.000264947,-0.102907,-1.32474e-05,0.100206,0.00100213,0.00728894,2.64549e-05,0.454721,-11.5807,-0.695856,-2.51913,0.358176,-44.1333,1.4158,0.0204558,-20,-0.5173,-0.0761398,-0.042786,-1.5165,0.0469258,-0.000157791,0.0105969,-0.000233124,0.49455,0.00126599,0.0755672,0.0503345,0.000440767,0.0399877,1.9565,-0.000424274,0.005,1.71507,-0.000761852,-0.0328783,-0.494953,35.079,-0.687484,0.648192,13.0394,0.440011,2.29952,0.325603,-0.248056,0.01697,0.330322,-1.47472,0.0569691,0.0725098,0.124943,0.241733,-0.100789,23.4648,23.3229,23.1669,23.2804,23.2094,23.2662,23.1243,
65,6.2729,1.37655,3.15334,4.11957,6.27447,1.97671,1.55577,0.000264947,-0.102907,-1.32575e-05,0.0983155,0.00378136,0.00485929,2.64552e-05,0.455847,-11.694,-0.699025,-2.60439,0.360518,-44.5611,1.42388,0.020824,-20,-0.519096,-0.0897702,-0.0427749,-1.55891,0.0473505,-0.000160028,0.0108028,-0.000235332,0.49455,0.00126599,0.0755672,0.0497894,0.000703386,0.0397628,1.95551,-0.000435069,0.005,1.71465,-0.000788253,-0.0314889,-0.499193,35.4788,-0.693071,0.646627,13.0394,0.447312,2.14947,0.343353,-0.373397,0.00380224,0.338762,-1.47472,0.0569691,0.0586532,0.128969,0.273955,-0.088623,23.479,23.3229,23.1243,23.2804,23.1811,23.2662,23.1101,
66,6.2729,1.37644,3.15334,4.11967,6.27448,1.97671,1.55577,0.000244907,-0.0990535,-1.32474e-05,0.0953444,0.00459166,0.00286082,3.70372e-05,0.458315,-11.7317,-0.736157,-2.63202,0.2635,-44.7134,1.46047,0.0214627,-20,-0.522251,-0.0921089,-0.043325,-1.57445,0.0512704,-0.000162265,0.0109036,-0.000239938,0.49455,0.00126599,0.0755672,0.0481276,0.000772456,0.0380791,1.95495,-0.000446582,0.005,1.71464,-0.00103497,-0.0312865,-0.537127,35.6201,-0.780605,0.593151,13.3855,0.484187,1.97563,0.36025,-0.528663,0.00747953,0.338475,-1.5791,0.0490066,0.0805664,0.109063,0.286011,-0.0967636,23.4364,23.3087,23.1527,23.2804,23.1952,23.2804,23.1101,
67,6.2729,1.37635,3.15334,4.11977,6.27448,1.97671,1.55577,0.000244907,-0.0966949,-1.32474e-05,0.0930351,0.00468169,0.00130037,3.70652e-05,0.460104,-11.8119,-0.752502,-2.68917,0.227281,-45.0145,1.47791,0.0219067,-20,-0.524504,-0.0994749,-0.0435549,-1.60404,0.052847,-0.000165243,0.0111045,-0.000245949,0.49455,0.00126599,0.0755672,0.0469682,0.00076876,0.0370246,1.95397,-0.000465504,0.005,1.71525,-0.00111416,-0.0297712,-0.55235,35.8977,-0.817927,0.636138,13.7506,0.487933,1.86075,0.373251,-0.691886,-0.00386171,0.338379,-1.65975,0.0563965,0.1372,0.100789,0.326319,-0.100708,23.4648,23.3371,23.1385,23.2804,23.1811,23.2662,23.1243,
68,6.2729,1.37625,3.15334,4.11986,6.27449,1.97671,1.55577,0.000227702,-0.0934537,-1.32474e-05,0.0907527,0.00463735,0.000540195,3.70369e-05,0.461575,-11.9079,-0.75944,-2.75936,0.218533,-45.3804,1.49118,0.0222632,-20,-0.526294,-0.109283,-0.0436323,-1.64034,0.0538231,-0.00016888,0.0112997,-0.000250981,0.49455,0.00126599,0.0755672,0.045633,0.000758281,0.0357031,1.953,-0.000478922,0.005,1.71543,-0.00112291,-0.0288221,-0.561902,36.2377,-0.832519,0.628973,14.0639,0.514468,1.72304,0.405181,-0.825156,0.017958,0.322366,-1.70003,0.0483398,0.177977,0.0934362,0.338379,-0.088623,23.4364,23.3229,23.1527,23.2804,23.1952,23.2662,23.1101,
69,6.2729,1.37625,3.15334,4.11986,6.27449,1.97671,1.55577,0.000227702,-0.0934537,-1.32474e-05,0.0907527,0.00463735,0.000540195,3.70369e-05,0.462822,-11.9956,-0.765511,-2.8219,0.210813,-45.7077,1.50199,0.0225937,-20,-0.527896,-0.119991,-0.043703,-1.67219,0.0545894,-0.000172412,0.0114814,-0.000256425,0.49455,0.00126599,0.0755672,0.045633,0.000758281,0.0357031,1.9521,-0.000496004,0.005,1.71582,-0.00112886,-0.0276328,-0.569348,36.5397,-0.845388,0.628973,14.0639,0.514468,1.72304,0.405181,-0.825156,0.017958,0.322366,-1.70003,0.0483398,0.177977,0.0934362,0.338379,-0.088623,23.4364,23.3229,23.1527,23.2804,23.1952,23.2662,23.1101,
70,6.2729,1.37617,3.15334,4.11994,6.27449,1.97671,1.55577,0.000189751,-0.0885022,-1.32474e-05,0.0875116,0.00450485,-0.000540195,3.70369e-05,0.462903,-11.9945,-0.765563,-2.82149,0.210948,-45.707,1.50205,0.0225777,-20,-0.527893,-0.117522,-0.0437026,-1.67259,0.0545898,-0.000172412,0.0114814,-0.000256425,0.49455,0.00126599,0.0755672,0.0436662,0.000741268,0.0336831,1.9521,-0.000496004,0.005,1.71582,-0.00112886,-0.0276328,-0.569348,36.5397,-0.845388,0.641655,14.4639,0.516122,1.58805,0.421811,-0.936721,-0.00256766,0.33042,-1.77292,0.0644531,0.22573,0.104814,0.338403,-0.088623,23.4648,23.3087,23.1385,23.252,23.1952,23.2662,23.1101,
71,6.2729,1.37608,3.15334,4.12003,6.27449,1.97671,1.55577,0.000189765,-0.0837567,-1.32575e-05,0.0852643,0.00384237,-0.000630227,3.70369e-05,0.46376,-12.0515,-0.768719,-2.86024,0.208179,-45.913,1.50817,0.0227566,-20,-0.528888,-0.121612,-0.0437478,-1.69247,0.054979,-0.000175239,0.0116539,-0.000260348,0.49455,0.00126599,0.0755672,0.0420289,0.000661736,0.0318341,1.95124,-0.000509595,0.005,1.71681,-0.00112578,-0.0258148,-0.57311,36.7274,-0.851864,0.587974,14.7969,0.57892,1.41221,0.422251,-1.0795,-0.0253653,0.322366,-1.86916,0.0563965,0.281982,0.100708,0.346459,-0.0966797,23.4506,23.3087,23.1385,23.2378,23.1811,23.252,23.1101,
72,6.2729,1.376,3.15334,4.12012,6.27449,1.97671,1.55577,0.000212769,-0.0834601,-1.32474e-05,0.0842582,0.0031791,-0.000927238,3.70648e-05,0.464413,-12.1258,-0.765156,-2.91344,0.225616,-46.1868,1.50918,0.0228907,-20,-0.52965,-0.128684,-0.0436795,-1.7192,0.0547045,-0.000177858,0.0118261,-0.000263757,0.49455,0.00126599,0.0755672,0.0416748,0.000584777,0.0317094,1.95038,-0.000522137,0.005,1.71752,-0.00106549,-0.0241507,-0.570459,36.9803,-0.84194,0.603761,15.0858,0.586053,1.30189,0.410067,-1.22543,-0.0257937,0.33042,-1.94977,0.072956,0.298205,0.108839,0.350487,-0.0887145,23.4364,23.3229,23.1101,23.2378,23.1811,23.252,23.1101,
73,6.2729,1.37591,3.15334,4.1202,6.27449,1.97671,1.55577,0.000199662,-0.08319,-1.85464e-05,0.0856209,0.0021194,-0.00117015,3.70652e-05,0.465505,-12.2387,-0.760616,-2.99914,0.250133,-46.6247,1.51322,0.0231363,-20,-0.530853,-0.141887,-0.0435804,-1.76304,0.0545326,-0.000180238,0.011996,-0.000266192,0.49455,0.00126599,0.0755672,0.0420107,0.000490287,0.031564,1.94952,-0.000529321,0.005,1.71706,-0.00100269,-0.0240385,-0.568827,37.3912,-0.829004,0.603264,15.3384,0.615224,1.24042,0.410513,-1.32354,-0.0124266,0.33042,-1.92569,0.0569691,0.282442,0.124943,0.350464,-0.0926514,23.4364,23.3371,23.1385,23.2662,23.1669,23.2378,23.1101,
74,6.2729,1.37583,3.15334,4.12028,6.2745,1.9767,1.55577,0.000165589,-0.0831057,-1.85464e-05,0.0848106,0.00185448,-0.00142201,3.70652e-05,0.466453,-12.3677,-0.751251,-3.09851,0.289226,-47.1242,1.51237,0.0233601,-20,-0.531931,-0.157584,-0.043397,-1.8132,0.0537695,-0.000181952,0.0121606,-0.000267629,0.49455,0.00126599,0.0755672,0.041757,0.000475724,0.0315244,1.94869,-0.000537399,0.005,1.71601,-0.000924918,-0.0239076,-0.56154,37.8615,-0.804363,0.611068,15.687,0.603909,1.16184,0.420115,-1.40894,-0.0124266,0.314209,-1.90958,0.072956,0.241833,0.120917,0.354492,-0.0926514,23.4648,23.2946,23.1385,23.2662,23.1811,23.2804,23.1101,
75,6.2729,1.37574,3.15334,4.12037,6.2745,1.9767,1.55577,0.000132471,-0.0813256,-1.85605e-05,0.0829199,0.00145709,-0.00148823,3.70369e-05,0.467814,-12.4791,-0.752549,-3.18264,0.297463,-47.557,1.52035,0.0236869,-20,-0.53352,-0.170333,-0.0433854,-1.8566,0.05408,-0.000184286,0.0123235,-0.000270515,0.49455,0.00126599,0.0755672,0.0408389,0.00044227,0.0308479,1.94787,-0.000548528,0.005,1.7155,-0.000921827,-0.023872,-0.564537,38.2671,-0.805459,0.549105,15.9759,0.618978,1.08602,0.420794,-1.49727,-0.0130106,0.314312,-1.90944,0.0563965,0.234198,0.133483,0.346529,-0.088623,23.4506,23.3229,23.1385,23.252,23.1811,23.252,23.1101,
76,6.2729,1.37574,3.15334,4.12037,6.2745,1.9767,1.55577,0.000132471,-0.0813256,-1.85605e-05,0.0829199,0.00145709,-0.00148823,3.70369e-05,0.468738,-12.5747,-0.750873,-3.25228,0.311602,-47.9199,1.52423,0.0239317,-20,-0.534678,-0.182328,-0.0433372,-1.89228,0.0540356,-0.000186231,0.0124898,-0.000272413,0.49455,0.00126599,0.0755672,0.0408389,0.00044227,0.0308479,1.94704,-0.000557715,0.005,1.71558,-0.000899986,-0.0232631,-0.564166,38.6042,-0.799906,0.549105,15.9759,0.618978,1.08602,0.420794,-1.49727,-0.0130106,0.314312,-1.90944,0.0563965,0.234198,0.133483,0.346529,-0.088623,23.4506,23.3229,23.1385,23.252,23.1811,23.252,23.1101,
77,6.2729,1.37567,3.15334,4.12045,6.2745,1.9767,1.55577,0.0001331,-0.0804075,-1.85464e-05,0.0823797,0.00132496,-0.00178847,3.70369e-05,0.468781,-12.5734,-0.750922,-3.25255,0.31169,-47.9183,1.52426,0.0239176,-20,-0.534685,-0.180588,-0.0433354,-1.89252,0.054039,-0.000186231,0.0124898,-0.000272413,0.49455,0.00126599,0.0755672,0.0404905,0.000425571,0.0304671,1.94704,-0.000557715,0.005,1.71558,-0.000899986,-0.0232631,-0.564166,38.6042,-0.799906,0.576365,16.2628,0.625373,1.04047,0.411754,-1.55448,-0.0107007,0.306258,-1.91755,0.0644531,0.249886,0.137022,0.338403,-0.093001,23.4506,23.3229,23.1243,23.252,23.1952,23.252,23.1101,
78,6.2729,1.37559,3.15334,4.12054,6.2745,1.9767,1.55577,0.000156721,-0.0810292,-1.85464e-05,0.0839284,0.00198694,-0.00188814,3.70369e-05,0.469972,-12.6753,-0.752755,-3.33032,0.317449,-48.3128,1.53215,0.0242267,-20,-0.536214,-0.192469,-0.0433228,-1.93199,0.0544104,-0.000188308,0.0126465,-0.000274765,0.49455,0.00126599,0.0755672,0.0410648,0.000485057,0.0306861,1.94624,-0.000567552,0.005,1.71517,-0.00089381,-0.0229204,-0.567821,38.9746,-0.802264,0.544012,16.5065,0.632421,0.999457,0.412149,-1.6181,-0.0226295,0.306152,-1.92554,0.0644531,0.249756,0.137907,0.342407,-0.0845947,23.4506,23.3087,23.1385,23.2662,23.1811,23.252,23.1243,
79,6.2729,1.37551,3.15334,4.12062,6.2745,1.97669,1.55578,0.000147503,-0.0788685,-2.38454e-05,0.08319,0.0019148,-0.00207436,4.76188e-05,0.472244,-12.8142,-0.765296,-3.43724,0.298082,-48.8557,1.55321,0.0248033,-20,-0.538973,-0.209539,-0.0434684,-1.98664,0.0560339,-0.000191077,0.0128127,-0.000278163,0.49455,0.00126599,0.0755672,0.0404013,0.000476711,0.0298266,1.94539,-0.000576664,0.005,1.71389,-0.000955549,-0.0231175,-0.583521,39.4853,-0.829538,0.529001,16.7957,0.615928,0.947465,0.409341,-1.68882,-0.0317663,0.306152,-1.87721,0.072956,0.210091,0.132996,0.334351,-0.088623,23.4506,23.3087,23.1527,23.2662,23.1811,23.252,23.1101,
80,6.2729,1.37551,3.15334,4.12062,6.2745,1.97669,1.55578,0.000147503,-0.0788685,-2.38454e-05,0.08319,0.0019148,-0.00207436,4.76188e-05,0.473371,-12.9074,-0.767786,-3.5058,0.300663,-49.2084,1.55791,0.0251019,-20,-0.540395,-0.221426,-0.0434838,-2.02134,0.0561253,-0.000192078,0.0129685,-0.000280522,0.49455,0.00126599,0.0755672,0.0404013,0.000476711,0.0298266,1.94459,-0.000586461,0.005,1.71377,-0.000956855,-0.0223439,-0.584369,39.8133,-0.83388,0.529001,16.7957,0.615928,0.947465,0.409341,-1.68882,-0.0317663,0.306152,-1.87721,0.072956,0.210091,0.132996,0.334351,-0.088623,23.4506,23.3087,23.1527,23.2662,23.1811,23.252,23.1101,
81,6.2729,1.37544,3.15334,4.1207,6.27451,1.97669,1.55578,0.000118009,-0.0734665,-2.38635e-05,0.0815694,0.00212755,-0.00242106,4.76188e-05,0.473407,-12.9064,-0.767854,-3.50566,0.30069,-49.2075,1.55785,0.0250888,-20,-0.540402,-0.21931,-0.0434787,-2.02165,0.0561223,-0.000192078,0.0129685,-0.000280522,0.49455,0.00126599,0.0755672,0.0388109,0.000493635,0.0276748,1.94459,-0.000586461,0.005,1.71377,-0.000956855,-0.0223439,-0.584369,39.8133,-0.83388,0.502477,17.0419,0.645093,0.888679,0.391576,-1.80216,-0.0398726,0.322266,-1.9175,0.0809682,0.210091,0.141049,0.334375,-0.0926514,23.4648,23.3371,23.1243,23.2662,23.1811,23.252,23.0959,
82,6.2729,1.37544,3.15334,4.1207,6.27451,1.97669,1.55578,0.000118009,-0.0734665,-2.38635e-05,0.0815694,0.00212755,-0.00242106,4.76188e-05,0.474338,-12.9613,-0.775053,-3.5431,0.286223,-49.4015,1.56708,0.0253355,-20,-0.541651,-0.225555,-0.0435824,-2.03998,0.0568991,-0.000194705,0.0131157,-0.000284307,0.49455,0.00126599,0.0755672,0.0388109,0.000493635,0.0276748,1.94383,-0.000599026,0.005,1.71452,-0.000983394,-0.0204073,-0.591862,39.9897,-0.850163,0.502477,17.0419,0.645093,0.888679,0.391576,-1.80216,-0.0398726,0.322266,-1.9175,0.0809682,0.210091,0.141049,0.334375,-0.0926514,23.4648,23.3371,23.1243,23.2662,23.1811,23.252,23.0959,
83,6.2729,1.37536,3.15334,4.12078,6.27451,1.97668,1.55578,0.000118002,-0.0697136,-1.85464e-05,0.0788685,0.00201854,-0.00291442,4.76193e-05,0.47437,-12.9603,-0.77508,-3.54297,0.286333,-49.4006,1.56713,0.0253151,-20,-0.541649,-0.223571,-0.0435816,-2.04027,0.0569029,-0.000194705,0.0131157,-0.000284307,0.49455,0.00126599,0.0755672,0.037251,0.000467001,0.0261792,1.94383,-0.000599026,0.005,1.71452,-0.000983394,-0.0204073,-0.591862,39.9897,-0.850163,0.502843,17.2475,0.654668,0.900587,0.362823,-1.92741,-0.0483482,0.306258,-1.97414,0.072956,0.217678,0.140991,0.318263,-0.088623,23.4506,23.3087,23.1385,23.2662,23.1669,23.2662,23.1101,
84,6.2729,1.37536,3.15334,4.12078,6.27451,1.97668,1.55578,0.000118002,-0.0697136,-1.85464e-05,0.0788685,0.00201854,-0.00291442,4.76193e-05,0.474966,-13.0142,-0.776148,-3.57986,0.288666,-49.5957,1.57007,0.0254731,-20,-0.542449,-0.229699,-0.0435874,-2.05889,0.0569783,-0.000196175,0.0132588,-0.00028645,0.49455,0.00126599,0.0755672,0.037251,0.000467001,0.0261792,1.94307,-0.000605346,0.005,1.71524,-0.000965113,-0.0190613,-0.592595,40.1677,-0.851754,0.502843,17.2475,0.654668,0.900587,0.362823,-1.92741,-0.0483482,0.306258,-1.97414,0.072956,0.217678,0.140991,0.318263,-0.088623,23.4506,23.3087,23.1385,23.2662,23.1669,23.2662,23.1101,
85,6.2729,1.37529,3.15334,4.12086,6.27451,1.97667,1.55578,8.85016e-05,-0.0688749,-1.85605e-05,0.0789921,0.00201854,-0.00403946,4.76193e-05,0.47499,-13.0128,-0.776183,-3.58013,0.288728,-49.594,1.57009,0.0254603,-20,-0.542459,-0.228043,-0.0435839,-2.0591,0.056983,-0.000196175,0.0132588,-0.00028645,0.49455,0.00126599,0.0755672,0.0371125,0.000475442,0.0257309,1.94307,-0.000605346,0.005,1.71524,-0.000965113,-0.0190613,-0.592595,40.1677,-0.851754,0.436942,17.3499,0.641101,0.889915,0.37827,-2.06301,-0.0409088,0.306258,-2.03027,0.0644531,0.249886,0.141221,0.322266,-0.080667,23.4506,23.3229,23.1385,23.252,23.1952,23.2662,23.0959,
86,6.2729,1.37529,3.15334,4.12086,6.27451,1.97667,1.55578,8.85016e-05,-0.0688749,-1.85605e-05,0.0789921,0.00201854,-0.00403946,4.76193e-05,0.47613,-13.1041,-0.779016,-3.64879,0.290218,-49.9428,1.57837,0.0257623,-20,-0.543877,-0.240097,-0.0436047,-2.09369,0.0574486,-0.000197947,0.0134001,-0.000288243,0.49455,0.00126599,0.0755672,0.0371125,0.000475442,0.0257309,1.94231,-0.000613563,0.005,1.71467,-0.000980105,-0.0186578,-0.597142,40.4939,-0.857026,0.436942,17.3499,0.641101,0.889915,0.37827,-2.06301,-0.0409088,0.306258,-2.03027,0.0644531,0.249886,0.141221,0.322266,-0.080667,23.4506,23.3229,23.1385,23.252,23.1952,23.2662,23.0959,
87,6.2729,1.37523,3.15334,4.12094,6.27451,1.97665,1.55578,8.81306e-05,-0.0693447,-1.85605e-05,0.0791386,0.00188716,-0.00629276,4.76188e-05,0.47616,-13.1025,-0.779047,-3.64896,0.29028,-49.9411,1.5784,0.0257494,-20,-0.543884,-0.238555,-0.0436034,-2.09388,0.0574532,-0.000197947,0.0134001,-0.000288243,0.49455,0.00126599,0.0755672,0.0372534,0.000460574,0.0256828,1.94231,-0.000613563,0.005,1.71467,-0.000980105,-0.0186578,-0.597142,40.4939,-0.857026,0.446161,17.4973,0.630209,0.849241,0.379936,-2.21006,-0.0293482,0.298205,-2.0061,0.090076,0.209628,0.14502,0.318263,-0.0927389,23.4364,23.3087,23.1527,23.252,23.1952,23.2662,23.1101,
88,6.2729,1.37516,3.15334,4.12102,6.27451,1.97664,1.55578,8.85016e-05,-0.0702253,-2.12117e-05,0.0790584,0.00162591,-0.0108455,4.76188e-05,0.477164,-13.1865,-0.779677,-3.71428,0.297542,-50.2701,1.58553,0.0259926,-20,-0.545073,-0.248489,-0.0435869,-2.12707,0.0577968,-0.000199679,0.0135332,-0.000289928,0.49455,0.00126599,0.0755672,0.0374165,0.000430288,0.0255582,1.94157,-0.000621465,0.005,1.71389,-0.000973835,-0.0186145,-0.600466,40.8043,-0.856998,0.417495,17.6256,0.652741,0.883648,0.353673,-2.39055,-0.035672,0.306152,-1.96584,0.0889885,0.201416,0.145075,0.334375,-0.0887145,23.4506,23.3087,23.1385,23.2804,23.1811,23.252,23.0959,
89,6.2729,1.37516,3.15334,4.12102,6.27451,1.97664,1.55578,8.85016e-05,-0.0702253,-2.12117e-05,0.0790584,0.00162591,-0.0108455,4.76188e-05,0.477738,-13.2527,-0.776983,-3.76555,0.311671,-50.5244,1.58948,0.0261445,-20,-0.545763,-0.257593,-0.043526,-2.1525,0.0578739,-0.000201002,0.0136636,-0.000290576,0.49455,0.00126599,0.0755672,0.0374165,0.000430288,0.0255582,1.94083,-0.000627215,0.005,1.71307,-0.000951753,-0.0185024,-0.601339,41.0438,-0.849467,0.417495,17.6256,0.652741,0.883648,0.353673,-2.39055,-0.035672,0.306152,-1.96584,0.0889885,0.201416,0.145075,0.334375,-0.0887145,23.4506,23.3087,23.1385,23.2804,23.1811,23.252,23.0959,
90,6.2729,1.37508,3.15334,4.12109,6.27451,1.97662,1.55578,8.39187e-05,-0.0692121,-2.1212e-05,0.0758974,0.00137375,-0.0165899,4.76188e-05,0.477786,-13.2512,-0.77701,-3.76495,0.311747,-50.5235,1.58954,0.0261301,-20,-0.545759,-0.255652,-0.0435265,-2.15278,0.0578788,-0.000201002,0.0136636,-0.000290576,0.49455,0.00126599,0.0755672,0.036298,0.000389623,0.0246014,1.94083,-0.000627215,0.005,1.71307,-0.000951753,-0.0185024,-0.601339,41.0438,-0.849467,0.40299,17.7545,0.685473,0.933985,0.320834,-2.5374,-0.0509688,0.290151,-1.92555,0.072956,0.185303,0.149048,0.362638,-0.0846906,23.4648,23.3371,23.1243,23.252,23.1811,23.252,23.1101,
91,6.2729,1.37502,3.15334,4.12117,6.27451,1.9766,1.55578,8.39187e-05,-0.0669842,-2.1212e-05,0.0767352,0.0011703,-0.0202573,4.76188e-05,0.477834,-13.2661,-0.774506,-3.77565,0.320244,-50.5766,1.5912,0.026119,-20,-0.545805,-0.255588,-0.043484,-2.15801,0.0579508,-0.000202759,0.0137919,-0.000292124,0.49455,0.00126599,0.0755672,0.0360815,0.000361114,0.0233206,1.94009,-0.000634986,0.005,1.71342,-0.000922148,-0.0176412,-0.602089,41.0929,-0.843155,0.339178,17.8179,0.676286,0.987619,0.329675,-2.63544,-0.0487562,0.306152,-1.92555,0.090076,0.217678,0.165358,0.418945,-0.0887145,23.4364,23.3229,23.1527,23.252,23.1952,23.2662,23.0959,
92,6.2729,1.37502,3.15334,4.12117,6.27451,1.9766,1.55578,8.39187e-05,-0.0669842,-2.1212e-05,0.0767352,0.0011703,-0.0202573,4.76188e-05,0.478347,-13.3223,-0.773254,-3.81843,0.329197,-50.7827,1.59493,0.026255,-20,-0.546469,-0.263118,-0.0434517,-2.17824,0.0580729,-0.000204284,0.0139195,-0.000293259,0.49455,0.00126599,0.0755672,0.0360815,0.000361114,0.0233206,1.93935,-0.000641688,0.005,1.71294,-0.000902522,-0.0164885,-0.603365,41.2857,-0.839245,0.339178,17.8179,0.676286,0.987619,0.329675,-2.63544,-0.0487562,0.306152,-1.92555,0.090076,0.217678,0.165358,0.418945,-0.0887145,23.4364,23.3229,23.1527,23.252,23.1952,23.2662,23.0959,
93,6.2729,1.37495,3.15334,4.12125,6.27451,1.97658,1.55578,5.29877e-05,-0.066444,-1.85605e-05,0.077518,0.000739151,-0.0202573,4.76188e-05,0.478378,-13.321,-0.77325,-3.81873,0.329322,-50.7812,1.59503,0.0262383,-20,-0.546473,-0.261636,-0.0434529,-2.17839,0.0580789,-0.000204284,0.0139195,-0.000293259,0.49455,0.00126599,0.0755672,0.0361949,0.00033126,0.0231,1.93935,-0.000641688,0.005,1.71294,-0.000902522,-0.0164885,-0.603365,41.2857,-0.839245,0.327896,17.9579,0.654255,0.985939,0.361093,-2.74253,-0.0477488,0.282097,-1.94986,0.0742786,0.185303,0.165161,0.439105,-0.0809682,23.4648,23.3229,23.1527,23.2662,23.1952,23.2662,23.1243,
94,6.2729,1.37488,3.15334,4.12133,6.27452,1.97656,1.55578,5.29903e-05,-0.0669163,-1.85605e-05,0.0794087,0.000821618,-0.019447,4.76188e-05,0.479261,-13.4134,-0.770648,-3.89041,0.346041,-51.1388,1.59688,0.0264565,-20,-0.54755,-0.272784,-0.0433842,-2.2143,0.0578347,-0.000205299,0.0140416,-0.000294328,0.49455,0.00126599,0.0755672,0.0368373,0.000345618,0.0233507,1.93863,-0.000649861,0.005,1.7122,-0.000883009,-0.01629,-0.601065,41.6228,-0.83138,0.275853,18.1281,0.672888,1.04117,0.33057,-2.84332,-0.0416713,0.274044,-1.9256,0.0569691,0.177246,0.173265,0.435077,-0.0887145,23.4648,23.2946,23.1243,23.252,23.1952,23.252,23.1101,
95,6.2729,1.37481,3.15334,4.1214,6.27452,1.97654,1.55578,5.29903e-05,-0.0662029,-2.38454e-05,0.0791386,0.000845138,-0.0180553,4.76188e-05,0.480879,-13.531,-0.775882,-3.98192,0.344294,-51.5987,1.60907,0.0268649,-20,-0.549511,-0.287401,-0.0434235,-2.26065,0.0585883,-0.000207426,0.014167,-0.00029691,0.49455,0.00126599,0.0755672,0.0366088,0.000349494,0.0232243,1.93791,-0.000659572,0.005,1.71096,-0.000904671,-0.0165156,-0.608353,42.0565,-0.841651,0.275853,18.3179,0.67981,1.12345,0.328025,-2.8994,-0.0401901,0.274044,-1.90138,0.088623,0.11308,0.16521,0.414937,-0.0805664,23.4648,23.2946,23.1385,23.2804,23.1811,23.2804,23.1101,
96,6.2729,1.37481,3.15334,4.1214,6.27452,1.97654,1.55578,5.05128e-05,-0.0662029,-2.38454e-05,0.0791386,0.000845138,-0.0180553,4.76188e-05,0.482134,-13.6313,-0.778909,-4.05695,0.346288,-51.9852,1.6181,0.0271974,-20,-0.551064,-0.30051,-0.0434426,-2.29904,0.0590861,-0.000209175,0.0142962,-0.000298509,0.49455,0.00126599,0.0755672,0.0366088,0.000350479,0.0232243,1.93716,-0.000667373,0.005,1.7105,-0.000915181,-0.0164019,-0.613213,42.4178,-0.84718,0.297396,18.3179,0.67981,1.12345,0.328025,-2.8994,-0.0401901,0.282097,-1.90138,0.088623,0.11308,0.16521,0.414937,-0.0805664,23.4506,23.2946,23.1385,23.2804,23.1811,23.2804,23.1101,
97,6.2729,1.37475,3.15334,4.12149,6.27452,1.97652,1.55578,2.52564e-05,-0.0626626,-2.38635e-05,0.0759114,0.000812382,-0.0172687,5.82008e-05,0.482175,-13.6305,-0.778987,-4.05703,0.346293,-51.9843,1.61817,0.027185,-20,-0.55107,-0.298703,-0.0434397,-2.2993,0.0590921,-0.000209175,0.0142962,-0.000298509,0.49455,0.00126599,0.0755672,0.0349408,0.00034416,0.0219537,1.93716,-0.000667373,0.005,1.7105,-0.000916067,-0.0164019,-0.613213,42.4178,-0.847254,0.262809,18.4521,0.657055,1.19254,0.353295,-2.94306,-0.0412398,0.282097,-1.90944,0.0809682,0.105046,0.173405,0.38674,-0.0846906,23.4648,23.3229,23.1527,23.2804,23.1811,23.2662,23.1101,
98,6.2729,1.37469,3.15334,4.12156,6.27452,1.9765,1.55578,2.51657e-05,-0.0588813,-2.38635e-05,0.0750871,0.000928436,-0.0202573,5.82008e-05,0.48275,-13.6776,-0.78028,-4.08918,0.347446,-52.1585,1.61892,0.0273187,-20,-0.551813,-0.302241,-0.0434505,-2.31619,0.0589831,-0.000209719,0.0144217,-0.000299673,0.49455,0.00126599,0.0755672,0.033922,0.000341002,0.0201503,1.93644,-0.000673955,0.005,1.71135,-0.000916303,-0.0152584,-0.612117,42.577,-0.849483,0.2598,18.6464,0.646951,1.24811,0.356656,-2.95147,-0.0340725,0.274044,-1.94977,0.0805664,0.161133,0.169189,0.378684,-0.0845947,23.4648,23.3371,23.1527,23.2662,23.1811,23.2662,23.1243,
99,6.2729,1.37469,3.15334,4.12156,6.27452,1.9765,1.55578,2.51657e-05,-0.0588813,-2.38635e-05,0.0750871,0.000928436,-0.0202573,5.82008e-05,0.48318,-13.7029,-0.783979,-4.10649,0.339641,-52.2409,1.62506,0.0274327,-20,-0.552417,-0.305132,-0.0435049,-2.32375,0.0595384,-0.000211728,0.0145336,-0.000302192,0.49455,0.00126599,0.0755672,0.033922,0.000341002,0.0201503,1.93577,-0.000683104,0.005,1.71166,-0.000921696,-0.0136353,-0.617509,42.6514,-0.857888,0.2598,18.6464,0.646951,1.24811,0.356656,-2.95147,-0.0340725,0.274044,-1.94977,0.0805664,0.161133,0.169189,0.378684,-0.0845947,23.4648,23.3371,23.1527,23.2662,23.1811,23.2662,23.1243,
100,6.2729,1.37459,3.15334,4.12171,6.27452,1.97646,1.55578,2.41283e-05,-0.0516583,-2.38454e-05,0.0740067,0.00109107,-0.0225692,5.82013e-05,0.483233,-13.7008,-0.784078,-4.10647,0.339666,-52.2389,1.62498,0.0274102,-20,-0.552432,-0.301906,-0.043499,-2.32414,0.0595372,-0.000211728,0.0145336,-0.000302192,0.49455,0.00126599,0.0755672,0.0321155,0.000335971,0.0170573,1.93577,-0.000683104,0.005,1.71166,-0.000921696,-0.0136353,-0.617509,42.6514,-0.857888,0.216397,18.9678,0.699506,1.30628,0.348647,-2.98999,-0.0552671,0.257938,-2.07062,0.0809682,0.145243,0.169189,0.38674,-0.0887145,23.4648,23.3229,23.1385,23.2662,23.2094,23.252,23.1243,
101,6.2729,1.37459,3.15334,4.12171,6.27452,1.97646,1.55578,2.41283e-05,-0.0516583,-2.38454e-05,0.0740067,0.00109107,-0.0225692,5.82013e-05,0.484373,-13.7783,-0.790994,-4.16143,0.3282,-52.512,1.63714,0.027712,-20,-0.553966,-0.31125,-0.043592,-2.35016,0.0605095,-0.000215452,0.0147443,-0.000306659,0.49455,0.00126599,0.0755672,0.0321155,0.000335971,0.0170573,1.93447,-0.000699859,0.005,1.71212,-0.000932247,-0.0108516,-0.626942,42.9019,-0.873088,0.216397,18.9678,0.699506,1.30628,0.348647,-2.98999,-0.0552671,0.257938,-2.07062,0.0809682,0.145243,0.169189,0.38674,-0.0887145,23.4648,23.3229,23.1385,23.2662,23.2094,23.252,23.1243,
102,6.2729,1.37454,3.15334,4.12178,6.27452,1.97643,1.55578,2.41272e-05,-0.0502381,-2.38635e-05,0.0726562,0.00109021,-0.024849,5.82008e-05,0.484395,-13.7772,-0.791026,-4.16139,0.328224,-52.5109,1.63714,0.0277012,-20,-0.553971,-0.309792,-0.04359,-2.35033,0.0605118,-0.000215452,0.0147443,-0.000306659,0.49455,0.00126599,0.0755672,0.0314335,0.000326416,0.0162751,1.93447,-0.000699859,0.005,1.71212,-0.000932247,-0.0108516,-0.626942,42.9019,-0.873088,0.182204,19.0323,0.693084,1.34525,0.356838,-2.9701,-0.0762144,0.265991,-2.09473,0.0821619,0.161334,0.181319,0.390747,-0.0846906,23.4648,23.3229,23.1385,23.252,23.1952,23.2662,23.1101,
103,6.2729,1.37449,3.15334,4.12185,6.27453,1.97641,1.55578,0,-0.0507783,-2.91664e-05,0.0702152,0.00117752,-0.0251191,6.61379e-05,0.484806,-13.8085,-0.792284,-4.18504,0.328052,-52.6281,1.64158,0.027796,-20,-0.554501,-0.312476,-0.0435994,-2.36197,0.0608399,-0.000216941,0.014841,-0.000308101,0.49455,0.00126599,0.0755672,0.0308399,0.000341518,0.0165018,1.93385,-0.000706336,0.005,1.71218,-0.000929476,-0.0101476,-0.630185,43.0113,-0.875478,0.191558,19.1464,0.673461,1.34527,0.364749,-2.96313,-0.0721845,0.265991,-2.07861,0.0809682,0.193527,0.181319,0.402852,-0.0845947,23.4506,23.3229,23.1811,23.2662,23.1952,23.2378,23.0959,
104,6.2729,1.37444,3.15334,4.12192,6.27453,1.97638,1.55578,0,-0.0512665,-2.91664e-05,0.067456,0.00112991,-0.0243088,6.61372e-05,0.485668,-13.8639,-0.796424,-4.22651,0.322689,-52.8465,1.64702,0.0280081,-20,-0.555549,-0.318378,-0.0436451,-2.3839,0.0611801,-0.000217941,0.0149408,-0.000310551,0.49455,0.00126599,0.0755672,0.0301422,0.000333301,0.0168266,1.93321,-0.000715024,0.005,1.71213,-0.000950888,-0.0103516,-0.633384,43.2157,-0.884303,0.17087,19.2069,0.665686,1.33983,0.378022,-2.92673,-0.0718621,0.257938,-2.02228,0.0889885,0.241833,0.181453,0.390768,-0.0805664,23.4364,23.3229,23.1527,23.2662,23.1952,23.252,23.1101,
105,6.2729,1.37444,3.15334,4.12192,6.27453,1.97638,1.55578,0,-0.0512665,-2.91664e-05,0.067456,0.00112991,-0.0243088,6.61372e-05,0.486327,-13.9211,-0.797057,-4.26809,0.326861,-53.0699,1.6518,0.0281828,-20,-0.556357,-0.325516,-0.0436386,-2.40606,0.061413,-0.000219189,0.015034,-0.000311456,0.49455,0.00126599,0.0755672,0.0301422,0.000333301,0.0168266,1.93262,-0.000720307,0.005,1.71223,-0.000948248,-0.0106439,-0.63569,43.4236,-0.884837,0.17087,19.2069,0.665686,1.33983,0.378022,-2.92673,-0.0718621,0.257938,-2.02228,0.0889885,0.241833,0.181453,0.390768,-0.0805664,23.4364,23.3229,23.1527,23.2662,23.1952,23.252,23.1101,
106,6.2729,1.37438,3.15334,4.12199,6.27453,1.97636,1.55578,-2.20789e-05,-0.0496522,-2.91444e-05,0.0677945,0.00129871,-0.023049,6.61372e-05,0.48634,-13.9202,-0.797098,-4.26833,0.326842,-53.0687,1.65169,0.0281722,-20,-0.556369,-0.32421,-0.0436358,-2.40619,0.0614085,-0.000219189,0.015034,-0.000311456,0.49455,0.00126599,0.0755672,0.0299037,0.000357816,0.0163162,1.93262,-0.000720307,0.005,1.71223,-0.000948248,-0.0106439,-0.63569,43.4236,-0.884837,0.173951,19.2554,0.65521,1.37365,0.380555,-2.88681,-0.0580194,0.249756,-1.99001,0.104736,0.290151,0.181274,0.370693,-0.0849775,23.4506,23.3087,23.1385,23.2662,23.1952,23.252,23.0959,
107,6.2729,1.37434,3.15334,4.12205,6.27453,1.97634,1.55578,-2.1212e-05,-0.0475372,-2.38454e-05,0.0680646,0.00128345,-0.0232284,6.61372e-05,0.487458,-13.9913,-0.803414,-4.3223,0.316963,-53.342,1.66102,0.0284522,-20,-0.557785,-0.33231,-0.0437133,-2.43347,0.0621032,-0.000221092,0.0151291,-0.000314355,0.49455,0.00126599,0.0755672,0.0295439,0.000350313,0.0154552,1.93201,-0.000733028,0.005,1.7119,-0.000981759,-0.0101846,-0.642349,43.6796,-0.898684,0.135105,19.2843,0.647517,1.38837,0.381472,-2.86297,-0.056217,0.22573,-1.99806,0.088623,0.282097,0.181319,0.338379,-0.0846906,23.4506,23.3229,23.1527,23.2662,23.1952,23.2804,23.1101,
108,6.2729,1.37429,3.15334,4.12212,6.27453,1.97631,1.55578,-2.11479e-05,-0.0464568,-2.38635e-05,0.0669552,0.00123243,-0.0251191,6.61372e-05,0.48813,-14.0434,-0.805134,-4.36201,0.317734,-53.5392,1.66472,0.0286141,-20,-0.558624,-0.337846,-0.0437237,-2.4531,0.0622629,-0.000221991,0.01522,-0.00031567,0.49455,0.00126599,0.0755672,0.0290018,0.000337701,0.0148451,1.93143,-0.000736252,0.005,1.7117,-0.000977909,-0.0094097,-0.643852,43.8644,-0.901773,0.148179,19.3418,0.644432,1.3936,0.390543,-2.83769,-0.0431865,0.233781,-2.01422,0.0809682,0.274044,0.193401,0.334375,-0.0805664,23.479,23.3229,23.1527,23.2804,23.2094,23.2662,23.1243,
109,6.2729,1.37425,3.15334,4.12219,6.27453,1.97629,1.55578,-2.1212e-05,-0.0456465,-2.38635e-05,0.0653636,0.00137365,-0.0259294,6.61372e-05,0.488538,-14.0792,-0.805387,-4.38909,0.320764,-53.6746,1.66833,0.0287088,-20,-0.559139,-0.341262,-0.0437163,-2.4666,0.0624761,-0.000223228,0.0153122,-0.000316614,0.49455,0.00126599,0.0755672,0.0283749,0.000345085,0.0144633,1.93083,-0.000741508,0.005,1.71164,-0.000971289,-0.00886057,-0.646003,43.9911,-0.901683,0.129935,19.381,0.649805,1.43348,0.405633,-2.83708,-0.0460519,0.249886,-2.00617,0.0889885,0.290151,0.189502,0.334375,-0.0809682,23.4648,23.3229,23.1527,23.2662,23.1811,23.252,23.1243,
110,6.2729,1.37425,3.15334,4.12219,6.27453,1.97629,1.55578,-2.1212e-05,-0.0456465,-2.38635e-05,0.0653636,0.00137365,-0.0259294,6.61372e-05,0.489158,-14.1162,-0.809554,-4.41591,0.31318,-53.8145,1.67552,0.0288731,-20,-0.55993,-0.345881,-0.0437699,-2.48031,0.0630796,-0.000225028,0.015396,-0.000318937,0.49455,0.00126599,0.0755672,0.0283749,0.000345085,0.0144633,1.93027,-0.000749521,0.005,1.7117,-0.000985146,-0.00851696,-0.651849,44.1208,-0.910962,0.129935,19.381,0.649805,1.43348,0.405633,-2.83708,-0.0460519,0.249886,-2.00617,0.0889885,0.290151,0.189502,0.334375,-0.0809682,23.4648,23.3229,23.1527,23.2662,23.1811,23.252,23.1243,
111,6.2729,1.3742,3.15334,4.12225,6.27453,1.97626,1.55578,-2.04105e-05,-0.0461867,-2.38454e-05,0.063743,0.00141837,-0.0280901,5.82008e-05,0.489172,-14.1151,-0.809581,-4.41587,0.313153,-53.8135,1.67543,0.0288633,-20,-0.559936,-0.344664,-0.0437688,-2.48044,0.0630768,-0.000225028,0.015396,-0.000318937,0.49455,0.00126599,0.0755672,0.0280209,0.000343412,0.0144764,1.93027,-0.000749521,0.005,1.7117,-0.000985146,-0.00851696,-0.651849,44.1208,-0.910962,0.118516,19.4113,0.637643,1.44639,0.42391,-2.84723,-0.0477443,0.233643,-1.99819,0.0889885,0.314209,0.185478,0.334351,-0.0927389,23.4506,23.3229,23.1385,23.2662,23.1952,23.2662,23.1101,
112,6.2729,1.3742,3.15334,4.12225,6.27453,1.97626,1.55578,-2.04105e-05,-0.0461867,-2.38454e-05,0.063743,0.00141837,-0.0280901,5.82008e-05,0.489685,-14.1485,-0.812294,-4.44092,0.309279,-53.9427,1.68211,0.0289993,-20,-0.560574,-0.349051,-0.0437987,-2.49331,0.0636262,-0.00022682,0.0154768,-0.000321214,0.49455,0.00126599,0.0755672,0.0280209,0.000343412,0.0144764,1.92972,-0.00075743,0.005,1.71152,-0.000990758,-0.00852877,-0.657211,44.2417,-0.91681,0.118516,19.4113,0.637643,1.44639,0.42391,-2.84723,-0.0477443,0.233643,-1.99819,0.0889885,0.314209,0.185478,0.334351,-0.0927389,23.4506,23.3229,23.1385,23.2662,23.1952,23.2662,23.1101,
113,6.2729,1.37415,3.15334,4.12231,6.27453,1.97623,1.55578,-2.04105e-05,-0.0453464,-1.85464e-05,0.0631388,0.00141837,-0.0295907,5.82008e-05,0.489703,-14.1475,-0.812326,-4.44086,0.309306,-53.9419,1.68215,0.0289887,-20,-0.56058,-0.347777,-0.0437964,-2.49344,0.0636324,-0.00022682,0.0154768,-0.000321214,0.49455,0.00126599,0.0755672,0.0276741,0.000336502,0.0139951,1.92972,-0.00075743,0.005,1.71152,-0.000990758,-0.00852877,-0.657211,44.2417,-0.91681,0.15237,19.4204,0.631759,1.44879,0.42391,-2.86204,-0.0575891,0.22573,-1.95803,0.0980133,0.338475,0.185478,0.342431,-0.0846906,23.4648,23.2946,23.1527,23.2662,23.1952,23.2662,23.0959,
114,6.2729,1.37415,3.15334,4.12231,6.27453,1.97623,1.55578,-2.04105e-05,-0.0453464,-1.85464e-05,0.0631388,0.00141837,-0.0295907,5.82008e-05,0.49009,-14.1834,-0.812473,-4.46781,0.312472,-54.0763,1.68575,0.0290911,-20,-0.56107,-0.352481,-0.0437903,-2.50669,0.063842,-0.000227803,0.015556,-0.000321469,0.49455,0.00126599,0.0755672,0.0276741,0.000336502,0.0139951,1.92915,-0.000761165,0.005,1.71133,-0.0009879,-0.00809558,-0.6593,44.3672,-0.916592,0.15237,19.4204,0.631759,1.44879,0.42391,-2.86204,-0.0575891,0.22573,-1.95803,0.0980133,0.338475,0.185478,0.342431,-0.0846906,23.4648,23.2946,23.1527,23.2662,23.1952,23.2662,23.0959,
115,6.2729,1.37411,3.15334,4.12238,6.27454,1.9762,1.55578,-1.96124e-05,-0.0437558,-1.85605e-05,0.0641967,0.00143082,-0.0307599,5.82008e-05,0.490105,-14.1824,-0.812504,-4.4679,0.312464,-54.0752,1.6857,0.0290813,-20,-0.561081,-0.35121,-0.0437885,-2.50681,0.0638412,-0.000227803,0.015556,-0.000321469,0.49455,0.00126599,0.0755672,0.0276522,0.000334472,0.0132259,1.92915,-0.000761165,0.005,1.71133,-0.0009879,-0.00809558,-0.6593,44.3672,-0.916592,0.14378,19.4587,0.625436,1.4577,0.435276,-2.8875,-0.0510338,0.217529,-1.95783,0.0966797,0.338762,0.193401,0.342407,-0.0805664,23.4648,23.3087,23.1527,23.2804,23.1952,23.2662,23.1243,
116,6.2729,1.37411,3.15334,4.12238,6.27454,1.9762,1.55578,-1.96124e-05,-0.0437558,-1.85605e-05,0.0641967,0.00143082,-0.0307599,5.82008e-05,0.490745,-14.2301,-0.814966,-4.50457,0.310575,-54.2534,1.69181,0.0292508,-20,-0.561894,-0.357698,-0.0438132,-2.52443,0.0642744,-0.000229405,0.0156368,-0.000323273,0.49455,0.00126599,0.0755672,0.0276522,0.000334472,0.0132259,1.92858,-0.000768072,0.005,1.71084,-0.00099229,-0.00740335,-0.663526,44.5343,-0.921635,0.14378,19.4587,0.625436,1.4577,0.435276,-2.8875,-0.0510338,0.217529,-1.95783,0.0966797,0.338762,0.193401,0.342407,-0.0805664,23.4648,23.3087,23.1527,23.2804,23.1952,23.2662,23.1243,
117,6.2729,1.37407,3.15334,4.12245,6.27454,1.97616,1.55578,-1.96116e-05,-0.0399744,-1.85605e-05,0.0656337,0.00147318,-0.0318715,5.82447e-05,0.490765,-14.2292,-0.815003,-4.50459,0.310554,-54.2525,1.69173,0.0292416,-20,-0.561904,-0.356411,-0.0438114,-2.52455,0.0642709,-0.000229405,0.0156368,-0.000323273,0.49455,0.00126599,0.0755672,0.0272865,0.000331918,0.0115849,1.92858,-0.000768072,0.005,1.71084,-0.00099229,-0.00740335,-0.663526,44.5343,-0.921635,0.171564,19.4424,0.630255,1.42905,0.450163,-2.90533,-0.0628175,0.209628,-1.98193,0.0889885,0.298096,0.193401,0.338379,-0.0845947,23.4648,23.3229,23.1527,23.2804,23.1952,23.2804,23.1101,
118,6.2729,1.37407,3.15334,4.12245,6.27454,1.97616,1.55578,-1.96116e-05,-0.0399744,-1.85605e-05,0.0656337,0.00147318,-0.0318715,5.82447e-05,0.491225,-14.2587,-0.818247,-4.52659,0.304487,-54.3525,1.69709,0.0293634,-20,-0.562531,-0.36026,-0.0438559,-2.53406,0.0647218,-0.000231149,0.0157095,-0.000325515,0.49455,0.00126599,0.0755672,0.0272865,0.000331918,0.0115849,1.92804,-0.00077568,0.005,1.71068,-0.000996839,-0.0059264,-0.667893,44.6269,-0.928866,0.171564,19.4424,0.630255,1.42905,0.450163,-2.90533,-0.0628175,0.209628,-1.98193,0.0889885,0.298096,0.193401,0.338379,-0.0845947,23.4648,23.3229,23.1527,23.2804,23.1952,23.2804,23.1101,
119,6.2729,1.37403,3.15334,4.12251,6.27454,1.97613,1.55578,-3.92247e-05,-0.0356529,-1.85464e-05,0.0642832,0.00145156,-0.0337622,5.82008e-05,0.491249,-14.2579,-0.818275,-4.52647,0.304501,-54.3519,1.69708,0.0293543,-20,-0.562536,-0.358949,-0.0438544,-2.53421,0.0647224,-0.000231149,0.0157095,-0.000325515,0.49455,0.00126599,0.0755672,0.0260044,0.000322599,0.00968645,1.92804,-0.00077568,0.005,1.71068,-0.000996839,-0.0059264,-0.667893,44.6269,-0.928866,0.191394,19.4428,0.626736,1.39083,0.447466,-2.91132,-0.0559314,0.210091,-2.0464,0.088623,0.282097,0.197388,0.342431,-0.0726216,23.4648,23.3229,23.1527,23.2662,23.1952,23.2804,23.1101,
120,6.2729,1.374,3.15334,4.12257,6.27454,1.9761,1.55578,-3.78492e-05,-0.0310953,-1.85464e-05,0.0623925,0.00152751,-0.0341045,5.82008e-05,0.49116,-14.2485,-0.819035,-4.51733,0.301163,-54.3005,1.69798,0.029316,-20,-0.562479,-0.355913,-0.0438741,-2.52853,0.0648772,-0.000232423,0.0157745,-0.000326732,0.49455,0.00126599,0.0755672,0.0245154,0.000315198,0.00786531,1.92753,-0.000780913,0.005,1.71137,-0.000993161,-0.00421781,-0.669421,44.5758,-0.930838,0.217891,19.429,0.63183,1.33664,0.452551,-2.92556,-0.0612501,0.217529,-2.11891,0.0970148,0.298096,0.201456,0.346459,-0.0726216,23.4506,23.3229,23.1527,23.2662,23.1952,23.2662,23.1101,
121,6.2729,1.37397,3.15334,4.12264,6.27454,1.97606,1.55578,-3.7953e-05,-0.0280617,-1.85603e-05,0.0626921,0.00156017,-0.0386239,5.82453e-05,0.491167,-14.2399,-0.82138,-4.50846,0.293653,-54.2549,1.7002,0.0293057,-20,-0.562556,-0.352908,-0.0439172,-2.52339,0.065175,-0.000233869,0.015833,-0.000328376,0.49455,0.00126599,0.0755672,0.0239806,0.000305553,0.00617674,1.92704,-0.00078693,0.005,1.71227,-0.000991916,-0.00257878,-0.672334,44.5298,-0.936541,0.208936,19.3616,0.646907,1.29158,0.456469,-2.92914,-0.0421855,0.193527,-2.17531,0.0970148,0.346529,0.201416,0.338403,-0.0765381,23.4506,23.3229,23.1527,23.252,23.2094,23.2662,23.1101,
122,6.2729,1.37397,3.15334,4.12264,6.27454,1.97606,1.55578,-3.7953e-05,-0.0280617,-1.85603e-05,0.0626921,0.00156017,-0.0386239,5.82453e-05,0.491077,-14.2255,-0.823313,-4.49766,0.286684,-54.185,1.70329,0.0292818,-20,-0.562505,-0.351042,-0.0439533,-2.51601,0.0655783,-0.000235508,0.015889,-0.00033054,0.49455,0.00126599,0.0755672,0.0239806,0.000305553,0.00617674,1.92654,-0.000793908,0.005,1.7123,-0.000989515,-0.00105906,-0.676263,44.4635,-0.941388,0.208936,19.3616,0.646907,1.29158,0.456469,-2.92914,-0.0421855,0.193527,-2.17531,0.0970148,0.346529,0.201416,0.338403,-0.0765381,23.4506,23.3229,23.1527,23.252,23.2094,23.2662,23.1101,
123,6.2729,1.37395,3.15334,4.1227,6.27454,1.97602,1.55578,-5.48521e-05,-0.0259294,-1.85605e-05,0.0632028,0.00156314,-0.0378136,6.61872e-05,0.491087,-14.2248,-0.823328,-4.49776,0.286662,-54.1842,1.7032,0.0292743,-20,-0.562515,-0.350022,-0.0439528,-2.51608,0.0655735,-0.000235508,0.015889,-0.00033054,0.49455,0.00126599,0.0755672,0.0236863,0.000310447,0.00540827,1.92654,-0.000793908,0.005,1.7123,-0.000989515,-0.00105906,-0.676263,44.4635,-0.941388,0.226327,19.2391,0.613245,1.24971,0.444045,-2.93809,-0.0376016,0.201416,-2.21563,0.0966797,0.33042,0.201456,0.378684,-0.0805664,23.4506,23.3229,23.1527,23.252,23.1811,23.2804,23.1243,
124,6.2729,1.37392,3.15334,4.12276,6.27455,1.97598,1.55578,-5.30563e-05,-0.0251191,-1.85464e-05,0.0647577,0.00158536,-0.0385848,6.61372e-05,0.491608,-14.2569,-0.826512,-4.52253,0.281227,-54.3046,1.70474,0.0294036,-20,-0.563195,-0.353335,-0.0439935,-2.528,0.0656269,-0.000235958,0.0159398,-0.000332706,0.49455,0.00126599,0.0755672,0.0239696,0.000312321,0.00498373,1.92607,-0.000803858,0.005,1.71215,-0.00100287,-0.000367447,-0.676734,44.5764,-0.948363,0.227889,19.1464,0.590068,1.18485,0.454996,-2.9385,-0.0480161,0.201577,-2.2478,0.088623,0.298205,0.209511,0.354492,-0.0726216,23.4648,23.3229,23.1527,23.2662,23.1811,23.252,23.1101,
125,6.2729,1.3739,3.15334,4.12283,6.27455,1.97594,1.55578,-5.30563e-05,-0.0255784,-1.85464e-05,0.0642832,0.00156289,-0.041595,6.61372e-05,0.492191,-14.2939,-0.829554,-4.5526,0.27689,-54.4473,1.71082,0.0295483,-20,-0.563926,-0.357721,-0.0440263,-2.54245,0.0661066,-0.000237547,0.0159904,-0.000334838,0.49455,0.00126599,0.0755672,0.0239319,0.00030539,0.004857,1.9256,-0.000810604,0.005,1.71146,-0.00101063,1.46448e-05,-0.681397,44.7121,-0.954881,0.271487,19.0329,0.588518,1.13575,0.457791,-2.9352,-0.0426882,0.193527,-2.23988,0.088623,0.266357,0.217529,0.354584,-0.0846906,23.4648,23.3087,23.1527,23.2662,23.1811,23.252,23.1101,
126,6.2729,1.3739,3.15334,4.12283,6.27455,1.9759,1.55578,-5.30563e-05,-0.0255784,-1.85464e-05,0.0642832,0.00156289,-0.0431322,6.61372e-05,0.492343,-14.3059,-0.83001,-4.56198,0.276834,-54.4928,1.71427,0.0295875,-20,-0.564115,-0.359456,-0.0440288,-2.54694,0.0664071,-0.000238739,0.0160399,-0.000335942,0.49455,0.00126599,0.0755672,0.0239342,0.000302984,0.00469421,1.92512,-0.000815261,0.005,1.71107,-0.00100859,0.000128697,-0.68438,44.7551,-0.95574,0.271487,19.0329,0.588518,1.13575,0.457791,-2.89026,-0.0739361,0.193527,-2.23988,0.088623,0.266357,0.217529,0.370693,-0.0927389,23.4648,23.3087,23.1527,23.2662,23.1811,23.252,23.1101,
127,6.2729,1.37387,3.15334,4.12289,6.27455,1.9759,1.55578,-5.13744e-05,-0.0256593,-1.85605e-05,0.0623925,0.00153891,-0.0431322,6.61372e-05,0.491769,-14.2583,-0.828613,-4.52825,0.275905,-54.3095,1.71227,0.029426,-20,-0.563399,-0.352658,-0.0440195,-2.52903,0.0664025,-0.000238741,0.0159943,-0.00033526,0.49455,0.00126599,0.0755672,0.0234045,0.00029612,0.00475577,1.92512,-0.000813827,0.005,1.71106,-0.00100513,0.000275215,-0.684385,44.5857,-0.953215,0.255176,18.9076,0.591815,1.10401,0.437075,-2.89026,-0.0739361,0.209628,-2.1996,0.0966797,0.282097,0.213539,0.370693,-0.0927389,23.4506,23.3087,23.1385,23.2662,23.1952,23.252,23.1101,
128,6.2729,1.37384,3.15334,4.12295,6.27455,1.97585,1.55578,-5.12508e-05,-0.0259294,-1.85605e-05,0.0591814,0.0015924,-0.0432156,6.61872e-05,0.492445,-14.3076,-0.83092,-4.56465,0.27482,-54.5026,1.71721,0.0295948,-20,-0.564238,-0.357887,-0.0440387,-2.54827,0.0667045,-0.000240107,0.0160811,-0.000337444,0.49455,0.00126599,0.0755672,0.0225326,0.000294856,0.00490262,1.92466,-0.000820652,0.005,1.71113,-0.00100509,0.00021981,-0.687364,44.7657,-0.957746,0.290839,18.7362,0.581589,1.06599,0.41881,-2.83421,-0.0583958,0.210091,-2.19141,0.0644531,0.306152,0.209511,0.374655,-0.076961,23.4506,23.3229,23.1527,23.2662,23.1811,23.2662,23.1243,
129,6.2729,1.37382,3.15334,4.12301,6.27455,1.97581,1.55578,-5.12491e-05,-0.0260799,-1.85605e-05,0.0586112,0.00161633,-0.0453764,6.61372e-05,0.492691,-14.316,-0.833489,-4.56991,0.268845,-54.5385,1.72162,0.0296503,-20,-0.56455,-0.357715,-0.0440729,-2.55186,0.0671357,-0.000241696,0.0161268,-0.000339495,0.49455,0.00126599,0.0755672,0.0224022,0.000292915,0.00474391,1.92418,-0.000827247,0.005,1.71149,-0.00100989,8.76441e-05,-0.691575,44.7986,-0.96362,0.285255,18.6262,0.560402,1.00643,0.41259,-2.78149,-0.0508191,0.201416,-2.15919,0.11308,0.370693,0.209511,0.362571,-0.0805664,23.4648,23.3087,23.1527,23.2662,23.2094,23.252,23.1385,
130,6.2729,1.37379,3.15334,4.12307,6.27456,1.97576,1.55578,-5.13744e-05,-0.0264427,-1.85462e-05,0.0588813,0.00161053,-0.0453764,6.61372e-05,0.492877,-14.3242,-0.835041,-4.57743,0.265573,-54.5715,1.72567,0.029691,-20,-0.56479,-0.358175,-0.0440918,-2.55531,0.0675245,-0.000243057,0.0161674,-0.000340968,0.49455,0.00126599,0.0755672,0.0225557,0.000293771,0.00488662,1.92374,-0.000832604,0.005,1.7112,-0.00101297,0.000230479,-0.695428,44.8307,-0.967105,0.333778,18.5661,0.572962,0.96859,0.409794,-2.73315,-0.0504978,0.193527,-2.14307,0.0970148,0.362549,0.221594,0.370605,-0.0725098,23.4506,23.3229,23.1527,23.2662,23.1952,23.2662,23.1101,
131,6.2729,1.37379,3.15334,4.12307,6.27456,1.97576,1.55578,-5.13744e-05,-0.0264427,-1.85462e-05,0.0588813,0.00161053,-0.0453764,6.61372e-05,0.493392,-14.3582,-0.837514,-4.60421,0.26247,-54.7044,1.73135,0.0298272,-20,-0.565419,-0.362973,-0.0441167,-2.56871,0.0679666,-0.000244613,0.0162069,-0.000342934,0.49455,0.00126599,0.0755672,0.0225557,0.000293771,0.00488662,1.92329,-0.000838954,0.005,1.71066,-0.00101945,0.000102042,-0.699734,44.9564,-0.972353,0.333778,18.5661,0.572962,0.96859,0.409794,-2.73315,-0.0504978,0.193527,-2.14307,0.0970148,0.362549,0.221594,0.370605,-0.0725098,23.4506,23.3229,23.1527,23.2662,23.1952,23.2662,23.1101,
132,6.2729,1.37377,3.15334,4.12313,6.27456,1.97572,1.55578,-4.97958e-05,-0.0264696,-1.85605e-05,0.0599616,0.00159115,-0.0445948,6.61372e-05,0.493395,-14.3575,-0.837528,-4.60418,0.262429,-54.7037,1.7313,0.0298194,-20,-0.565431,-0.362025,-0.0441157,-2.56875,0.0679658,-0.000244613,0.0162069,-0.000342934,0.49455,0.00126599,0.0755672,0.022873,0.000294885,0.00496678,1.92329,-0.000838954,0.005,1.71066,-0.00101945,0.000102042,-0.699734,44.9564,-0.972353,0.323938,18.4794,0.567847,0.974885,0.381057,-2.67086,-0.0556768,0.193359,-2.13503,0.090076,0.314312,0.221558,0.366666,-0.0805664,23.479,23.3087,23.1669,23.2804,23.1952,23.2662,23.1101,
133,6.2729,1.37374,3.15334,4.12319,6.27456,1.97567,1.55578,-4.96781e-05,-0.0270097,-1.85605e-05,0.0608794,0.00161641,-0.0453764,7.41297e-05,0.493955,-14.3997,-0.839002,-4.63818,0.262907,-54.8703,1.73615,0.0299591,-20,-0.566121,-0.367095,-0.0441228,-2.58566,0.0682838,-0.000245762,0.0162446,-0.00034389,0.49455,0.00126599,0.0755672,0.0232517,0.000299213,0.00508838,1.92284,-0.000843182,0.005,1.70997,-0.00102426,2.99008e-05,-0.702876,45.1148,-0.975073,0.337519,18.3421,0.553212,0.949481,0.364316,-2.60101,-0.0479021,0.185478,-2.14308,0.090076,0.306258,0.233643,0.342407,-0.080667,23.4648,23.3371,23.1385,23.2662,23.1952,23.2662,23.1101,
134,6.2729,1.37374,3.15334,4.12319,6.27456,1.97567,1.55578,-4.96781e-05,-0.0270097,-1.85605e-05,0.0608794,0.00161641,-0.0453764,7.41297e-05,0.494524,-14.4391,-0.84135,-4.66979,0.260686,-55.0242,1.73946,0.0301099,-20,-0.566814,-0.372803,-0.0441445,-2.60123,0.0684633,-0.000246235,0.0162912,-0.000345438,0.49455,0.00126599,0.0755672,0.0232517,0.000299213,0.00508838,1.92235,-0.000848798,0.005,1.70919,-0.00103321,-7.95452e-05,-0.704584,45.2608,-0.979921,0.337519,18.3421,0.553212,0.949481,0.364316,-2.60101,-0.0479021,0.185478,-2.14308,0.090076,0.306258,0.233643,0.342407,-0.080667,23.4648,23.3371,23.1385,23.2662,23.1952,23.2662,23.1101,
135,6.2729,1.37374,3.15334,4.12319,6.27456,1.97567,1.55578,-4.96781e-05,-0.0270097,-1.85605e-05,0.0608794,0.00161641,-0.0453764,7.41297e-05,0.494524,-14.4391,-0.84135,-4.66979,0.260686,-55.0242,1.73946,0.0301099,-20,-0.566814,-0.372803,-0.0441445,-2.60123,0.0684633,-0.000246235,0.0162912,-0.000345438,0.49455,0.00126599,0.0755672,0.0232517,0.000299213,0.00508838,1.92235,-0.000848798,0.005,1.70919,-0.00103321,-7.95452e-05,-0.704584,45.2608,-0.979921,0.337519,18.3421,0.553212,0.949481,0.364316,-2.60101,-0.0479021,0.185478,-2.14308,0.090076,0.306258,0.233643,0.342407,-0.080667,23.4648,23.3371,23.1385,23.2662,23.1952,23.2662,23.1101,
136,6.2729,1.37371,3.15334,4.12325,6.27456,1.97563,1.55578,-4.96781e-05,-0.0275499,-1.85605e-05,0.0596915,0.00161641,-0.0464568,7.41297e-05,0.494531,-14.4384,-0.841364,-4.66967,0.260625,-55.0236,1.73935,0.030102,-20,-0.566823,-0.371811,-0.0441443,-2.60129,0.0684583,-0.000246235,0.0162912,-0.000345438,0.49455,0.00126599,0.0755672,0.0230219,0.000296141,0.00520818,1.92235,-0.000848798,0.005,1.70919,-0.00103321,-7.95452e-05,-0.704584,45.2608,-0.979921,0.322377,18.2383,0.537242,0.892232,0.373857,-2.5561,-0.0572172,0.193359,-2.1028,0.0970148,0.274044,0.221594,0.346459,-0.0846906,23.4648,23.3229,23.1385,23.2662,23.1952,23.2804,23.1243,
137,6.2729,1.37371,3.15334,4.12325,6.27456,1.97563,1.55578,-4.96781e-05,-0.0275499,-1.85605e-05,0.0596915,0.00161641,-0.0464568,7.41297e-05,0.494812,-14.4537,-0.84335,-4.68158,0.256919,-55.084,1.74406,0.0301764,-20,-0.567168,-0.373938,-0.0441674,-2.60739,0.0688805,-0.000247807,0.0163315,-0.0003474,0.49455,0.00126599,0.0755672,0.0230219,0.000296141,0.00520818,1.9219,-0.000855194,0.005,1.70899,-0.0010362,-0.000187366,-0.708702,45.3178,-0.984331,0.322377,18.2383,0.537242,0.892232,0.373857,-2.5561,-0.0572172,0.193359,-2.1028,0.0970148,0.274044,0.221594,0.346459,-0.0846906,23.4648,23.3229,23.1385,23.2662,23.1952,23.2804,23.1243,
138,6.2729,1.37368,3.15334,4.12331,6.27456,1.97558,1.55578,-4.82006e-05,-0.0268322,-2.38094e-05,0.0572607,0.00166094,-0.0464568,8.46565e-05,0.494823,-14.4532,-0.843372,-4.68146,0.256878,-55.0837,1.74399,0.0301682,-20,-0.567176,-0.372927,-0.0441669,-2.60746,0.0688777,-0.000247807,0.0163315,-0.0003474,0.49455,0.00126599,0.0755672,0.0221708,0.000294643,0.0049587,1.9219,-0.000855194,0.005,1.70899,-0.0010362,-0.000187366,-0.708702,45.3178,-0.984331,0.376859,18.1311,0.558934,0.832448,0.387099,-2.5225,-0.0364933,0.193359,-2.10278,0.088623,0.298096,0.22965,0.346529,-0.0765381,23.4506,23.3229,23.1385,23.2662,23.1952,23.2804,23.1243,
139,6.2729,1.37368,3.15334,4.12331,6.27456,1.97558,1.55578,-4.82006e-05,-0.0268322,-2.38094e-05,0.0572607,0.00166094,-0.0464568,8.46565e-05,0.494959,-14.4574,-0.8452,-4.68322,0.252298,-55.0976,1.74727,0.0302041,-20,-0.567363,-0.373114,-0.0441942,-2.60864,0.069208,-0.000249165,0.0163708,-0.000348844,0.49455,0.00126599,0.0755672,0.0221708,0.000294643,0.0049587,1.92145,-0.000860507,0.005,1.70935,-0.00103964,3.71718e-05,-0.71191,45.3294,-0.98861,0.376859,18.1311,0.558934,0.832448,0.387099,-2.5225,-0.0364933,0.193359,-2.10278,0.088623,0.298096,0.22965,0.346529,-0.0765381,23.4506,23.3229,23.1385,23.2662,23.1952,23.2804,23.1243,
140,6.2729,1.37366,3.15334,4.12336,6.27456,1.97553,1.55578,-4.82006e-05,-0.0259294,-2.38276e-05,0.05537,0.00166684,-0.0456399,8.46565e-05,0.494969,-14.4569,-0.845219,-4.6831,0.252239,-55.0973,1.74717,0.0301964,-20,-0.567371,-0.372158,-0.0441942,-2.6087,0.0692025,-0.000249165,0.0163708,-0.000348844,0.49455,0.00126599,0.0755672,0.0214366,0.000290552,0.00471406,1.92145,-0.000860507,0.005,1.70935,-0.00103964,3.71718e-05,-0.71191,45.3294,-0.98861,0.349328,17.9619,0.565207,0.819648,0.382331,-2.5002,-0.0578989,0.185478,-2.11891,0.0966797,0.338475,0.22965,0.326294,-0.0846906,23.4506,23.3229,23.1527,23.2662,23.1952,23.2662,23.1101,
141,6.2729,1.37366,3.15334,4.12336,6.27456,1.97553,1.55578,-4.82006e-05,-0.0259294,-2.38276e-05,0.05537,0.00166684,-0.0456399,8.46565e-05,0.495167,-14.4652,-0.847363,-4.68813,0.247257,-55.1271,1.75086,0.0302488,-20,-0.567635,-0.372938,-0.0442241,-2.61147,0.0695575,-0.000250688,0.0164025,-0.000350715,0.49455,0.00126599,0.0755672,0.0214366,0.000290552,0.00471406,1.92103,-0.000866571,0.005,1.70963,-0.00104141,0.000257346,-0.715352,45.3559,-0.993539,0.349328,17.9619,0.565207,0.819648,0.382331,-2.5002,-0.0578989,0.185478,-2.11891,0.0966797,0.338475,0.22965,0.326294,-0.0846906,23.4506,23.3229,23.1527,23.2662,23.1952,23.2662,23.1101,
142,6.2729,1.37363,3.15334,4.12342,6.27457,1.97548,1.55578,-4.6703e-05,-0.0250936,-2.38632e-05,0.057372,0.00177518,-0.0480774,8.47196e-05,0.49517,-14.4642,-0.847385,-4.68801,0.247177,-55.1263,1.75072,0.0302414,-20,-0.567646,-0.371931,-0.044223,-2.61153,0.0695522,-0.000250688,0.0164025,-0.000350715,0.49455,0.00126599,0.0755672,0.0218464,0.000299242,0.00409642,1.92103,-0.000866571,0.005,1.70963,-0.00104141,0.000257346,-0.715352,45.3559,-0.993539,0.397,17.7663,0.528752,0.81614,0.358611,-2.47221,-0.0445122,0.193527,-2.14308,0.105046,0.370693,0.237671,0.318467,-0.076644,23.4648,23.3087,23.1385,23.2662,23.1811,23.2662,23.1243,
143,6.2729,1.37363,3.15334,4.12342,6.27457,1.97548,1.55578,-4.6703e-05,-0.0250936,-2.38632e-05,0.057372,0.00177518,-0.0480774,8.47196e-05,0.495557,-14.4828,-0.850827,-4.70429,0.23973,-55.1936,1.75699,0.0303439,-20,-0.56814,-0.375006,-0.0442688,-2.61833,0.070137,-0.000252252,0.0164407,-0.000352674,0.49455,0.00126599,0.0755672,0.0218464,0.000299242,0.00409642,1.92057,-0.0008729,0.005,1.70885,-0.00105493,0.000813218,-0.721028,45.4208,-1.0014,0.397,17.7663,0.528752,0.81614,0.358611,-2.47221,-0.0445122,0.193527,-2.14308,0.105046,0.370693,0.237671,0.318467,-0.076644,23.4648,23.3087,23.1385,23.2662,23.1811,23.2662,23.1243,
144,6.2729,1.37361,3.15334,4.12348,6.27457,1.97544,1.55578,-3.12056e-05,-0.0259294,-1.85326e-05,0.061042,0.00173432,-0.0491577,8.47196e-05,0.495555,-14.4818,-0.850837,-4.70422,0.239662,-55.1927,1.75689,0.0303364,-20,-0.568153,-0.374068,-0.044268,-2.61835,0.070134,-0.000252252,0.0164407,-0.000352674,0.49455,0.00126599,0.0755672,0.0230826,0.000295578,0.00426538,1.92057,-0.0008729,0.005,1.70885,-0.00105493,0.000813218,-0.721028,45.4208,-1.0014,0.378187,17.6046,0.510421,0.793855,0.359785,-2.44934,-0.0412898,0.177246,-2.14308,0.088623,0.290151,0.225622,0.326319,-0.0809682,23.4222,23.3229,23.1527,23.2662,23.1952,23.2662,23.0959,
145,6.2729,1.37361,3.15334,4.12348,6.27457,1.97544,1.55578,-3.12056e-05,-0.0259294,-1.85326e-05,0.061042,0.00173432,-0.0491577,8.47196e-05,0.496264,-14.5364,-0.85256,-4.74953,0.240816,-55.4057,1.76339,0.0305239,-20,-0.569003,-0.382375,-0.0442725,-2.64006,0.0705587,-0.000253611,0.0164781,-0.000354119,0.49455,0.00126599,0.0755672,0.0230826,0.000295578,0.00426538,1.92012,-0.000878167,0.005,1.70733,-0.00105637,0.000661162,-0.725204,45.6246,-1.00447,0.378187,17.6046,0.510421,0.793855,0.359785,-2.44934,-0.0412898,0.177246,-2.14308,0.088623,0.290151,0.225622,0.326319,-0.0809682,23.4222,23.3229,23.1527,23.2662,23.1952,23.2662,23.0959,
146,6.2729,1.37361,3.15334,4.12348,6.27457,1.97538,1.55578,-3.12056e-05,-0.0259294,-1.85326e-05,0.061042,0.00178315,-0.0501065,8.46557e-05,0.496259,-14.5366,-0.852569,-4.74881,0.240645,-55.4066,1.7632,0.0305222,-20,-0.569006,-0.382238,-0.0442745,-2.64,0.0705456,-0.000253611,0.0164781,-0.000354119,0.49455,0.00126599,0.0755672,0.0230841,0.000298858,0.00416483,1.92012,-0.000878167,0.005,1.70733,-0.00105637,0.000661162,-0.725204,45.6246,-1.00447,0.378187,17.6046,0.510421,0.793855,0.353356,-2.44507,-0.0469359,0.177246,-2.14308,0.088623,0.290151,0.241833,0.318339,-0.076644,23.4222,23.3229,23.1527,23.2662,23.1952,23.252,23.1101,
147,6.2729,1.37358,3.15334,4.12354,6.27457,1.97538,1.55578,-3.12056e-05,-0.0263307,-1.85184e-05,0.0621224,0.00178315,-0.0501065,8.46557e-05,0.495855,-14.4877,-0.854531,-4.71423,0.230624,-55.2196,1.76445,0.0304071,-20,-0.568515,-0.375329,-0.0443122,-2.62173,0.0709002,-0.000254649,0.0164247,-0.000355775,0.49455,0.00126599,0.0755672,0.0234798,0.000302042,0.00431178,1.92012,-0.000881679,0.005,1.70733,-0.00106248,0.000751652,-0.728564,45.4518,-1.00987,0.379351,17.4413,0.531343,0.749204,0.353356,-2.44507,-0.0469359,0.177246,-2.12697,0.0805664,0.193527,0.241833,0.318339,-0.076644,23.4364,23.3371,23.1385,23.2662,23.1952,23.252,23.1101,
148,6.2729,1.37355,3.15334,4.12361,6.27457,1.97533,1.55578,-3.03295e-05,-0.0286303,-1.85324e-05,0.0609367,0.00183887,-0.0540195,8.47196e-05,0.496799,-14.5648,-0.856064,-4.77396,0.234418,-55.5223,1.76999,0.0306481,-20,-0.569676,-0.384837,-0.044313,-2.65217,0.0711397,-0.000255416,0.0165139,-0.000356485,0.49455,0.00126599,0.0755672,0.0236185,0.000303355,0.00483285,1.91965,-0.000885498,0.005,1.70655,-0.00106879,0.000619397,-0.731012,45.7372,-1.01216,0.371959,17.2586,0.542201,0.757885,0.35006,-2.43146,-0.0474169,0.209473,-2.13507,0.0889885,0.185478,0.233677,0.326319,-0.0765381,23.4648,23.3229,23.1527,23.2946,23.1811,23.252,23.1243,
149,6.2729,1.37355,3.15334,4.12361,6.27457,1.97533,1.55578,-3.03295e-05,-0.0286303,-1.85324e-05,0.0609367,0.00183887,-0.0540195,8.47196e-05,0.497038,-14.5692,-0.859162,-4.77913,0.226738,-55.5443,1.77666,0.0307114,-20,-0.569953,-0.385933,-0.0443525,-2.6547,0.0718131,-0.000257457,0.0165534,-0.000359384,0.49455,0.00126599,0.0755672,0.0236185,0.000303355,0.00483285,1.91915,-0.000894024,0.005,1.70598,-0.00107764,0.000150431,-0.737572,45.7598,-1.01936,0.371959,17.2586,0.542201,0.757885,0.35006,-2.43146,-0.0474169,0.209473,-2.13507,0.0889885,0.185478,0.233677,0.326319,-0.0765381,23.4648,23.3229,23.1527,23.2946,23.1811,23.252,23.1243,
150,6.2729,1.37352,3.15334,4.12367,6.27458,1.97527,1.55578,-3.02641e-05,-0.0307911,-1.85324e-05,0.061042,0.00200604,-0.0559102,8.47205e-05,0.497036,-14.5682,-0.859184,-4.77886,0.226596,-55.5436,1.77642,0.0307032,-20,-0.569966,-0.384916,-0.0443523,-2.65474,0.0718013,-0.000257457,0.0165534,-0.000359384,0.49455,0.00126599,0.0755672,0.024099,0.000321489,0.00549451,1.91915,-0.000894024,0.005,1.70598,-0.00107764,0.000150431,-0.737572,45.7598,-1.01936,0.39705,17.0966,0.537896,0.768276,0.34938,-2.41352,-0.0462489,0.185303,-2.07062,0.088623,0.201577,0.245728,0.338403,-0.0725098,23.4506,23.3371,23.1385,23.2662,23.1952,23.2662,23.1101,
151,6.2729,1.37352,3.15334,4.12367,6.27458,1.97527,1.55578,-3.02641e-05,-0.0307911,-1.85324e-05,0.061042,0.00200604,-0.0559102,8.47205e-05,0.497664,-14.5952,-0.864779,-4.80157,0.214466,-55.6543,1.78599,0.0308696,-20,-0.570722,-0.389136,-0.0444232,-2.66621,0.0726918,-0.00025969,0.0165886,-0.000362693,0.49455,0.00126599,0.0755672,0.024099,0.000321489,0.00549451,1.91868,-0.000903427,0.005,1.70512,-0.00110242,-0.000445055,-0.746195,45.8662,-1.03213,0.39705,17.0966,0.537896,0.768276,0.34938,-2.41352,-0.0462489,0.185303,-2.07062,0.088623,0.201577,0.245728,0.338403,-0.0725098,23.4506,23.3371,23.1385,23.2662,23.1952,23.2662,23.1101,
152,6.2729,1.37352,3.15334,4.12367,6.27458,1.97527,1.55578,-3.02641e-05,-0.0307911,-1.85324e-05,0.061042,0.00200604,-0.0559102,8.47205e-05,0.497664,-14.5952,-0.864779,-4.80157,0.214466,-55.6543,1.78599,0.0308696,-20,-0.570722,-0.389136,-0.0444232,-2.66621,0.0726918,-0.00025969,0.0165886,-0.000362693,0.49455,0.00126599,0.0755672,0.024099,0.000321489,0.00549451,1.91868,-0.000903427,0.005,1.70512,-0.00110242,-0.000445055,-0.746195,45.8662,-1.03213,0.39705,17.0966,0.537896,0.768276,0.34938,-2.41352,-0.0462489,0.185303,-2.07062,0.088623,0.201577,0.245728,0.338403,-0.0725098,23.4506,23.3371,23.1385,23.2662,23.1952,23.2662,23.1101,
153,6.2729,1.37349,3.15334,4.12373,6.27458,1.97522,1.55578,-3.02632e-05,-0.0329519,-1.85324e-05,0.0607719,0.00212204,-0.0567205,8.47196e-05,0.497663,-14.5944,-0.864799,-4.80131,0.214331,-55.6537,1.78576,0.030861,-20,-0.570735,-0.388108,-0.0444233,-2.66625,0.0726801,-0.00025969,0.0165886,-0.000362693,0.49455,0.00126599,0.0755672,0.0244694,0.000335554,0.00627606,1.91868,-0.000903427,0.005,1.70512,-0.00110242,-0.000445055,-0.746195,45.8662,-1.03213,0.372035,16.9876,0.533023,0.79174,0.360514,-2.40227,-0.0396687,0.177246,-2.03029,0.0805664,0.177429,0.249788,0.346436,-0.076644,23.4506,23.3229,23.1669,23.2804,23.1811,23.2662,23.1243,
154,6.2729,1.37349,3.15334,4.12373,6.27458,1.97522,1.55578,-3.02632e-05,-0.0329519,-1.85324e-05,0.0607719,0.00212204,-0.0567205,8.47196e-05,0.498342,-14.6279,-0.86998,-4.82857,0.204021,-55.7909,1.79504,0.0310407,-20,-0.57155,-0.393076,-0.0444858,-2.68033,0.0735064,-0.000261945,0.0166251,-0.000365985,0.49455,0.00126599,0.0755672,0.0244694,0.000335554,0.00627606,1.9182,-0.000912891,0.005,1.70435,-0.0011236,-0.00114845,-0.754201,45.9969,-1.04379,0.372035,16.9876,0.533023,0.79174,0.360514,-2.40227,-0.0396687,0.177246,-2.03029,0.0805664,0.177429,0.249788,0.346436,-0.076644,23.4506,23.3229,23.1669,23.2804,23.1811,23.2662,23.1243,
155,6.2729,1.37345,3.15334,4.12379,6.27459,1.97516,1.55578,-3.03287e-05,-0.035923,-1.85186e-05,0.0620595,0.00241759,-0.0599616,8.46557e-05,0.498335,-14.6267,-0.87001,-4.82816,0.203799,-55.7901,1.79464,0.0310322,-20,-0.571565,-0.392006,-0.0444859,-2.68037,0.0734858,-0.000261945,0.0166251,-0.000365985,0.49455,0.00126599,0.0755672,0.0254611,0.00036839,0.00710141,1.9182,-0.000912891,0.005,1.70435,-0.0011236,-0.00114845,-0.754201,45.9969,-1.04379,0.381422,16.9065,0.526318,0.826847,0.357647,-2.38094,-0.039326,0.186002,-1.99006,0.0809682,0.177246,0.24586,0.338379,-0.076644,23.4648,23.2946,23.1527,23.2804,23.1952,23.2804,23.1243,
156,6.2729,1.37345,3.15334,4.12379,6.27459,1.97516,1.55578,-3.03287e-05,-0.035923,-1.85186e-05,0.0620595,0.00241759,-0.0599616,8.46557e-05,0.499242,-14.6598,-0.879265,-4.85701,0.182492,-55.9265,1.80871,0.0312726,-20,-0.572663,-0.397461,-0.0446075,-2.69461,0.0748339,-0.000265067,0.0166627,-0.000371212,0.49455,0.00126599,0.0755672,0.0254611,0.00036839,0.00710141,1.91769,-0.000926589,0.005,1.70301,-0.00116548,-0.00189127,-0.767219,46.1288,-1.06512,0.381422,16.9065,0.526318,0.826847,0.357647,-2.38094,-0.039326,0.186002,-1.99006,0.0809682,0.177246,0.24586,0.338379,-0.076644,23.4648,23.2946,23.1527,23.2804,23.1952,23.2804,23.1243,
