LWingKi/MAS_RnD/log/us2/contact/43/grasp_log_12_08_2023_13_49_23.csv
Index,joint_angle_0,joint_angle_1,joint_angle_2,joint_angle_3,joint_angle_4,joint_angle_5,joint_angle_6,joint_velocity_0,joint_velocity_1,joint_velocity_2,joint_velocity_3,joint_velocity_4,joint_velocity_5,joint_velocity_6,joint_accel_0,joint_accel_1,joint_accel_2,joint_accel_3,joint_accel_4,joint_accel_5,joint_accel_6,constraint_tau_0,constraint_tau_1,constraint_tau_2,constraint_tau_3,constraint_tau_4,constraint_tau_5,constraint_tau_6,current_pos_x,current_pos_y,current_pos_z,target_pos_x,target_pos_y,target_pos_z,current_vel_x,current_vel_y,current_vel_z,target_vel_x,target_vel_y,target_vel_z,control_signal_linear_x,control_signal_linear_y,control_signal_linear_z,control_signal_angular_x,control_signal_angular_y,control_signal_angular_z,joint_torque_0,joint_torque_1,joint_torque_2,joint_torque_3,joint_torque_4,joint_torque_5,joint_torque_6,actuar_current_0,actuar_current_1,actuar_current_2,actuar_current_3,actuar_current_4,actuar_current_5,actuar_current_6,actuar_voltage_0,actuar_voltage_1,actuar_voltage_2,actuar_voltage_3,actuar_voltage_4,actuar_voltage_5,actuar_voltage_6
0,0.0235629,1.35259,3.1501,4.45826,0.109115,1.56035,1.56849,0,0,5.30299e-06,0,0,0,0,0.498434,0.0162898,-0.654295,0.0186399,0.326708,-0.0691318,0.647499,0.0142222,-18.0045,-0.360914,-0.422364,-0.00889825,2.19035,-0.00360107,-0,0,0,0.504782,-0.0018305,0.0566607,-1.64422e-08,-1.76066e-06,-1.12937e-07,0,0,0,0,0,0,-0,0,0,-0.0503651,21.2394,1.03097,-1.97928,0.367033,-2.61494,0.00898804,-0.0161133,-1.87727,-0.201416,0.129909,-0.153288,0.294067,-0.0371393,23.4648,23.3229,23.1811,23.3087,23.3087,23.2804,23.1527,
1,0.0235624,1.35149,3.15011,4.45827,0.109139,1.56036,1.56848,-5.30299e-06,-0.0134912,0.000201723,0.000100757,0.000282857,7.67192e-05,0,0.49851,0.0162929,-0.654977,0.0186473,0.326651,-0.0691551,0.647596,0.0139931,-18.0032,-0.360815,-0.412573,-0.00918826,2.19065,-0.00358238,-0,0,0,0.504782,-0.0018305,0.0566607,0.00309893,-0.000107535,0.0068254,0,0,0,4.93266e-07,5.28198e-05,3.3881e-06,1.03516e-05,-2.43945e-07,2.29598e-06,-0.06656,21.2849,1.03378,-2.0918,0.390032,-2.6593,0.00323574,-0.0161133,-2.63457,-0.0742786,0.290151,-0.0332184,0.419023,-0.0483398,23.4506,23.2946,23.1385,23.252,23.3087,23.252,23.1243,
2,0.0235624,1.35148,3.15011,4.45827,0.10914,1.56036,1.56848,-5.307e-06,-0.0129647,0.00019726,0.000100757,0.000301586,8.46557e-05,0,0.494752,2.15534,-0.664074,0.27341,0.299573,1.66494,0.8404,0.0130009,-16.4739,-0.324833,-0.707914,0.00343949,1.97087,-0.0056717,3.83991e-05,0.00111983,-2.09583e-05,0.504782,-0.0018305,0.0566607,0.00297893,-0.00010124,0.00656051,-0.0101288,0.000334126,-0.022254,-0.396833,0.0132498,-0.872383,0.00484179,0.139299,-0.00258608,-0.0868915,21.2544,0.99573,-2.05716,0.387952,-2.64596,0.00857241,-0.00805664,-2.61842,-0.0644531,0.298096,-0.0241699,0.410968,-0.0332184,23.4364,23.2946,23.1385,23.2804,23.2804,23.252,23.0959,
3,0.0235624,1.35148,3.15011,4.45827,0.10914,1.56036,1.56848,-5.307e-06,-0.0129647,0.00019726,0.000100757,0.000301586,8.46557e-05,0,0.494686,2.15521,-0.662932,0.273614,0.299579,1.66438,0.839245,0.0129836,-16.474,-0.324726,-0.707852,0.00335853,1.97083,-0.00566779,3.85579e-05,0.00113366,-2.28668e-05,0.504782,-0.0018305,0.0566607,0.00297893,-0.00010124,0.00656051,-0.0102459,0.000328822,-0.0225188,-0.396743,0.0129019,-0.87238,0.00482152,0.139645,-0.00281639,-0.0868915,21.2544,0.99573,-2.05716,0.387952,-2.64596,0.00857241,-0.00805664,-2.61842,-0.0644531,0.298096,-0.0241699,0.410968,-0.0332184,23.4364,23.2946,23.1385,23.2804,23.2804,23.252,23.0959,
4,0.0235624,1.35146,3.15011,4.45827,0.109142,1.56036,1.56848,-5.307e-06,-0.0135049,0.000203424,0.000105979,0.000320104,8.46565e-05,0,0.494678,2.15519,-0.662927,0.273567,0.299572,1.66441,0.839239,0.0129787,-16.474,-0.324724,-0.707746,0.00335493,1.97084,-0.00566756,3.85579e-05,0.00113366,-2.28668e-05,0.504782,-0.0018305,0.0566607,0.00310322,-0.000104268,0.00683367,-0.0102459,0.000328822,-0.0225188,-0.396743,0.0129019,-0.87238,0.00482152,0.139645,-0.00281639,-0.0788188,21.2373,0.994743,-2.04184,0.389467,-2.6287,0.0131563,-0.0322266,-2.64259,-0.0725098,0.298205,-0.0281982,0.422993,-0.0523682,23.4364,23.3087,23.1385,23.2804,23.2946,23.2662,23.0959,
5,0.0235624,1.35146,3.15011,4.45827,0.109142,1.56036,1.56848,-5.307e-06,-0.0135049,0.000203424,0.000105979,0.000320104,8.46565e-05,0,0.494592,2.19522,-0.662814,0.277951,0.298959,1.69741,0.842598,0.012956,-16.4454,-0.324023,-0.713383,0.00357191,1.96674,-0.00570729,3.93376e-05,0.00114748,-2.46516e-05,0.504782,-0.0018305,0.0566607,0.00310322,-0.000104268,0.00683367,-0.0103731,0.000330901,-0.0227893,-0.404288,0.0130551,-0.888689,0.00493596,0.142116,-0.00302928,-0.0788188,21.2373,0.994743,-2.04184,0.389467,-2.6287,0.0131563,-0.0322266,-2.64259,-0.0725098,0.298205,-0.0281982,0.422993,-0.0523682,23.4364,23.3087,23.1385,23.2804,23.2946,23.2662,23.0959,
6,0.0235624,1.35145,3.15011,4.45827,0.109144,1.56037,1.56848,-5.30299e-06,-0.0145853,0.000199714,0.000111363,0.000341268,0.000105821,0,0.494598,2.19521,-0.662828,0.2779,0.298964,1.69745,0.842612,0.0129547,-16.4454,-0.324023,-0.713275,0.00356936,1.96675,-0.00570715,3.93376e-05,0.00114748,-2.46516e-05,0.504782,-0.0018305,0.0566607,0.00335055,-0.000106622,0.00738208,-0.0103731,0.000330901,-0.0227893,-0.404288,0.0130551,-0.888689,0.00493596,0.142116,-0.00302928,-0.0731018,21.2105,1.0096,-2.02257,0.390575,-2.62081,0.0123467,-0.0161133,-2.62646,-0.0664368,0.290039,-0.0166092,0.414995,-0.0443115,23.4506,23.2946,23.1385,23.2804,23.2946,23.2378,23.0959,
7,0.0235624,1.35145,3.15011,4.45827,0.109144,1.56037,1.56848,-5.30299e-06,-0.0145853,0.000199714,0.000111363,0.000341268,0.000105821,0,0.494397,2.25744,-0.66152,0.285458,0.298329,1.74809,0.846787,0.0129016,-16.4009,-0.322825,-0.721854,0.00383236,1.96037,-0.00575069,3.94635e-05,0.0011641,-2.65686e-05,0.504782,-0.0018305,0.0566607,0.00335055,-0.000106622,0.00738208,-0.0105092,0.000326006,-0.0230869,-0.415792,0.0129788,-0.91407,0.00498748,0.145991,-0.00326513,-0.0731018,21.2105,1.0096,-2.02257,0.390575,-2.62081,0.0123467,-0.0161133,-2.62646,-0.0664368,0.290039,-0.0166092,0.414995,-0.0443115,23.4506,23.2946,23.1385,23.2804,23.2946,23.2378,23.0959,
8,0.0235624,1.35145,3.15011,4.45827,0.109144,1.56037,1.56848,-5.30299e-06,-0.0145853,0.000199714,0.000111363,0.000341268,0.000105821,0,0.494397,2.25744,-0.66152,0.285458,0.298329,1.74809,0.846787,0.0129016,-16.4009,-0.322825,-0.721854,0.00383236,1.96037,-0.00575069,3.94635e-05,0.0011641,-2.65686e-05,0.504782,-0.0018305,0.0566607,0.00335055,-0.000106622,0.00738208,-0.0105092,0.000326006,-0.0230869,-0.415792,0.0129788,-0.91407,0.00498748,0.145991,-0.00326513,-0.0731018,21.2105,1.0096,-2.02257,0.390575,-2.62081,0.0123467,-0.0161133,-2.62646,-0.0664368,0.290039,-0.0166092,0.414995,-0.0443115,23.4506,23.2946,23.1385,23.2804,23.2946,23.2378,23.0959,
9,0.0235624,1.35145,3.15011,4.45827,0.109146,1.56037,1.56848,-5.30299e-06,-0.0145853,0.000199534,0.000111363,0.000359787,0.000113756,0,0.494397,2.25744,-0.66152,0.285458,0.29833,1.74808,0.84679,0.0129016,-16.4009,-0.322825,-0.721853,0.00383267,1.96037,-0.00575075,3.94635e-05,0.0011641,-2.65686e-05,0.504782,-0.0018305,0.0566607,0.00335042,-0.000104601,0.00738291,-0.0105092,0.000326006,-0.0230869,-0.415792,0.0129788,-0.91407,0.00498748,0.145991,-0.00326513,-0.082022,21.2105,1.00133,-1.99183,0.361667,-2.60767,0.0177663,-0.0180152,-2.62646,-0.0569691,0.290039,-0.0205405,0.42305,-0.0371393,23.4364,23.2946,23.1243,23.252,23.2804,23.252,23.1101,
10,0.0235624,1.35145,3.15011,4.45827,0.109146,1.56037,1.56848,-5.30299e-06,-0.0145853,0.000199534,0.000111363,0.000359787,0.000113756,0,0.494338,2.25773,-0.660533,0.285738,0.2983,1.74809,0.84584,0.0128862,-16.4007,-0.322725,-0.721842,0.0037637,1.96032,-0.00574589,3.93182e-05,0.00116501,-2.8469e-05,0.504782,-0.0018305,0.0566607,0.00335042,-0.000104601,0.00738291,-0.0105087,0.000317964,-0.0230908,-0.415772,0.012677,-0.914212,0.00496998,0.146098,-0.00349233,-0.082022,21.2105,1.00133,-1.99183,0.361667,-2.60767,0.0177663,-0.0180152,-2.62646,-0.0569691,0.290039,-0.0205405,0.42305,-0.0371393,23.4364,23.2946,23.1243,23.252,23.2804,23.252,23.1101,
11,0.0235624,1.35143,3.15011,4.45827,0.109148,1.56037,1.56848,-5.307e-06,-0.0150461,0.000193299,0.000116666,0.000389761,0.000121693,0,0.494346,2.25772,-0.660549,0.285679,0.298305,1.74813,0.845855,0.0128846,-16.4007,-0.322724,-0.721712,0.00376051,1.96033,-0.0057457,3.93182e-05,0.00116501,-2.8469e-05,0.504782,-0.0018305,0.0566607,0.00345661,-0.000101868,0.00761713,-0.0105087,0.000317964,-0.0230908,-0.415772,0.012677,-0.914212,0.00496998,0.146098,-0.00349233,-0.046618,21.2127,1.01693,-1.96703,0.368058,-2.58951,0.0101795,-0.0322266,-2.61036,-0.0569691,0.282442,-0.0254773,0.43103,-0.0362549,23.4506,23.2946,23.1385,23.2662,23.2804,23.252,23.1243,
12,0.0235624,1.35143,3.15011,4.45827,0.109148,1.56037,1.56848,-5.307e-06,-0.0150461,0.000193299,0.000116666,0.000389761,0.000121693,0,0.49418,2.29928,-0.659119,0.290448,0.297899,1.78218,0.848127,0.0128409,-16.3709,-0.321871,-0.727526,0.00390076,1.95605,-0.00577328,3.9566e-05,0.00118257,-3.03818e-05,0.504782,-0.0018305,0.0566607,0.00345661,-0.000101868,0.00761713,-0.0106616,0.000313502,-0.0234222,-0.423545,0.0124611,-0.931179,0.00500116,0.148802,-0.00374639,-0.046618,21.2127,1.01693,-1.96703,0.368058,-2.58951,0.0101795,-0.0322266,-2.61036,-0.0569691,0.282442,-0.0254773,0.43103,-0.0362549,23.4506,23.2946,23.1385,23.2662,23.2804,23.252,23.1243,
13,0.0235624,1.35142,3.15011,4.45827,0.10915,1.56037,1.56848,-5.307e-06,-0.0162058,0.000199534,0.000116578,0.000445887,0.000132274,0,0.494172,2.29927,-0.659116,0.290389,0.297893,1.78222,0.848123,0.0128359,-16.3709,-0.321869,-0.727412,0.00389707,1.95606,-0.00577305,3.9566e-05,0.00118257,-3.03818e-05,0.504782,-0.0018305,0.0566607,0.00371981,-0.000104227,0.00820375,-0.0106616,0.000313502,-0.0234222,-0.423545,0.0124611,-0.931179,0.00500116,0.148802,-0.00374639,-0.0453765,21.1797,1.01847,-1.93718,0.355826,-2.58311,0.00370061,-0.0254773,-2.55396,-0.0490066,0.225586,-0.0113938,0.422993,-0.0444942,23.4506,23.2946,23.1527,23.2804,23.3087,23.252,23.1385,
14,0.0235624,1.35142,3.15011,4.45827,0.10915,1.56037,1.56848,-5.307e-06,-0.0162058,0.000199534,0.000116578,0.000445887,0.000132274,0,0.494001,2.36646,-0.658532,0.299104,0.297006,1.83642,0.853301,0.0127908,-16.3229,-0.320655,-0.736513,0.00422731,1.9492,-0.00583041,4.03169e-05,0.00119944,-3.21746e-05,0.504782,-0.0018305,0.0566607,0.00371981,-0.000104227,0.00820375,-0.0108064,0.000315929,-0.0237484,-0.435785,0.0126047,-0.958564,0.00513739,0.152828,-0.00403519,-0.0453765,21.1797,1.01847,-1.93718,0.355826,-2.58311,0.00370061,-0.0254773,-2.55396,-0.0490066,0.225586,-0.0113938,0.422993,-0.0444942,23.4506,23.2946,23.1527,23.2804,23.3087,23.252,23.1385,
15,0.0235624,1.3514,3.15011,4.45827,0.109151,1.56037,1.56848,-5.30299e-06,-0.0159358,0.000197258,0.00010606,0.000522341,0.000132274,0,0.494008,2.36645,-0.658548,0.299047,0.297009,1.83647,0.853315,0.0127892,-16.3229,-0.320655,-0.736391,0.00422415,1.9492,-0.0058302,4.03169e-05,0.00119944,-3.21746e-05,0.504782,-0.0018305,0.0566607,0.00365419,-9.3876e-05,0.00806644,-0.0108064,0.000315929,-0.0237484,-0.435785,0.0126047,-0.958564,0.00513739,0.152828,-0.00403519,-0.0455635,21.1673,1.0217,-1.92838,0.354539,-2.58071,0.00288825,-0.0254773,-2.44122,-0.0644531,0.201416,-0.00805664,0.414917,-0.0402832,23.4506,23.3087,23.1669,23.2804,23.2946,23.252,23.1243,
16,0.0235624,1.3514,3.15011,4.45827,0.109151,1.56037,1.56848,-5.30299e-06,-0.0159358,0.000197258,0.00010606,0.000522341,0.000132274,0,0.493903,2.3793,-0.657241,0.302125,0.296889,1.84542,0.853,0.0127615,-16.3137,-0.320308,-0.737767,0.00419504,1.94788,-0.00583474,4.06266e-05,0.00121408,-3.31136e-05,0.504782,-0.0018305,0.0566607,0.00365419,-9.3876e-05,0.00806644,-0.0109354,0.000314985,-0.0240617,-0.437688,0.0122658,-0.963845,0.00514532,0.153729,-0.00428272,-0.0455635,21.1673,1.0217,-1.92838,0.354539,-2.58071,0.00288825,-0.0254773,-2.44122,-0.0644531,0.201416,-0.00805664,0.414917,-0.0402832,23.4506,23.3087,23.1669,23.2804,23.2946,23.252,23.1243,
17,0.0235624,1.35139,3.15011,4.45827,0.109152,1.56037,1.56848,-5.30299e-06,-0.0137923,0.00020034,8.74993e-05,0.000629172,0.000132376,0,0.493904,2.37929,-0.657247,0.302073,0.296887,1.84546,0.853005,0.0127581,-16.3137,-0.320306,-0.737636,0.00419096,1.94788,-0.00583446,4.06266e-05,0.00121408,-3.31136e-05,0.504782,-0.0018305,0.0566607,0.00315957,-7.19845e-05,0.00698225,-0.0109354,0.000314985,-0.0240617,-0.437688,0.0122658,-0.963845,0.00514532,0.153729,-0.00428272,-0.0611002,21.1391,1.0256,-1.91348,0.357931,-2.58976,0.00288825,-0.00805664,-2.37672,-0.041081,0.161936,0,0.418965,-0.0402832,23.4506,23.2946,23.1669,23.2662,23.2946,23.2662,23.1243,
18,0.0235624,1.35139,3.15011,4.45827,0.109152,1.56037,1.56848,-5.30299e-06,-0.0137923,0.00020034,8.74993e-05,0.000629172,0.000132376,0,0.493967,2.3205,-0.656372,0.297181,0.297397,1.795,0.846712,0.0127748,-16.3557,-0.321236,-0.728953,0.00377603,1.95383,-0.00578871,4.11508e-05,0.00122685,-3.39882e-05,0.504782,-0.0018305,0.0566607,0.00315957,-7.19845e-05,0.00698225,-0.0110445,0.000317116,-0.0243503,-0.426123,0.011673,-0.939977,0.00509435,0.150682,-0.00458209,-0.0611002,21.1391,1.0256,-1.91348,0.357931,-2.58976,0.00288825,-0.00805664,-2.37672,-0.041081,0.161936,0,0.418965,-0.0402832,23.4506,23.2946,23.1669,23.2662,23.2946,23.2662,23.1243,
19,0.0235624,1.35138,3.15011,4.45827,0.109153,1.56037,1.56848,-5.307e-06,-0.0113326,0.000204174,6.62874e-05,0.000773198,0.000121694,0,0.49396,2.32049,-0.656364,0.297144,0.297388,1.79503,0.846704,0.0127701,-16.3557,-0.321233,-0.728854,0.00377229,1.95383,-0.00578845,4.11508e-05,0.00122685,-3.39882e-05,0.504782,-0.0018305,0.0566607,0.00259184,-4.47105e-05,0.00573696,-0.0110445,0.000317116,-0.0243503,-0.426123,0.011673,-0.939977,0.00509435,0.150682,-0.00458209,-0.0767972,21.123,1.0167,-1.88328,0.352619,-2.58692,0.00412153,-0.0332184,-2.34448,-0.0490066,0.129158,-0.00569691,0.414995,-0.0420569,23.4506,23.3087,23.1385,23.2804,23.3087,23.2662,23.1101,
20,0.0235624,1.35137,3.15011,4.45827,0.109154,1.56037,1.56848,-5.307e-06,-0.00837302,0.000215123,3.70925e-05,0.000962765,0.000121693,0,0.494038,2.24412,-0.655517,0.290206,0.297987,1.73025,0.838865,0.0127888,-16.4102,-0.322466,-0.717653,0.00325463,1.96159,-0.0057311,4.19209e-05,0.00123482,-3.4807e-05,0.504782,-0.0018305,0.0566607,0.0019075,-1.22453e-05,0.00423942,-0.0111173,0.000321931,-0.0245611,-0.411275,0.0109992,-0.908941,0.00505361,0.146495,-0.00494979,-0.0749748,21.0655,1.01808,-1.85825,0.356635,-2.58883,0.0124967,-0.0241699,-2.33644,-0.0290486,0.0889885,-0.00805664,0.402852,-0.0420569,23.4506,23.3229,23.1527,23.2946,23.2946,23.2804,23.1385,
21,0.0235624,1.35137,3.15011,4.45827,0.109154,1.56037,1.56848,-5.307e-06,-0.00837302,0.000215123,3.70925e-05,0.000962765,0.000121693,0,0.494217,2.14502,-0.655279,0.28168,0.298657,1.64564,0.829444,0.0128359,-16.4811,-0.324152,-0.703075,0.00263685,1.97166,-0.00566359,4.3047e-05,0.00124011,-3.54995e-05,0.504782,-0.0018305,0.0566607,0.0019075,-1.22453e-05,0.00423942,-0.0111546,0.000332988,-0.0247159,-0.391863,0.010357,-0.868659,0.00503343,0.141045,-0.00539274,-0.0749748,21.0655,1.01808,-1.85825,0.356635,-2.58883,0.0124967,-0.0241699,-2.33644,-0.0290486,0.0889885,-0.00805664,0.402852,-0.0420569,23.4506,23.3229,23.1527,23.2946,23.2946,23.2804,23.1385,
22,0.0235624,1.35136,3.15011,4.45826,0.109155,1.56037,1.56848,-5.30299e-06,-0.0047646,0.00023251,5.30294e-06,0.00113339,0.000121693,0,0.494199,2.14501,-0.655253,0.281667,0.298642,1.64566,0.829423,0.0128298,-16.4811,-0.324149,-0.703039,0.00263418,1.97166,-0.00566341,4.3047e-05,0.00124011,-3.54995e-05,0.504782,-0.0018305,0.0566607,0.00107492,1.9581e-05,0.00241385,-0.0111546,0.000332988,-0.0247159,-0.391863,0.010357,-0.868659,0.00503343,0.141045,-0.00539274,-0.0434041,20.9934,1.00185,-1.82791,0.365181,-2.59635,0.0163992,-0.0241699,-2.32031,-0.0241699,0.0586532,0,0.394858,-0.0444942,23.4648,23.3087,23.1527,23.2946,23.2946,23.2662,23.1101,
23,0.0235624,1.35136,3.15011,4.45826,0.109155,1.56037,1.56848,-5.30299e-06,-0.0047646,0.00023251,5.30294e-06,0.00113339,0.000121693,0,0.494443,2.01692,-0.655141,0.269826,0.299632,1.53715,0.817579,0.0128941,-16.5727,-0.326346,-0.684414,0.00185965,1.98468,-0.00557209,4.3831e-05,0.00124195,-3.62476e-05,0.504782,-0.0018305,0.0566607,0.00107492,1.9581e-05,0.00241385,-0.0111594,0.000339744,-0.0248053,-0.367031,0.0096049,-0.816576,0.00496223,0.133947,-0.00580054,-0.0434041,20.9934,1.00185,-1.82791,0.365181,-2.59635,0.0163992,-0.0241699,-2.32031,-0.0241699,0.0586532,0,0.394858,-0.0444942,23.4648,23.3087,23.1527,23.2946,23.2946,23.2662,23.1101,
24,0.0235624,1.35136,3.15012,4.45826,0.109155,1.56037,1.56848,-5.30299e-06,-0.00189068,0.000247223,-2.1212e-05,0.00122914,0.000113842,0,0.494409,2.01692,-0.655094,0.269822,0.299605,1.53716,0.817534,0.0128848,-16.5726,-0.326341,-0.684414,0.00185676,1.98468,-0.00557187,4.3831e-05,0.00124195,-3.62476e-05,0.504782,-0.0018305,0.0566607,0.000411787,4.04094e-05,0.000958941,-0.0111594,0.000339744,-0.0248053,-0.367031,0.0096049,-0.816576,0.00496223,0.133947,-0.00580054,-0.0416384,20.9121,0.995729,-1.77249,0.36278,-2.59793,0.0241438,-0.0113938,-2.31226,-0.0180152,0.0241699,-0.00402832,0.390768,-0.036478,23.4506,23.3229,23.1527,23.2804,23.2946,23.252,23.1243,
25,0.0235624,1.35136,3.15012,4.45826,0.109155,1.56037,1.56848,-5.30299e-06,-0.00189068,0.000247223,-2.1212e-05,0.00122914,0.000113842,0,0.494713,1.91132,-0.656759,0.25986,0.300249,1.44787,0.809425,0.0129647,-16.6481,-0.328321,-0.66909,0.00133544,1.99544,-0.00551115,4.51847e-05,0.00124019,-3.59323e-05,0.504782,-0.0018305,0.0566607,0.000411787,4.04094e-05,0.000958941,-0.0111421,0.000357081,-0.0248279,-0.346616,0.00950016,-0.773604,0.00498416,0.127954,-0.00595354,-0.0416384,20.9121,0.995729,-1.77249,0.36278,-2.59793,0.0241438,-0.0113938,-2.31226,-0.0180152,0.0241699,-0.00402832,0.390768,-0.036478,23.4506,23.3229,23.1527,23.2804,23.2946,23.252,23.1243,
26,0.0235624,1.35136,3.15012,4.45826,0.109155,1.56037,1.56848,-5.30299e-06,-0.00189068,0.000247223,-2.1212e-05,0.00122914,0.000113842,0,0.494713,1.91132,-0.656759,0.25986,0.300249,1.44787,0.809425,0.0129647,-16.6481,-0.328321,-0.66909,0.00133544,1.99544,-0.00551115,4.51847e-05,0.00124019,-3.59323e-05,0.504782,-0.0018305,0.0566607,0.000411787,4.04094e-05,0.000958941,-0.0111421,0.000357081,-0.0248279,-0.346616,0.00950016,-0.773604,0.00498416,0.127954,-0.00595354,-0.0416384,20.9121,0.995729,-1.77249,0.36278,-2.59793,0.0241438,-0.0113938,-2.31226,-0.0180152,0.0241699,-0.00402832,0.390768,-0.036478,23.4506,23.3229,23.1527,23.2804,23.2946,23.252,23.1243,
27,0.0235624,1.35136,3.15012,4.45826,0.109156,1.56037,1.56848,-5.30294e-06,-0.000540195,0.000265093,-4.77269e-05,0.00128692,0.000113757,0,0.494677,1.91132,-0.656709,0.25986,0.300221,1.44787,0.809379,0.0129556,-16.6481,-0.328316,-0.669108,0.00133331,1.99544,-0.005511,4.51847e-05,0.00124019,-3.59323e-05,0.504782,-0.0018305,0.0566607,9.55563e-05,4.80146e-05,0.000274079,-0.0111421,0.000357081,-0.0248279,-0.346616,0.00950016,-0.773604,0.00498416,0.127954,-0.00595354,-0.0729716,20.848,0.963075,-1.74126,0.355605,-2.58727,0.0185558,-0.0180152,-2.32033,-0.0322266,-0.00805664,-0.0090076,0.394775,-0.0459299,23.4648,23.3087,23.1527,23.2946,23.2946,23.2662,23.1385,
28,0.0235624,1.35136,3.15012,4.45826,0.109156,1.56037,1.56848,-5.307e-06,0.00134912,0.000309874,-7.68352e-05,0.001265,0.000113757,0,0.494814,1.8606,-0.65827,0.256996,0.300224,1.40311,0.80594,0.0129928,-16.6844,-0.329342,-0.661253,0.00111328,2.00064,-0.00549137,4.63919e-05,0.00123789,-3.65775e-05,0.504782,-0.0018305,0.0566607,-0.000343416,4.11873e-05,-0.000683639,-0.0111112,0.000370032,-0.0248247,-0.336204,0.00966051,-0.752965,0.00507075,0.124969,-0.00612536,-0.0682433,20.7259,0.951736,-1.70583,0.363321,-2.58282,0.014753,-0.0227876,-2.28004,-0.0113938,-0.0180152,-0.00569691,0.386719,-0.0444942,23.4506,23.3087,23.1669,23.2804,23.2946,23.2804,23.1243,
29,0.0235624,1.35136,3.15012,4.45826,0.109156,1.56037,1.56848,-5.307e-06,0.00134912,0.000309874,-7.68352e-05,0.001265,0.000113757,0,0.495222,1.78716,-0.662889,0.251498,0.300185,1.33934,0.803343,0.0131003,-16.7369,-0.331053,-0.650159,0.00096181,2.00816,-0.00547826,4.81053e-05,0.00123359,-3.61486e-05,0.504782,-0.0018305,0.0566607,-0.000343416,4.11873e-05,-0.000683639,-0.0110615,0.000393646,-0.0247852,-0.321544,0.0105737,-0.723047,0.00524049,0.120701,-0.00601872,-0.0682433,20.7259,0.951736,-1.70583,0.363321,-2.58282,0.014753,-0.0227876,-2.28004,-0.0113938,-0.0180152,-0.00569691,0.386719,-0.0444942,23.4506,23.3087,23.1669,23.2804,23.2946,23.2804,23.1243,
30,0.0235624,1.35136,3.15012,4.45826,0.109156,1.56037,1.56848,-5.307e-06,0.00134912,0.000309874,-7.68352e-05,0.001265,0.000113757,0,0.495222,1.78716,-0.662889,0.251498,0.300185,1.33934,0.803343,0.0131003,-16.7369,-0.331053,-0.650159,0.00096181,2.00816,-0.00547826,4.81053e-05,0.00123359,-3.61486e-05,0.504782,-0.0018305,0.0566607,-0.000343416,4.11873e-05,-0.000683639,-0.0110615,0.000393646,-0.0247852,-0.321544,0.0105737,-0.723047,0.00524049,0.120701,-0.00601872,-0.0682433,20.7259,0.951736,-1.70583,0.363321,-2.58282,0.014753,-0.0227876,-2.28004,-0.0113938,-0.0180152,-0.00569691,0.386719,-0.0444942,23.4506,23.3087,23.1669,23.2804,23.2946,23.2804,23.1243,
31,0.0235624,1.35136,3.15012,4.45825,0.109156,1.56037,1.56848,-5.30299e-06,0.00161976,0.000355328,-9.81053e-05,0.00122917,0.000113757,0,0.495184,1.78716,-0.662837,0.251503,0.300157,1.33934,0.803293,0.0130914,-16.7369,-0.331049,-0.650193,0.000960065,2.00816,-0.00547813,4.81053e-05,0.00123359,-3.61486e-05,0.504782,-0.0018305,0.0566607,-0.000411572,2.3921e-05,-0.000823258,-0.0110615,0.000393646,-0.0247852,-0.321544,0.0105737,-0.723047,0.00524049,0.120701,-0.00601872,-0.0500667,20.6185,0.954645,-1.65929,0.362796,-2.58282,0.0102664,-0.0161133,-2.27199,-0.0254773,-0.0483398,-0.00402832,0.386719,-0.0444942,23.4506,23.3087,23.1669,23.2946,23.3087,23.2804,23.1385,
32,0.0235624,1.35136,3.15012,4.45825,0.109156,1.56037,1.56848,-5.30299e-06,0.00161976,0.000355328,-9.81053e-05,0.00122917,0.000113757,0,0.495431,1.77351,-0.666721,0.252502,0.29964,1.32536,0.805362,0.0131562,-16.7467,-0.331659,-0.64754,0.00110754,2.00961,-0.00550316,4.93066e-05,0.00122956,-3.58418e-05,0.504782,-0.0018305,0.0566607,-0.000411572,2.3921e-05,-0.000823258,-0.0110172,0.000410306,-0.0247384,-0.31817,0.0115915,-0.717454,0.00543799,0.119714,-0.00589629,-0.0500667,20.6185,0.954645,-1.65929,0.362796,-2.58282,0.0102664,-0.0161133,-2.27199,-0.0254773,-0.0483398,-0.00402832,0.386719,-0.0444942,23.4506,23.3087,23.1669,23.2946,23.3087,23.2804,23.1385,
33,0.0235624,1.35136,3.15012,4.45825,0.109157,1.56037,1.56848,-5.30299e-06,0.00140397,0.000411099,-0.000121968,0.00122921,0.000113757,0,0.495378,1.77351,-0.666652,0.252505,0.299601,1.32537,0.805294,0.0131437,-16.7467,-0.331653,-0.647568,0.00110475,2.00961,-0.00550296,4.93066e-05,0.00122956,-3.58418e-05,0.504782,-0.0018305,0.0566607,-0.000370268,4.42601e-06,-0.000717727,-0.0110172,0.000410306,-0.0247384,-0.31817,0.0115915,-0.717454,0.00543799,0.119714,-0.00589629,-0.0677439,20.4993,0.955964,-1.59569,0.360028,-2.58077,0.00224301,-0.0180152,-2.21559,-0.00805664,-0.0644531,0,0.38674,-0.036478,23.4506,23.3087,23.1669,23.2804,23.3087,23.2804,23.1385,
34,0.0235624,1.35136,3.15012,4.45825,0.109157,1.56037,1.56848,-5.30299e-06,0.00140397,0.000411099,-0.000121968,0.00122921,0.000113757,0,0.495601,1.77921,-0.670831,0.25633,0.298668,1.32678,0.809224,0.0132023,-16.7426,-0.331958,-0.647444,0.00137176,2.0091,-0.0055507,5.10093e-05,0.00122619,-3.63654e-05,0.504782,-0.0018305,0.0566607,-0.000370268,4.42601e-06,-0.000717727,-0.0109776,0.000430157,-0.0247089,-0.31822,0.0127719,-0.719736,0.00572604,0.119757,-0.00592406,-0.0677439,20.4993,0.955964,-1.59569,0.360028,-2.58077,0.00224301,-0.0180152,-2.21559,-0.00805664,-0.0644531,0,0.38674,-0.036478,23.4506,23.3087,23.1669,23.2804,23.3087,23.2804,23.1385,
35,0.0235624,1.35137,3.15012,4.45825,0.109157,1.56037,1.56848,-5.30299e-06,0.00105333,0.000467232,-0.000145834,0.00118603,0.000113756,0,0.495549,1.77921,-0.670762,0.256332,0.298629,1.32679,0.809156,0.0131897,-16.7426,-0.331952,-0.647469,0.00136875,2.0091,-0.00555047,5.10093e-05,0.00122619,-3.63654e-05,0.504782,-0.0018305,0.0566607,-0.000297893,-2.04747e-05,-0.000544088,-0.0109776,0.000430157,-0.0247089,-0.31822,0.0127719,-0.719736,0.00572604,0.119757,-0.00592406,-0.0425525,20.4355,0.951847,-1.57828,0.351727,-2.56734,0.000544578,-0.00805664,-2.16724,-0.00805664,-0.0970148,-0.00569691,0.38674,-0.045038,23.4648,23.3229,23.1669,23.2946,23.3229,23.2804,23.1385,
36,0.0235624,1.35137,3.15012,4.45825,0.109157,1.56037,1.56848,-5.30299e-06,0.00105333,0.000467232,-0.000145834,0.00118603,0.000113756,0,0.495809,1.79056,-0.675784,0.260805,0.297645,1.33277,0.814396,0.0132583,-16.7345,-0.332241,-0.64812,0.00172611,2.00802,-0.00560668,5.2755e-05,0.00122321,-3.59408e-05,0.504782,-0.0018305,0.0566607,-0.000297893,-2.04747e-05,-0.000544088,-0.010942,0.000454098,-0.0246875,-0.319322,0.0142372,-0.724304,0.00602848,0.120111,-0.00577045,-0.0425525,20.4355,0.951847,-1.57828,0.351727,-2.56734,0.000544578,-0.00805664,-2.16724,-0.00805664,-0.0970148,-0.00569691,0.38674,-0.045038,23.4648,23.3229,23.1669,23.2946,23.3229,23.2804,23.1385,
37,0.0235624,1.35137,3.15012,4.45825,0.109157,1.56037,1.56848,-5.30299e-06,0.00105333,0.000467232,-0.000145834,0.00118603,0.000113756,0,0.495809,1.79056,-0.675784,0.260805,0.297645,1.33277,0.814396,0.0132583,-16.7345,-0.332241,-0.64812,0.00172611,2.00802,-0.00560668,5.2755e-05,0.00122321,-3.59408e-05,0.504782,-0.0018305,0.0566607,-0.000297893,-2.04747e-05,-0.000544088,-0.010942,0.000454098,-0.0246875,-0.319322,0.0142372,-0.724304,0.00602848,0.120111,-0.00577045,-0.0425525,20.4355,0.951847,-1.57828,0.351727,-2.56734,0.000544578,-0.00805664,-2.16724,-0.00805664,-0.0970148,-0.00569691,0.38674,-0.045038,23.4648,23.3229,23.1669,23.2946,23.3229,23.2804,23.1385,
38,0.0235624,1.35137,3.15013,4.45825,0.109157,1.56037,1.56848,-5.307e-06,0.000702218,0.000530168,-0.000172217,0.00114494,0.000113756,0,0.495772,1.79056,-0.675733,0.260808,0.297617,1.33277,0.814347,0.0132493,-16.7345,-0.332237,-0.648149,0.00172429,2.00802,-0.00560654,5.2755e-05,0.00122321,-3.59408e-05,0.504782,-0.0018305,0.0566607,-0.000226254,-4.73954e-05,-0.000370599,-0.010942,0.000454098,-0.0246875,-0.319322,0.0142372,-0.724304,0.00602848,0.120111,-0.00577045,-0.0604137,20.367,0.961063,-1.5288,0.350544,-2.54207,0.00340399,-0.00805664,-2.12697,0,-0.112793,0.0113938,0.382712,-0.0444942,23.4648,23.3229,23.1527,23.2946,23.3087,23.2662,23.1385,
39,0.0235624,1.35137,3.15013,4.45825,0.109157,1.56037,1.56848,-5.307e-06,0.000702218,0.000530168,-0.000172217,0.00114494,0.000113756,0,0.496001,1.80144,-0.680224,0.265579,0.296731,1.3381,0.819037,0.0133097,-16.7267,-0.332483,-0.648647,0.00204243,2.007,-0.00565557,5.3968e-05,0.00121972,-3.56297e-05,0.504782,-0.0018305,0.0566607,-0.000226254,-4.73954e-05,-0.000370599,-0.0109006,0.000470831,-0.0246602,-0.32023,0.0155468,-0.728689,0.00629065,0.120409,-0.00562936,-0.0604137,20.367,0.961063,-1.5288,0.350544,-2.54207,0.00340399,-0.00805664,-2.12697,0,-0.112793,0.0113938,0.382712,-0.0444942,23.4648,23.3229,23.1527,23.2946,23.3087,23.2662,23.1385,
40,0.0235624,1.35137,3.15013,4.45825,0.109157,1.56037,1.56848,-5.307e-06,0.000702218,0.000530168,-0.000172217,0.00114494,0.000113756,0,0.496001,1.80144,-0.680224,0.265579,0.296731,1.3381,0.819037,0.0133097,-16.7267,-0.332483,-0.648647,0.00204243,2.007,-0.00565557,5.3968e-05,0.00121972,-3.56297e-05,0.504782,-0.0018305,0.0566607,-0.000226254,-4.73954e-05,-0.000370599,-0.0109006,0.000470831,-0.0246602,-0.32023,0.0155468,-0.728689,0.00629065,0.120409,-0.00562936,-0.0604137,20.367,0.961063,-1.5288,0.350544,-2.54207,0.00340399,-0.00805664,-2.12697,0,-0.112793,0.0113938,0.382712,-0.0444942,23.4648,23.3229,23.1527,23.2946,23.3087,23.2662,23.1385,
41,0.0235624,1.35137,3.15013,4.45825,0.109157,1.56037,1.56848,-5.307e-06,0.000702218,0.000530168,-0.000172217,0.00114494,0.000113756,0,0.496001,1.80144,-0.680224,0.265579,0.296731,1.3381,0.819037,0.0133097,-16.7267,-0.332483,-0.648647,0.00204243,2.007,-0.00565557,5.3968e-05,0.00121972,-3.56297e-05,0.504782,-0.0018305,0.0566607,-0.000226254,-4.73954e-05,-0.000370599,-0.0109006,0.000470831,-0.0246602,-0.32023,0.0155468,-0.728689,0.00629065,0.120409,-0.00562936,-0.0604137,20.367,0.961063,-1.5288,0.350544,-2.54207,0.00340399,-0.00805664,-2.12697,0,-0.112793,0.0113938,0.382712,-0.0444942,23.4648,23.3229,23.1527,23.2946,23.3087,23.2662,23.1385,
42,0.0235624,1.35137,3.15013,4.45824,0.109158,1.56037,1.56848,-5.30299e-06,0.00072026,0.000622447,-0.000204165,0.00114494,0.000113756,0,0.495956,1.80145,-0.680163,0.265582,0.296697,1.33811,0.818979,0.013299,-16.7267,-0.332478,-0.648682,0.00204034,2.00699,-0.00565542,5.3968e-05,0.00121972,-3.56297e-05,0.504782,-0.0018305,0.0566607,-0.000240829,-7.77047e-05,-0.000384683,-0.0109006,0.000470831,-0.0246602,-0.32023,0.0155468,-0.728689,0.00629065,0.120409,-0.00562936,-0.0547062,20.3177,0.93282,-1.48637,0.345693,-2.52303,0.003988,-0.00805664,-2.08667,-0.00805664,-0.121919,0.0127387,0.374655,-0.036478,23.4648,23.3087,23.1811,23.2946,23.3229,23.2662,23.1243,
43,0.0235624,1.35137,3.15013,4.45824,0.109158,1.56037,1.56848,-5.30299e-06,0.00072026,0.000622447,-0.000204165,0.00114494,0.000113756,0,0.496249,1.79814,-0.685277,0.269309,0.295681,1.33112,0.822875,0.013376,-16.7291,-0.333028,-0.647036,0.00230693,2.00742,-0.00570368,5.53904e-05,0.00121555,-3.62044e-05,0.504782,-0.0018305,0.0566607,-0.000240829,-7.77047e-05,-0.000384683,-0.0108508,0.000486911,-0.024628,-0.318299,0.0169385,-0.727299,0.0066105,0.119888,-0.00564612,-0.0547062,20.3177,0.93282,-1.48637,0.345693,-2.52303,0.003988,-0.00805664,-2.08667,-0.00805664,-0.121919,0.0127387,0.374655,-0.036478,23.4648,23.3087,23.1811,23.2946,23.3229,23.2662,23.1243,
44,0.0235624,1.35137,3.15013,4.45824,0.109158,1.56037,1.56848,-5.30299e-06,0.00072026,0.000622447,-0.000204165,0.00114494,0.000113756,0,0.496249,1.79814,-0.685277,0.269309,0.295681,1.33112,0.822875,0.013376,-16.7291,-0.333028,-0.647036,0.00230693,2.00742,-0.00570368,5.53904e-05,0.00121555,-3.62044e-05,0.504782,-0.0018305,0.0566607,-0.000240829,-7.77047e-05,-0.000384683,-0.0108508,0.000486911,-0.024628,-0.318299,0.0169385,-0.727299,0.0066105,0.119888,-0.00564612,-0.0547062,20.3177,0.93282,-1.48637,0.345693,-2.52303,0.003988,-0.00805664,-2.08667,-0.00805664,-0.121919,0.0127387,0.374655,-0.036478,23.4648,23.3087,23.1811,23.2946,23.3229,23.2662,23.1243,
45,0.0235624,1.35137,3.15013,4.45824,0.109159,1.56037,1.56848,-5.30299e-06,0.00119246,0.000719159,-0.00029021,0.00114275,0.00010582,0,0.49621,1.79815,-0.685223,0.269317,0.29565,1.33113,0.822825,0.0133671,-16.7291,-0.333024,-0.647089,0.00230579,2.00742,-0.0057036,5.53904e-05,0.00121555,-3.62044e-05,0.504782,-0.0018305,0.0566607,-0.000375994,-0.000106888,-0.000634127,-0.0108508,0.000486911,-0.024628,-0.318299,0.0169385,-0.727299,0.0066105,0.119888,-0.00564612,-0.0776925,20.2487,0.923235,-1.46104,0.33946,-2.50596,0.0271945,-0.0254773,-2.04645,0.0161133,-0.137907,0.0166092,0.374655,-0.0485074,23.4648,23.3229,23.1669,23.3087,23.3087,23.2804,23.1527,
46,0.0235624,1.35137,3.15013,4.45824,0.109159,1.56037,1.56848,-5.30299e-06,0.00119246,0.000719159,-0.00029021,0.00114275,0.00010582,0,0.49653,1.77489,-0.690195,0.272341,0.294874,1.30634,0.824679,0.0134513,-16.7457,-0.333905,-0.642236,0.00243641,2.00991,-0.00573186,5.65828e-05,0.00120846,-3.68284e-05,0.504782,-0.0018305,0.0566607,-0.000375994,-0.000106888,-0.000634127,-0.0107807,0.000499017,-0.0245604,-0.312142,0.0181772,-0.717789,0.00689331,0.118043,-0.00566057,-0.0776925,20.2487,0.923235,-1.46104,0.33946,-2.50596,0.0271945,-0.0254773,-2.04645,0.0161133,-0.137907,0.0166092,0.374655,-0.0485074,23.4648,23.3229,23.1669,23.3087,23.3087,23.2804,23.1527,
47,0.0235624,1.35137,3.15013,4.45824,0.109159,1.56037,1.56848,-5.30299e-06,0.00119246,0.000719159,-0.00029021,0.00114275,0.00010582,0,0.49653,1.77489,-0.690195,0.272341,0.294874,1.30634,0.824679,0.0134513,-16.7457,-0.333905,-0.642236,0.00243641,2.00991,-0.00573186,5.65828e-05,0.00120846,-3.68284e-05,0.504782,-0.0018305,0.0566607,-0.000375994,-0.000106888,-0.000634127,-0.0107807,0.000499017,-0.0245604,-0.312142,0.0181772,-0.717789,0.00689331,0.118043,-0.00566057,-0.0776925,20.2487,0.923235,-1.46104,0.33946,-2.50596,0.0271945,-0.0254773,-2.04645,0.0161133,-0.137907,0.0166092,0.374655,-0.0485074,23.4648,23.3229,23.1669,23.3087,23.3087,23.2804,23.1527,
48,0.0235624,1.35137,3.15013,4.45823,0.109159,1.56037,1.56848,-5.30299e-06,0.00138291,0.000794842,-0.000574786,0.00114275,0.0001059,0,0.496506,1.7749,-0.690161,0.272349,0.294856,1.30634,0.824649,0.013446,-16.7457,-0.333902,-0.642286,0.0024363,2.0099,-0.00573186,5.65828e-05,0.00120846,-3.68284e-05,0.504782,-0.0018305,0.0566607,-0.000510286,-0.00012891,-0.000758711,-0.0107807,0.000499017,-0.0245604,-0.312142,0.0181772,-0.717789,0.00689331,0.118043,-0.00566057,-0.0554451,20.2063,0.934064,-1.39071,0.349054,-2.47718,0.0270966,-0.00805664,-2.0061,0.0113938,-0.14502,0.012085,0.366666,-0.0402832,23.4648,23.3371,23.1669,23.3087,23.3087,23.3087,23.1527,
49,0.0235624,1.35137,3.15013,4.45823,0.109159,1.56037,1.56848,-5.30299e-06,0.00138291,0.000794842,-0.000574786,0.00114275,0.0001059,0,0.496702,1.76125,-0.693583,0.281981,0.294254,1.2844,0.825385,0.0134976,-16.7554,-0.334471,-0.637303,0.00247803,2.01147,-0.00574445,5.71803e-05,0.00120245,-3.75805e-05,0.504782,-0.0018305,0.0566607,-0.000510286,-0.00012891,-0.000758711,-0.0107121,0.000504011,-0.0244999,-0.306056,0.0189876,-0.712237,0.00707729,0.116488,-0.0056981,-0.0554451,20.2063,0.934064,-1.39071,0.349054,-2.47718,0.0270966,-0.00805664,-2.0061,0.0113938,-0.14502,0.012085,0.366666,-0.0402832,23.4648,23.3371,23.1669,23.3087,23.3087,23.3087,23.1527,
50,0.0235624,1.35137,3.15013,4.45823,0.109159,1.56037,1.56848,-5.30299e-06,0.00138291,0.000794842,-0.000574786,0.00114275,0.0001059,0,0.496702,1.76125,-0.693583,0.281981,0.294254,1.2844,0.825385,0.0134976,-16.7554,-0.334471,-0.637303,0.00247803,2.01147,-0.00574445,5.71803e-05,0.00120245,-3.75805e-05,0.504782,-0.0018305,0.0566607,-0.000510286,-0.00012891,-0.000758711,-0.0107121,0.000504011,-0.0244999,-0.306056,0.0189876,-0.712237,0.00707729,0.116488,-0.0056981,-0.0554451,20.2063,0.934064,-1.39071,0.349054,-2.47718,0.0270966,-0.00805664,-2.0061,0.0113938,-0.14502,0.012085,0.366666,-0.0402832,23.4648,23.3371,23.1669,23.3087,23.3087,23.3087,23.1527,
51,0.0235624,1.35137,3.15013,4.45823,0.10916,1.56037,1.56848,-5.30299e-06,0.00146645,0.00089656,-0.00140241,0.00113784,0.000105821,0,0.496685,1.76125,-0.693557,0.281989,0.29424,1.2844,0.825364,0.013494,-16.7554,-0.334469,-0.637361,0.00247863,2.01147,-0.0057445,5.71803e-05,0.00120245,-3.75805e-05,0.504782,-0.0018305,0.0566607,-0.000793444,-0.000156694,-0.000881054,-0.0107121,0.000504011,-0.0244999,-0.306056,0.0189876,-0.712237,0.00707729,0.116488,-0.0056981,-0.0405092,20.1539,0.928574,-1.3913,0.350575,-2.44599,0.0186787,0,-1.99805,0.00805664,-0.153076,0.0205405,0.366577,-0.0444942,23.4648,23.3229,23.1811,23.2804,23.3229,23.2804,23.1527,
52,0.0235624,1.35137,3.15013,4.45823,0.10916,1.56037,1.56848,-5.30299e-06,0.00146645,0.00089656,-0.00140241,0.00113784,0.000105821,0,0.496873,1.74786,-0.697562,0.307269,0.293511,1.24806,0.825066,0.0135433,-16.765,-0.335096,-0.628177,0.00242879,2.01323,-0.00574329,5.74938e-05,0.00119551,-3.8371e-05,0.504782,-0.0018305,0.0566607,-0.000793444,-0.000156694,-0.000881054,-0.0106302,0.000505198,-0.0244427,-0.295103,0.0198568,-0.706851,0.00726149,0.113967,-0.00570927,-0.0405092,20.1539,0.928574,-1.3913,0.350575,-2.44599,0.0186787,0,-1.99805,0.00805664,-0.153076,0.0205405,0.366577,-0.0444942,23.4648,23.3229,23.1811,23.2804,23.3229,23.2804,23.1527,
53,0.0235624,1.35137,3.15013,4.45823,0.10916,1.56037,1.56848,-5.30299e-06,0.00146645,0.00089656,-0.00140241,0.00113784,0.000105821,0,0.496873,1.74786,-0.697562,0.307269,0.293511,1.24806,0.825066,0.0135433,-16.765,-0.335096,-0.628177,0.00242879,2.01323,-0.00574329,5.74938e-05,0.00119551,-3.8371e-05,0.504782,-0.0018305,0.0566607,-0.000793444,-0.000156694,-0.000881054,-0.0106302,0.000505198,-0.0244427,-0.295103,0.0198568,-0.706851,0.00726149,0.113967,-0.00570927,-0.0405092,20.1539,0.928574,-1.3913,0.350575,-2.44599,0.0186787,0,-1.99805,0.00805664,-0.153076,0.0205405,0.366577,-0.0444942,23.4648,23.3229,23.1811,23.2804,23.3229,23.2804,23.1527,
54,0.0235624,1.35137,3.15013,4.45823,0.10916,1.56037,1.56848,-5.30299e-06,0.00146645,0.00089656,-0.00140241,0.00113784,0.000105821,0,0.496873,1.74786,-0.697562,0.307269,0.293511,1.24806,0.825066,0.0135433,-16.765,-0.335096,-0.628177,0.00242879,2.01323,-0.00574329,5.74938e-05,0.00119551,-3.8371e-05,0.504782,-0.0018305,0.0566607,-0.000793444,-0.000156694,-0.000881054,-0.0106302,0.000505198,-0.0244427,-0.295103,0.0198568,-0.706851,0.00726149,0.113967,-0.00570927,-0.0405092,20.1539,0.928574,-1.3913,0.350575,-2.44599,0.0186787,0,-1.99805,0.00805664,-0.153076,0.0205405,0.366577,-0.0444942,23.4648,23.3229,23.1811,23.2804,23.3229,23.2804,23.1527,
55,0.0235624,1.35138,3.15013,4.45822,0.109161,1.56037,1.56848,-5.30299e-06,0.0016027,0.00100702,-0.00320145,0.00110538,0.000113756,0,0.496849,1.74786,-0.697525,0.307275,0.293493,1.24806,0.825035,0.013538,-16.765,-0.335093,-0.62824,0.00242893,2.01323,-0.00574331,5.74938e-05,0.00119551,-3.8371e-05,0.504782,-0.0018305,0.0566607,-0.00139806,-0.000182888,-0.00112087,-0.0106302,0.000505198,-0.0244427,-0.295103,0.0198568,-0.706851,0.00726149,0.113967,-0.00570927,-0.0211633,20.0948,0.940694,-1.37271,0.358152,-2.42756,0.0370782,-0.0161133,-1.98193,0.0113938,-0.145912,0.0205405,0.354492,-0.0459299,23.479,23.3371,23.1811,23.3087,23.2946,23.2804,23.1527,
56,0.0235624,1.35138,3.15013,4.45822,0.109161,1.56037,1.56848,-5.30299e-06,0.0016027,0.00100702,-0.00320145,0.00110538,0.000113756,0,0.497044,1.72494,-0.702504,0.356811,0.292697,1.18009,0.822198,0.0135895,-16.7814,-0.335989,-0.610851,0.00217654,2.01631,-0.00571269,5.80578e-05,0.00118816,-3.91037e-05,0.504782,-0.0018305,0.0566607,-0.00139806,-0.000182888,-0.00112087,-0.0105446,0.000509836,-0.0243773,-0.274397,0.0207817,-0.697691,0.00743654,0.109375,-0.0056397,-0.0211633,20.0948,0.940694,-1.37271,0.358152,-2.42756,0.0370782,-0.0161133,-1.98193,0.0113938,-0.145912,0.0205405,0.354492,-0.0459299,23.479,23.3371,23.1811,23.3087,23.2946,23.2804,23.1527,
57,0.0235624,1.35138,3.15013,4.45822,0.109161,1.56037,1.56848,-5.30299e-06,0.0016027,0.00100702,-0.00320145,0.00110538,0.000113756,0,0.497044,1.72494,-0.702504,0.356811,0.292697,1.18009,0.822198,0.0135895,-16.7814,-0.335989,-0.610851,0.00217654,2.01631,-0.00571269,5.80578e-05,0.00118816,-3.91037e-05,0.504782,-0.0018305,0.0566607,-0.00139806,-0.000182888,-0.00112087,-0.0105446,0.000509836,-0.0243773,-0.274397,0.0207817,-0.697691,0.00743654,0.109375,-0.0056397,-0.0211633,20.0948,0.940694,-1.37271,0.358152,-2.42756,0.0370782,-0.0161133,-1.98193,0.0113938,-0.145912,0.0205405,0.354492,-0.0459299,23.479,23.3371,23.1811,23.3087,23.2946,23.2804,23.1527,
58,0.0235624,1.35138,3.15013,4.45822,0.109161,1.56037,1.56848,-5.30299e-06,0.0016027,0.00100702,-0.00320145,0.00110538,0.000113756,0,0.497044,1.72494,-0.702504,0.356811,0.292697,1.18009,0.822198,0.0135895,-16.7814,-0.335989,-0.610851,0.00217654,2.01631,-0.00571269,5.80578e-05,0.00118816,-3.91037e-05,0.504782,-0.0018305,0.0566607,-0.00139806,-0.000182888,-0.00112087,-0.0105446,0.000509836,-0.0243773,-0.274397,0.0207817,-0.697691,0.00743654,0.109375,-0.0056397,-0.0211633,20.0948,0.940694,-1.37271,0.358152,-2.42756,0.0370782,-0.0161133,-1.98193,0.0113938,-0.145912,0.0205405,0.354492,-0.0459299,23.479,23.3371,23.1811,23.3087,23.2946,23.2804,23.1527,
59,0.0235624,1.35138,3.15013,4.45822,0.109162,1.56037,1.56848,-5.30299e-06,0.00152351,0.00111839,-0.00452104,0.00110538,0.000113756,0,0.497028,1.72494,-0.702479,0.356816,0.292685,1.18009,0.822178,0.0135858,-16.7814,-0.335987,-0.610905,0.00217703,2.01631,-0.00571273,5.80578e-05,0.00118816,-3.91037e-05,0.504782,-0.0018305,0.0566607,-0.00180115,-0.000210627,-0.00120759,-0.0105446,0.000509836,-0.0243773,-0.274397,0.0207817,-0.697691,0.00743654,0.109375,-0.0056397,-0.0192941,20.0037,0.938578,-1.3397,0.359682,-2.41334,0.02261,-0.0360304,-1.94971,0.00805664,-0.1372,0.0324774,0.362549,-0.0404841,23.4648,23.3229,23.1669,23.3087,23.3229,23.2804,23.1527,
60,0.0235624,1.35138,3.15013,4.45822,0.109162,1.56037,1.56848,-5.30299e-06,0.00152351,0.00111839,-0.00452104,0.00110538,0.000113756,0,0.49719,1.71483,-0.706749,0.395402,0.291842,1.13436,0.821082,0.0136284,-16.7886,-0.336588,-0.598674,0.00205473,2.01792,-0.00570156,5.83835e-05,0.00118175,-3.99025e-05,0.504782,-0.0018305,0.0566607,-0.00180115,-0.000210627,-0.00120759,-0.0104676,0.000511103,-0.0243308,-0.259993,0.0216519,-0.693697,0.00762309,0.106249,-0.00564912,-0.0192941,20.0037,0.938578,-1.3397,0.359682,-2.41334,0.02261,-0.0360304,-1.94971,0.00805664,-0.1372,0.0324774,0.362549,-0.0404841,23.4648,23.3229,23.1669,23.3087,23.3229,23.2804,23.1527,
61,0.0235624,1.35138,3.15013,4.45822,0.109163,1.56037,1.56848,-5.30299e-06,0.00165599,0.0011467,-0.00495179,0.00110458,0.00011367,0,0.497188,1.71484,-0.706743,0.395407,0.291838,1.13436,0.821081,0.0136284,-16.7886,-0.336588,-0.598725,0.00205622,2.01792,-0.00570168,5.83835e-05,0.00118175,-3.99025e-05,0.504782,-0.0018305,0.0566607,-0.00196871,-0.000216246,-0.00131568,-0.0104676,0.000511103,-0.0243308,-0.259993,0.0216519,-0.693697,0.00762309,0.106249,-0.00564912,-0.00250757,19.945,0.937783,-1.34623,0.362797,-2.40207,0.0226804,-0.0180152,-1.9175,0.00805664,-0.104736,0.034418,0.350487,-0.0443115,23.4648,23.3087,23.1669,23.2946,23.3371,23.2804,23.1527,
62,0.0235624,1.35138,3.15013,4.45822,0.109163,1.56037,1.56848,-5.30299e-06,0.00165599,0.0011467,-0.00495179,0.00110458,0.00011367,0,0.497205,1.70329,-0.707374,0.410015,0.291731,1.11002,0.818996,0.0136329,-16.7968,-0.336854,-0.592794,0.00189473,2.01932,-0.00568047,5.82001e-05,0.00117575,-4.08131e-05,0.504782,-0.0018305,0.0566607,-0.00196871,-0.000216246,-0.00131568,-0.0103962,0.000505458,-0.0242842,-0.252824,0.0216511,-0.689054,0.00763192,0.104522,-0.0057191,-0.00250757,19.945,0.937783,-1.34623,0.362797,-2.40207,0.0226804,-0.0180152,-1.9175,0.00805664,-0.104736,0.034418,0.350487,-0.0443115,23.4648,23.3087,23.1669,23.2946,23.3371,23.2804,23.1527,
63,0.0235624,1.35138,3.15013,4.45822,0.109163,1.56037,1.56848,-5.30299e-06,0.00165599,0.0011467,-0.00495179,0.00110458,0.00011367,0,0.497205,1.70329,-0.707374,0.410015,0.291731,1.11002,0.818996,0.0136329,-16.7968,-0.336854,-0.592794,0.00189473,2.01932,-0.00568047,5.82001e-05,0.00117575,-4.08131e-05,0.504782,-0.0018305,0.0566607,-0.00196871,-0.000216246,-0.00131568,-0.0103962,0.000505458,-0.0242842,-0.252824,0.0216511,-0.689054,0.00763192,0.104522,-0.0057191,-0.00250757,19.945,0.937783,-1.34623,0.362797,-2.40207,0.0226804,-0.0180152,-1.9175,0.00805664,-0.104736,0.034418,0.350487,-0.0443115,23.4648,23.3087,23.1669,23.2946,23.3371,23.2804,23.1527,
64,0.0235624,1.35138,3.15013,4.45821,0.109164,1.56037,1.56848,-5.30294e-06,0.00162262,0.00112906,-0.00465219,0.00106769,0.000113756,0,0.497188,1.7033,-0.707351,0.410022,0.291716,1.11002,0.818975,0.0136293,-16.7968,-0.336852,-0.592842,0.00189518,2.01932,-0.00568051,5.82001e-05,0.00117575,-4.08131e-05,0.504782,-0.0018305,0.0566607,-0.0018652,-0.000216654,-0.00127018,-0.0103962,0.000505458,-0.0242842,-0.252824,0.0216511,-0.689054,0.00763192,0.104522,-0.0057191,-0.00501013,19.8515,0.936717,-1.36974,0.354584,-2.39002,0.0185596,-0.0490066,-1.89333,-0.00805664,-0.105969,0.0284845,0.342431,-0.0371393,23.4932,23.3371,23.1669,23.2946,23.3087,23.2804,23.1385,
65,0.0235624,1.35138,3.15013,4.45821,0.109164,1.56037,1.56848,-5.30294e-06,0.00162262,0.00112906,-0.00465219,0.00106769,0.000113756,0,0.497203,1.70344,-0.707476,0.40695,0.291677,1.11313,0.819421,0.0136332,-16.7967,-0.33686,-0.593697,0.00192911,2.01928,-0.00568538,5.85397e-05,0.00116988,-4.1608e-05,0.504782,-0.0018305,0.0566607,-0.0018652,-0.000216654,-0.00127018,-0.0103259,0.000506915,-0.0242397,-0.25382,0.0217071,-0.689086,0.0076508,0.104601,-0.00573752,-0.00501013,19.8515,0.936717,-1.36974,0.354584,-2.39002,0.0185596,-0.0490066,-1.89333,-0.00805664,-0.105969,0.0284845,0.342431,-0.0371393,23.4932,23.3371,23.1669,23.2946,23.3087,23.2804,23.1385,
66,0.0235624,1.35138,3.15013,4.45821,0.109164,1.56037,1.56848,-5.30294e-06,0.00162262,0.00112906,-0.00465219,0.00106769,0.000113756,0,0.497203,1.70344,-0.707476,0.40695,0.291677,1.11313,0.819421,0.0136332,-16.7967,-0.33686,-0.593697,0.00192911,2.01928,-0.00568538,5.85397e-05,0.00116988,-4.1608e-05,0.504782,-0.0018305,0.0566607,-0.0018652,-0.000216654,-0.00127018,-0.0103259,0.000506915,-0.0242397,-0.25382,0.0217071,-0.689086,0.0076508,0.104601,-0.00573752,-0.00501013,19.8515,0.936717,-1.36974,0.354584,-2.39002,0.0185596,-0.0490066,-1.89333,-0.00805664,-0.105969,0.0284845,0.342431,-0.0371393,23.4932,23.3371,23.1669,23.2946,23.3087,23.2804,23.1385,
67,0.0235624,1.35138,3.15013,4.45821,0.109165,1.56037,1.56848,-5.30299e-06,0.00165212,0.00104612,-0.0038622,0.00103605,0.000113756,0,0.497202,1.70345,-0.707475,0.406956,0.291673,1.11312,0.81942,0.0136333,-16.7967,-0.33686,-0.593726,0.00193011,2.01928,-0.00568546,5.85397e-05,0.00116988,-4.1608e-05,0.504782,-0.0018305,0.0566607,-0.00161948,-0.00019808,-0.00120885,-0.0103259,0.000506915,-0.0242397,-0.25382,0.0217071,-0.689086,0.0076508,0.104601,-0.00573752,0.00557089,19.7974,0.944629,-1.37901,0.351748,-2.39232,0.00667551,-0.00805664,-1.86916,-0.00805664,-0.121118,0.036478,0.346436,-0.0485074,23.479,23.3229,23.1669,23.2946,23.3229,23.2946,23.1527,
68,0.0235624,1.35138,3.15013,4.45821,0.109165,1.56037,1.56848,-5.30299e-06,0.00165212,0.00104612,-0.0038622,0.00103605,0.000113756,0,0.497071,1.70598,-0.704498,0.389424,0.292201,1.13221,0.818765,0.0135989,-16.7949,-0.336523,-0.598946,0.00190453,2.01877,-0.00567851,5.8416e-05,0.00116628,-4.25423e-05,0.504782,-0.0018305,0.0566607,-0.00161948,-0.00019808,-0.00120885,-0.0102831,0.000501896,-0.0242108,-0.259908,0.0209993,-0.69006,0.00751753,0.105766,-0.00581697,0.00557089,19.7974,0.944629,-1.37901,0.351748,-2.39232,0.00667551,-0.00805664,-1.86916,-0.00805664,-0.121118,0.036478,0.346436,-0.0485074,23.479,23.3229,23.1669,23.2946,23.3229,23.2946,23.1527,
69,0.0235629,1.35138,3.15013,4.45821,0.109166,1.56037,1.56848,0,0.00155725,0.000957461,-0.00333444,0.00103605,0.000105821,0,0.49707,1.70598,-0.704496,0.389429,0.292197,1.1322,0.818764,0.0135989,-16.7949,-0.336523,-0.598978,0.00190558,2.01877,-0.00567859,5.8416e-05,0.00116628,-4.25423e-05,0.504782,-0.0018305,0.0566607,-0.0014294,-0.000175703,-0.00111017,-0.0102831,0.000501896,-0.0242108,-0.259908,0.0209993,-0.69006,0.00751753,0.105766,-0.00581697,0.00631618,19.7244,0.949667,-1.41042,0.351792,-2.39482,0.0211437,-0.0180152,-1.83691,0,-0.14502,0.0245033,0.342502,-0.0444942,23.4648,23.3371,23.1811,23.3087,23.3229,23.2804,23.1811,
70,0.0235629,1.35138,3.15013,4.45821,0.109166,1.56037,1.56848,0,0.00155725,0.000957461,-0.00333444,0.00103605,0.000105821,0,0.496957,1.71087,-0.702233,0.379211,0.292535,1.1467,0.818297,0.0135692,-16.7914,-0.336217,-0.602609,0.0018792,2.01814,-0.00566689,5.8364e-05,0.00116148,-4.30043e-05,0.504782,-0.0018305,0.0566607,-0.0014294,-0.000175703,-0.00111017,-0.0102367,0.000506113,-0.024177,-0.264218,0.0204545,-0.692005,0.00737193,0.106519,-0.00589987,0.00631618,19.7244,0.949667,-1.41042,0.351792,-2.39482,0.0211437,-0.0180152,-1.83691,0,-0.14502,0.0245033,0.342502,-0.0444942,23.4648,23.3371,23.1811,23.3087,23.3229,23.2804,23.1811,
71,0.0235629,1.35138,3.15013,4.4582,0.109167,1.56037,1.56848,0,0.00158364,0.000829151,-0.00261006,0.00103741,0.000105821,0,0.496955,1.71087,-0.702231,0.379217,0.292532,1.14669,0.818296,0.0135693,-16.7914,-0.336217,-0.602637,0.00188018,2.01814,-0.00566696,5.8364e-05,0.00116148,-4.30043e-05,0.504782,-0.0018305,0.0566607,-0.00120406,-0.000138119,-0.00105251,-0.0102367,0.000506113,-0.024177,-0.264218,0.0204545,-0.692005,0.00737193,0.106519,-0.00589987,-0.0161895,19.6976,0.92413,-1.4418,0.353404,-2.39308,0.0164554,-0.0322266,-1.82886,0.0161133,-0.177246,0.0362549,0.338403,-0.0402832,23.4648,23.3371,23.1811,23.3087,23.2946,23.2662,23.1385,
72,0.0235629,1.35138,3.15013,4.4582,0.109167,1.56037,1.56848,0,0.00158364,0.000829151,-0.00261006,0.00103741,0.000105821,0,0.49671,1.71262,-0.697314,0.362797,0.293373,1.1642,0.815665,0.0135048,-16.7901,-0.335708,-0.607451,0.00171612,2.01772,-0.00564029,5.82447e-05,0.00115801,-4.39347e-05,0.504782,-0.0018305,0.0566607,-0.00120406,-0.000138119,-0.00105251,-0.010197,0.000501199,-0.0241421,-0.269789,0.0191795,-0.692687,0.00714507,0.107574,-0.00606356,-0.0161895,19.6976,0.92413,-1.4418,0.353404,-2.39308,0.0164554,-0.0322266,-1.82886,0.0161133,-0.177246,0.0362549,0.338403,-0.0402832,23.4648,23.3371,23.1811,23.3087,23.2946,23.2662,23.1385,
73,0.0235629,1.35139,3.15013,4.4582,0.109168,1.56036,1.56848,0,0.00163502,0.000740894,-0.0027202,0.00103631,9.52376e-05,0,0.496708,1.71262,-0.69731,0.362804,0.293369,1.16419,0.815664,0.0135049,-16.7901,-0.335708,-0.607494,0.00171745,2.01772,-0.0056404,5.82447e-05,0.00115801,-4.39347e-05,0.504782,-0.0018305,0.0566607,-0.00125064,-0.00010786,-0.00108806,-0.010197,0.000501199,-0.0241421,-0.269789,0.0191795,-0.692687,0.00714507,0.107574,-0.00606356,-0.0173122,19.6662,0.925214,-1.43834,0.354571,-2.41107,0.0114929,-0.0180152,-1.80469,0.0161133,-0.209628,0.0371393,0.342407,-0.0485074,23.4648,23.3371,23.1669,23.2946,23.3087,23.2804,23.1385,
74,0.0235629,1.35139,3.15013,4.4582,0.109168,1.56036,1.56848,0,0.00163502,0.000740894,-0.0027202,0.00103631,9.52376e-05,0,0.496503,1.70593,-0.693834,0.368107,0.293998,1.15356,0.811279,0.0134508,-16.7949,-0.335491,-0.604969,0.00140717,2.01849,-0.00559381,5.81633e-05,0.00115202,-4.48606e-05,0.504782,-0.0018305,0.0566607,-0.00125064,-0.00010786,-0.00108806,-0.0101388,0.000495856,-0.0240884,-0.266645,0.0181115,-0.69001,0.00695852,0.106635,-0.00619044,-0.0173122,19.6662,0.925214,-1.43834,0.354571,-2.41107,0.0114929,-0.0180152,-1.80469,0.0161133,-0.209628,0.0371393,0.342407,-0.0485074,23.4648,23.3371,23.1669,23.2946,23.3087,23.2804,23.1385,
75,0.0235629,1.35139,3.15013,4.4582,0.109169,1.56036,1.56848,0,0.00150461,0.000656038,-0.00298041,0.00100418,9.52376e-05,0,0.496486,1.70594,-0.693811,0.368114,0.293985,1.15356,0.811259,0.0134473,-16.7949,-0.33549,-0.605015,0.00140756,2.01849,-0.00559385,5.81633e-05,0.00115202,-4.48606e-05,0.504782,-0.0018305,0.0566607,-0.00130338,-8.18731e-05,-0.0010449,-0.0101388,0.000495856,-0.0240884,-0.266645,0.0181115,-0.69001,0.00695852,0.106635,-0.00619044,-0.0256121,19.6376,0.913967,-1.43317,0.364154,-2.42063,0.0153985,-0.0180152,-1.78857,0.0332184,-0.209473,0.0284845,0.334375,-0.0483398,23.4648,23.3513,23.1811,23.3087,23.3087,23.2804,23.1527,
76,0.0235629,1.35139,3.15013,4.4582,0.109169,1.56036,1.56848,0,0.00150461,0.000656038,-0.00298041,0.00100418,9.52376e-05,0,0.496325,1.70512,-0.691509,0.378793,0.294384,1.14318,0.80799,0.0134049,-16.7955,-0.335287,-0.602018,0.00116745,2.01872,-0.00555711,5.85106e-05,0.00114641,-4.56621e-05,0.504782,-0.0018305,0.0566607,-0.00130338,-8.18731e-05,-0.0010449,-0.0100739,0.000497433,-0.0240362,-0.263114,0.0173792,-0.68974,0.00682281,0.105818,-0.00623897,-0.0256121,19.6376,0.913967,-1.43317,0.364154,-2.42063,0.0153985,-0.0180152,-1.78857,0.0332184,-0.209473,0.0284845,0.334375,-0.0483398,23.4648,23.3513,23.1811,23.3087,23.3087,23.2804,23.1527,
77,0.0235629,1.35139,3.15013,4.4582,0.109169,1.56036,1.56848,0,0.00150461,0.000656038,-0.00298041,0.00100418,9.52376e-05,0,0.496325,1.70512,-0.691509,0.378793,0.294384,1.14318,0.80799,0.0134049,-16.7955,-0.335287,-0.602018,0.00116745,2.01872,-0.00555711,5.85106e-05,0.00114641,-4.56621e-05,0.504782,-0.0018305,0.0566607,-0.00130338,-8.18731e-05,-0.0010449,-0.0100739,0.000497433,-0.0240362,-0.263114,0.0173792,-0.68974,0.00682281,0.105818,-0.00623897,-0.0256121,19.6376,0.913967,-1.43317,0.364154,-2.42063,0.0153985,-0.0180152,-1.78857,0.0332184,-0.209473,0.0284845,0.334375,-0.0483398,23.4648,23.3513,23.1811,23.3087,23.3087,23.2804,23.1527,
78,0.0235629,1.35139,3.15013,4.45819,0.10917,1.56036,1.56848,0,0.00147821,0.000546887,-0.00324451,0.00100418,8.46557e-05,0,0.496316,1.70513,-0.691495,0.3788,0.294374,1.14317,0.807979,0.0134032,-16.7955,-0.335286,-0.602069,0.00116846,2.01872,-0.00555719,5.85106e-05,0.00114641,-4.56621e-05,0.504782,-0.0018305,0.0566607,-0.00138131,-4.38508e-05,-0.00105524,-0.0100739,0.000497433,-0.0240362,-0.263114,0.0173792,-0.68974,0.00682281,0.105818,-0.00623897,-0.0153924,19.6194,0.906082,-1.44972,0.36644,-2.4194,0.00462653,-0.0180152,-1.77248,0.0180152,-0.209628,0.0404841,0.318263,-0.045038,23.479,23.3229,23.1669,23.2946,23.3087,23.2946,23.1385,
79,0.0235629,1.35139,3.15013,4.45819,0.10917,1.56036,1.56848,0,0.00147821,0.000546887,-0.00324451,0.00100418,8.46557e-05,0,0.496071,1.70012,-0.68764,0.389476,0.29505,1.12915,0.802865,0.0133388,-16.799,-0.335006,-0.598381,0.000800858,2.0194,-0.00550222,5.86655e-05,0.00113948,-4.6513e-05,0.504782,-0.0018305,0.0566607,-0.00138131,-4.38508e-05,-0.00105524,-0.0100032,0.000495378,-0.023981,-0.258657,0.0161769,-0.687773,0.00661486,0.104634,-0.00636707,-0.0153924,19.6194,0.906082,-1.44972,0.36644,-2.4194,0.00462653,-0.0180152,-1.77248,0.0180152,-0.209628,0.0404841,0.318263,-0.045038,23.479,23.3229,23.1669,23.2946,23.3087,23.2946,23.1385,
80,0.0235629,1.35139,3.15013,4.45819,0.10917,1.56036,1.56848,0,0.00147821,0.000546887,-0.00324451,0.00100418,8.46557e-05,0,0.496071,1.70012,-0.68764,0.389476,0.29505,1.12915,0.802865,0.0133388,-16.799,-0.335006,-0.598381,0.000800858,2.0194,-0.00550222,5.86655e-05,0.00113948,-4.6513e-05,0.504782,-0.0018305,0.0566607,-0.00138131,-4.38508e-05,-0.00105524,-0.0100032,0.000495378,-0.023981,-0.258657,0.0161769,-0.687773,0.00661486,0.104634,-0.00636707,-0.0153924,19.6194,0.906082,-1.44972,0.36644,-2.4194,0.00462653,-0.0180152,-1.77248,0.0180152,-0.209628,0.0404841,0.318263,-0.045038,23.479,23.3229,23.1669,23.2946,23.3087,23.2946,23.1385,
81,0.0235629,1.35139,3.15013,4.45819,0.10917,1.56036,1.56848,0,0.00147821,0.000546887,-0.00324451,0.00100418,8.46557e-05,0,0.496071,1.70012,-0.68764,0.389476,0.29505,1.12915,0.802865,0.0133388,-16.799,-0.335006,-0.598381,0.000800858,2.0194,-0.00550222,5.86655e-05,0.00113948,-4.6513e-05,0.504782,-0.0018305,0.0566607,-0.00138131,-4.38508e-05,-0.00105524,-0.0100032,0.000495378,-0.023981,-0.258657,0.0161769,-0.687773,0.00661486,0.104634,-0.00636707,-0.0153924,19.6194,0.906082,-1.44972,0.36644,-2.4194,0.00462653,-0.0180152,-1.77248,0.0180152,-0.209628,0.0404841,0.318263,-0.045038,23.479,23.3229,23.1669,23.2946,23.3087,23.2946,23.1385,
82,0.0235629,1.35139,3.15013,4.45819,0.109171,1.56036,1.56848,0,0.00150446,0.000493962,-0.00367076,0.00100638,7.41304e-05,0,0.496054,1.70013,-0.687615,0.389484,0.295034,1.12915,0.802844,0.0133353,-16.799,-0.335004,-0.598445,0.000801663,2.01939,-0.00550228,5.86655e-05,0.00113948,-4.6513e-05,0.504782,-0.0018305,0.0566607,-0.0015231,-2.27949e-05,-0.00110863,-0.0100032,0.000495378,-0.023981,-0.258657,0.0161769,-0.687773,0.00661486,0.104634,-0.00636707,0.040489,19.6217,0.913516,-1.44617,0.351571,-2.43241,0.00548951,-0.0180152,-1.75635,0.0241699,-0.217678,0.0569691,0.326393,-0.038216,23.4648,23.3229,23.1811,23.2946,23.3229,23.3087,23.1527,
83,0.0235629,1.35139,3.15013,4.45819,0.109171,1.56036,1.56848,0,0.00150446,0.000493962,-0.00367076,0.00100638,7.41304e-05,0,0.495941,1.69069,-0.686101,0.404639,0.295305,1.10663,0.798953,0.0133055,-16.8058,-0.335028,-0.592757,0.000514556,2.0206,-0.00546172,5.90554e-05,0.00113094,-4.72988e-05,0.504782,-0.0018305,0.0566607,-0.0015231,-2.27949e-05,-0.00110863,-0.00991623,0.000496489,-0.0239086,-0.251794,0.0155785,-0.683998,0.00652926,0.102857,-0.0064659,0.040489,19.6217,0.913516,-1.44617,0.351571,-2.43241,0.00548951,-0.0180152,-1.75635,0.0241699,-0.217678,0.0569691,0.326393,-0.038216,23.4648,23.3229,23.1811,23.2946,23.3229,23.3087,23.1527,
84,0.0235629,1.35139,3.15013,4.45819,0.109171,1.56036,1.56848,0,0.00150446,0.000493962,-0.00367076,0.00100638,7.41304e-05,0,0.495941,1.69069,-0.686101,0.404639,0.295305,1.10663,0.798953,0.0133055,-16.8058,-0.335028,-0.592757,0.000514556,2.0206,-0.00546172,5.90554e-05,0.00113094,-4.72988e-05,0.504782,-0.0018305,0.0566607,-0.0015231,-2.27949e-05,-0.00110863,-0.00991623,0.000496489,-0.0239086,-0.251794,0.0155785,-0.683998,0.00652926,0.102857,-0.0064659,0.040489,19.6217,0.913516,-1.44617,0.351571,-2.43241,0.00548951,-0.0180152,-1.75635,0.0241699,-0.217678,0.0569691,0.326393,-0.038216,23.4648,23.3229,23.1811,23.2946,23.3229,23.3087,23.1527,
85,0.0235629,1.35139,3.15013,4.45818,0.109172,1.56036,1.56848,0,0.00161112,0.000441008,-0.00483489,0.000975145,7.40744e-05,0,0.495916,1.6907,-0.686064,0.404646,0.295285,1.10664,0.798922,0.0133001,-16.8057,-0.335026,-0.592834,0.000515197,2.0206,-0.00546177,5.90554e-05,0.00113094,-4.72988e-05,0.504782,-0.0018305,0.0566607,-0.00191811,5.85077e-07,-0.00127101,-0.00991623,0.000496489,-0.0239086,-0.251794,0.0155785,-0.683998,0.00652926,0.102857,-0.0064659,0.0222204,19.67,0.900324,-1.45275,0.356799,-2.42648,0.0106765,-0.0180152,-1.74025,0.0254773,-0.233643,0.0565402,0.322291,-0.0485074,23.479,23.3371,23.1952,23.2946,23.3229,23.2804,23.1669,
86,0.0235629,1.35139,3.15013,4.45818,0.109172,1.56036,1.56848,0,0.00161112,0.000441008,-0.00483489,0.000975145,7.40744e-05,0,0.495807,1.67254,-0.68527,0.439606,0.295546,1.05734,0.792805,0.0132714,-16.8187,-0.335277,-0.580287,5.22705e-05,2.02297,-0.00539473,5.95757e-05,0.00112186,-4.80287e-05,0.504782,-0.0018305,0.0566607,-0.00191811,5.85077e-07,-0.00127101,-0.00981003,0.000500616,-0.02383,-0.236758,0.0150009,-0.676769,0.00641594,0.0994115,-0.00648012,0.0222204,19.67,0.900324,-1.45275,0.356799,-2.42648,0.0106765,-0.0180152,-1.74025,0.0254773,-0.233643,0.0565402,0.322291,-0.0485074,23.479,23.3371,23.1952,23.2946,23.3229,23.2804,23.1669,
87,0.0235629,1.35139,3.15013,4.45818,0.109172,1.56036,1.56848,0,0.00161112,0.000441008,-0.00483489,0.000975145,7.40744e-05,0,0.495807,1.67254,-0.68527,0.439606,0.295546,1.05734,0.792805,0.0132714,-16.8187,-0.335277,-0.580287,5.22705e-05,2.02297,-0.00539473,5.95757e-05,0.00112186,-4.80287e-05,0.504782,-0.0018305,0.0566607,-0.00191811,5.85077e-07,-0.00127101,-0.00981003,0.000500616,-0.02383,-0.236758,0.0150009,-0.676769,0.00641594,0.0994115,-0.00648012,0.0222204,19.67,0.900324,-1.45275,0.356799,-2.42648,0.0106765,-0.0180152,-1.74025,0.0254773,-0.233643,0.0565402,0.322291,-0.0485074,23.479,23.3371,23.1952,23.2946,23.3229,23.2804,23.1669,
88,0.0235629,1.3514,3.15014,4.45817,0.109173,1.56036,1.56848,0,0.00175523,0.00042551,-0.00587914,0.000943968,6.61379e-05,0,0.495775,1.67255,-0.685224,0.439613,0.295519,1.05734,0.792765,0.0132642,-16.8187,-0.335274,-0.580364,5.23458e-05,2.02296,-0.00539474,5.95757e-05,0.00112186,-4.80287e-05,0.504782,-0.0018305,0.0566607,-0.00228357,1.08518e-05,-0.00144263,-0.00981003,0.000500616,-0.02383,-0.236758,0.0150009,-0.676769,0.00641594,0.0994115,-0.00648012,0.0348811,19.7177,0.920317,-1.45784,0.341311,-2.41852,0.00819449,-0.0180152,-1.70801,0.041081,-0.209628,0.0604248,0.318237,-0.0404841,23.479,23.3371,23.1669,23.3229,23.3087,23.2804,23.1669,
89,0.0235629,1.3514,3.15014,4.45817,0.109173,1.56036,1.56848,0,0.00175523,0.00042551,-0.00587914,0.000943968,6.61379e-05,0,0.495774,1.65391,-0.686136,0.471174,0.29547,1.01069,0.788492,0.0132641,-16.832,-0.335697,-0.56863,-0.000278018,2.02536,-0.00534916,6.04404e-05,0.00111212,-4.86884e-05,0.504782,-0.0018305,0.0566607,-0.00228357,1.08518e-05,-0.00144263,-0.00970604,0.000508406,-0.0237526,-0.222674,0.0149266,-0.6693,0.00641579,0.0960464,-0.00647306,0.0348811,19.7177,0.920317,-1.45784,0.341311,-2.41852,0.00819449,-0.0180152,-1.70801,0.041081,-0.209628,0.0604248,0.318237,-0.0404841,23.479,23.3371,23.1669,23.3229,23.3087,23.2804,23.1669,
90,0.0235629,1.3514,3.15014,4.45817,0.109173,1.56036,1.56848,0,0.00175523,0.00042551,-0.00587914,0.000943968,6.61379e-05,0,0.495774,1.65391,-0.686136,0.471174,0.29547,1.01069,0.788492,0.0132641,-16.832,-0.335697,-0.56863,-0.000278018,2.02536,-0.00534916,6.04404e-05,0.00111212,-4.86884e-05,0.504782,-0.0018305,0.0566607,-0.00228357,1.08518e-05,-0.00144263,-0.00970604,0.000508406,-0.0237526,-0.222674,0.0149266,-0.6693,0.00641579,0.0960464,-0.00647306,0.0348811,19.7177,0.920317,-1.45784,0.341311,-2.41852,0.00819449,-0.0180152,-1.70801,0.041081,-0.209628,0.0604248,0.318237,-0.0404841,23.479,23.3371,23.1669,23.3229,23.3087,23.2804,23.1669,
91,0.0235629,1.3514,3.15014,4.45817,0.109174,1.56036,1.56848,0,0.00201843,0.000423396,-0.00648234,0.000920564,6.61379e-05,0,0.495749,1.65391,-0.686099,0.471182,0.295449,1.01069,0.788461,0.0132588,-16.832,-0.335694,-0.568712,-0.000277229,2.02536,-0.00534922,6.04404e-05,0.00111212,-4.86884e-05,0.504782,-0.0018305,0.0566607,-0.00253557,1.49125e-05,-0.00163228,-0.00970604,0.000508406,-0.0237526,-0.222674,0.0149266,-0.6693,0.00641579,0.0960464,-0.00647306,0.0589395,19.7523,0.930656,-1.4514,0.334448,-2.42522,-0.0044892,-0.0360304,-1.69997,0.0360304,-0.185478,0.0523682,0.318263,-0.036478,23.4506,23.3229,23.1669,23.3087,23.3513,23.2946,23.1527,
92,0.0235629,1.3514,3.15014,4.45817,0.109174,1.56036,1.56848,0,0.00201843,0.000423396,-0.00648234,0.000920564,6.61379e-05,0,0.495785,1.63316,-0.687037,0.491095,0.295419,0.97285,0.785196,0.0132682,-16.8469,-0.336151,-0.559772,-0.000523532,2.02779,-0.00531571,6.09484e-05,0.00110251,-4.941e-05,0.504782,-0.0018305,0.0566607,-0.00253557,1.49125e-05,-0.00163228,-0.00959499,0.000512454,-0.0236633,-0.211783,0.0149262,-0.66093,0.00642102,0.0933536,-0.00648931,0.0589395,19.7523,0.930656,-1.4514,0.334448,-2.42522,-0.0044892,-0.0360304,-1.69997,0.0360304,-0.185478,0.0523682,0.318263,-0.036478,23.4506,23.3229,23.1669,23.3087,23.3513,23.2946,23.1527,
93,0.0235629,1.3514,3.15014,4.45817,0.109174,1.56036,1.56848,0,0.00201843,0.000423396,-0.00648234,0.000920564,6.61379e-05,0,0.495785,1.63316,-0.687037,0.491095,0.295419,0.97285,0.785196,0.0132682,-16.8469,-0.336151,-0.559772,-0.000523532,2.02779,-0.00531571,6.09484e-05,0.00110251,-4.941e-05,0.504782,-0.0018305,0.0566607,-0.00253557,1.49125e-05,-0.00163228,-0.00959499,0.000512454,-0.0236633,-0.211783,0.0149262,-0.66093,0.00642102,0.0933536,-0.00648931,0.0589395,19.7523,0.930656,-1.4514,0.334448,-2.42522,-0.0044892,-0.0360304,-1.69997,0.0360304,-0.185478,0.0523682,0.318263,-0.036478,23.4506,23.3229,23.1669,23.3087,23.3513,23.2946,23.1527,
94,0.0235629,1.3514,3.15014,4.45817,0.109174,1.56036,1.56848,0,0.00201843,0.000423396,-0.00648234,0.000920564,6.61379e-05,0,0.495785,1.63316,-0.687037,0.491095,0.295419,0.97285,0.785196,0.0132682,-16.8469,-0.336151,-0.559772,-0.000523532,2.02779,-0.00531571,6.09484e-05,0.00110251,-4.941e-05,0.504782,-0.0018305,0.0566607,-0.00253557,1.49125e-05,-0.00163228,-0.00959499,0.000512454,-0.0236633,-0.211783,0.0149262,-0.66093,0.00642102,0.0933536,-0.00648931,0.0589395,19.7523,0.930656,-1.4514,0.334448,-2.42522,-0.0044892,-0.0360304,-1.69997,0.0360304,-0.185478,0.0523682,0.318263,-0.036478,23.4506,23.3229,23.1669,23.3087,23.3513,23.2946,23.1527,
95,0.0235629,1.3514,3.15014,4.45816,0.109175,1.56036,1.56848,0,0.00231838,0.000458679,-0.00634729,0.000889359,6.61372e-05,0,0.495753,1.63317,-0.686991,0.491103,0.295392,0.972852,0.785155,0.0132611,-16.8468,-0.336148,-0.559846,-0.000523467,2.02779,-0.00531572,6.09484e-05,0.00110251,-4.941e-05,0.504782,-0.0018305,0.0566607,-0.00256057,5.26432e-07,-0.00177172,-0.00959499,0.000512454,-0.0236633,-0.211783,0.0149262,-0.66093,0.00642102,0.0933536,-0.00648931,0.045191,19.7774,0.944346,-1.46831,0.337982,-2.41292,-0.00078021,-0.0254773,-1.69995,0.0490066,-0.193527,0.0649547,0.318237,-0.0485074,23.4506,23.3087,23.1669,23.2946,23.3229,23.2804,23.1527,
96,0.0235629,1.3514,3.15014,4.45816,0.109175,1.56036,1.56848,0,0.00231838,0.000458679,-0.00634729,0.000889359,6.61372e-05,0,0.495934,1.61723,-0.689704,0.491964,0.295019,0.957087,0.785935,0.013309,-16.8582,-0.336684,-0.556859,-0.000466802,2.02948,-0.00532781,6.17353e-05,0.00109369,-5.00844e-05,0.504782,-0.0018305,0.0566607,-0.00256057,5.26432e-07,-0.00177172,-0.00949215,0.000520196,-0.0235855,-0.207947,0.0155901,-0.654413,0.00656347,0.092141,-0.00648126,0.045191,19.7774,0.944346,-1.46831,0.337982,-2.41292,-0.00078021,-0.0254773,-1.69995,0.0490066,-0.193527,0.0649547,0.318237,-0.0485074,23.4506,23.3087,23.1669,23.2946,23.3229,23.2804,23.1527,
97,0.0235629,1.3514,3.15014,4.45816,0.109175,1.56036,1.56848,0,0.00231838,0.000458679,-0.00634729,0.000889359,6.61372e-05,0,0.495934,1.61723,-0.689704,0.491964,0.295019,0.957087,0.785935,0.013309,-16.8582,-0.336684,-0.556859,-0.000466802,2.02948,-0.00532781,6.17353e-05,0.00109369,-5.00844e-05,0.504782,-0.0018305,0.0566607,-0.00256057,5.26432e-07,-0.00177172,-0.00949215,0.000520196,-0.0235855,-0.207947,0.0155901,-0.654413,0.00656347,0.092141,-0.00648126,0.045191,19.7774,0.944346,-1.46831,0.337982,-2.41292,-0.00078021,-0.0254773,-1.69995,0.0490066,-0.193527,0.0649547,0.318237,-0.0485074,23.4506,23.3087,23.1669,23.2946,23.3229,23.2804,23.1527,
98,0.0235629,1.3514,3.15014,4.45816,0.109175,1.56036,1.56848,0,0.00231838,0.000458679,-0.00634729,0.000889359,6.61372e-05,0,0.495934,1.61723,-0.689704,0.491964,0.295019,0.957087,0.785935,0.013309,-16.8582,-0.336684,-0.556859,-0.000466802,2.02948,-0.00532781,6.17353e-05,0.00109369,-5.00844e-05,0.504782,-0.0018305,0.0566607,-0.00256057,5.26432e-07,-0.00177172,-0.00949215,0.000520196,-0.0235855,-0.207947,0.0155901,-0.654413,0.00656347,0.092141,-0.00648126,0.045191,19.7774,0.944346,-1.46831,0.337982,-2.41292,-0.00078021,-0.0254773,-1.69995,0.0490066,-0.193527,0.0649547,0.318237,-0.0485074,23.4506,23.3087,23.1669,23.2946,23.3229,23.2804,23.1527,
99,0.0235629,1.3514,3.15014,4.45816,0.109177,1.56036,1.56848,0,0.00251854,0.000480237,-0.00607719,0.000887357,6.61372e-05,0,0.495909,1.61724,-0.689669,0.491971,0.294998,0.957087,0.785904,0.0133036,-16.8582,-0.336682,-0.556928,-0.000466244,2.02948,-0.00532786,6.17353e-05,0.00109369,-5.00844e-05,0.504782,-0.0018305,0.0566607,-0.00252004,-7.74516e-06,-0.00184777,-0.00949215,0.000520196,-0.0235855,-0.207947,0.0155901,-0.654413,0.00656347,0.092141,-0.00648126,0.0510817,19.8081,0.940222,-1.46914,0.338959,-2.41154,-0.00210302,-0.0113938,-1.66774,0.0483398,-0.209473,0.0604248,0.306179,-0.0402832,23.4648,23.3229,23.1669,23.3229,23.3229,23.2804,23.1385,
100,0.0235629,1.3514,3.15014,4.45816,0.109177,1.56036,1.56848,0,0.00251854,0.000480237,-0.00607719,0.000887357,6.61372e-05,0,0.496,1.60646,-0.690819,0.489728,0.294727,0.949176,0.786062,0.0133275,-16.8659,-0.336978,-0.555683,-0.000452044,2.03058,-0.00533603,6.2242e-05,0.00108541,-5.17585e-05,0.504782,-0.0018305,0.0566607,-0.00252004,-7.74516e-06,-0.00184777,-0.00939482,0.000520567,-0.0235143,-0.206243,0.0158494,-0.649996,0.00666062,0.0914513,-0.00663979,0.0510817,19.8081,0.940222,-1.46914,0.338959,-2.41154,-0.00210302,-0.0113938,-1.66774,0.0483398,-0.209473,0.0604248,0.306179,-0.0402832,23.4648,23.3229,23.1669,23.3229,23.3229,23.2804,23.1385,
101,0.0235629,1.35141,3.15014,4.45815,0.109178,1.56036,1.56848,0,0.00263332,0.000514877,-0.00598171,0.000865929,6.61372e-05,0,0.495967,1.60647,-0.690774,0.489736,0.2947,0.949177,0.78602,0.0133204,-16.8659,-0.336975,-0.555759,-0.00045194,2.03058,-0.00533604,6.2242e-05,0.00108541,-5.17585e-05,0.504782,-0.0018305,0.0566607,-0.00251563,-2.15902e-05,-0.00189744,-0.00939482,0.000520567,-0.0235143,-0.206243,0.0158494,-0.649996,0.00666062,0.0914513,-0.00663979,0.0368778,19.8474,0.944166,-1.47588,0.341804,-2.41397,-0.00298513,-0.00805664,-1.66774,0.0569691,-0.233781,0.0649547,0.310207,-0.0371393,23.479,23.3371,23.1811,23.3229,23.3371,23.2804,23.1669,
102,0.0235629,1.35141,3.15014,4.45815,0.109178,1.56036,1.56848,0,0.00263332,0.000514877,-0.00598171,0.000865929,6.61372e-05,0,0.496124,1.59706,-0.693343,0.492745,0.294264,0.937522,0.787098,0.0133616,-16.8726,-0.337385,-0.553305,-0.000379187,2.03163,-0.00535061,6.30221e-05,0.00107632,-5.24306e-05,0.504782,-0.0018305,0.0566607,-0.00251563,-2.15902e-05,-0.00189744,-0.00928858,0.000528232,-0.0234355,-0.203188,0.0164947,-0.646142,0.00680717,0.0905031,-0.00665068,0.0368778,19.8474,0.944166,-1.47588,0.341804,-2.41397,-0.00298513,-0.00805664,-1.66774,0.0569691,-0.233781,0.0649547,0.310207,-0.0371393,23.479,23.3371,23.1811,23.3229,23.3371,23.2804,23.1669,
103,0.0235629,1.35141,3.15014,4.45814,0.109178,1.56036,1.56848,0,0.00258857,0.00053101,-0.00624178,0.000834724,6.61379e-05,0,0.496099,1.59707,-0.693308,0.492753,0.294243,0.937522,0.787066,0.0133563,-16.8726,-0.337383,-0.553379,-0.000378607,2.03162,-0.00535065,6.30221e-05,0.00107632,-5.24306e-05,0.504782,-0.0018305,0.0566607,-0.00258815,-2.85754e-05,-0.00189965,-0.00928858,0.000528232,-0.0234355,-0.203188,0.0164947,-0.646142,0.00680717,0.0905031,-0.00665068,0.0286949,19.8781,0.955105,-1.51582,0.354543,-2.39699,0.011242,-0.0113938,-1.63552,0.041081,-0.225586,0.0685998,0.314209,-0.0404841,23.479,23.3229,23.1952,23.2946,23.3229,23.2946,23.1669,
104,0.0235629,1.35141,3.15014,4.45814,0.109178,1.56036,1.56848,0,0.00258857,0.00053101,-0.00624178,0.000834724,6.61379e-05,0,0.496169,1.59144,-0.694939,0.505565,0.293947,0.920339,0.786676,0.0133746,-16.8766,-0.337642,-0.548929,-0.000420828,2.03241,-0.00534639,6.35489e-05,0.00106751,-5.31522e-05,0.504782,-0.0018305,0.0566607,-0.00258815,-2.85754e-05,-0.00189965,-0.0091848,0.000532451,-0.0233623,-0.197899,0.0168308,-0.64388,0.00688239,0.0891913,-0.0066491,0.0286949,19.8781,0.955105,-1.51582,0.354543,-2.39699,0.011242,-0.0113938,-1.63552,0.041081,-0.225586,0.0685998,0.314209,-0.0404841,23.479,23.3229,23.1952,23.2946,23.3229,23.2946,23.1669,
105,0.0235629,1.35141,3.15014,4.45814,0.109178,1.56036,1.56848,0,0.00258857,0.00053101,-0.00624178,0.000834724,6.61379e-05,0,0.496169,1.59144,-0.694939,0.505565,0.293947,0.920339,0.786676,0.0133746,-16.8766,-0.337642,-0.548929,-0.000420828,2.03241,-0.00534639,6.35489e-05,0.00106751,-5.31522e-05,0.504782,-0.0018305,0.0566607,-0.00258815,-2.85754e-05,-0.00189965,-0.0091848,0.000532451,-0.0233623,-0.197899,0.0168308,-0.64388,0.00688239,0.0891913,-0.0066491,0.0286949,19.8781,0.955105,-1.51582,0.354543,-2.39699,0.011242,-0.0113938,-1.63552,0.041081,-0.225586,0.0685998,0.314209,-0.0404841,23.479,23.3229,23.1952,23.2946,23.3229,23.2946,23.1669,
106,0.0235629,1.35141,3.15014,4.45814,0.109179,1.56036,1.56848,0,0.00263288,0.000529372,-0.00701897,0.000834749,5.82013e-05,0,0.496151,1.59145,-0.694911,0.505572,0.29393,0.92034,0.786654,0.013371,-16.8766,-0.33764,-0.549016,-0.000419377,2.03241,-0.0053465,6.35489e-05,0.00106751,-5.31522e-05,0.504782,-0.0018305,0.0566607,-0.00284609,-2.21087e-05,-0.001996,-0.0091848,0.000532451,-0.0233623,-0.197899,0.0168308,-0.64388,0.00688239,0.0891913,-0.0066491,0.0450164,19.9177,0.95853,-1.55705,0.362417,-2.39002,0.00525011,-0.00805664,-1.61135,0.0483398,-0.249756,0.0809682,0.306179,-0.0485074,23.479,23.3371,23.1669,23.2804,23.3229,23.2804,23.1527,
107,0.0235629,1.35141,3.15014,4.45814,0.109179,1.56036,1.56848,0,0.00263288,0.000529372,-0.00701897,0.000834749,5.82013e-05,0,0.496121,1.57776,-0.695226,0.531908,0.293889,0.883264,0.782864,0.0133632,-16.8864,-0.337918,-0.539549,-0.00071265,2.03422,-0.00530621,6.38604e-05,0.00105645,-5.39187e-05,0.504782,-0.0018305,0.0566607,-0.00284609,-2.21087e-05,-0.001996,-0.00906486,0.000532798,-0.023276,-0.186563,0.0166472,-0.6384,0.00687006,0.0864266,-0.00671348,0.0450164,19.9177,0.95853,-1.55705,0.362417,-2.39002,0.00525011,-0.00805664,-1.61135,0.0483398,-0.249756,0.0809682,0.306179,-0.0485074,23.479,23.3371,23.1669,23.2804,23.3229,23.2804,23.1527,
108,0.0235629,1.35142,3.15014,4.45813,0.109181,1.56036,1.56848,0,0.00266627,0.000515442,-0.0082338,0.000862526,5.82013e-05,0,0.496103,1.57776,-0.695197,0.531916,0.293872,0.883266,0.782842,0.0133596,-16.8864,-0.337917,-0.539652,-0.00071066,2.03422,-0.00530637,6.38604e-05,0.00105645,-5.39187e-05,0.504782,-0.0018305,0.0566607,-0.00324127,-5.4795e-06,-0.00212697,-0.00906486,0.000532798,-0.023276,-0.186563,0.0166472,-0.6384,0.00687006,0.0864266,-0.00671348,0.0515038,19.9382,0.957317,-1.58532,0.35219,-2.38863,0.0126071,-0.0180152,-1.61141,0.0569691,-0.233781,0.076961,0.298096,-0.0444942,23.479,23.3371,23.1811,23.2946,23.3229,23.2946,23.1669,
109,0.0235629,1.35142,3.15014,4.45813,0.109181,1.56036,1.56848,0,0.00266627,0.000515442,-0.0082338,0.000862526,5.82013e-05,0,0.49598,1.56045,-0.694387,0.570893,0.293921,0.831065,0.776339,0.0133274,-16.8988,-0.338154,-0.526161,-0.00120841,2.03656,-0.00523935,6.40134e-05,0.00104444,-5.56346e-05,0.504782,-0.0018305,0.0566607,-0.00324127,-5.4795e-06,-0.00212697,-0.00892292,0.000528568,-0.0231779,-0.170449,0.0160214,-0.631527,0.0067929,0.0827307,-0.0069264,0.0515038,19.9382,0.957317,-1.58532,0.35219,-2.38863,0.0126071,-0.0180152,-1.61141,0.0569691,-0.233781,0.076961,0.298096,-0.0444942,23.479,23.3371,23.1811,23.2946,23.3229,23.2946,23.1669,
110,0.0235629,1.35142,3.15014,4.45813,0.109181,1.56036,1.56848,0,0.00266627,0.000515442,-0.0082338,0.000862526,5.82013e-05,0,0.49598,1.56045,-0.694387,0.570893,0.293921,0.831065,0.776339,0.0133274,-16.8988,-0.338154,-0.526161,-0.00120841,2.03656,-0.00523935,6.40134e-05,0.00104444,-5.56346e-05,0.504782,-0.0018305,0.0566607,-0.00324127,-5.4795e-06,-0.00212697,-0.00892292,0.000528568,-0.0231779,-0.170449,0.0160214,-0.631527,0.0067929,0.0827307,-0.0069264,0.0515038,19.9382,0.957317,-1.58532,0.35219,-2.38863,0.0126071,-0.0180152,-1.61141,0.0569691,-0.233781,0.076961,0.298096,-0.0444942,23.479,23.3371,23.1811,23.2946,23.3229,23.2946,23.1669,
111,0.0235629,1.35142,3.15014,4.45813,0.109181,1.56036,1.56848,0,0.00266627,0.000515442,-0.0082338,0.000862526,5.82013e-05,0,0.49598,1.56045,-0.694387,0.570893,0.293921,0.831065,0.776339,0.0133274,-16.8988,-0.338154,-0.526161,-0.00120841,2.03656,-0.00523935,6.40134e-05,0.00104444,-5.56346e-05,0.504782,-0.0018305,0.0566607,-0.00324127,-5.4795e-06,-0.00212697,-0.00892292,0.000528568,-0.0231779,-0.170449,0.0160214,-0.631527,0.0067929,0.0827307,-0.0069264,0.0515038,19.9382,0.957317,-1.58532,0.35219,-2.38863,0.0126071,-0.0180152,-1.61141,0.0569691,-0.233781,0.076961,0.298096,-0.0444942,23.479,23.3371,23.1811,23.2946,23.3229,23.2946,23.1669,
112,0.0235629,1.35142,3.15014,4.45812,0.109182,1.56036,1.56848,0,0.00275515,0.000503512,-0.00923264,0.000868438,4.76188e-05,0,0.495968,1.56046,-0.694367,0.570901,0.293907,0.831067,0.776325,0.0133256,-16.8987,-0.338153,-0.526277,-0.00120563,2.03656,-0.00523956,6.40134e-05,0.00104444,-5.56346e-05,0.504782,-0.0018305,0.0566607,-0.00358007,6.88551e-06,-0.00226674,-0.00892292,0.000528568,-0.0231779,-0.170449,0.0160214,-0.631527,0.0067929,0.0827307,-0.0069264,0.0309072,19.9685,0.966531,-1.62671,0.343855,-2.37842,0.02506,-0.0180152,-1.60335,0.0490066,-0.217678,0.0765381,0.294178,-0.0332184,23.4648,23.3229,23.1811,23.2946,23.3087,23.2804,23.1669,
113,0.0235629,1.35142,3.15014,4.45812,0.109182,1.56036,1.56848,0,0.00275515,0.000503512,-0.00923264,0.000868438,4.76188e-05,0,0.495879,1.54174,-0.693888,0.605221,0.294044,0.78201,0.770502,0.0133022,-16.9121,-0.338445,-0.513805,-0.00164917,2.039,-0.00517609,6.39815e-05,0.00103005,-5.64368e-05,0.504782,-0.0018305,0.0566607,-0.00358007,6.88551e-06,-0.00226674,-0.00876299,0.000524455,-0.0230683,-0.155488,0.0155271,-0.624047,0.0067128,0.0790967,-0.00700689,0.0309072,19.9685,0.966531,-1.62671,0.343855,-2.37842,0.02506,-0.0180152,-1.60335,0.0490066,-0.217678,0.0765381,0.294178,-0.0332184,23.4648,23.3229,23.1811,23.2946,23.3087,23.2804,23.1669,
114,0.0235629,1.35142,3.15014,4.45812,0.109182,1.56036,1.56848,0,0.00275515,0.000503512,-0.00923264,0.000868438,4.76188e-05,0,0.495879,1.54174,-0.693888,0.605221,0.294044,0.78201,0.770502,0.0133022,-16.9121,-0.338445,-0.513805,-0.00164917,2.039,-0.00517609,6.39815e-05,0.00103005,-5.64368e-05,0.504782,-0.0018305,0.0566607,-0.00358007,6.88551e-06,-0.00226674,-0.00876299,0.000524455,-0.0230683,-0.155488,0.0155271,-0.624047,0.0067128,0.0790967,-0.00700689,0.0309072,19.9685,0.966531,-1.62671,0.343855,-2.37842,0.02506,-0.0180152,-1.60335,0.0490066,-0.217678,0.0765381,0.294178,-0.0332184,23.4648,23.3229,23.1811,23.2946,23.3087,23.2804,23.1669,
115,0.0235629,1.35142,3.15014,4.45811,0.109183,1.56036,1.56848,0,0.00302782,0.000531485,-0.00999361,0.000866896,4.76188e-05,0,0.49586,1.54175,-0.693857,0.605229,0.294025,0.782013,0.770478,0.0132987,-16.9121,-0.338443,-0.513926,-0.00164679,2.039,-0.00517627,6.39815e-05,0.00103005,-5.64368e-05,0.504782,-0.0018305,0.0566607,-0.00388484,4.47021e-06,-0.00247662,-0.00876299,0.000524455,-0.0230683,-0.155488,0.0155271,-0.624047,0.0067128,0.0790967,-0.00700689,0.0236452,19.9868,0.962024,-1.64562,0.350491,-2.38508,0.0204648,-0.00805664,-1.56301,0.041081,-0.201577,0.0849775,0.290067,-0.0485074,23.4648,23.3371,23.1811,23.2946,23.3371,23.2946,23.1669,
116,0.0235629,1.35142,3.15014,4.45811,0.109183,1.56036,1.56848,0,0.00302782,0.000531485,-0.00999361,0.000866896,4.76188e-05,0,0.495909,1.51712,-0.695254,0.632439,0.293896,0.733785,0.766498,0.0133117,-16.9297,-0.339014,-0.502343,-0.00195207,2.04195,-0.00513474,6.41195e-05,0.00101606,-5.71874e-05,0.504782,-0.0018305,0.0566607,-0.00388484,4.47021e-06,-0.00247662,-0.00859933,0.000523752,-0.0229474,-0.141435,0.0155785,-0.614122,0.00672975,0.0756292,-0.00705401,0.0236452,19.9868,0.962024,-1.64562,0.350491,-2.38508,0.0204648,-0.00805664,-1.56301,0.041081,-0.201577,0.0849775,0.290067,-0.0485074,23.4648,23.3371,23.1811,23.2946,23.3371,23.2946,23.1669,
117,0.0235629,1.35143,3.15014,4.4581,0.109185,1.56036,1.56848,0,0.00367076,0.000543151,-0.0108039,0.000895578,3.70369e-05,0,0.495882,1.51713,-0.69521,0.632443,0.293871,0.733793,0.766464,0.0133064,-16.9297,-0.339011,-0.502484,-0.00194964,2.04195,-0.00513493,6.41195e-05,0.00101606,-5.71874e-05,0.504782,-0.0018305,0.0566607,-0.00428988,1.29979e-05,-0.00287886,-0.00859933,0.000523752,-0.0229474,-0.141435,0.0155785,-0.614122,0.00672975,0.0756292,-0.00705401,0.00348258,19.9979,0.96061,-1.65419,0.358336,-2.40032,0.0353834,-0.0241699,-1.57104,0.0569691,-0.201416,0.080667,0.286039,-0.0404841,23.479,23.3371,23.1811,23.3087,23.3229,23.2946,23.1527,
118,0.0235629,1.35143,3.15014,4.4581,0.109185,1.56036,1.56848,0,0.00367076,0.000543151,-0.0108039,0.000895578,3.70369e-05,0,0.495907,1.47638,-0.69574,0.659632,0.293931,0.670773,0.760043,0.0133132,-16.9588,-0.339777,-0.488173,-0.00242111,2.04658,-0.00507384,6.45189e-05,0.000999388,-5.8826e-05,0.504782,-0.0018305,0.0566607,-0.00428988,1.29979e-05,-0.00287886,-0.00841643,0.000522145,-0.0228004,-0.123797,0.0152744,-0.597645,0.0067207,0.0710348,-0.00725652,0.00348258,19.9979,0.96061,-1.65419,0.358336,-2.40032,0.0353834,-0.0241699,-1.57104,0.0569691,-0.201416,0.080667,0.286039,-0.0404841,23.479,23.3371,23.1811,23.3087,23.3229,23.2946,23.1527,
119,0.0235629,1.35143,3.15014,4.45808,0.109186,1.56036,1.56848,0,0.00450373,0.000542987,-0.0113441,0.00089854,2.11641e-05,0,0.495887,1.47639,-0.695706,0.659635,0.293909,0.670783,0.760018,0.0133098,-16.9588,-0.339776,-0.488324,-0.00241793,2.04657,-0.00507407,6.45189e-05,0.000999388,-5.8826e-05,0.504782,-0.0018305,0.0566607,-0.00465178,2.17775e-05,-0.00335189,-0.00841643,0.000522145,-0.0228004,-0.123797,0.0152744,-0.597645,0.0067207,0.0710348,-0.00725652,0.00734496,20.0284,0.95491,-1.68009,0.360192,-2.42226,0.0367864,-0.0180152,-1.53884,0.0644531,-0.177246,0.093001,0.286124,-0.036478,23.479,23.3371,23.1811,23.3087,23.3371,23.2804,23.1385,
120,0.0235629,1.35143,3.15014,4.45808,0.109186,1.56036,1.56848,0,0.00450373,0.000542987,-0.0113441,0.00089854,2.11641e-05,0,0.495937,1.42951,-0.696133,0.679337,0.2942,0.609148,0.7537,0.0133229,-16.9923,-0.340635,-0.474997,-0.0028703,2.05174,-0.00501112,6.47474e-05,0.000980872,-5.95574e-05,0.504782,-0.0018305,0.0566607,-0.00465178,2.17775e-05,-0.00335189,-0.00822331,0.000520832,-0.0226396,-0.107146,0.0149716,-0.578632,0.00667894,0.066406,-0.00732651,0.00734496,20.0284,0.95491,-1.68009,0.360192,-2.42226,0.0367864,-0.0180152,-1.53884,0.0644531,-0.177246,0.093001,0.286124,-0.036478,23.479,23.3371,23.1811,23.3087,23.3371,23.2804,23.1385,
121,0.0235629,1.35143,3.15014,4.45808,0.109186,1.56036,1.56848,0,0.00450373,0.000542987,-0.0113441,0.00089854,2.11641e-05,0,0.495937,1.42951,-0.696133,0.679337,0.2942,0.609148,0.7537,0.0133229,-16.9923,-0.340635,-0.474997,-0.0028703,2.05174,-0.00501112,6.47474e-05,0.000980872,-5.95574e-05,0.504782,-0.0018305,0.0566607,-0.00465178,2.17775e-05,-0.00335189,-0.00822331,0.000520832,-0.0226396,-0.107146,0.0149716,-0.578632,0.00667894,0.066406,-0.00732651,0.00734496,20.0284,0.95491,-1.68009,0.360192,-2.42226,0.0367864,-0.0180152,-1.53884,0.0644531,-0.177246,0.093001,0.286124,-0.036478,23.479,23.3371,23.1811,23.3087,23.3371,23.2804,23.1385,
122,0.0235629,1.35144,3.15014,4.45807,0.109188,1.56036,1.56848,0,0.00576013,0.000542987,-0.0115353,0.000921268,1.05821e-05,0,0.495915,1.42952,-0.696097,0.679337,0.294177,0.609161,0.753675,0.0133196,-16.9923,-0.340633,-0.475168,-0.00286648,2.05174,-0.0050114,6.47474e-05,0.000980872,-5.95574e-05,0.504782,-0.0018305,0.0566607,-0.00499893,3.23116e-05,-0.00400528,-0.00822331,0.000520832,-0.0226396,-0.107146,0.0149716,-0.578632,0.00667894,0.066406,-0.00732651,0.025282,20.0441,0.934007,-1.70939,0.359907,-2.45993,0.0197282,-0.0113938,-1.55495,0.0586532,-0.193359,0.088623,0.286011,-0.0362549,23.479,23.3371,23.1811,23.3087,23.3513,23.3087,23.1527,
123,0.0235629,1.35144,3.15014,4.45807,0.109188,1.56036,1.56848,0,0.00576013,0.000542987,-0.0115353,0.000921268,1.05821e-05,0,0.495984,1.36796,-0.695969,0.689352,0.294615,0.542876,0.746346,0.0133375,-17.0363,-0.341689,-0.461971,-0.00337482,2.05828,-0.00494376,6.48259e-05,0.000961148,-6.124e-05,0.504782,-0.0018305,0.0566607,-0.00499893,3.23116e-05,-0.00400528,-0.00800791,0.00051494,-0.0224594,-0.0902695,0.0144788,-0.553624,0.006618,0.0615177,-0.00753693,0.025282,20.0441,0.934007,-1.70939,0.359907,-2.45993,0.0197282,-0.0113938,-1.55495,0.0586532,-0.193359,0.088623,0.286011,-0.0362549,23.479,23.3371,23.1811,23.3087,23.3513,23.3087,23.1527,
124,0.0235629,1.35144,3.15014,4.45807,0.109188,1.56036,1.56848,0,0.00576013,0.000542987,-0.0115353,0.000921268,1.05821e-05,0,0.495984,1.36796,-0.695969,0.689352,0.294615,0.542876,0.746346,0.0133375,-17.0363,-0.341689,-0.461971,-0.00337482,2.05828,-0.00494376,6.48259e-05,0.000961148,-6.124e-05,0.504782,-0.0018305,0.0566607,-0.00499893,3.23116e-05,-0.00400528,-0.00800791,0.00051494,-0.0224594,-0.0902695,0.0144788,-0.553624,0.006618,0.0615177,-0.00753693,0.025282,20.0441,0.934007,-1.70939,0.359907,-2.45993,0.0197282,-0.0113938,-1.55495,0.0586532,-0.193359,0.088623,0.286011,-0.0362549,23.479,23.3371,23.1811,23.3087,23.3513,23.3087,23.1527,
125,0.0235629,1.35145,3.15014,4.45806,0.10919,1.56036,1.56848,5.30299e-06,0.00649337,0.000542862,-0.0129515,0.000945704,1.0582e-05,0,0.495962,1.36797,-0.695931,0.689351,0.294593,0.54289,0.746321,0.0133343,-17.0363,-0.341687,-0.46216,-0.00337048,2.05828,-0.00494408,6.48259e-05,0.000961148,-6.124e-05,0.504782,-0.0018305,0.0566607,-0.00561763,4.65591e-05,-0.00450872,-0.00800791,0.00051494,-0.0224594,-0.0902695,0.0144788,-0.553624,0.006618,0.0615177,-0.00753693,0.038216,20.0962,0.928018,-1.72187,0.351751,-2.47559,0.0185016,-0.0113938,-1.57104,0.0644531,-0.201577,0.0887145,0.290039,-0.0443115,23.4506,23.3371,23.1952,23.3087,23.3371,23.2946,23.1669,
126,0.0235629,1.35145,3.15014,4.45806,0.10919,1.56036,1.56848,5.30299e-06,0.00649337,0.000542862,-0.0129515,0.000945704,1.0582e-05,0,0.495936,1.31508,-0.696007,0.733331,0.294854,0.452914,0.736588,0.0133277,-17.0741,-0.342626,-0.441243,-0.00409085,2.06438,-0.00484348,6.47672e-05,0.000940489,-6.29228e-05,0.504782,-0.0018305,0.0566607,-0.00561763,4.65591e-05,-0.00450872,-0.0077726,0.000508539,-0.0222521,-0.064649,0.0138594,-0.532301,0.0065036,0.055154,-0.00771991,0.038216,20.0962,0.928018,-1.72187,0.351751,-2.47559,0.0185016,-0.0113938,-1.57104,0.0644531,-0.201577,0.0887145,0.290039,-0.0443115,23.4506,23.3371,23.1952,23.3087,23.3371,23.2946,23.1669,
127,0.0235629,1.35145,3.15014,4.45806,0.10919,1.56036,1.56848,5.30299e-06,0.00649337,0.000542862,-0.0129515,0.000945704,1.0582e-05,0,0.495936,1.31508,-0.696007,0.733331,0.294854,0.452914,0.736588,0.0133277,-17.0741,-0.342626,-0.441243,-0.00409085,2.06438,-0.00484348,6.47672e-05,0.000940489,-6.29228e-05,0.504782,-0.0018305,0.0566607,-0.00561763,4.65591e-05,-0.00450872,-0.0077726,0.000508539,-0.0222521,-0.064649,0.0138594,-0.532301,0.0065036,0.055154,-0.00771991,0.038216,20.0962,0.928018,-1.72187,0.351751,-2.47559,0.0185016,-0.0113938,-1.57104,0.0644531,-0.201577,0.0887145,0.290039,-0.0443115,23.4506,23.3371,23.1952,23.3087,23.3371,23.2946,23.1669,
128,0.0235629,1.35146,3.15014,4.45805,0.109192,1.56035,1.56848,5.30299e-06,0.00754216,0.000577066,-0.0135049,0.00100302,0,0,0.495907,1.31509,-0.695958,0.733328,0.294826,0.45293,0.736552,0.0133226,-17.0741,-0.342623,-0.441438,-0.004087,2.06438,-0.00484377,6.47672e-05,0.000940489,-6.29228e-05,0.504782,-0.0018305,0.0566607,-0.00603346,5.09236e-05,-0.00509207,-0.0077726,0.000508539,-0.0222521,-0.064649,0.0138594,-0.532301,0.0065036,0.055154,-0.00771991,0.0293838,20.1283,0.938847,-1.71361,0.339269,-2.49564,0.00664318,-0.0180152,-1.56301,0.0569691,-0.169381,0.0927389,0.286011,-0.0402832,23.479,23.3513,23.1952,23.3087,23.3229,23.2804,23.1669,
129,0.0235629,1.35146,3.15014,4.45805,0.109192,1.56035,1.56848,5.30299e-06,0.00754216,0.000577066,-0.0135049,0.00100302,0,0,0.496011,1.25636,-0.697034,0.754338,0.294929,0.378947,0.729456,0.0133499,-17.1161,-0.34375,-0.42573,-0.00459406,2.07079,-0.0047795,6.50362e-05,0.000918496,-6.4531e-05,0.504782,-0.0018305,0.0566607,-0.00603346,5.09236e-05,-0.00509207,-0.00753149,0.000505615,-0.0220413,-0.044941,0.0136407,-0.508478,0.0065174,0.0497279,-0.00797108,0.0293838,20.1283,0.938847,-1.71361,0.339269,-2.49564,0.00664318,-0.0180152,-1.56301,0.0569691,-0.169381,0.0927389,0.286011,-0.0402832,23.479,23.3513,23.1952,23.3087,23.3229,23.2804,23.1669,
130,0.0235629,1.35146,3.15014,4.45805,0.109192,1.56035,1.56848,5.30299e-06,0.00754216,0.000577066,-0.0135049,0.00100302,0,0,0.496011,1.25636,-0.697034,0.754338,0.294929,0.378947,0.729456,0.0133499,-17.1161,-0.34375,-0.42573,-0.00459406,2.07079,-0.0047795,6.50362e-05,0.000918496,-6.4531e-05,0.504782,-0.0018305,0.0566607,-0.00603346,5.09236e-05,-0.00509207,-0.00753149,0.000505615,-0.0220413,-0.044941,0.0136407,-0.508478,0.0065174,0.0497279,-0.00797108,0.0293838,20.1283,0.938847,-1.71361,0.339269,-2.49564,0.00664318,-0.0180152,-1.56301,0.0569691,-0.169381,0.0927389,0.286011,-0.0402832,23.479,23.3513,23.1952,23.3087,23.3229,23.2804,23.1669,
131,0.0235629,1.35146,3.15015,4.45803,0.109195,1.56035,1.56848,5.30294e-06,0.00864312,0.000598515,-0.0151255,0.00111312,-1.0582e-05,0,0.495973,1.25637,-0.696971,0.754323,0.294896,0.378976,0.729412,0.0133431,-17.1161,-0.343747,-0.425961,-0.00458975,2.07079,-0.00477983,6.50362e-05,0.000918496,-6.4531e-05,0.504782,-0.0018305,0.0566607,-0.00680194,7.31878e-05,-0.00580194,-0.00753149,0.000505615,-0.0220413,-0.044941,0.0136407,-0.508478,0.0065174,0.0497279,-0.00797108,0.022153,20.1765,0.952476,-1.71133,0.348085,-2.52299,0.00883183,0,-1.57912,0.072956,-0.177246,0.0927389,0.269928,-0.0324774,23.479,23.3371,23.1811,23.3229,23.3371,23.2946,23.1669,
132,0.0235629,1.35146,3.15015,4.45803,0.109195,1.56035,1.56848,5.30294e-06,0.00864312,0.000598515,-0.0151255,0.00111312,-1.0582e-05,0,0.495963,1.18532,-0.69703,0.803509,0.295092,0.26737,0.717222,0.0133404,-17.1669,-0.345,-0.400541,-0.00548318,2.07886,-0.00466487,6.54556e-05,0.000893428,-6.70245e-05,0.504782,-0.0018305,0.0566607,-0.00680194,7.31878e-05,-0.00580194,-0.00725628,0.000501406,-0.0217947,-0.0136301,0.0128466,-0.479783,0.00646093,0.041756,-0.00840405,0.022153,20.1765,0.952476,-1.71133,0.348085,-2.52299,0.00883183,0,-1.57912,0.072956,-0.177246,0.0927389,0.269928,-0.0324774,23.479,23.3371,23.1811,23.3229,23.3371,23.2946,23.1669,
133,0.0235629,1.35146,3.15015,4.45803,0.109195,1.56035,1.56848,5.30294e-06,0.00864312,0.000598515,-0.0151255,0.00111312,-1.0582e-05,0,0.495963,1.18532,-0.69703,0.803509,0.295092,0.26737,0.717222,0.0133404,-17.1669,-0.345,-0.400541,-0.00548318,2.07886,-0.00466487,6.54556e-05,0.000893428,-6.70245e-05,0.504782,-0.0018305,0.0566607,-0.00680194,7.31878e-05,-0.00580194,-0.00725628,0.000501406,-0.0217947,-0.0136301,0.0128466,-0.479783,0.00646093,0.041756,-0.00840405,0.022153,20.1765,0.952476,-1.71133,0.348085,-2.52299,0.00883183,0,-1.57912,0.072956,-0.177246,0.0927389,0.269928,-0.0324774,23.479,23.3371,23.1811,23.3229,23.3371,23.2946,23.1669,
134,0.0235629,1.35146,3.15015,4.45803,0.109195,1.56035,1.56848,5.30294e-06,0.00864312,0.000598515,-0.0151255,0.00111312,-1.0582e-05,0,0.495963,1.18532,-0.69703,0.803509,0.295092,0.26737,0.717222,0.0133404,-17.1669,-0.345,-0.400541,-0.00548318,2.07886,-0.00466487,6.54556e-05,0.000893428,-6.70245e-05,0.504782,-0.0018305,0.0566607,-0.00680194,7.31878e-05,-0.00580194,-0.00725628,0.000501406,-0.0217947,-0.0136301,0.0128466,-0.479783,0.00646093,0.041756,-0.00840405,0.022153,20.1765,0.952476,-1.71133,0.348085,-2.52299,0.00883183,0,-1.57912,0.072956,-0.177246,0.0927389,0.269928,-0.0324774,23.479,23.3371,23.1811,23.3229,23.3371,23.2946,23.1669,
135,0.0235629,1.35148,3.15015,4.45802,0.109197,1.56035,1.56848,5.30695e-06,0.00999361,0.000585068,-0.0155476,0.00122148,-1.85184e-05,0,0.495947,1.18533,-0.696995,0.803499,0.295072,0.26739,0.717204,0.0133392,-17.1668,-0.344999,-0.400797,-0.00547663,2.07885,-0.00466535,6.54556e-05,0.000893428,-6.70245e-05,0.504782,-0.0018305,0.0566607,-0.00724497,9.94211e-05,-0.0065239,-0.00725628,0.000501406,-0.0217947,-0.0136301,0.0128466,-0.479783,0.00646093,0.041756,-0.00840405,-0.000106573,20.2244,0.949604,-1.68675,0.362058,-2.52187,0.00292477,0,-1.57107,0.0649547,-0.153922,0.104814,0.273926,-0.0485074,23.4648,23.3513,23.1811,23.3087,23.3371,23.2946,23.1669,
136,0.0235629,1.35148,3.15015,4.45802,0.109197,1.56035,1.56848,5.30695e-06,0.00999361,0.000585068,-0.0155476,0.00122148,-1.85184e-05,0,0.495911,1.11111,-0.695142,0.822581,0.295795,0.181155,0.706085,0.0133298,-17.2199,-0.346111,-0.383015,-0.00625826,2.08683,-0.00456016,6.5054e-05,0.000865323,-6.87302e-05,0.504782,-0.0018305,0.0566607,-0.00724497,9.94211e-05,-0.0065239,-0.0069478,0.000489809,-0.0215132,0.00891494,0.0117116,-0.449679,0.00630306,0.0353845,-0.00878994,-0.000106573,20.2244,0.949604,-1.68675,0.362058,-2.52187,0.00292477,0,-1.57107,0.0649547,-0.153922,0.104814,0.273926,-0.0485074,23.4648,23.3513,23.1811,23.3087,23.3371,23.2946,23.1669,
137,0.0235629,1.35148,3.15015,4.45802,0.109197,1.56035,1.56848,5.30695e-06,0.00999361,0.000585068,-0.0155476,0.00122148,-1.85184e-05,0,0.495911,1.11111,-0.695142,0.822581,0.295795,0.181155,0.706085,0.0133298,-17.2199,-0.346111,-0.383015,-0.00625826,2.08683,-0.00456016,6.5054e-05,0.000865323,-6.87302e-05,0.504782,-0.0018305,0.0566607,-0.00724497,9.94211e-05,-0.0065239,-0.0069478,0.000489809,-0.0215132,0.00891494,0.0117116,-0.449679,0.00630306,0.0353845,-0.00878994,-0.000106573,20.2244,0.949604,-1.68675,0.362058,-2.52187,0.00292477,0,-1.57107,0.0649547,-0.153922,0.104814,0.273926,-0.0485074,23.4648,23.3513,23.1811,23.3087,23.3371,23.2946,23.1669,
138,0.0235629,1.35149,3.15015,4.458,0.109198,1.56035,1.56848,5.30299e-06,0.0115245,0.00062925,-0.0175563,0.00128687,-1.85186e-05,0,0.495871,1.11112,-0.695072,0.822547,0.29576,0.181207,0.706039,0.0133232,-17.2199,-0.346108,-0.38331,-0.00625222,2.08684,-0.00456061,6.5054e-05,0.000865323,-6.87302e-05,0.504782,-0.0018305,0.0566607,-0.00823472,0.000114582,-0.00748657,-0.0069478,0.000489809,-0.0215132,0.00891494,0.0117116,-0.449679,0.00630306,0.0353845,-0.00878994,0.00207758,20.2712,0.944042,-1.67296,0.359904,-2.52932,0.0026242,-0.0113938,-1.59521,0.0805664,-0.14502,0.0927389,0.274044,-0.036478,23.479,23.3371,23.1811,23.3087,23.3229,23.2946,23.1669,
139,0.0235629,1.35149,3.15015,4.458,0.109198,1.56035,1.56848,5.30299e-06,0.0115245,0.00062925,-0.0175563,0.00128687,-1.85186e-05,0,0.495974,1.01618,-0.696841,0.881532,0.296043,0.0380049,0.69207,0.0133503,-17.2878,-0.347943,-0.351145,-0.00727365,2.09751,-0.0044231,6.52932e-05,0.0008356,-7.02515e-05,0.504782,-0.0018305,0.0566607,-0.00823472,0.000114582,-0.00748657,-0.00661346,0.000488219,-0.021197,0.048638,0.0112091,-0.411313,0.00623429,0.0253323,-0.00902008,0.00207758,20.2712,0.944042,-1.67296,0.359904,-2.52932,0.0026242,-0.0113938,-1.59521,0.0805664,-0.14502,0.0927389,0.274044,-0.036478,23.479,23.3371,23.1811,23.3087,23.3229,23.2946,23.1669,
140,0.0235629,1.35149,3.15015,4.458,0.109198,1.56035,1.56848,5.30299e-06,0.0115245,0.00062925,-0.0175563,0.00128687,-1.85186e-05,0,0.495974,1.01618,-0.696841,0.881532,0.296043,0.0380049,0.69207,0.0133503,-17.2878,-0.347943,-0.351145,-0.00727365,2.09751,-0.0044231,6.52932e-05,0.0008356,-7.02515e-05,0.504782,-0.0018305,0.0566607,-0.00823472,0.000114582,-0.00748657,-0.00661346,0.000488219,-0.021197,0.048638,0.0112091,-0.411313,0.00623429,0.0253323,-0.00902008,0.00207758,20.2712,0.944042,-1.67296,0.359904,-2.52932,0.0026242,-0.0113938,-1.59521,0.0805664,-0.14502,0.0927389,0.274044,-0.036478,23.479,23.3371,23.1811,23.3087,23.3229,23.2946,23.1669,
141,0.0235629,1.3515,3.15015,4.45798,0.1092,1.56035,1.56848,5.30299e-06,0.0129647,0.000634438,-0.0191575,0.00133738,-2.64552e-05,0,0.49594,1.01619,-0.69678,0.881495,0.296011,0.0380548,0.692033,0.0133456,-17.2878,-0.34794,-0.35146,-0.00726648,2.09751,-0.00442362,6.52932e-05,0.0008356,-7.02515e-05,0.504782,-0.0018305,0.0566607,-0.00907371,0.000137641,-0.00836502,-0.00661346,0.000488219,-0.021197,0.048638,0.0112091,-0.411313,0.00623429,0.0253323,-0.00902008,-0.0109992,20.3294,0.930678,-1.64713,0.360312,-2.5388,0.0117529,-0.00805664,-1.59521,0.0725098,-0.105046,0.104736,0.265869,-0.036478,23.479,23.3513,23.1669,23.3371,23.3229,23.2946,23.1669,
142,0.0235629,1.3515,3.15015,4.45798,0.1092,1.56035,1.56848,5.30299e-06,0.0129647,0.000634438,-0.0191575,0.00133738,-2.64552e-05,0,0.495965,0.926248,-0.696952,0.931961,0.29658,-0.0922379,0.678001,0.013352,-17.3521,-0.349532,-0.322476,-0.00828346,2.10756,-0.0042832,6.53e-05,0.000802957,-7.18217e-05,0.504782,-0.0018305,0.0566607,-0.00907371,0.000137641,-0.00836502,-0.00625494,0.000482535,-0.020863,0.0845632,0.0103468,-0.37494,0.00609353,0.0159705,-0.00924902,-0.0109992,20.3294,0.930678,-1.64713,0.360312,-2.5388,0.0117529,-0.00805664,-1.59521,0.0725098,-0.105046,0.104736,0.265869,-0.036478,23.479,23.3513,23.1669,23.3371,23.3229,23.2946,23.1669,
143,0.0235629,1.3515,3.15015,4.45798,0.1092,1.56035,1.56848,5.30299e-06,0.0129647,0.000634438,-0.0191575,0.00133738,-2.64552e-05,0,0.495965,0.926248,-0.696952,0.931961,0.29658,-0.0922379,0.678001,0.013352,-17.3521,-0.349532,-0.322476,-0.00828346,2.10756,-0.0042832,6.53e-05,0.000802957,-7.18217e-05,0.504782,-0.0018305,0.0566607,-0.00907371,0.000137641,-0.00836502,-0.00625494,0.000482535,-0.020863,0.0845632,0.0103468,-0.37494,0.00609353,0.0159705,-0.00924902,-0.0109992,20.3294,0.930678,-1.64713,0.360312,-2.5388,0.0117529,-0.00805664,-1.59521,0.0725098,-0.105046,0.104736,0.265869,-0.036478,23.479,23.3513,23.1669,23.3371,23.3229,23.2946,23.1669,
144,0.0235629,1.35151,3.15015,4.45796,0.109203,1.56035,1.56848,5.30299e-06,0.0140451,0.000630864,-0.019447,0.00141441,-2.64552e-05,0,0.495938,0.92625,-0.696902,0.931946,0.296552,-0.0922197,0.67797,0.0133492,-17.3521,-0.34953,-0.322785,-0.00827591,2.10755,-0.00428375,6.53e-05,0.000802957,-7.18217e-05,0.504782,-0.0018305,0.0566607,-0.00941278,0.000154881,-0.00893732,-0.00625494,0.000482535,-0.020863,0.0845632,0.0103468,-0.37494,0.00609353,0.0159705,-0.00924902,-0.00798285,20.3698,0.930553,-1.5998,0.355871,-2.52202,0.0118518,-0.00805664,-1.61135,0.072956,-0.0966797,0.100789,0.265869,-0.0402832,23.479,23.3229,23.1669,23.3229,23.3371,23.2804,23.1669,
145,0.0235629,1.35151,3.15015,4.45796,0.109203,1.56035,1.56848,5.30299e-06,0.0140451,0.000630864,-0.019447,0.00141441,-2.64552e-05,0,0.495929,0.857862,-0.69569,0.951272,0.297061,-0.173284,0.667996,0.0133468,-17.401,-0.350603,-0.305924,-0.00898123,2.11494,-0.00418961,6.49031e-05,0.000769911,-7.43996e-05,0.504782,-0.0018305,0.0566607,-0.00941278,0.000154881,-0.00893732,-0.00588318,0.000468971,-0.0205107,0.105888,0.00942268,-0.347201,0.00597571,0.00992588,-0.00965752,-0.00798285,20.3698,0.930553,-1.5998,0.355871,-2.52202,0.0118518,-0.00805664,-1.61135,0.072956,-0.0966797,0.100789,0.265869,-0.0402832,23.479,23.3229,23.1669,23.3229,23.3371,23.2804,23.1669,
146,0.0235629,1.35151,3.15015,4.45796,0.109203,1.56035,1.56848,5.30299e-06,0.0140451,0.000630864,-0.019447,0.00141441,-2.64552e-05,0,0.495929,0.857862,-0.69569,0.951272,0.297061,-0.173284,0.667996,0.0133468,-17.401,-0.350603,-0.305924,-0.00898123,2.11494,-0.00418961,6.49031e-05,0.000769911,-7.43996e-05,0.504782,-0.0018305,0.0566607,-0.00941278,0.000154881,-0.00893732,-0.00588318,0.000468971,-0.0205107,0.105888,0.00942268,-0.347201,0.00597571,0.00992588,-0.00965752,-0.00798285,20.3698,0.930553,-1.5998,0.355871,-2.52202,0.0118518,-0.00805664,-1.61135,0.072956,-0.0966797,0.100789,0.265869,-0.0402832,23.479,23.3229,23.1669,23.3229,23.3371,23.2804,23.1669,
147,0.0235629,1.35151,3.15015,4.45796,0.109203,1.56035,1.56848,5.30299e-06,0.0140451,0.000630864,-0.019447,0.00141441,-2.64552e-05,0,0.495929,0.857862,-0.69569,0.951272,0.297061,-0.173284,0.667996,0.0133468,-17.401,-0.350603,-0.305924,-0.00898123,2.11494,-0.00418961,6.49031e-05,0.000769911,-7.43996e-05,0.504782,-0.0018305,0.0566607,-0.00941278,0.000154881,-0.00893732,-0.00588318,0.000468971,-0.0205107,0.105888,0.00942268,-0.347201,0.00597571,0.00992588,-0.00965752,-0.00798285,20.3698,0.930553,-1.5998,0.355871,-2.52202,0.0118518,-0.00805664,-1.61135,0.072956,-0.0966797,0.100789,0.265869,-0.0402832,23.479,23.3229,23.1669,23.3229,23.3371,23.2804,23.1669,
148,0.0235629,1.35153,3.15015,4.45794,0.109206,1.56035,1.56848,5.30299e-06,0.0148554,0.000653136,-0.0216297,0.00153449,-2.64549e-05,0,0.495903,0.857867,-0.695634,0.951228,0.297035,-0.173234,0.667968,0.013344,-17.401,-0.350601,-0.306274,-0.00897264,2.11495,-0.00419025,6.49031e-05,0.000769911,-7.43996e-05,0.504782,-0.0018305,0.0566607,-0.0102946,0.000180494,-0.00955191,-0.00588318,0.000468971,-0.0205107,0.105888,0.00942268,-0.347201,0.00597571,0.00992588,-0.00965752,-0.0342437,20.3986,0.95043,-1.57582,0.343811,-2.51507,0.0238697,0.00805664,-1.61946,0.072956,-0.088623,0.104736,0.253816,-0.0362549,23.479,23.3229,23.1952,23.3087,23.3229,23.2946,23.1669,
149,0.0235629,1.35153,3.15015,4.45794,0.109206,1.56035,1.56848,5.30299e-06,0.0148554,0.000653136,-0.0216297,0.00153449,-2.64549e-05,0,0.495791,0.784013,-0.694852,1.02175,0.297366,-0.307145,0.652577,0.0133145,-17.4538,-0.351831,-0.274616,-0.0101161,2.12361,-0.00403534,6.44331e-05,0.000733937,-7.69599e-05,0.504782,-0.0018305,0.0566607,-0.0102946,0.000180494,-0.00955191,-0.00547696,0.00045461,-0.0201342,0.144529,0.00822348,-0.317469,0.00581446,0.00034162,-0.0101074,-0.0342437,20.3986,0.95043,-1.57582,0.343811,-2.51507,0.0238697,0.00805664,-1.61946,0.072956,-0.088623,0.104736,0.253816,-0.0362549,23.479,23.3229,23.1952,23.3087,23.3229,23.2946,23.1669,
150,0.0235629,1.35154,3.15015,4.45792,0.109209,1.56035,1.56848,5.30294e-06,0.0150461,0.000663341,-0.0215458,0.00167692,-2.64549e-05,0,0.495772,0.784002,-0.694808,1.02175,0.297342,-0.30716,0.652552,0.0133137,-17.4537,-0.35183,-0.274957,-0.0101074,2.1236,-0.00403597,6.44331e-05,0.000733937,-7.69599e-05,0.504782,-0.0018305,0.0566607,-0.0103128,0.000192552,-0.00964015,-0.00547696,0.00045461,-0.0201342,0.144529,0.00822348,-0.317469,0.00581446,0.00034162,-0.0101074,-0.0327171,20.449,0.950796,-1.54945,0.343813,-2.51144,0.0287683,-0.00805664,-1.61971,0.072956,-0.0569691,0.100708,0.253816,-0.0404841,23.479,23.3371,23.1811,23.3087,23.3229,23.2946,23.1669,
151,0.0235629,1.35154,3.15015,4.45792,0.109209,1.56035,1.56848,5.30294e-06,0.0150461,0.000663341,-0.0215458,0.00167692,-2.64549e-05,0,0.495677,0.747011,-0.692944,1.03923,0.297523,-0.357021,0.645297,0.0132887,-17.4802,-0.352297,-0.263952,-0.0106327,2.12774,-0.00396833,6.36278e-05,0.000694907,-7.95648e-05,0.504782,-0.0018305,0.0566607,-0.0103128,0.000192552,-0.00964015,-0.00503706,0.00043593,-0.0197224,0.158273,0.00730135,-0.302467,0.00573893,-0.00377753,-0.0106496,-0.0327171,20.449,0.950796,-1.54945,0.343813,-2.51144,0.0287683,-0.00805664,-1.61971,0.072956,-0.0569691,0.100708,0.253816,-0.0404841,23.479,23.3371,23.1811,23.3087,23.3229,23.2946,23.1669,
