LWingKi/MAS_RnD/main/log/us2/contactless/18/grasp_log_12_08_2023_15_08_46.csv
Index,joint_angle_0,joint_angle_1,joint_angle_2,joint_angle_3,joint_angle_4,joint_angle_5,joint_angle_6,joint_velocity_0,joint_velocity_1,joint_velocity_2,joint_velocity_3,joint_velocity_4,joint_velocity_5,joint_velocity_6,joint_accel_0,joint_accel_1,joint_accel_2,joint_accel_3,joint_accel_4,joint_accel_5,joint_accel_6,constraint_tau_0,constraint_tau_1,constraint_tau_2,constraint_tau_3,constraint_tau_4,constraint_tau_5,constraint_tau_6,current_pos_x,current_pos_y,current_pos_z,target_pos_x,target_pos_y,target_pos_z,current_vel_x,current_vel_y,current_vel_z,target_vel_x,target_vel_y,target_vel_z,control_signal_linear_x,control_signal_linear_y,control_signal_linear_z,control_signal_angular_x,control_signal_angular_y,control_signal_angular_z,joint_torque_0,joint_torque_1,joint_torque_2,joint_torque_3,joint_torque_4,joint_torque_5,joint_torque_6,actuar_current_0,actuar_current_1,actuar_current_2,actuar_current_3,actuar_current_4,actuar_current_5,actuar_current_6,actuar_voltage_0,actuar_voltage_1,actuar_voltage_2,actuar_voltage_3,actuar_voltage_4,actuar_voltage_5,actuar_voltage_6
0,6.27281,1.38515,3.15337,4.11603,6.27423,1.97493,1.55561,0.00623874,0.0399744,-3.61294e-05,0.111707,3.17699e-05,0.0029187,1.0582e-05,0.384526,-6.72267,-0.498082,1.31727,0.333313,-24.753,0.971055,0.00363469,-20,-0.437601,0.49973,-0.0424429,0.460853,0.0234545,-9.93475e-05,0.00619277,-0.000126075,0.493975,0.00126257,0.0734373,0.0238335,-0.00228795,-0.0176266,1.97858,-0.00186992,0.005,1.78072,-0.00168293,0.0045,-0.268238,16.7205,-0.340404,1.53305,-0.473159,-0.318501,5.07057,0.268311,5.44644,0.238143,0.233643,0.241699,0.145243,-0.128906,-0.00402832,-0.503604,-0.120917,23.479,23.3655,23.1952,23.3087,23.2378,23.2804,23.1669,
1,6.27282,1.38519,3.15337,4.11614,6.27423,1.97494,1.55561,0.00594214,0.0399744,-3.53407e-05,0.11182,4.23598e-05,0.00524216,1.05741e-05,0.328409,-2.71587,-0.275172,4.20088,0.55615,-9.14587,0.570866,-0.0112841,-18.8713,-0.368736,1.00155,-0.0393961,2.00434,-0.00225255,0,0,0,0.493975,0.00126257,0.0734373,0.0238667,-0.00216657,-0.0173814,2,0,0.005,1.77855,0.00205916,0.0203639,-0.016185,2.23923,0.145979,1.5185,-0.352013,-0.332001,4.97406,0.268129,5.53982,0.24371,0.265991,0.201577,0.153288,-0.193527,-0.00805664,-0.491472,-0.116821,23.479,23.3513,23.1811,23.3229,23.252,23.2946,23.1527,
2,6.27282,1.38523,3.15337,4.11625,6.27423,1.97495,1.55561,0.00621224,0.0391245,-4.13012e-05,0.109389,4.23278e-05,0.00750372,1.05661e-05,0.329361,-2.79746,-0.275963,4.13985,0.561913,-9.46375,0.576853,-0.011031,-18.9213,-0.369896,0.991523,-0.0393958,1.97256,-0.0019813,-9.20696e-07,8.30654e-05,3.42091e-06,0.493975,0.00126257,0.0734373,0.0233452,-0.0022713,-0.0167581,1.99953,4.0697e-05,0.005,1.7781,0.00198654,0.0201433,-0.0187903,2.5366,0.144936,1.53823,-0.255352,-0.354454,4.88129,0.27902,5.6261,0.255497,0.266357,0.193527,0.1372,-0.185478,-0.0113938,-0.487443,-0.128969,23.4932,23.3513,23.1811,23.2946,23.2378,23.2946,23.1669,
3,6.27283,1.38527,3.15337,4.11636,6.27423,1.97497,1.55561,0.00624178,0.0363614,-4.03518e-05,0.10758,4.76188e-05,0.0129813,1.0566e-05,0.329668,-2.8639,-0.267907,4.09135,0.591808,-9.72467,0.582928,-0.0109543,-18.9623,-0.370235,0.983937,-0.0392246,1.94653,-0.00178623,-1.66606e-06,0.00016561,8.31356e-06,0.493975,0.00126257,0.0734373,0.0234094,-0.00227201,-0.0150525,1.99907,8.6211e-05,0.005,1.77815,0.00212176,0.0195823,-0.0206308,2.77989,0.166034,1.55568,-0.16992,-0.356289,4.85219,0.324872,5.66511,0.269797,0.249886,0.201577,0.145243,-0.128906,-0.00805664,-0.475359,-0.117099,23.4932,23.3513,23.1669,23.3229,23.2378,23.3087,23.1669,
4,6.27284,1.3853,3.15337,4.11647,6.27423,1.97499,1.55561,0.00571884,0.0334921,-5.18809e-05,0.107769,4.76548e-05,0.0197171,1.05661e-05,0.330853,-2.9839,-0.264422,4.00244,0.614259,-10.2015,0.591399,-0.0106422,-19.0355,-0.371611,0.96908,-0.0391188,1.89874,-0.0015254,-2.4141e-06,0.000259335,1.26205e-05,0.493975,0.00126257,0.0734373,0.0240737,-0.00204546,-0.0132105,1.99857,0.000131759,0.005,1.77765,0.00216339,0.0180472,-0.0230826,3.22585,0.17655,1.55265,-0.10664,-0.3699,4.81907,0.310727,5.73466,0.273028,0.281982,0.249756,0.136963,-0.088623,-0.00805664,-0.503556,-0.120917,23.4932,23.3513,23.1952,23.3371,23.2236,23.3087,23.1527,
5,6.27284,1.38533,3.15337,4.11657,6.27423,1.97502,1.55561,0.00567205,0.0302509,-6.20849e-05,0.105501,4.76548e-05,0.0233215,1.0574e-05,0.332778,-3.13091,-0.268732,3.89177,0.616776,-10.7858,0.601323,-0.0101339,-19.1249,-0.373889,0.950264,-0.0391674,1.83999,-0.00109648,-3.46511e-06,0.000353461,1.63025e-05,0.493975,0.00126257,0.0734373,0.0241053,-0.00201639,-0.0115057,1.9981,0.000166975,0.005,1.77662,0.00199119,0.0163895,-0.0271807,3.77379,0.167616,1.50817,-0.0220816,-0.380533,4.78469,0.3111,5.80759,0.275106,0.290151,0.282097,0.128906,-0.0664368,-0.00402832,-0.53981,-0.12085,23.479,23.3371,23.1952,23.3229,23.252,23.3087,23.1669,
6,6.27285,1.38536,3.15337,4.11667,6.27423,1.97504,1.55561,0.00540195,0.027083,-6.08141e-05,0.103717,4.76193e-05,0.0243088,1.0566e-05,0.333832,-3.2388,-0.265679,3.81107,0.636471,-11.2175,0.610244,-0.00985315,-19.1908,-0.375132,0.936871,-0.0390805,1.79652,-0.00071938,-4.53112e-06,0.000452513,2.04834e-05,0.493975,0.00126257,0.0734373,0.0242594,-0.00190584,-0.0101164,1.99762,0.000206221,0.005,1.77616,0.00200035,0.0148551,-0.0307903,4.17855,0.176597,1.5104,0.0936412,-0.406354,4.78126,0.306709,5.88326,0.25709,0.314209,0.177429,0.129158,-0.0254773,0.0090076,-0.559951,-0.112793,23.4932,23.3655,23.1811,23.3087,23.2378,23.2804,23.1669,
7,6.27285,1.38536,3.15337,4.11667,6.27423,1.97504,1.55561,0.00540195,0.027083,-6.08141e-05,0.103717,4.76193e-05,0.0243088,1.0566e-05,0.334842,-3.32812,-0.265675,3.74454,0.645185,-11.5738,0.61605,-0.00958474,-19.2445,-0.376315,0.925144,-0.0390702,1.76077,-0.000512413,-5.0678e-06,0.000549707,2.37329e-05,0.493975,0.00126257,0.0734373,0.0242594,-0.00190584,-0.0101164,1.99715,0.000240131,0.005,1.7756,0.00193137,0.0136047,-0.0327326,4.51211,0.177448,1.5104,0.0936412,-0.406354,4.78126,0.306709,5.88326,0.25709,0.314209,0.177429,0.129158,-0.0254773,0.0090076,-0.559951,-0.112793,23.4932,23.3655,23.1811,23.3087,23.2378,23.2804,23.1669,
8,6.27285,1.38538,3.15337,4.11679,6.27423,1.97507,1.55561,0.00467905,0.0216078,-6.62368e-05,0.107329,4.76188e-05,0.0248238,1.05661e-05,0.334849,-3.32724,-0.265704,3.74383,0.645222,-11.5722,0.616067,-0.00958253,-19.2454,-0.37635,0.925878,-0.0390593,1.76073,-0.000513684,-5.0678e-06,0.000549707,2.37329e-05,0.493975,0.00126257,0.0734373,0.0264593,-0.00159915,-0.00797194,1.99715,0.000240131,0.005,1.7756,0.00193137,0.0136047,-0.0327326,4.51211,0.177448,1.48044,0.196073,-0.45277,4.82928,0.315782,5.96359,0.274472,0.298096,-0.0254773,0.11308,0.0322266,0.00569691,-0.531754,-0.108839,23.4932,23.3371,23.1811,23.3087,23.252,23.2804,23.1527,
9,6.27286,1.3854,3.15337,4.1169,6.27423,1.97509,1.55561,0.00442126,0.0135049,-7.57287e-05,0.109119,5.82447e-05,0.0270372,1.05661e-05,0.337095,-3.48733,-0.272487,3.61765,0.642113,-12.2113,0.627419,-0.00899341,-19.3432,-0.378984,0.90391,-0.0391537,1.69589,4.33548e-05,-6.04162e-06,0.000667137,2.67858e-05,0.493975,0.00126257,0.0734373,0.0286904,-0.00146901,-0.00457596,1.99658,0.000271689,0.005,1.77311,0.00168375,0.0116747,-0.0380897,5.1172,0.16249,1.48725,0.271767,-0.441254,4.85466,0.299788,6.03731,0.234481,0.330322,-0.14502,0.104736,-0.00805664,0.00569691,-0.4955,-0.124943,23.4932,23.3229,23.1811,23.3087,23.252,23.2804,23.1527,
10,6.27286,1.3854,3.15337,4.11701,6.27423,1.97513,1.55561,0.00405146,0.00269824,-8.48478e-05,0.11074,5.82008e-05,0.0320682,1.05741e-05,0.339419,-3.66818,-0.275993,3.47579,0.651675,-12.9401,0.643236,-0.00838604,-19.4536,-0.381665,0.879172,-0.0391528,1.62183,0.000859384,-7.73076e-06,0.000788144,2.83223e-05,0.493975,0.00126257,0.0734373,0.0314456,-0.00128581,0.000188481,1.99602,0.000295345,0.005,1.77059,0.00158792,0.00861836,-0.045991,5.80709,0.156939,1.44777,0.388959,-0.43434,4.88064,0.260911,6.1102,0.256211,0.338475,-0.242236,0.105046,-0.0113938,0.0113938,-0.499528,-0.116891,23.4932,23.3371,23.1811,23.3087,23.2378,23.3087,23.1527,
11,6.27286,1.3854,3.15337,4.11701,6.27423,1.97513,1.55561,0.00405146,0.00269824,-8.48478e-05,0.11074,5.82008e-05,0.0320682,1.05741e-05,0.342431,-3.90578,-0.28109,3.29339,0.662144,-13.8985,0.661162,-0.0075849,-19.5964,-0.385168,0.846516,-0.039175,1.52479,0.0016671,-9.11629e-06,0.000928739,3.01716e-05,0.493975,0.00126257,0.0734373,0.0314456,-0.00128581,0.000188481,1.9954,0.000316116,0.005,1.76756,0.00144173,0.00433037,-0.0537231,6.7104,0.147949,1.44777,0.388959,-0.43434,4.88064,0.260911,6.1102,0.256211,0.338475,-0.242236,0.105046,-0.0113938,0.0113938,-0.499528,-0.116891,23.4932,23.3371,23.1811,23.3087,23.2378,23.3087,23.1527,
12,6.27286,1.38539,3.15337,4.11712,6.27423,1.97516,1.55561,0.00378136,-0.00756273,-9.88167e-05,0.113171,5.82008e-05,0.0356529,1.0566e-05,0.342485,-3.90464,-0.281215,3.29172,0.662215,-13.8957,0.661201,-0.00758063,-19.5975,-0.385204,0.846968,-0.0391677,1.5248,0.00166536,-9.11629e-06,0.000928739,3.01716e-05,0.493975,0.00126257,0.0734373,0.0343185,-0.00114234,0.00457019,1.9954,0.000316116,0.005,1.76756,0.00144173,0.00433037,-0.0537231,6.7104,0.147949,1.48636,0.579401,-0.424114,4.87458,0.252147,6.19112,0.243714,0.346436,-0.27499,0.0821619,-0.0332184,0.0216932,-0.511613,-0.112793,23.5074,23.3513,23.1952,23.3087,23.2236,23.2946,23.1669,
13,6.27287,1.38538,3.15337,4.11724,6.27423,1.9752,1.55561,0.00389921,-0.0114433,-0.00011719,0.114994,5.82008e-05,0.0394342,1.05661e-05,0.345511,-4.14236,-0.285292,3.10716,0.676342,-14.8529,0.680666,-0.00679129,-19.7419,-0.388667,0.815038,-0.0391592,1.42764,0.00259406,-1.08873e-05,0.00108278,3.19304e-05,0.493975,0.00126257,0.0734373,0.0356671,-0.0011655,0.00647047,1.99472,0.000334823,0.005,1.76436,0.00132945,0.000386832,-0.0626673,7.61457,0.142055,1.46111,0.846623,-0.420999,4.95268,0.232905,6.24346,0.270907,0.370956,-0.282097,0.0970148,-0.0649547,0.0127387,-0.515625,-0.108765,23.4932,23.3513,23.1811,23.3229,23.252,23.2946,23.1669,
14,6.27287,1.38536,3.15337,4.11735,6.27423,1.97524,1.55561,0.00386093,-0.0205274,-0.000130023,0.113981,5.82447e-05,0.0432156,1.0574e-05,0.34782,-4.34778,-0.284204,2.94918,0.701668,-15.6634,0.698584,-0.00619231,-19.867,-0.391347,0.787878,-0.0390627,1.34603,0.00343496,-1.30969e-05,0.00126012,3.39914e-05,0.493975,0.00126257,0.0734373,0.0372959,-0.00112337,0.0104774,1.99395,0.00035528,0.005,1.76245,0.0013687,-0.00132342,-0.0707949,8.37791,0.148712,1.47057,1.04835,-0.349497,4.96892,0.217826,6.26434,0.247086,0.362549,-0.435133,0.0725098,-0.0889885,0.00805664,-0.527725,-0.108839,23.4932,23.3513,23.1811,23.3229,23.2378,23.2946,23.1811,
15,6.27288,1.38533,3.15337,4.11746,6.27423,1.97529,1.55561,0.00386093,-0.0251191,-0.000147296,0.113711,5.82453e-05,0.0456399,0,0.350434,-4.56637,-0.285098,2.7817,0.722932,-16.5433,0.716857,-0.00550989,-19.9998,-0.394335,0.759247,-0.0389957,1.25692,0.00427297,-1.50063e-05,0.00143546,3.56265e-05,0.493975,0.00126257,0.0734373,0.0381884,-0.00110547,0.0125555,1.99321,0.000373156,0.005,1.76032,0.00134687,-0.00492964,-0.0788652,9.20688,0.150549,1.37007,1.40441,-0.28809,4.9659,0.221199,6.28261,0.247387,0.362638,-0.427002,0.0725098,-0.0332184,0.0166092,-0.523682,-0.104736,23.4932,23.3371,23.1952,23.3371,23.252,23.3087,23.1669,
16,6.27288,1.3853,3.15337,4.11757,6.27423,1.97534,1.55561,0.00384142,-0.0283602,-0.000149488,0.112631,5.82008e-05,0.0480774,0,0.352602,-4.75515,-0.285276,2.63823,0.74262,-17.2915,0.733761,-0.00494577,-20,-0.396879,0.735098,-0.0389316,1.18156,0.00511333,-1.72212e-05,0.00162092,3.71274e-05,0.493975,0.00126257,0.0734373,0.0385611,-0.00108877,0.0141182,1.99246,0.00038917,0.005,1.75884,0.00134518,-0.00679992,-0.087,9.90998,0.153509,1.42276,1.72915,-0.283089,5.00357,0.197588,6.24141,0.237566,0.378662,-0.523682,0.0586532,-0.0180152,0.0127387,-0.52771,-0.104814,23.4932,23.3513,23.1952,23.2946,23.252,23.3087,23.1527,
17,6.27288,1.38527,3.15337,4.11769,6.27423,1.97539,1.55562,0.00364632,-0.0320682,-0.00016515,0.112846,5.82008e-05,0.052076,1.05661e-05,0.354588,-4.92854,-0.285233,2.50723,0.761222,-17.9753,0.746522,-0.00442711,-20,-0.399214,0.71331,-0.0388674,1.11288,0.00560393,-1.86744e-05,0.00180745,3.88035e-05,0.493975,0.00126257,0.0734373,0.0394069,-0.000992751,0.0160064,1.9917,0.000409612,0.005,1.75782,0.00134855,-0.00820635,-0.0916978,10.5516,0.156711,1.36733,2.13602,-0.294943,5.0692,0.184376,6.19908,0.247465,0.387054,-0.644582,0.041081,0.0241699,0.0127387,-0.53981,-0.100789,23.479,23.3513,23.1669,23.3087,23.2378,23.2946,23.1527,
18,6.27288,1.38527,3.15337,4.11769,6.27423,1.97539,1.55562,0.00364632,-0.0320682,-0.00016515,0.112846,5.82008e-05,0.052076,1.05661e-05,0.357186,-5.14347,-0.28886,2.34615,0.77315,-18.821,0.761002,-0.00373625,-20,-0.402322,0.68488,-0.0388736,1.02828,0.00615356,-2.01154e-05,0.00201275,3.96355e-05,0.493975,0.00126257,0.0734373,0.0394069,-0.000992751,0.0160064,1.99086,0.00042061,0.005,1.75631,0.00127203,-0.00990577,-0.0969029,11.3435,0.151136,1.36733,2.13602,-0.294943,5.0692,0.184376,6.19908,0.247465,0.387054,-0.644582,0.041081,0.0241699,0.0127387,-0.53981,-0.100789,23.479,23.3513,23.1669,23.3087,23.2378,23.2946,23.1527,
19,6.27289,1.38523,3.15337,4.1178,6.27423,1.97544,1.55562,0.00357738,-0.0353828,-0.000171586,0.11209,5.82008e-05,0.0540195,1.05661e-05,0.357227,-5.14232,-0.28896,2.34529,0.773227,-18.819,0.761053,-0.00373689,-20,-0.402345,0.685983,-0.0388647,1.02809,0.00615199,-2.01154e-05,0.00201275,3.96355e-05,0.493975,0.00126257,0.0734373,0.0398881,-0.000955309,0.0175402,1.99086,0.00042061,0.005,1.75631,0.00127203,-0.00990577,-0.0969029,11.3435,0.151136,1.35547,2.32395,-0.230138,5.0791,0.180904,6.18103,0.246629,0.394858,-0.725142,0.0563965,0.0332184,0.0201416,-0.547866,-0.104736,23.4648,23.3513,23.1952,23.3087,23.2378,23.2804,23.1669,
20,6.27289,1.38523,3.15337,4.1178,6.27423,1.97544,1.55562,0.00357738,-0.0353828,-0.000171586,0.11209,5.82008e-05,0.0540195,1.05661e-05,0.359292,-5.3249,-0.289549,2.20888,0.79043,-19.5364,0.775108,-0.00318768,-20,-0.40481,0.66197,-0.0388241,0.956392,0.00675829,-2.18957e-05,0.0022114,4.11827e-05,0.493975,0.00126257,0.0734373,0.0398881,-0.000955309,0.0175402,1.99007,0.000439105,0.005,1.75517,0.00125497,-0.0112862,-0.10271,12.0149,0.152596,1.35547,2.32395,-0.230138,5.0791,0.180904,6.18103,0.246629,0.394858,-0.725142,0.0563965,0.0332184,0.0201416,-0.547866,-0.104736,23.4648,23.3513,23.1952,23.3087,23.2378,23.2804,23.1669,
21,6.27289,1.3852,3.15337,4.11792,6.27423,1.9755,1.55562,0.00331157,-0.0386239,-0.00016869,0.114791,5.82453e-05,0.0564229,1.0566e-05,0.359293,-5.32383,-0.289588,2.20777,0.790497,-19.5343,0.775104,-0.00319329,-20,-0.404842,0.662983,-0.038815,0.956263,0.00675509,-2.18957e-05,0.0022114,4.11827e-05,0.493975,0.00126257,0.0734373,0.0413518,-0.000834838,0.0190283,1.99007,0.000439105,0.005,1.75517,0.00125497,-0.0112862,-0.10271,12.0149,0.152596,1.27875,2.60264,-0.171026,5.07393,0.194825,6.13476,0.235308,0.403154,-0.813761,0.0402832,0.0809682,0.0127387,-0.543823,-0.0927389,23.479,23.3513,23.1811,23.3087,23.2378,23.2804,23.1527,
22,6.27289,1.38515,3.15336,4.11803,6.27423,1.97556,1.55562,0.00304664,-0.0418651,-0.000173701,0.116564,5.82013e-05,0.0588813,1.05661e-05,0.362063,-5.54588,-0.294616,2.03764,0.799489,-20.4066,0.789645,-0.00246262,-20,-0.408189,0.634069,-0.0388323,0.868549,0.00729143,-2.32073e-05,0.00242257,4.1631e-05,0.493975,0.00126257,0.0734373,0.042547,-0.000714385,0.0205407,1.98926,0.000451724,0.005,1.75312,0.00115791,-0.0126255,-0.107801,12.8354,0.143823,1.29372,2.8503,-0.156632,5.06776,0.201059,6.07859,0.221481,0.394858,-0.894323,0.0332184,0.0322266,0.0166092,-0.559951,-0.0926514,23.479,23.3371,23.1669,23.3087,23.2236,23.2946,23.1669,
23,6.27289,1.38515,3.15336,4.11803,6.27423,1.97556,1.55562,0.00304664,-0.0418651,-0.000173701,0.116564,5.82013e-05,0.0588813,1.05661e-05,0.364764,-5.76432,-0.299488,1.87277,0.808204,-21.263,0.804809,-0.0017444,-20,-0.411433,0.604882,-0.0388606,0.782854,0.00791521,-2.48283e-05,0.00263693,4.20373e-05,0.493975,0.00126257,0.0734373,0.042547,-0.000714385,0.0205407,1.98842,0.000462694,0.005,1.75128,0.00105937,-0.0139866,-0.113731,13.6383,0.135221,1.29372,2.8503,-0.156632,5.06776,0.201059,6.07859,0.221481,0.394858,-0.894323,0.0332184,0.0322266,0.0166092,-0.559951,-0.0926514,23.479,23.3371,23.1669,23.3087,23.2236,23.2946,23.1669,
24,6.27289,1.38511,3.15336,4.11816,6.27423,1.97562,1.55562,0.00291418,-0.0453891,-0.000170156,0.119366,5.82013e-05,0.0599616,1.0566e-05,0.364777,-5.76288,-0.299562,1.87157,0.808274,-21.2604,0.804808,-0.00175182,-20,-0.411465,0.606099,-0.0388529,0.7827,0.00791202,-2.48283e-05,0.00263693,4.20373e-05,0.493975,0.00126257,0.0734373,0.0440986,-0.000647997,0.0220004,1.98842,0.000462694,0.005,1.75128,0.00105937,-0.0139866,-0.113731,13.6383,0.135221,1.20353,3.1769,-0.144471,5.01451,0.186809,6.00768,0.211719,0.418945,-0.95082,0.0332184,0.0180152,0.0254773,-0.568007,-0.0967636,23.479,23.3513,23.1527,23.2946,23.2236,23.2946,23.1385,
25,6.27289,1.38511,3.15336,4.11816,6.27423,1.97562,1.55562,0.00291418,-0.0453891,-0.000170156,0.119366,5.82013e-05,0.0599616,1.0566e-05,0.367553,-5.99519,-0.302997,1.69514,0.822755,-22.1699,0.820736,-0.00101374,-20,-0.414792,0.574784,-0.0388439,0.691606,0.00851961,-2.63538e-05,0.00287087,4.2343e-05,0.493975,0.00126257,0.0734373,0.0440986,-0.000647997,0.0220004,1.98748,0.000474332,0.005,1.74904,0.0010101,-0.0153003,-0.119492,14.4921,0.130634,1.20353,3.1769,-0.144471,5.01451,0.186809,6.00768,0.211719,0.418945,-0.95082,0.0332184,0.0180152,0.0254773,-0.568007,-0.0967636,23.479,23.3513,23.1527,23.2946,23.2236,23.2946,23.1385,
26,6.2729,1.38506,3.15336,4.11828,6.27423,1.97568,1.55562,0.00264925,-0.0501872,-0.000170373,0.121544,4.76548e-05,0.0599337,1.0566e-05,0.367546,-5.99353,-0.303023,1.69376,0.822812,-22.1669,0.820717,-0.00102046,-20,-0.414824,0.575851,-0.0388341,0.691457,0.0085165,-2.63538e-05,0.00287087,4.2343e-05,0.493975,0.00126257,0.0734373,0.0457382,-0.000529636,0.0238577,1.98748,0.000474332,0.005,1.74904,0.0010101,-0.0153003,-0.119492,14.4921,0.130634,1.2278,3.35016,-0.0953629,4.95071,0.189629,5.93192,0.210487,0.410968,-1.02332,0.0113938,-0.0113938,0.0241699,-0.563965,-0.0966797,23.479,23.3513,23.1669,23.3087,23.2236,23.2804,23.1527,
27,6.2729,1.385,3.15336,4.1184,6.27423,1.97574,1.55562,0.00238492,-0.0559102,-0.000167591,0.124515,5.82447e-05,0.0588216,1.05661e-05,0.370319,-6.21844,-0.307543,1.51958,0.833561,-23.0554,0.836202,-0.000286924,-20,-0.418187,0.546202,-0.0388433,0.601847,0.0091301,-2.78369e-05,0.00310401,4.26583e-05,0.493975,0.00126257,0.0734373,0.0478017,-0.000408277,0.0259512,1.98658,0.000486057,0.005,1.74676,0.000914124,-0.0169719,-0.125367,15.33,0.123089,1.12444,3.51181,-0.0507731,4.88951,0.187537,5.85544,0.192413,0.427002,-1.02323,0.0241699,-0.0360304,0.0205405,-0.551939,-0.088623,23.479,23.3371,23.1669,23.3087,23.2378,23.2804,23.1385,
28,6.2729,1.385,3.15336,4.1184,6.27423,1.97574,1.55562,0.00238492,-0.0559102,-0.000167591,0.124515,5.82447e-05,0.0588216,1.05661e-05,0.373322,-6.45156,-0.31453,1.34087,0.838311,-23.9743,0.853883,0.000511611,-20,-0.421775,0.51433,-0.0388938,0.509474,0.00995468,-2.98259e-05,0.00333992,4.09824e-05,0.493975,0.00126257,0.0734373,0.0478017,-0.000408277,0.0259512,1.98564,0.000487121,0.005,1.74405,0.000805858,-0.0188561,-0.13326,16.1945,0.109837,1.12444,3.51181,-0.0507731,4.88951,0.187537,5.85544,0.192413,0.427002,-1.02323,0.0241699,-0.0360304,0.0205405,-0.551939,-0.088623,23.479,23.3371,23.1669,23.3087,23.2378,23.2804,23.1385,
29,6.2729,1.38494,3.15336,4.11853,6.27423,1.9758,1.55562,0.00211993,-0.0618523,-0.000158768,0.124381,5.82447e-05,0.0578009,1.05661e-05,0.373309,-6.44944,-0.314538,1.33946,0.838354,-23.9707,0.853819,0.000502913,-20,-0.4218,0.515587,-0.0388841,0.509264,0.0099502,-2.98259e-05,0.00333992,4.09824e-05,0.493975,0.00126257,0.0734373,0.0490142,-0.000295353,0.0282009,1.98564,0.000487121,0.005,1.74405,0.000805858,-0.0188561,-0.13326,16.1945,0.109837,1.11192,3.6472,0.0332514,4.82764,0.210052,5.73427,0.196396,0.427078,-1.00721,0.0180152,-0.0805664,0.0281982,-0.53981,-0.088623,23.479,23.3371,23.1811,23.3087,23.2378,23.2804,23.1527,
30,6.2729,1.38487,3.15336,4.11866,6.27423,1.97585,1.55562,0.00198743,-0.0679583,-0.000158569,0.126547,5.82008e-05,0.0559102,1.0566e-05,0.376084,-6.6681,-0.319908,1.17048,0.846398,-24.8394,0.869291,0.00123049,-20,-0.425137,0.487084,-0.0389068,0.421541,0.0105912,-3.15264e-05,0.00359011,4.01899e-05,0.493975,0.00126257,0.0734373,0.050925,-0.000228481,0.0303809,1.98462,0.00048964,0.005,1.74204,0.000706494,-0.0208808,-0.139378,17.0136,0.100311,0.998919,3.86766,0.0820564,4.72842,0.183773,5.60069,0.19468,0.435133,-1.00737,0.0290486,-0.0725098,0.0284845,-0.515688,-0.0966797,23.479,23.3371,23.1669,23.3087,23.2378,23.2946,23.1243,
31,6.2729,1.3848,3.15336,4.11879,6.27423,1.97591,1.55562,0.00172201,-0.0740067,-0.000158569,0.127345,5.82008e-05,0.0540195,1.0566e-05,0.37889,-6.90102,-0.323234,0.9889,0.861682,-25.763,0.886716,0.00197189,-20,-0.428521,0.456248,-0.0388825,0.32814,0.0113337,-3.3282e-05,0.00384228,4.00436e-05,0.493975,0.00126257,0.0734373,0.052428,-0.000112067,0.0325647,1.98359,0.000496253,0.005,1.7394,0.000652261,-0.0228428,-0.146507,17.8859,0.0960545,1.04658,3.99172,0.136932,4.61333,0.19974,5.48785,0.213696,0.443188,-0.983207,0.0161133,-0.11308,0.0293266,-0.495549,-0.0845947,23.479,23.3513,23.1811,23.2946,23.2378,23.2946,23.1385,
32,6.2729,1.38472,3.15336,4.11891,6.27423,1.97597,1.55562,0.00172201,-0.0791386,-0.000156024,0.124119,5.82447e-05,0.0556706,1.0582e-05,0.381714,-7.12244,-0.328497,0.817332,0.870403,-26.6409,0.903035,0.00270281,-20,-0.431862,0.427376,-0.0389042,0.239333,0.0120459,-3.50506e-05,0.00409393,3.93869e-05,0.493975,0.00126257,0.0734373,0.0525756,-0.000106041,0.0348374,1.98256,0.000498666,0.005,1.73711,0.00054966,-0.0248082,-0.15333,18.714,0.0869042,0.945189,4.17491,0.166691,4.51893,0.2082,5.35169,0.206557,0.459229,-0.935438,0.0254773,-0.105969,0.0322266,-0.463257,-0.0849775,23.479,23.3371,23.1527,23.2946,23.2236,23.2804,23.1385,
33,6.27291,1.38463,3.15336,4.11903,6.27424,1.97602,1.55562,0.00170204,-0.0842582,-0.000147541,0.123435,6.88347e-05,0.0540195,1.0582e-05,0.3843,-7.33881,-0.330791,0.653443,0.887349,-27.5005,0.918405,0.00337208,-20,-0.434939,0.400366,-0.0388651,0.152776,0.0126245,-3.68466e-05,0.00435343,3.86777e-05,0.493975,0.00126257,0.0734373,0.0534535,-9.26843e-05,0.0367089,1.98152,0.000500804,0.005,1.73605,0.000546161,-0.0268536,-0.158878,19.5214,0.0853775,0.921071,4.33079,0.187404,4.44293,0.227972,5.21887,0.210483,0.459299,-0.942765,0.0332184,-0.041081,0.0284845,-0.475342,-0.0887145,23.4648,23.3513,23.1811,23.2946,23.252,23.2804,23.1527,
34,6.27291,1.38454,3.15336,4.11916,6.27424,1.97607,1.55562,0.00170204,-0.0917401,-0.000147356,0.12413,6.88347e-05,0.0528855,1.84907e-05,0.386915,-7.55238,-0.334188,0.488291,0.901064,-28.3466,0.935563,0.00404958,-20,-0.438067,0.372669,-0.0388437,0.0673899,0.0134091,-3.9179e-05,0.00461798,3.70874e-05,0.493975,0.00126257,0.0734373,0.0552284,-7.70473e-05,0.0395441,1.98044,0.000500587,0.005,1.73428,0.000533944,-0.028538,-0.166451,20.3192,0.0812313,0.850413,4.58909,0.222558,4.33735,0.210941,5.05978,0.172919,0.451459,-0.926654,0.0254773,-0.0254773,0.0281982,-0.459246,-0.0809682,23.479,23.3371,23.1669,23.3087,23.2236,23.2804,23.1385,
35,6.27291,1.38444,3.15336,4.11928,6.27424,1.97613,1.55562,0.00166749,-0.0958846,-0.000147356,0.123435,7.94246e-05,0.0546675,1.84768e-05,0.389965,-7.80655,-0.336825,0.29133,0.921192,-29.3562,0.952205,0.00483996,-20,-0.441666,0.339416,-0.0387933,-0.0347342,0.0139462,-4.02454e-05,0.00489253,3.63677e-05,0.493975,0.00126257,0.0734373,0.0558966,-5.22144e-05,0.0413958,1.97929,0.000502012,0.005,1.73166,0.000521154,-0.0310897,-0.171547,21.2717,0.0795673,0.889065,4.7791,0.245219,4.21614,0.240187,4.90918,0.193959,0.443408,-0.854042,0.0254773,-0.0180152,0.0284845,-0.447144,-0.0846906,23.4932,23.3371,23.1385,23.3087,23.2236,23.3087,23.1527,
36,6.27291,1.38435,3.15336,4.11941,6.27424,1.97618,1.55562,0.00140397,-0.0964248,-0.000145029,0.125198,7.94246e-05,0.0529391,1.84768e-05,0.392914,-8.04848,-0.341214,0.107468,0.934666,-30.3116,0.970542,0.00561354,-20,-0.445244,0.309244,-0.0387771,-0.130837,0.0147388,-4.26268e-05,0.00516679,3.47054e-05,0.493975,0.00126257,0.0734373,0.0565138,5.32875e-05,0.0414068,1.97819,0.000501436,0.005,1.73006,0.000498285,-0.0327562,-0.179186,22.1692,0.0731903,0.795484,5.02054,0.262258,4.11939,0.267244,4.75307,0.183014,0.435059,-0.862663,0.0254773,-0.00805664,0.0404841,-0.447162,-0.0765381,23.479,23.3371,23.1669,23.3087,23.2236,23.2804,23.1527,
37,6.27291,1.38425,3.15336,4.11953,6.27424,1.97623,1.55562,0.00133314,-0.0964248,-0.000145029,0.125595,8.47205e-05,0.0521288,1.85324e-05,0.39556,-8.25347,-0.347618,-0.0491898,0.938047,-31.1088,0.984865,0.00629609,-20,-0.448464,0.28387,-0.0388275,-0.210827,0.0153513,-4.46074e-05,0.00543775,3.302e-05,0.493975,0.00126257,0.0734373,0.0566227,8.12051e-05,0.041327,1.97707,0.000494599,0.005,1.7285,0.00039718,-0.0327662,-0.185055,22.918,0.0609223,0.82177,5.19433,0.299253,4.0489,0.276552,4.55715,0.184366,0.443188,-0.934605,0.0332184,-0.0360304,0.0404841,-0.435059,-0.0887145,23.4648,23.3513,23.1669,23.2804,23.2236,23.2662,23.1385,
38,6.27291,1.38415,3.15336,4.11966,6.27424,1.97628,1.55562,0.00115538,-0.098552,-0.000142774,0.125133,8.47205e-05,0.0491577,1.85184e-05,0.397959,-8.44986,-0.351675,-0.198508,0.947352,-31.8731,0.999411,0.00691807,-20,-0.451414,0.260001,-0.0388299,-0.287457,0.0159797,-4.68002e-05,0.00570803,3.13899e-05,0.493975,0.00126257,0.0734373,0.0569316,0.000149583,0.041876,1.97596,0.000490955,0.005,1.7274,0.000368775,-0.0326943,-0.19112,23.6354,0.0544828,0.728024,5.46366,0.289749,3.97056,0.258356,4.35814,0.148668,0.451172,-1.00708,0.0254773,-0.0332184,0.0443115,-0.418945,-0.0725098,23.4648,23.3371,23.1385,23.2946,23.2094,23.2804,23.1385,
39,6.27291,1.38405,3.15336,4.11978,6.27424,1.97633,1.55562,0.000977633,-0.100476,-0.000142774,0.123435,9.52376e-05,0.0464568,1.85045e-05,0.400446,-8.649,-0.356494,-0.350473,0.954635,-32.6533,1.01413,0.00756471,-20,-0.454447,0.23548,-0.0388497,-0.365903,0.0166315,-4.89548e-05,0.00599403,2.96556e-05,0.493975,0.00126257,0.0734373,0.0568407,0.000216999,0.0423949,1.97475,0.000483434,0.005,1.72604,0.000300465,-0.0331884,-0.197413,24.3684,0.04599,0.777042,5.67852,0.308742,3.83074,0.282446,4.17491,0.166183,0.459299,-1.03138,0.0180152,-0.00805664,0.036478,-0.382712,-0.0765381,23.4506,23.3229,23.1669,23.2946,23.2236,23.2804,23.1385,
40,6.27291,1.38395,3.15336,4.1199,6.27424,1.97637,1.55562,0.000789865,-0.100914,-0.000140589,0.121004,0.0001059,0.0420895,1.85184e-05,0.402713,-8.82418,-0.362072,-0.482947,0.957399,-33.3414,1.02829,0.00815168,-20,-0.457211,0.214727,-0.0388872,-0.4351,0.0173398,-5.13855e-05,0.00626057,2.71155e-05,0.493975,0.00126257,0.0734373,0.0562251,0.00028036,0.0421628,1.97363,0.000474641,0.005,1.72511,0.000231878,-0.0336554,-0.204281,25.0138,0.0353258,0.730573,5.85821,0.309999,3.73307,0.320425,3.99738,0.139738,0.443188,-1.06348,0.0254773,0.0341814,0.0444942,-0.358521,-0.0726216,23.4648,23.3229,23.1527,23.2946,23.2236,23.2804,23.1527,
41,6.27291,1.38385,3.15336,4.12002,6.27424,1.97641,1.55562,0.00062213,-0.103823,-0.000140589,0.117222,0.0001059,0.0386239,2.91001e-05,0.40457,-8.96702,-0.367062,-0.590488,0.958274,-33.8977,1.04027,0.00862956,-20,-0.459502,0.198166,-0.0389288,-0.490869,0.0179732,-5.38002e-05,0.00652419,2.46174e-05,0.493975,0.00126257,0.0734373,0.0557404,0.000339303,0.0430272,1.97252,0.000465965,0.005,1.72466,0.000167044,-0.0334465,-0.210413,25.5348,0.0254892,0.761674,6.04234,0.28704,3.66682,0.317487,3.7773,0.136751,0.443188,-1.15213,0.0332184,0.0725098,0.0444942,-0.306152,-0.0765381,23.4506,23.3087,23.1669,23.2946,23.2094,23.2804,23.1243,
42,6.27291,1.38373,3.15336,4.12014,6.27424,1.97645,1.55562,0.00062213,-0.108731,-0.000140589,0.116858,0.000116402,0.0367333,2.91004e-05,0.406478,-9.11817,-0.370533,-0.705557,0.964577,-34.4949,1.04885,0.00911391,-20,-0.461803,0.180051,-0.038944,-0.550986,0.018203,-5.47247e-05,0.00678023,2.32371e-05,0.493975,0.00126257,0.0734373,0.0566636,0.000347053,0.0447889,1.97142,0.000459614,0.005,1.72411,0.00010828,-0.0342245,-0.212572,26.096,0.0196137,0.67776,6.30721,0.28704,3.58409,0.318116,3.56264,0.125673,0.459299,-1.14416,0.0332184,0.161334,0.0485074,-0.277954,-0.0684814,23.4648,23.3229,23.1669,23.2804,23.2236,23.2804,23.1385,
43,6.27291,1.38362,3.15336,4.12026,6.27424,1.97648,1.55562,0.000610554,-0.113711,-0.000138469,0.117763,0.000121694,0.0337622,2.90784e-05,0.40921,-9.3389,-0.37468,-0.876201,0.976933,-35.3693,1.06727,0.00982048,-20,-0.465078,0.151726,-0.038932,-0.639242,0.0190923,-5.73437e-05,0.0070561,2.08148e-05,0.493975,0.00126257,0.0734373,0.0579683,0.000359406,0.0464415,1.97021,0.000450317,0.005,1.7222,9.29374e-05,-0.03581,-0.221188,26.9204,0.0137709,0.746474,6.51125,0.244281,3.44382,0.32935,3.373,0.15749,0.443115,-1.10402,0.0241699,0.161334,0.0529843,-0.253784,-0.0645789,23.479,23.3229,23.1527,23.3087,23.2094,23.2662,23.1385,
44,6.27291,1.38362,3.15336,4.12026,6.27424,1.97648,1.55562,0.000610554,-0.113711,-0.000138469,0.117763,0.000121694,0.0337622,2.90784e-05,0.411794,-9.55357,-0.378014,-1.04061,0.990314,-36.2129,1.08479,0.0105071,-20,-0.468169,0.122573,-0.0389163,-0.723954,0.0199213,-5.96488e-05,0.00731759,1.90159e-05,0.493975,0.00126257,0.0734373,0.0579683,0.000359406,0.0464415,1.96907,0.000442643,0.005,1.71999,7.49129e-05,-0.0372974,-0.229167,27.7138,0.00946738,0.746474,6.51125,0.244281,3.44382,0.32935,3.373,0.15749,0.443115,-1.10402,0.0241699,0.161334,0.0529843,-0.253784,-0.0645789,23.479,23.3229,23.1527,23.3087,23.2094,23.2662,23.1385,
45,6.27292,1.3835,3.15336,4.12038,6.27424,1.97651,1.55562,0.000603977,-0.116142,-0.000138308,0.118183,0.000121786,0.0305938,2.91004e-05,0.411823,-9.55104,-0.378112,-1.04106,0.990357,-36.2099,1.08476,0.0104908,-20,-0.468183,0.124677,-0.0389106,-0.724262,0.0199187,-5.96488e-05,0.00731759,1.90159e-05,0.493975,0.00126257,0.0734373,0.0585959,0.000362942,0.0470744,1.96907,0.000442643,0.005,1.71999,7.49129e-05,-0.0372974,-0.229167,27.7138,0.00946738,0.641991,6.73361,0.226163,3.37467,0.363831,3.18095,0.149174,0.443115,-1.02319,0.0402832,0.112793,0.0485074,-0.217567,-0.0644531,23.479,23.3229,23.1669,23.2804,23.2094,23.252,23.1385,
46,6.27292,1.38339,3.15336,4.12049,6.27424,1.97654,1.55562,0.000603977,-0.118843,-0.000138308,0.118843,0.000132374,0.0269824,2.91004e-05,0.414068,-9.74058,-0.379962,-1.18744,1.00548,-36.9545,1.0998,0.0110638,-20,-0.470879,0.101037,-0.0388773,-0.799286,0.0205938,-6.17675e-05,0.00758096,1.82464e-05,0.493975,0.00126257,0.0734373,0.0593497,0.000365358,0.0477636,1.96791,0.00044013,0.005,1.71839,6.94691e-05,-0.037867,-0.235731,28.4154,0.00848143,0.677373,6.97992,0.220302,3.33474,0.329196,2.96876,0.142342,0.443115,-1.05554,0.0254773,0.123243,0.045038,-0.173265,-0.0645789,23.4648,23.3229,23.1527,23.3087,23.2094,23.2804,23.1385,
47,6.27292,1.38339,3.15336,4.12049,6.27424,1.97654,1.55562,0.000603977,-0.118843,-0.000138308,0.118843,0.000132374,0.0269824,2.91004e-05,0.416363,-9.93107,-0.38335,-1.33262,1.01606,-37.6964,1.11625,0.0116736,-20,-0.473655,0.0753689,-0.0388716,-0.873516,0.0214296,-6.43429e-05,0.00784178,1.60471e-05,0.493975,0.00126257,0.0734373,0.0593497,0.000365358,0.0477636,1.96675,0.000431378,0.005,1.71666,5.94177e-05,-0.0384872,-0.243806,29.1121,0.00365944,0.677373,6.97992,0.220302,3.33474,0.329196,2.96876,0.142342,0.443115,-1.05554,0.0254773,0.123243,0.045038,-0.173265,-0.0645789,23.4648,23.3229,23.1527,23.3087,23.2094,23.2804,23.1385,
48,6.27292,1.38326,3.15336,4.12064,6.27424,1.97657,1.55562,0.000529916,-0.119867,-0.000136254,0.121093,0.000132274,0.0259557,2.91004e-05,0.416391,-9.92841,-0.383442,-1.33357,1.01611,-37.6928,1.11617,0.0116542,-20,-0.473679,0.0778502,-0.038864,-0.873821,0.021423,-6.43429e-05,0.00784178,1.60471e-05,0.493975,0.00126257,0.0734373,0.0602087,0.000399392,0.048038,1.96675,0.000431378,0.005,1.71666,5.94177e-05,-0.0384872,-0.243806,29.1121,0.00365944,0.580124,7.30012,0.203756,3.28071,0.335562,2.75296,0.121596,0.451244,-1.05591,0.0322266,0.105046,0.0485074,-0.140991,-0.0605589,23.479,23.3371,23.1669,23.2946,23.2236,23.2662,23.1385,
49,6.27292,1.38326,3.15336,4.12064,6.27424,1.97657,1.55562,0.000529916,-0.119867,-0.000136254,0.121093,0.000132274,0.0259557,2.91004e-05,0.419323,-10.1697,-0.388478,-1.51695,1.02708,-38.6277,1.13411,0.0124334,-20,-0.47725,0.0454884,-0.0388776,-0.967142,0.0222127,-6.68438e-05,0.00814162,1.39624e-05,0.493975,0.00126257,0.0734373,0.0602087,0.000399392,0.048038,1.96536,0.000418808,0.005,1.71464,1.74738e-05,-0.0387342,-0.251354,29.9891,-0.00448974,0.580124,7.30012,0.203756,3.28071,0.335562,2.75296,0.121596,0.451244,-1.05591,0.0322266,0.105046,0.0485074,-0.140991,-0.0605589,23.479,23.3371,23.1669,23.2946,23.2236,23.2662,23.1385,
50,6.27292,1.38314,3.15336,4.12076,6.27424,1.97659,1.55562,0.000596156,-0.120341,-0.000136254,0.120463,0.000142856,0.0240143,2.91004e-05,0.419377,-10.1675,-0.388624,-1.5172,1.02713,-38.6252,1.13408,0.0124153,-20,-0.47726,0.0479417,-0.0388728,-0.967512,0.0222078,-6.68438e-05,0.00814162,1.39624e-05,0.493975,0.00126257,0.0734373,0.060121,0.00037068,0.0480465,1.96536,0.000418808,0.005,1.71464,1.74738e-05,-0.0387342,-0.251354,29.9891,-0.00448974,0.652071,7.59634,0.151905,3.1804,0.325333,2.56397,0.120952,0.443188,-1.10376,0.0322266,0.0540456,0.0565402,-0.124943,-0.0645789,23.4506,23.3371,23.1385,23.2946,23.2236,23.2804,23.1243,
51,6.27292,1.38302,3.15336,4.12088,6.27424,1.97661,1.55562,0.000585117,-0.120193,-0.00014216,0.120193,0.000142964,0.0213377,3.70372e-05,0.421496,-10.3431,-0.390771,-1.65078,1.04019,-39.3098,1.14917,0.0129495,-20,-0.479785,0.0271248,-0.0388416,-1.03623,0.0229421,-6.94483e-05,0.00840298,1.23217e-05,0.493975,0.00126257,0.0734373,0.0600064,0.000371473,0.0477245,1.96417,0.000414218,0.005,1.71365,3.9185e-05,-0.0387418,-0.258497,30.6319,-0.00612618,0.551599,7.86,0.146251,3.0633,0.371757,2.3914,0.126494,0.451244,-1.1443,0.0332184,0.0649547,0.0569691,-0.0966797,-0.0725098,23.4648,23.3087,23.1669,23.2804,23.2094,23.2804,23.1385,
52,6.27292,1.38302,3.15336,4.12088,6.27424,1.97661,1.55562,0.000585117,-0.120193,-0.00014216,0.120193,0.000142964,0.0213377,3.70372e-05,0.423443,-10.511,-0.392932,-1.77688,1.05141,-39.9554,1.1611,0.0134668,-20,-0.482176,0.00502798,-0.0388312,-1.10037,0.0234237,-7.12173e-05,0.00866101,1.10701e-05,0.493975,0.00126257,0.0734373,0.0600064,0.000371473,0.0477245,1.96299,0.000404614,0.005,1.71269,2.98266e-05,-0.0384521,-0.2631,31.2357,-0.00856439,0.551599,7.86,0.146251,3.0633,0.371757,2.3914,0.126494,0.451244,-1.1443,0.0332184,0.0649547,0.0569691,-0.0966797,-0.0725098,23.4648,23.3087,23.1669,23.2804,23.2094,23.2804,23.1385,
53,6.27292,1.3829,3.15336,4.12101,6.27424,1.97663,1.55562,0.000590043,-0.122624,-0.000147895,0.12062,0.000153556,0.020563,3.70369e-05,0.423497,-10.5085,-0.393072,-1.7778,1.05144,-39.952,1.16102,0.0134544,-20,-0.482196,0.0071482,-0.0388251,-1.10066,0.0234162,-7.12173e-05,0.00866101,1.10701e-05,0.493975,0.00126257,0.0734373,0.060635,0.000376999,0.0486135,1.96299,0.000404614,0.005,1.71269,2.98266e-05,-0.0384521,-0.2631,31.2357,-0.00856439,0.626772,8.19805,0.11639,2.99255,0.329398,2.16739,0.138729,0.443188,-1.20047,0.0161133,0.0563965,0.0525229,-0.0726216,-0.0605589,23.4932,23.3087,23.1527,23.2946,23.2094,23.2804,23.1385,
54,6.27292,1.38277,3.15336,4.12112,6.27424,1.97665,1.55562,0.000585076,-0.121372,-0.000149631,0.118183,0.000153438,0.0183666,3.70369e-05,0.426195,-10.7233,-0.397401,-1.94203,1.06261,-40.7958,1.18039,0.0141361,-20,-0.485384,-0.0188936,-0.0388175,-1.18567,0.0244308,-7.44418e-05,0.00893168,8.72022e-06,0.493975,0.00126257,0.0734373,0.0596617,0.000367961,0.0479436,1.96174,0.000392405,0.005,1.711,1.38651e-05,-0.0392522,-0.272945,32.029,-0.0148783,0.578521,8.59726,0.0796605,2.96479,0.318612,1.96741,0.126503,0.427002,-1.17671,0.0254773,0.0322266,0.0569691,-0.0525229,-0.0604248,23.4648,23.3087,23.1669,23.2946,23.2094,23.2662,23.1385,
55,6.27292,1.38265,3.15336,4.12124,6.27425,1.97667,1.55562,0.000585076,-0.120193,-0.000147376,0.119775,0.000164022,0.0162058,3.70648e-05,0.427949,-10.8715,-0.399115,-2.05318,1.07353,-41.3683,1.19281,0.0145718,-20,-0.48752,-0.035543,-0.038799,-1.2428,0.0250346,-7.69734e-05,0.00919544,7.58549e-06,0.493975,0.00126257,0.0734373,0.0598686,0.000365685,0.0472356,1.96053,0.000384017,0.005,1.71078,1.44502e-05,-0.0386492,-0.278852,32.5646,-0.0162581,0.619311,8.95288,0.036021,2.8533,0.321264,1.79889,0.140747,0.427078,-1.24878,0.0402832,0.0809682,0.0645789,-0.0332184,-0.0644531,23.479,23.3229,23.1527,23.3087,23.2094,23.2804,23.1385,
56,6.27292,1.38254,3.15336,4.12136,6.27425,1.97668,1.55562,0.000528977,-0.119653,-0.000154934,0.120881,0.000169439,0.0164759,3.70372e-05,0.430106,-11.045,-0.402737,-2.1867,1.082,-42.0377,1.20742,0.015117,-20,-0.490129,-0.0565457,-0.0387966,-1.3099,0.0257614,-7.9568e-05,0.00944801,5.5361e-06,0.493975,0.00126257,0.0734373,0.0600687,0.000392137,0.0470465,1.95935,0.000375512,0.005,1.70953,8.8442e-06,-0.038012,-0.285936,33.1941,-0.0216451,0.527226,9.32681,0.0501464,2.7215,0.352491,1.63482,0.127923,0.435133,-1.32944,0.0113938,0.0569691,0.0685998,-0.00805664,-0.0525229,23.4648,23.3087,23.1527,23.2804,23.2236,23.2804,23.1243,
57,6.27292,1.38242,3.15336,4.12148,6.27425,1.9767,1.55562,0.000521863,-0.116682,-0.000167701,0.120193,0.000169439,0.0153369,4.76193e-05,0.43262,-11.2397,-0.407713,-2.33489,1.08897,-42.7937,1.22408,0.0157513,-20,-0.493102,-0.0796764,-0.0388122,-1.38575,0.0266142,-8.24826e-05,0.00970151,3.32846e-06,0.493975,0.00126257,0.0734373,0.0592403,0.000388794,0.045776,1.95816,0.000360799,0.005,1.70828,-2.8204e-05,-0.0378418,-0.294187,33.9037,-0.0299827,0.583792,9.75046,0.0223968,2.64707,0.326209,1.42819,0.107846,0.435133,-1.36963,0.0241699,0.0161133,0.0569691,-0.00805664,-0.0605589,23.4648,23.3087,23.1527,23.2946,23.2094,23.2946,23.1243,
58,6.27292,1.3823,3.15336,4.1216,6.27425,1.97671,1.55562,0.000569305,-0.115746,-0.000169094,0.118112,0.000179893,0.0129974,4.76188e-05,0.434411,-11.3871,-0.410084,-2.44544,1.09795,-43.3584,1.23554,0.0161913,-20,-0.495264,-0.095975,-0.0388063,-1.44206,0.0271358,-8.47397e-05,0.00995035,2.0692e-06,0.493975,0.00126257,0.0734373,0.0584377,0.000361124,0.045209,1.95699,0.000348541,0.005,1.70798,-3.62275e-05,-0.0366984,-0.299253,34.4316,-0.0329095,0.557122,10.2072,-0.0614746,2.56841,0.33702,1.24928,0.110775,0.418945,-1.49057,0.0254773,0.0360304,0.0726216,0.0205405,-0.0525229,23.4648,23.2946,23.1669,23.2804,23.1952,23.2662,23.1385,
59,6.27292,1.38218,3.15336,4.12172,6.27425,1.97672,1.55562,0.000563449,-0.116412,-0.000181143,0.116952,0.000190475,0.0105338,4.76188e-05,0.436222,-11.5364,-0.411915,-2.55803,1.10898,-43.9364,1.24956,0.0166447,-20,-0.497419,-0.113069,-0.0387816,-1.49986,0.0278856,-8.77008e-05,0.0102104,4.88264e-07,0.493975,0.00126257,0.0734373,0.0582384,0.000362826,0.0452463,1.95575,0.000342396,0.005,1.70758,-1.68549e-05,-0.0361881,-0.306617,34.973,-0.0342714,0.589773,10.5581,-0.106841,2.44041,0.357635,1.0858,0.14074,0.410889,-1.51467,0.0180152,0.0490066,0.0685998,0.0444942,-0.0525229,23.4648,23.3087,23.1385,23.2804,23.1952,23.252,23.1243,
60,6.27292,1.38207,3.15336,4.12183,6.27425,1.97673,1.55562,0.000523343,-0.115062,-0.00018947,0.114521,0.000201209,0.00780223,4.76553e-05,0.438152,-11.6886,-0.415087,-2.6737,1.11653,-44.5308,1.26628,0.0171281,-20,-0.499698,-0.130588,-0.0387785,-1.55963,0.0289128,-9.12815e-05,0.0104499,-1.62414e-06,0.493975,0.00126257,0.0734373,0.0572487,0.000369595,0.0444774,1.9546,0.000328404,0.005,1.70673,-3.09799e-05,-0.0362217,-0.31669,35.5309,-0.0389911,0.537567,10.9473,-0.103465,2.26354,0.391179,0.924729,0.11289,0.410968,-1.50737,0,0.0569691,0.0726216,0.0644531,-0.0485074,23.4648,23.2804,23.1669,23.2946,23.1952,23.2662,23.1385,
61,6.27292,1.38196,3.15336,4.12194,6.27425,1.97673,1.55562,0.000523343,-0.113981,-0.000194051,0.109279,0.000217094,0.00520149,5.82008e-05,0.439695,-11.8092,-0.418051,-2.76321,1.12111,-44.9955,1.27963,0.0175057,-20,-0.501531,-0.143343,-0.0387887,-1.60607,0.029751,-9.45668e-05,0.0106829,-3.61814e-06,0.493975,0.00126257,0.0734373,0.0555037,0.000354715,0.0438762,1.95347,0.000316157,0.005,1.7066,-4.80949e-05,-0.0355297,-0.324931,35.9646,-0.043843,0.596023,11.3652,-0.124348,2.21738,0.383886,0.725765,0.097994,0.427002,-1.53884,0,0.0966797,0.076644,0.100708,-0.0525229,23.4506,23.3087,23.1527,23.2662,23.2094,23.2804,23.1385,
62,6.27292,1.38184,3.15336,4.12206,6.27425,1.97673,1.55562,0.000524562,-0.114601,-0.000201997,0.109084,0.000227512,0.00297107,5.82008e-05,0.440911,-11.9028,-0.420455,-2.83173,1.12465,-45.3578,1.28815,0.0177992,-20,-0.502987,-0.152476,-0.0387936,-1.64213,0.0302079,-9.68168e-05,0.0109069,-5.95303e-06,0.493975,0.00126257,0.0734373,0.0555738,0.000354778,0.0439034,1.95238,0.000304719,0.005,1.70719,-4.49957e-05,-0.0349886,-0.329414,36.3019,-0.0476184,0.543893,11.8502,-0.151264,2.21309,0.413843,0.528629,0.0754982,0.410968,-1.57912,0,0.217678,0.0805664,0.124943,-0.0523682,23.4506,23.2946,23.1527,23.2804,23.2094,23.2804,23.1243,
63,6.27292,1.38173,3.15336,4.12216,6.27425,1.97673,1.55562,0.000488102,-0.111707,-0.000212968,0.106959,0.000248676,0.0013498,5.82008e-05,0.442963,-12.0646,-0.423632,-2.95519,1.13322,-45.9883,1.30483,0.0183132,-20,-0.50539,-0.171425,-0.0387868,-1.70552,0.031189,-0.00010021,0.0111463,-7.90842e-06,0.493975,0.00126257,0.0734373,0.0543484,0.000361005,0.042633,1.9512,0.000292147,0.005,1.70606,-5.63684e-05,-0.035013,-0.339077,36.894,-0.0521171,0.557999,12.2376,-0.176488,2.1376,0.437103,0.379968,0.113662,0.402913,-1.57107,0.00805664,0.218868,0.080667,0.153076,-0.0483398,23.4506,23.2946,23.1385,23.252,23.1952,23.2662,23.1243,
64,6.27292,1.38162,3.15336,4.12227,6.27425,1.97673,1.55562,0.000485501,-0.108579,-0.000220472,0.105338,0.000254159,0.000539921,5.82453e-05,0.444476,-12.1734,-0.428446,-3.03552,1.13151,-46.4023,1.31892,0.0186826,-20,-0.507205,-0.182603,-0.0388285,-1.74665,0.0321723,-0.000104087,0.0113629,-1.12895e-05,0.493975,0.00126257,0.0734373,0.0532199,0.00035318,0.0413466,1.95012,0.000272749,0.005,1.7062,-7.94303e-05,-0.0338697,-0.348715,37.2796,-0.061516,0.487588,12.5921,-0.139089,2.09475,0.479152,0.229181,0.0980336,0.410968,-1.65967,-0.0241699,0.22573,0.0805664,0.173218,-0.0443115,23.4506,23.2946,23.1527,23.2662,23.2094,23.2662,23.0818,
65,6.27292,1.38162,3.15336,4.12227,6.27425,1.97673,1.55562,0.000485501,-0.108579,-0.000220472,0.105338,0.000254159,0.000539921,5.82453e-05,0.445836,-12.2884,-0.431005,-3.11962,1.136,-46.8356,1.33061,0.0190436,-20,-0.508926,-0.197078,-0.0388429,-1.78916,0.0328765,-0.000107023,0.0115737,-1.31223e-05,0.493975,0.00126257,0.0734373,0.0532199,0.00035318,0.0413466,1.94908,0.000258197,0.005,1.70627,-8.54843e-05,-0.0327119,-0.35557,37.6819,-0.0658084,0.487588,12.5921,-0.139089,2.09475,0.479152,0.229181,0.0980336,0.410968,-1.65967,-0.0241699,0.22573,0.0805664,0.173218,-0.0443115,23.4506,23.2946,23.1527,23.2662,23.2094,23.2662,23.0818,
66,6.27292,1.38151,3.15336,4.12237,6.27426,1.97673,1.55562,0.000448155,-0.106689,-0.000224434,0.104798,0.000275339,0,6.61372e-05,0.445899,-12.2867,-0.431134,-3.11983,1.13599,-46.8337,1.33052,0.0190326,-20,-0.508938,-0.194691,-0.0388359,-1.78949,0.0328674,-0.000107023,0.0115737,-1.31223e-05,0.493975,0.00126257,0.0734373,0.0526633,0.000365035,0.0405606,1.94908,0.000258197,0.005,1.70627,-8.54843e-05,-0.0327119,-0.35557,37.6819,-0.0658084,0.522109,12.9876,-0.134719,2.12957,0.463109,0.0365387,0.112334,0.418945,-1.72414,-0.0227876,0.249756,0.0845947,0.181453,-0.0444942,23.4506,23.2946,23.1527,23.2804,23.1952,23.252,23.1243,
67,6.27292,1.3814,3.15336,4.12247,6.27426,1.97673,1.55562,0.000450524,-0.105072,-0.000243886,0.104692,0.000296295,-0.000614441,6.61372e-05,0.447651,-12.4181,-0.435799,-3.2192,1.13712,-47.3394,1.34172,0.0194675,-20,-0.511051,-0.209534,-0.0388666,-1.84003,0.0334573,-0.000109371,0.0117821,-1.58358e-05,0.493975,0.00126257,0.0734373,0.0522897,0.000366864,0.0398685,1.94804,0.000246352,0.005,1.70584,-0.000106815,-0.0320045,-0.36132,38.1557,-0.0744301,0.455649,13.423,-0.14089,2.13381,0.447306,-0.107895,0.086986,0.418945,-1.75637,-0.0113938,0.233643,0.088623,0.189374,-0.0523682,23.4506,23.3087,23.1385,23.2662,23.1952,23.252,23.1243,
68,6.27292,1.3813,3.15335,4.12258,6.27426,1.97673,1.55562,0.000421247,-0.102637,-0.000275485,0.103317,0.00032275,-0.000927469,6.61872e-05,0.449486,-12.5578,-0.440089,-3.32525,1.1402,-47.878,1.35687,0.019926,-20,-0.513248,-0.225489,-0.0388866,-1.89394,0.0344024,-0.000112717,0.0119951,-1.85206e-05,0.493975,0.00126257,0.0734373,0.051378,0.000381242,0.0389044,1.94697,0.000234292,0.005,1.70521,-0.000119314,-0.0313816,-0.370642,38.6607,-0.0819822,0.481876,13.7262,-0.156932,2.10063,0.487742,-0.24359,0.100348,0.394858,-1.78081,-0.0290486,0.225586,0.0887145,0.205484,-0.036478,23.4364,23.3087,23.1527,23.2662,23.1952,23.2662,23.1101,
69,6.27292,1.3813,3.15335,4.12258,6.27426,1.97673,1.55562,0.000421247,-0.102637,-0.000275485,0.103317,0.00032275,-0.000927469,6.61872e-05,0.45113,-12.6823,-0.44574,-3.41703,1.13729,-48.3511,1.37222,0.0203626,-20,-0.515315,-0.241362,-0.0389452,-1.94056,0.0354636,-0.000116481,0.012204,-2.235e-05,0.493975,0.00126257,0.0734373,0.051378,0.000381242,0.0389044,1.94591,0.000215656,0.005,1.70508,-0.000149028,-0.030514,-0.380959,39.1009,-0.0934909,0.481876,13.7262,-0.156932,2.10063,0.487742,-0.24359,0.100348,0.394858,-1.78081,-0.0290486,0.225586,0.0887145,0.205484,-0.036478,23.4364,23.3087,23.1527,23.2662,23.1952,23.2662,23.1101,
70,6.27292,1.3812,3.15335,4.12268,6.27426,1.97673,1.55562,0.000419148,-0.101557,-0.000318761,0.102907,0.000349468,-0.00131009,6.61872e-05,0.451168,-12.6806,-0.445839,-3.41737,1.13728,-48.349,1.37207,0.0203458,-20,-0.515326,-0.239165,-0.0389404,-1.94086,0.0354534,-0.000116481,0.012204,-2.235e-05,0.493975,0.00126257,0.0734373,0.0510297,0.000392973,0.0384536,1.94591,0.000215656,0.005,1.70508,-0.000149028,-0.030514,-0.380959,39.1009,-0.0934909,0.401253,13.9535,-0.0833895,2.09879,0.514465,-0.380162,0.0914263,0.402913,-1.80469,-0.0341814,0.249886,0.100708,0.209473,-0.0404841,23.4364,23.2946,23.1385,23.2662,23.1952,23.252,23.0959,
71,6.27292,1.3811,3.15335,4.12279,6.27427,1.97672,1.55562,0.000419148,-0.102637,-0.000347633,0.105338,0.000374317,-0.00157973,7.40737e-05,0.452924,-12.8124,-0.450632,-3.51846,1.13816,-48.8594,1.38648,0.0207894,-20,-0.517468,-0.254824,-0.0389723,-1.99196,0.0363665,-0.000119379,0.0124025,-2.53899e-05,0.493975,0.00126257,0.0734373,0.0519551,0.000410563,0.0388252,1.94491,0.000206163,0.005,1.70449,-0.000168129,-0.0301082,-0.38993,39.5806,-0.102431,0.401253,14.2487,-0.0441959,2.10972,0.526346,-0.538724,0.0914967,0.402913,-1.79665,-0.0254773,0.257938,0.10103,0.205602,-0.0443115,23.4364,23.2946,23.1385,23.2662,23.1811,23.2378,23.1101,
72,6.27292,1.38099,3.15335,4.12279,6.27427,1.97672,1.55562,0.000384244,-0.101215,-0.000338367,0.105338,0.000426734,-0.00215167,7.40737e-05,0.455207,-12.9878,-0.456254,-3.65303,1.14124,-49.5431,1.40193,0.021373,-20,-0.520205,-0.277438,-0.0390022,-2.06058,0.0371956,-0.00012169,0.0126046,-2.86003e-05,0.493975,0.00126257,0.0734373,0.0516534,0.0004229,0.0382058,1.94388,0.000190338,0.005,1.70274,-0.000198203,-0.0304427,-0.397991,40.2235,-0.112667,0.371993,14.5708,-0.0113359,2.10972,0.484282,-0.689226,0.0684838,0.402913,-1.78874,-0.0332184,0.257938,0.109063,0.209511,-0.045038,23.4364,23.2946,23.1243,23.2662,23.1669,23.252,23.1101,
73,6.27292,1.38099,3.15335,4.12279,6.27427,1.97672,1.55562,0.000384244,-0.101215,-0.000338367,0.105338,0.000426734,-0.00215167,7.40737e-05,0.456078,-13.0488,-0.460256,-3.69821,1.13645,-49.7737,1.41001,0.0216042,-20,-0.521305,-0.285279,-0.0390494,-2.08329,0.0377849,-0.000123843,0.0127063,-3.09587e-05,0.493975,0.00126257,0.0734373,0.0516534,0.0004229,0.0382058,1.94343,0.000180722,0.005,1.7026,-0.00021796,-0.0298853,-0.403704,40.4382,-0.121221,0.371993,14.5708,-0.0113359,2.10972,0.484282,-0.689226,0.0684838,0.402913,-1.78874,-0.0332184,0.257938,0.109063,0.209511,-0.045038,23.4364,23.2946,23.1243,23.2662,23.1669,23.252,23.1101,
74,6.27292,1.38089,3.15335,4.12289,6.27427,1.97671,1.55562,0.000349313,-0.0999361,-0.000337857,0.103717,0.000515971,-0.00258334,7.41304e-05,0.456133,-13.0472,-0.460379,-3.69843,1.1364,-49.7718,1.40982,0.0215938,-20,-0.521317,-0.282992,-0.0390431,-2.08362,0.0377702,-0.000123843,0.0127063,-3.09587e-05,0.493975,0.00126257,0.0734373,0.050914,0.0004384,0.0376901,1.94343,0.000180722,0.005,1.7026,-0.00021796,-0.0298853,-0.403704,40.4382,-0.121221,0.265273,14.8203,0.0186725,2.10897,0.515222,-0.839232,0.0882592,0.410889,-1.81276,-0.0360304,0.193359,0.108839,0.213539,-0.0402832,23.4648,23.3087,23.1385,23.2662,23.1811,23.2378,23.0959,
75,6.27292,1.3808,3.15335,4.123,6.27427,1.9767,1.55562,0.000349313,-0.0988557,-0.00032202,0.101561,0.000649088,-0.00324524,7.41297e-05,0.457823,-13.1651,-0.467152,-3.7872,1.13042,-50.228,1.42452,0.0220168,-20,-0.523398,-0.295997,-0.0391083,-2.12925,0.0387965,-0.000127469,0.0129014,-3.50853e-05,0.493975,0.00126257,0.0734373,0.050062,0.00043892,0.0372374,1.94243,0.000163089,0.005,1.70236,-0.00024778,-0.0294211,-0.413729,40.8651,-0.135119,0.279383,15.028,0.100217,2.09001,0.547612,-1.005,0.0559984,0.394775,-1.82893,-0.0402832,0.225586,0.105046,0.209473,-0.036478,23.4506,23.2946,23.1385,23.252,23.1952,23.252,23.1243,
76,6.27292,1.3807,3.15335,4.1231,6.27428,1.97669,1.55562,0.000328077,-0.0966949,-0.000301358,0.101016,0.000811298,-0.0039595,8.46557e-05,0.45937,-13.2795,-0.472094,-3.8731,1.12908,-50.6708,1.43612,0.0224038,-20,-0.525306,-0.308537,-0.0391445,-2.17352,0.0395063,-0.000129973,0.0130982,-3.76694e-05,0.493975,0.00126257,0.0734373,0.0494494,0.000450387,0.036323,1.9414,0.000151457,0.005,1.7022,-0.000258716,-0.0290136,-0.420719,41.2794,-0.144642,0.215618,15.2502,0.153274,2.11881,0.548551,-1.19667,0.0545714,0.394858,-1.84513,-0.0254773,0.249886,0.104814,0.213539,-0.0444942,23.4648,23.2946,23.1385,23.252,23.1811,23.252,23.1101,
77,6.27292,1.3807,3.15335,4.1231,6.27428,1.97669,1.55562,0.000328077,-0.0966949,-0.000301358,0.101016,0.000811298,-0.0039595,8.46557e-05,0.460961,-13.3912,-0.479249,-3.95618,1.12098,-51.095,1.44642,0.0228263,-20,-0.527309,-0.322973,-0.039224,-2.2154,0.040123,-0.000132088,0.0132827,-4.1596e-05,0.493975,0.00126257,0.0734373,0.0494494,0.000450387,0.036323,1.94042,0.000137217,0.005,1.70187,-0.000281853,-0.0281907,-0.426596,41.6749,-0.159738,0.215618,15.2502,0.153274,2.11881,0.548551,-1.19667,0.0545714,0.394858,-1.84513,-0.0254773,0.249886,0.104814,0.213539,-0.0444942,23.4648,23.2946,23.1385,23.252,23.1811,23.252,23.1101,
78,6.27292,1.3806,3.15335,4.1232,6.27428,1.97668,1.55562,0.000298059,-0.0925336,-0.000285497,0.102533,0.00105933,-0.00629276,8.47196e-05,0.460986,-13.3893,-0.479361,-3.95612,1.12092,-51.0932,1.44622,0.0228096,-20,-0.527323,-0.320433,-0.0392159,-2.21571,0.0401113,-0.000132088,0.0132827,-4.1596e-05,0.493975,0.00126257,0.0734373,0.0490145,0.000472585,0.0344095,1.94042,0.000137217,0.005,1.70187,-0.000281853,-0.0281907,-0.426596,41.6749,-0.159738,0.200241,15.5292,0.189786,2.18587,0.502064,-1.36978,0.0431016,0.386719,-1.86152,-0.0322266,0.22573,0.11308,0.209511,-0.0362549,23.4648,23.2946,23.1527,23.2662,23.1811,23.2662,23.1243,
79,6.27292,1.38051,3.15335,4.1233,6.27428,1.97667,1.55562,0.000231824,-0.0896724,-0.000253398,0.101016,0.00135787,-0.0102675,8.47196e-05,0.462473,-13.4902,-0.487011,-4.03284,1.11039,-51.4731,1.45914,0.0231849,-20,-0.529246,-0.331397,-0.0393017,-2.25351,0.0410606,-0.000134966,0.0134697,-4.5024e-05,0.493975,0.00126257,0.0734373,0.0479776,0.000503225,0.0328862,1.93942,0.000123885,0.005,1.70137,-0.00031383,-0.0264685,-0.435875,42.0305,-0.176138,0.0948457,15.7416,0.214098,2.17709,0.52823,-1.50921,0.0535451,0.386719,-1.91748,-0.0402832,0.209473,0.104814,0.229614,-0.0245033,23.4506,23.2804,23.1243,23.2662,23.1952,23.2378,23.0818,
80,6.27292,1.38043,3.15335,4.1234,6.27428,1.97665,1.55562,0.000198706,-0.0885022,-0.000248114,0.0995551,0.00163332,-0.0141303,8.47196e-05,0.463556,-13.5526,-0.494499,-4.07961,1.09644,-51.7076,1.46848,0.0234537,-20,-0.530647,-0.337119,-0.0393964,-2.27681,0.0418145,-0.000137207,0.0136436,-4.83086e-05,0.493975,0.00126257,0.0734373,0.047311,0.000529934,0.0320455,1.93848,0.000114088,0.005,1.70145,-0.000350223,-0.0250976,-0.443222,42.2492,-0.192756,0.0904653,15.888,0.298563,2.16868,0.527541,-1.65974,0.0304735,0.386719,-1.94986,-0.0332184,0.217678,0.108839,0.265869,-0.0324774,23.4506,23.2804,23.1385,23.252,23.1811,23.252,23.1101,
81,6.27292,1.38034,3.15335,4.1235,6.27429,1.97663,1.55562,0.000165589,-0.0894023,-0.000228024,0.103177,0.00194474,-0.0162467,8.47196e-05,0.464769,-13.6313,-0.501129,-4.14052,1.08661,-52.0107,1.48059,0.023764,-20,-0.53222,-0.345826,-0.0394701,-2.30714,0.0427669,-0.000139799,0.0138214,-5.12579e-05,0.493975,0.00126257,0.0734373,0.0485457,0.000574075,0.0321299,1.9375,0.000102156,0.005,1.70117,-0.000385,-0.024341,-0.452566,42.5345,-0.207059,0.0436652,16.1129,0.351206,2.14556,0.515706,-1.84089,0.0175705,0.386803,-1.96597,-0.0490066,0.267815,0.108839,0.286039,-0.036478,23.4364,23.2804,23.1101,23.252,23.1811,23.252,23.0959,
82,6.27292,1.38024,3.15335,4.12361,6.27429,1.97661,1.55562,0.000132471,-0.0890228,-0.000217423,0.103988,0.00224687,-0.0171649,7.40737e-05,0.466888,-13.7758,-0.510178,-4.25531,1.07736,-52.5763,1.49795,0.0243087,-20,-0.534829,-0.364136,-0.0395546,-2.36439,0.0439682,-0.000142576,0.0139931,-5.46066e-05,0.493975,0.00126257,0.0734373,0.0486988,0.000613124,0.0318788,1.93654,8.9416e-05,0.005,1.6992,-0.000436193,-0.0244169,-0.464246,43.0702,-0.225896,0.0329672,16.3526,0.411948,2.13591,0.461451,-1.98465,0.0285842,0.378748,-1.9097,-0.0563965,0.153288,0.112793,0.302151,-0.0245033,23.4364,23.2804,23.1385,23.252,23.2094,23.2378,23.0959,
83,6.27292,1.38016,3.15335,4.12371,6.27429,1.9766,1.55562,9.93593e-05,-0.0891322,-0.000206817,0.104258,0.00239924,-0.0168811,7.41297e-05,0.468743,-13.9043,-0.518245,-4.35515,1.06887,-53.0759,1.51369,0.0247816,-20,-0.537154,-0.379667,-0.0396364,-2.41464,0.0450713,-0.000145215,0.014173,-5.74892e-05,0.493975,0.00126257,0.0734373,0.0487975,0.000639399,0.0319577,1.93555,7.73748e-05,0.005,1.69817,-0.000482174,-0.0241909,-0.47496,43.5411,-0.242842,-0.0182843,16.5723,0.442068,2.10137,0.45793,-2.13033,0.0285121,0.362638,-1.90144,-0.0433863,0.1372,0.108765,0.306258,-0.036478,23.4506,23.2946,23.1385,23.2662,23.1952,23.252,23.0959,
84,6.27292,1.38007,3.15335,4.12382,6.27429,1.97658,1.55562,9.88859e-05,-0.0894023,-0.000200603,0.105574,0.00242899,-0.0172862,7.40186e-05,0.470569,-14.0374,-0.52416,-4.45845,1.06688,-53.5964,1.52563,0.0252439,-20,-0.539392,-0.395667,-0.0396834,-2.46706,0.0457413,-0.000147052,0.0143474,-5.98046e-05,0.493975,0.00126257,0.0734373,0.0492327,0.000643507,0.0320117,1.93459,6.96072e-05,0.005,1.69722,-0.000512813,-0.0242619,-0.481459,44.0318,-0.254468,-0.00623846,16.7659,0.517677,2.02614,0.450302,-2.2437,0.0444295,0.362638,-1.89333,-0.0433863,0.112793,0.112793,0.298096,-0.0324774,23.4648,23.2946,23.1385,23.2662,23.1952,23.252,23.1101,
85,6.27292,1.38007,3.15335,4.12382,6.27429,1.97658,1.55562,9.88859e-05,-0.0894023,-0.000200603,0.105574,0.00242899,-0.0172862,7.40186e-05,0.472431,-14.1822,-0.529048,-4.56952,1.06863,-54.1574,1.53949,0.025738,-20,-0.541676,-0.415218,-0.0397141,-2.52313,0.0465393,-0.000149702,0.0145295,-6.27844e-05,0.493975,0.00126257,0.0734373,0.0492327,0.000643507,0.0320117,1.93357,5.74588e-05,0.005,1.69591,-0.000527443,-0.0243105,-0.489166,44.5589,-0.263595,-0.00623846,16.7659,0.517677,2.02614,0.450302,-2.2437,0.0444295,0.362638,-1.89333,-0.0433863,0.112793,0.112793,0.298096,-0.0324774,23.4648,23.2946,23.1385,23.2662,23.1952,23.252,23.1101,
86,6.27292,1.37998,3.15335,4.12393,6.27429,1.97656,1.55562,9.93531e-05,-0.0869714,-0.000201514,0.108739,0.00231513,-0.0204059,8.4528e-05,0.472473,-14.1801,-0.529128,-4.5697,1.06864,-54.155,1.53941,0.0257213,-20,-0.54169,-0.412961,-0.0397111,-2.52336,0.0465354,-0.000149702,0.0145295,-6.27844e-05,0.493975,0.00126257,0.0734373,0.0496396,0.000629129,0.0306758,1.93357,5.74588e-05,0.005,1.69591,-0.000527443,-0.0243105,-0.489166,44.5589,-0.263595,-0.0611708,17.0284,0.566281,1.93453,0.438883,-2.38939,0.0363222,0.370605,-1.85304,-0.0322266,0.0649547,0.108765,0.294067,-0.0362549,23.4506,23.2946,23.1527,23.252,23.1952,23.2378,23.1101,
87,6.27292,1.37989,3.15336,4.12403,6.27429,1.97653,1.55562,9.3614e-05,-0.0821747,-0.000192432,0.106689,0.00220127,-0.0259294,8.45918e-05,0.473776,-14.2873,-0.530636,-4.65354,1.07584,-54.5645,1.54545,0.0260311,-20,-0.543247,-0.425095,-0.0397021,-2.56456,0.0466802,-0.000150805,0.014699,-6.46448e-05,0.493975,0.00126257,0.0734373,0.0480467,0.000594365,0.0282273,1.93259,4.78631e-05,0.005,1.69466,-0.000523139,-0.0231082,-0.490547,44.945,-0.265158,-0.070641,17.2705,0.615061,1.87758,0.391069,-2.5148,0.0619118,0.354584,-1.90944,-0.0360304,0.00805664,0.112793,0.314209,-0.0281982,23.4648,23.2804,23.1385,23.2804,23.1811,23.2662,23.1101,
88,6.27292,1.37989,3.15336,4.12403,6.27429,1.97653,1.55562,9.3614e-05,-0.0821747,-0.000192432,0.106689,0.00220127,-0.0259294,8.45918e-05,0.473994,-14.3157,-0.530205,-4.67245,1.07945,-54.6529,1.54816,0.0260889,-20,-0.543603,-0.428147,-0.0396949,-2.57246,0.0468386,-0.000152708,0.0148657,-6.64029e-05,0.493975,0.00126257,0.0734373,0.0480467,0.000594365,0.0282273,1.93162,3.98602e-05,0.005,1.69522,-0.000499054,-0.0209046,-0.492135,45.0241,-0.263693,-0.070641,17.2705,0.615061,1.87758,0.391069,-2.5148,0.0619118,0.354584,-1.90944,-0.0360304,0.00805664,0.112793,0.314209,-0.0281982,23.4648,23.2804,23.1385,23.2804,23.1811,23.2662,23.1101,
89,6.27292,1.37989,3.15336,4.12403,6.27429,1.97653,1.55562,9.3614e-05,-0.0821747,-0.000192432,0.106689,0.00220127,-0.0259294,8.45918e-05,0.473994,-14.3157,-0.530205,-4.67245,1.07945,-54.6529,1.54816,0.0260889,-20,-0.543603,-0.428147,-0.0396949,-2.57246,0.0468386,-0.000152708,0.0148657,-6.64029e-05,0.493975,0.00126257,0.0734373,0.0480467,0.000594365,0.0282273,1.93162,3.98602e-05,0.005,1.69522,-0.000499054,-0.0209046,-0.492135,45.0241,-0.263693,-0.070641,17.2705,0.615061,1.87758,0.391069,-2.5148,0.0619118,0.354584,-1.90944,-0.0360304,0.00805664,0.112793,0.314209,-0.0281982,23.4648,23.2804,23.1385,23.2804,23.1811,23.2662,23.1101,
90,6.27292,1.37982,3.15336,4.12414,6.27429,1.9765,1.55562,6.24093e-05,-0.0758974,-0.000182027,0.103447,0.00203842,-0.0291705,8.45926e-05,0.474042,-14.3145,-0.530255,-4.67189,1.07955,-54.6523,1.54821,0.0260653,-20,-0.543596,-0.425453,-0.0396931,-2.57286,0.04684,-0.000152708,0.0148657,-6.64029e-05,0.493975,0.00126257,0.0734373,0.0457987,0.000562484,0.0254494,1.93162,3.98602e-05,0.005,1.69522,-0.000499054,-0.0209046,-0.492135,45.0241,-0.263693,-0.0826005,17.4812,0.645377,1.75668,0.379892,-2.61889,0.0405223,0.338475,-1.97468,-0.0161133,0.0509547,0.12085,0.366666,-0.0284845,23.4506,23.3087,23.1385,23.2662,23.1952,23.2662,23.1101,
91,6.27292,1.37982,3.15336,4.12414,6.27429,1.9765,1.55562,6.24093e-05,-0.0758974,-0.000182027,0.103447,0.00203842,-0.0291705,8.45926e-05,0.473997,-14.3273,-0.528422,-4.67708,1.08516,-54.6773,1.54666,0.0260533,-20,-0.543645,-0.42592,-0.0396739,-2.57413,0.0466299,-0.000153777,0.0150139,-6.70525e-05,0.493975,0.00126257,0.0734373,0.0457987,0.000562484,0.0254494,1.93072,3.61867e-05,0.005,1.69643,-0.000473668,-0.0184045,-0.490115,45.0415,-0.259249,-0.0826005,17.4812,0.645377,1.75668,0.379892,-2.61889,0.0405223,0.338475,-1.97468,-0.0161133,0.0509547,0.12085,0.366666,-0.0284845,23.4506,23.3087,23.1385,23.2662,23.1952,23.2662,23.1101,
92,6.27292,1.37975,3.15336,4.12424,6.2743,1.97647,1.55562,3.10681e-05,-0.0729263,-0.000171371,0.0993043,0.00189751,-0.0297107,8.45926e-05,0.474027,-14.3261,-0.528463,-4.67706,1.08523,-54.6761,1.54664,0.0260303,-20,-0.543644,-0.423631,-0.0396722,-2.57445,0.0466287,-0.000153777,0.0150139,-6.70525e-05,0.493975,0.00126257,0.0734373,0.0439797,0.000542167,0.024285,1.93072,3.61867e-05,0.005,1.69643,-0.000473668,-0.0184045,-0.490115,45.0415,-0.259249,-0.0999122,17.661,0.700559,1.66641,0.364074,-2.69794,0.0627088,0.330715,-2.07863,-0.0161133,0.105046,0.112793,0.38674,-0.0245033,23.4648,23.2804,23.1101,23.2662,23.1952,23.252,23.1101,
93,6.27292,1.37975,3.15336,4.12424,6.2743,1.97647,1.55562,3.10681e-05,-0.0729263,-0.000171371,0.0993043,0.00189751,-0.0297107,8.45926e-05,0.474524,-14.3771,-0.528153,-4.71174,1.09098,-54.8626,1.54842,0.0261623,-20,-0.544307,-0.429306,-0.0396597,-2.5923,0.0465871,-0.000155055,0.015162,-6.82197e-05,0.493975,0.00126257,0.0734373,0.0439797,0.000542167,0.024285,1.92981,3.14731e-05,0.005,1.69724,-0.000459625,-0.0173565,-0.489695,45.2117,-0.257712,-0.0999122,17.661,0.700559,1.66641,0.364074,-2.69794,0.0627088,0.330715,-2.07863,-0.0161133,0.105046,0.112793,0.38674,-0.0245033,23.4648,23.2804,23.1101,23.2662,23.1952,23.252,23.1101,
94,6.27292,1.37968,3.15336,4.12434,6.2743,1.97644,1.55562,3.10681e-05,-0.0707655,-0.000160988,0.0988557,0.00174571,-0.0305938,9.5094e-05,0.474542,-14.3757,-0.528193,-4.71187,1.09101,-54.861,1.54834,0.0261406,-20,-0.544313,-0.427316,-0.0396588,-2.59252,0.0465838,-0.000155055,0.015162,-6.82197e-05,0.493975,0.00126257,0.0734373,0.0433983,0.000517511,0.0233475,1.92981,3.14731e-05,0.005,1.69724,-0.000459625,-0.0173565,-0.489695,45.2117,-0.257712,-0.142936,17.8636,0.726459,1.50286,0.356238,-2.80222,0.0342707,0.338475,-2.1028,-0.0113938,0.202861,0.120917,0.390768,-0.0241699,23.4648,23.2804,23.1527,23.252,23.1952,23.252,23.1101,
95,6.27292,1.37968,3.15336,4.12434,6.2743,1.97644,1.55562,3.10681e-05,-0.0707655,-0.000160988,0.0988557,0.00174571,-0.0305938,9.5094e-05,0.475342,-14.4498,-0.528459,-4.7673,1.09782,-55.1395,1.5497,0.0263528,-20,-0.545326,-0.436916,-0.0396427,-2.61995,0.0463964,-0.000155524,0.015297,-6.97391e-05,0.493975,0.00126257,0.0734373,0.0433983,0.000517511,0.0233475,1.92895,2.62487e-05,0.005,1.697,-0.000442136,-0.0165128,-0.487801,45.4715,-0.257008,-0.142936,17.8636,0.726459,1.50286,0.356238,-2.80222,0.0342707,0.338475,-2.1028,-0.0113938,0.202861,0.120917,0.390768,-0.0241699,23.4648,23.2804,23.1527,23.252,23.1952,23.252,23.1101,
96,6.27292,1.3796,3.15336,4.12443,6.2743,1.97641,1.55562,0,-0.0707167,-0.000161227,0.094978,0.00163186,-0.0318715,9.5094e-05,0.475379,-14.4485,-0.528512,-4.76727,1.09785,-55.1382,1.54967,0.0263367,-20,-0.545327,-0.43495,-0.0396409,-2.62022,0.0463948,-0.000155524,0.015297,-6.97391e-05,0.493975,0.00126257,0.0734373,0.0422679,0.00050846,0.0232611,1.92895,2.62487e-05,0.005,1.697,-0.000442136,-0.0165128,-0.487801,45.4715,-0.257008,-0.112951,18.022,0.784653,1.39037,0.321151,-2.90215,0.0574979,0.322366,-2.12701,0,0.185478,0.124878,0.390768,-0.0205405,23.4364,23.2946,23.1243,23.2378,23.1952,23.2378,23.1101,
97,6.27292,1.37953,3.15336,4.12452,6.2743,1.97638,1.55562,0,-0.0694151,-0.000153079,0.0921032,0.00148017,-0.0307911,9.51658e-05,0.476055,-14.5078,-0.528509,-4.81106,1.10408,-55.369,1.55415,0.0264899,-20,-0.546135,-0.44051,-0.0396261,-2.64331,0.0465833,-0.000157058,0.0154345,-7.08811e-05,0.493975,0.00126257,0.0734373,0.0411633,0.000484199,0.0229099,1.92809,1.57723e-05,0.005,1.69724,-0.000443419,-0.016435,-0.48968,45.6868,-0.255963,-0.102344,18.1654,0.801988,1.30561,0.297429,-2.95923,0.0429843,0.314312,-2.07861,0,0.257938,0.132996,0.38674,-0.0284845,23.4648,23.2946,23.1243,23.252,23.1811,23.252,23.1101,
98,6.27292,1.37953,3.15336,4.12452,6.2743,1.97638,1.55562,0,-0.0694151,-0.000153079,0.0921032,0.00148017,-0.0307911,9.51658e-05,0.476839,-14.5799,-0.528773,-4.86318,1.11073,-55.644,1.55854,0.026698,-20,-0.547118,-0.449369,-0.0396105,-2.67035,0.0467074,-0.000158652,0.0155634,-7.24035e-05,0.493975,0.00126257,0.0734373,0.0411633,0.000484199,0.0229099,1.92728,9.33539e-06,0.005,1.69751,-0.000427377,-0.0161189,-0.490877,45.942,-0.255324,-0.102344,18.1654,0.801988,1.30561,0.297429,-2.95923,0.0429843,0.314312,-2.07861,0,0.257938,0.132996,0.38674,-0.0284845,23.4648,23.2946,23.1243,23.252,23.1811,23.252,23.1101,
99,6.27292,1.37947,3.15336,4.12462,6.2743,1.97635,1.55562,0,-0.0693447,-0.000142666,0.0930351,0.00136631,-0.0329185,9.51658e-05,0.476841,-14.5781,-0.528802,-4.86342,1.11073,-55.6419,1.55841,0.0266768,-20,-0.547128,-0.447553,-0.0396093,-2.67053,0.0467037,-0.000158652,0.0155634,-7.24035e-05,0.493975,0.00126257,0.0734373,0.0414195,0.000468688,0.0226497,1.92728,9.33539e-06,0.005,1.69751,-0.000427377,-0.0161189,-0.490877,45.942,-0.255324,-0.0897324,18.3007,0.813924,1.23527,0.272185,-2.9957,0.046385,0.322266,-2.09487,-0.00805664,0.298096,0.137022,0.370605,-0.0324774,23.4506,23.2804,23.1243,23.2662,23.1952,23.252,23.0959,
100,6.27292,1.37947,3.15336,4.12462,6.2743,1.97635,1.55562,0,-0.0693447,-0.000142666,0.0930351,0.00136631,-0.0329185,9.51658e-05,0.47787,-14.6682,-0.529607,-4.93329,1.1179,-55.9884,1.56475,0.0269499,-20,-0.548391,-0.459885,-0.0395933,-2.70517,0.0469467,-0.000160049,0.0156982,-7.39396e-05,0.493975,0.00126257,0.0734373,0.0414195,0.000468688,0.0226497,1.92642,4.11516e-06,0.005,1.6965,-0.000418115,-0.0158848,-0.493227,46.2682,-0.255634,-0.0897324,18.3007,0.813924,1.23527,0.272185,-2.9957,0.046385,0.322266,-2.09487,-0.00805664,0.298096,0.137022,0.370605,-0.0324774,23.4506,23.2804,23.1243,23.2662,23.1952,23.252,23.0959,
101,6.27292,1.37939,3.15336,4.12471,6.2743,1.97631,1.55563,0,-0.0692121,-0.000142666,0.0926434,0.0012145,-0.0341045,0.000105661,0.477902,-14.6667,-0.529666,-4.9334,1.1179,-55.9868,1.5647,0.0269345,-20,-0.548399,-0.458072,-0.0395915,-2.70536,0.0469455,-0.000160049,0.0156982,-7.39396e-05,0.493975,0.00126257,0.0734373,0.0412792,0.000450934,0.0224849,1.92642,4.11516e-06,0.005,1.6965,-0.000418115,-0.0158848,-0.493227,46.2682,-0.255634,-0.104909,18.4866,0.825715,1.10012,0.269548,-3.04045,0.0410613,0.298205,-2.05451,0.00805664,0.241699,0.132935,0.38674,-0.0284845,23.4506,23.2804,23.1243,23.252,23.1669,23.2378,23.0959,
102,6.27292,1.37932,3.15336,4.12481,6.2743,1.97628,1.55563,0,-0.0702253,-0.00013002,0.0926434,0.00113859,-0.0356529,0.000105741,0.478772,-14.7469,-0.529375,-4.99607,1.12719,-56.2999,1.56811,0.0271453,-20,-0.549479,-0.467317,-0.0395618,-2.73692,0.046931,-0.000160818,0.0158267,-7.49377e-05,0.493975,0.00126257,0.0734373,0.0414922,0.000439729,0.0227311,1.92559,-2.82988e-06,0.005,1.69588,-0.000408387,-0.0157364,-0.493094,46.5639,-0.25346,-0.0577171,18.6677,0.822068,1.02829,0.262475,-3.07202,0.0556341,0.290039,-2.02223,0.0113938,0.233643,0.132996,0.38269,-0.0281982,23.4506,23.2804,23.1385,23.2662,23.1952,23.2378,23.1101,
103,6.27292,1.37932,3.15336,4.12481,6.2743,1.97628,1.55563,0,-0.0702253,-0.00013002,0.0926434,0.00113859,-0.0356529,0.000105741,0.479805,-14.8351,-0.530434,-5.0642,1.13355,-56.6428,1.57471,0.0274193,-20,-0.550732,-0.479326,-0.039549,-2.77131,0.0472095,-0.000162164,0.0159523,-7.63457e-05,0.493975,0.00126257,0.0734373,0.0414922,0.000439729,0.0227311,1.92477,-7.68248e-06,0.005,1.69495,-0.000402671,-0.015958,-0.495787,46.8869,-0.254398,-0.0577171,18.6677,0.822068,1.02829,0.262475,-3.07202,0.0556341,0.290039,-2.02223,0.0113938,0.233643,0.132996,0.38269,-0.0281982,23.4506,23.2804,23.1385,23.2662,23.1952,23.2378,23.1101,
104,6.27292,1.37926,3.15336,4.1249,6.2743,1.97624,1.55563,0,-0.0675244,-0.00013002,0.0918331,0.00101921,-0.0356529,0.00010574,0.479845,-14.8339,-0.530505,-5.06434,1.13356,-56.6415,1.57465,0.0274046,-20,-0.55074,-0.477428,-0.0395468,-2.77152,0.0472055,-0.000162164,0.0159523,-7.63457e-05,0.493975,0.00126257,0.0734373,0.0406929,0.000420618,0.0216763,1.92477,-7.68248e-06,0.005,1.69495,-0.000402671,-0.015958,-0.495787,46.8869,-0.254398,-0.0321783,18.8386,0.81798,0.961251,0.258706,-3.09247,0.0508506,0.290039,-1.97394,0.0113938,0.22573,0.133178,0.38674,-0.0201416,23.4506,23.3087,23.1385,23.2662,23.1952,23.2662,23.1243,
105,6.27292,1.37919,3.15336,4.12499,6.2743,1.9762,1.55563,0,-0.0629327,-0.000117672,0.091563,0.000943714,-0.0356529,0.00010574,0.480574,-14.8976,-0.531202,-5.11209,1.13828,-56.8814,1.57988,0.0275728,-20,-0.551661,-0.483644,-0.0395393,-2.79534,0.0474618,-0.000163998,0.0160742,-7.78418e-05,0.493975,0.00126257,0.0734373,0.0396548,0.000399416,0.0198605,1.92397,-1.5374e-05,0.005,1.69495,-0.000392393,-0.0150087,-0.498325,47.1108,-0.254857,-0.0391995,18.9889,0.835194,0.892286,0.246163,-3.076,0.0539441,0.314622,-2.01418,0.00805664,0.233643,0.140991,0.374634,-0.0254773,23.4506,23.2946,23.1385,23.252,23.1811,23.252,23.0959,
106,6.27292,1.37919,3.15336,4.12499,6.2743,1.9762,1.55563,0,-0.0629327,-0.000117672,0.091563,0.000943714,-0.0356529,0.00010574,0.481145,-14.9494,-0.532214,-5.14942,1.14053,-57.066,1.58269,0.0277243,-20,-0.552431,-0.489967,-0.0395447,-2.81306,0.0475351,-0.00016526,0.0161913,-7.92358e-05,0.493975,0.00126257,0.0734373,0.0396548,0.000399416,0.0198605,1.92318,-1.98638e-05,0.005,1.69518,-0.000377352,-0.0133745,-0.499011,47.281,-0.256373,-0.0391995,18.9889,0.835194,0.892286,0.246163,-3.076,0.0539441,0.314622,-2.01418,0.00805664,0.233643,0.140991,0.374634,-0.0254773,23.4506,23.2946,23.1385,23.252,23.1811,23.252,23.0959,
107,6.27292,1.37914,3.15336,4.12508,6.2743,1.97617,1.55563,0,-0.0583411,-0.000117839,0.0916949,0.000948757,-0.0358599,0.00010566,0.48118,-14.9482,-0.532293,-5.14957,1.14051,-57.0647,1.58257,0.0277107,-20,-0.552443,-0.487993,-0.0395413,-2.81328,0.0475284,-0.00016526,0.0161913,-7.92358e-05,0.493975,0.00126257,0.0734373,0.0387334,0.000390114,0.0180164,1.92318,-1.98638e-05,0.005,1.69518,-0.000377352,-0.0133745,-0.499011,47.281,-0.256373,-0.0505137,19.1832,0.828596,0.784509,0.234842,-3.05546,0.0470498,0.281982,-2.08667,0.0290486,0.209473,0.145075,0.362571,-0.0281982,23.4506,23.2804,23.1385,23.2662,23.1952,23.252,23.1243,
108,6.27292,1.37914,3.15336,4.12508,6.2743,1.97617,1.55563,0,-0.0583411,-0.000117839,0.0916949,0.000948757,-0.0358599,0.00010566,0.481859,-15.0014,-0.534987,-5.18827,1.13829,-57.2544,1.58872,0.027891,-20,-0.55335,-0.4946,-0.0395729,-2.83154,0.0479509,-0.000167265,0.016308,-8.1258e-05,0.493975,0.00126257,0.0734373,0.0387334,0.000390114,0.0180164,1.92238,-2.84039e-05,0.005,1.69528,-0.000376667,-0.0117148,-0.503104,47.4562,-0.261931,-0.0505137,19.1832,0.828596,0.784509,0.234842,-3.05546,0.0470498,0.281982,-2.08667,0.0290486,0.209473,0.145075,0.362571,-0.0281982,23.4506,23.2804,23.1385,23.2662,23.1952,23.252,23.1243,
109,6.27292,1.37914,3.15336,4.12508,6.2743,1.97617,1.55563,0,-0.0583411,-0.000117839,0.0916949,0.000948757,-0.0358599,0.00010566,0.481859,-15.0014,-0.534987,-5.18827,1.13829,-57.2544,1.58872,0.027891,-20,-0.55335,-0.4946,-0.0395729,-2.83154,0.0479509,-0.000167265,0.016308,-8.1258e-05,0.493975,0.00126257,0.0734373,0.0387334,0.000390114,0.0180164,1.92238,-2.84039e-05,0.005,1.69528,-0.000376667,-0.0117148,-0.503104,47.4562,-0.261931,-0.0505137,19.1832,0.828596,0.784509,0.234842,-3.05546,0.0470498,0.281982,-2.08667,0.0290486,0.209473,0.145075,0.362571,-0.0281982,23.4506,23.2804,23.1385,23.2662,23.1952,23.252,23.1243,
110,6.27292,1.37908,3.15336,4.12517,6.27431,1.97613,1.55563,0,-0.054115,-0.000115735,0.0894023,0.00102832,-0.0356167,0.00010566,0.481893,-15.0005,-0.535072,-5.18832,1.13824,-57.2535,1.58858,0.0278779,-20,-0.553358,-0.492714,-0.0395695,-2.83177,0.047942,-0.000167265,0.016308,-8.1258e-05,0.493975,0.00126257,0.0734373,0.0371872,0.000383723,0.0164015,1.92238,-2.84039e-05,0.005,1.69528,-0.000376667,-0.0117148,-0.503104,47.4562,-0.261931,0.00345433,19.3011,0.791584,0.695513,0.259223,-3.02877,0.0353995,0.282097,-2.15942,0.0433863,0.22573,0.145075,0.354492,-0.0201416,23.4506,23.2946,23.1527,23.2662,23.1952,23.2378,23.0959,
111,6.27292,1.37908,3.15336,4.12517,6.27431,1.97613,1.55563,0,-0.054115,-0.000115735,0.0894023,0.00102832,-0.0356167,0.00010566,0.482426,-15.0355,-0.538718,-5.21154,1.13159,-57.375,1.59456,0.0280195,-20,-0.554092,-0.496468,-0.0396209,-2.8431,0.0484353,-0.000169404,0.0164184,-8.37064e-05,0.493975,0.00126257,0.0734373,0.0371872,0.000383723,0.0164015,1.92163,-3.76747e-05,0.005,1.696,-0.000379258,-0.0102613,-0.507874,47.5659,-0.270053,0.00345433,19.3011,0.791584,0.695513,0.259223,-3.02877,0.0353995,0.282097,-2.15942,0.0433863,0.22573,0.145075,0.354492,-0.0201416,23.4506,23.2946,23.1527,23.2662,23.1952,23.2378,23.0959,
112,6.27292,1.37903,3.15336,4.12526,6.27431,1.9761,1.55563,0,-0.0521288,-0.000115733,0.0856209,0.00109807,-0.0367333,0.000113671,0.482452,-15.0345,-0.538787,-5.2115,1.13154,-57.3741,1.5944,0.0280073,-20,-0.554098,-0.494752,-0.0396185,-2.84333,0.0484267,-0.000169404,0.0164184,-8.37064e-05,0.493975,0.00126257,0.0734373,0.0356804,0.000376413,0.0155554,1.92163,-3.76747e-05,0.005,1.696,-0.000379258,-0.0102613,-0.507874,47.5659,-0.270053,0.0601667,19.4206,0.772118,0.635557,0.244406,-3.00481,0.037786,0.265869,-2.19952,0.0241699,0.250275,0.149102,0.342407,-0.0205405,23.4506,23.2946,23.1385,23.2662,23.1952,23.252,23.1101,
113,6.27292,1.37903,3.15336,4.12526,6.27431,1.9761,1.55563,0,-0.0521288,-0.000115733,0.0856209,0.00109807,-0.0367333,0.000113671,0.482802,-15.0547,-0.541702,-5.22378,1.12552,-57.4446,1.59711,0.0281002,-20,-0.554578,-0.496625,-0.0396601,-2.84981,0.0486435,-0.000170519,0.0165181,-8.60964e-05,0.493975,0.00126257,0.0734373,0.0356804,0.000376413,0.0155554,1.92093,-4.65001e-05,0.005,1.69672,-0.000380622,-0.0094999,-0.509927,47.6285,-0.276628,0.0601667,19.4206,0.772118,0.635557,0.244406,-3.00481,0.037786,0.265869,-2.19952,0.0241699,0.250275,0.149102,0.342407,-0.0205405,23.4506,23.2946,23.1385,23.2662,23.1952,23.252,23.1101,
114,6.27292,1.37898,3.15336,4.12534,6.27431,1.97606,1.55563,0,-0.0513185,-0.000110758,0.0834601,0.00118578,-0.0405146,0.000121602,0.482807,-15.0534,-0.541746,-5.22358,1.12543,-57.4435,1.59688,0.0280852,-20,-0.554584,-0.494976,-0.0396587,-2.85001,0.0486329,-0.000170519,0.0165181,-8.60964e-05,0.493975,0.00126257,0.0734373,0.0348907,0.00037122,0.0148701,1.92093,-4.65001e-05,0.005,1.69672,-0.000380622,-0.0094999,-0.509927,47.6285,-0.276628,0.0933512,19.4769,0.745275,0.601915,0.279237,-2.96775,0.0329192,0.274044,-2.20758,0.041081,0.298096,0.145075,0.338403,-0.0166092,23.4506,23.2946,23.1385,23.2662,23.2094,23.2662,23.0959,
115,6.27292,1.37898,3.15336,4.12534,6.27431,1.97606,1.55563,0,-0.0513185,-0.000110758,0.0834601,0.00118578,-0.0405146,0.000121602,0.483131,-15.0683,-0.544977,-5.23423,1.11815,-57.4958,1.60251,0.028171,-20,-0.555017,-0.496785,-0.0397031,-2.85497,0.049166,-0.000172486,0.0166108,-8.88466e-05,0.493975,0.00126257,0.0734373,0.0348907,0.00037122,0.0148701,1.92024,-5.46129e-05,0.005,1.69681,-0.00038325,-0.00888305,-0.51511,47.6764,-0.28401,0.0933512,19.4769,0.745275,0.601915,0.279237,-2.96775,0.0329192,0.274044,-2.20758,0.041081,0.298096,0.145075,0.338403,-0.0166092,23.4506,23.2946,23.1385,23.2662,23.2094,23.2662,23.0959,
116,6.27292,1.37898,3.15336,4.12534,6.27431,1.97606,1.55563,0,-0.0513185,-0.000110758,0.0834601,0.00118578,-0.0405146,0.000121602,0.483131,-15.0683,-0.544977,-5.23423,1.11815,-57.4958,1.60251,0.028171,-20,-0.555017,-0.496785,-0.0397031,-2.85497,0.049166,-0.000172486,0.0166108,-8.88466e-05,0.493975,0.00126257,0.0734373,0.0348907,0.00037122,0.0148701,1.92024,-5.46129e-05,0.005,1.69681,-0.00038325,-0.00888305,-0.51511,47.6764,-0.28401,0.0933512,19.4769,0.745275,0.601915,0.279237,-2.96775,0.0329192,0.274044,-2.20758,0.041081,0.298096,0.145075,0.338403,-0.0166092,23.4506,23.2946,23.1385,23.2662,23.2094,23.2662,23.0959,
117,6.27292,1.37893,3.15336,4.12543,6.27431,1.97601,1.55563,0,-0.0507783,-0.000110758,0.0835059,0.00120946,-0.0396214,0.000121602,0.483146,-15.0672,-0.545035,-5.23454,1.11809,-57.4943,1.60236,0.028159,-20,-0.555031,-0.495274,-0.0397006,-2.85509,0.0491597,-0.000172486,0.0166108,-8.88466e-05,0.493975,0.00126257,0.0734373,0.0347903,0.000373916,0.0147542,1.92024,-5.46129e-05,0.005,1.69681,-0.00038325,-0.00888305,-0.51511,47.6764,-0.28401,0.123096,19.5595,0.718447,0.494936,0.293865,-2.95214,0.0408966,0.282097,-2.16724,0.041081,0.322266,0.149048,0.362549,-0.0205405,23.4364,23.2946,23.1527,23.252,23.1952,23.252,23.1101,
118,6.27292,1.37893,3.15336,4.12543,6.27431,1.97601,1.55563,0,-0.0507783,-0.000110758,0.0835059,0.00120946,-0.0396214,0.000121602,0.484142,-15.1427,-0.548143,-5.2921,1.11744,-57.7855,1.61065,0.0284232,-20,-0.556263,-0.505344,-0.0397257,-2.88413,0.0496894,-0.000174344,0.0167076,-9.07098e-05,0.493975,0.00126257,0.0734373,0.0347903,0.000373916,0.0147542,1.91952,-6.23428e-05,0.005,1.69625,-0.000392633,-0.00877874,-0.520235,47.9497,-0.290117,0.123096,19.5595,0.718447,0.494936,0.293865,-2.95214,0.0408966,0.282097,-2.16724,0.041081,0.322266,0.149048,0.362549,-0.0205405,23.4364,23.2946,23.1527,23.252,23.1952,23.252,23.1101,
119,6.27292,1.37888,3.15336,4.12551,6.27432,1.97597,1.55563,0,-0.0481475,-0.000108818,0.0810292,0.00131466,-0.041595,0.000121602,0.484166,-15.1417,-0.548212,-5.29195,1.11734,-57.7847,1.61042,0.0284112,-20,-0.55627,-0.503666,-0.0397238,-2.88433,0.0496763,-0.000174344,0.0167076,-9.07098e-05,0.493975,0.00126257,0.0734373,0.033527,0.000369574,0.01354,1.91952,-6.23428e-05,0.005,1.69625,-0.000392633,-0.00877874,-0.520235,47.9497,-0.290117,0.160332,19.5493,0.689419,0.475463,0.327491,-2.94515,0.0319791,0.274044,-2.15924,0.0483398,0.298096,0.14502,0.342407,-0.0241699,23.4506,23.2946,23.1385,23.2662,23.2094,23.252,23.0959,
120,6.27292,1.37888,3.15336,4.12551,6.27432,1.97597,1.55563,0,-0.0481475,-0.000108818,0.0810292,0.00131466,-0.041595,0.000121602,0.484494,-15.1535,-0.552475,-5.29875,1.10679,-57.8203,1.61691,0.0284984,-20,-0.556737,-0.504669,-0.0397877,-2.88733,0.050325,-0.000176768,0.0167976,-9.39572e-05,0.493975,0.00126257,0.0734373,0.033527,0.000369574,0.01354,1.91884,-7.28808e-05,0.005,1.69678,-0.000398209,-0.00768596,-0.526531,47.9801,-0.300049,0.160332,19.5493,0.689419,0.475463,0.327491,-2.94515,0.0319791,0.274044,-2.15924,0.0483398,0.298096,0.14502,0.342407,-0.0241699,23.4506,23.2946,23.1385,23.2662,23.2094,23.252,23.0959,
121,6.27292,1.37883,3.15336,4.12559,6.27432,1.97593,1.55563,0,-0.0453764,-0.000108818,0.0785187,0.00138291,-0.044296,0.000121601,0.484518,-15.1526,-0.552535,-5.29853,1.1067,-57.8196,1.61671,0.0284872,-20,-0.556742,-0.503063,-0.0397861,-2.88751,0.0503144,-0.000176768,0.0167976,-9.39572e-05,0.493975,0.00126257,0.0734373,0.0322256,0.000360655,0.0121928,1.91884,-7.28808e-05,0.005,1.69678,-0.000398209,-0.00768596,-0.526531,47.9801,-0.300049,0.197853,19.5756,0.659657,0.495347,0.349162,-2.92835,0.0388817,0.274044,-2.18341,0.041081,0.330322,0.149102,0.350487,-0.0166092,23.4648,23.2946,23.1243,23.2804,23.1952,23.2378,23.1101,
122,6.27292,1.37883,3.15336,4.12566,6.27432,1.97588,1.55563,0,-0.0453764,-0.000108818,0.0785984,0.0014648,-0.0464568,0.000132175,0.484592,-15.1475,-0.55549,-5.29349,1.09794,-57.7914,1.62106,0.0285036,-20,-0.556917,-0.501032,-0.0398352,-2.8843,0.0508218,-0.000178898,0.0168758,-9.66432e-05,0.493975,0.00126257,0.0734373,0.0322519,0.000365416,0.0119654,1.9182,-8.19133e-05,0.005,1.69738,-0.000398311,-0.00647348,-0.531618,47.9519,-0.307116,0.197853,19.5756,0.659657,0.509281,0.346446,-2.91822,0.0350278,0.274044,-2.18341,0.041081,0.370605,0.157104,0.366776,-0.0113938,23.4648,23.2946,23.1243,23.2662,23.1952,23.2378,23.0959,
123,6.27292,1.37879,3.15336,4.12566,6.27432,1.97588,1.55563,-1.65599e-05,-0.0426754,-0.000106945,0.0785984,0.0014648,-0.0464568,0.000132175,0.484919,-15.1539,-0.559749,-5.29949,1.08728,-57.8153,1.62436,0.0285783,-20,-0.557301,-0.501717,-0.0398928,-2.88684,0.0511593,-0.000179849,0.0169076,-9.97898e-05,0.493975,0.00126257,0.0734373,0.0316871,0.000365715,0.0108915,1.91776,-9.00157e-05,0.005,1.69695,-0.000409889,-0.00626885,-0.534836,47.9753,-0.316938,0.228508,19.5106,0.62465,0.509281,0.346446,-2.91822,0.0350278,0.273926,-2.24011,0.0483398,0.370605,0.157104,0.366776,-0.0113938,23.4364,23.2804,23.1243,23.2662,23.1952,23.2378,23.0959,
124,6.27292,1.37875,3.15336,4.12575,6.27432,1.97583,1.55563,-1.60301e-05,-0.0424053,-0.000106945,0.0787413,0.00156827,-0.0473507,0.000132176,0.485074,-15.1648,-0.56065,-5.30718,1.08574,-57.8514,1.62471,0.0286068,-20,-0.557541,-0.501483,-0.0399074,-2.89023,0.0511759,-0.000180285,0.0169498,-0.000100322,0.493975,0.00126257,0.0734373,0.0316735,0.000373931,0.0106913,1.91758,-9.60626e-05,0.005,1.6973,-0.0004156,-0.00530236,-0.535124,48.0082,-0.318863,0.239405,19.4844,0.592632,0.509772,0.34209,-2.91116,0.0571214,0.265991,-2.23175,0.041081,0.338379,0.157311,0.378662,-0.0201416,23.4506,23.2804,23.1385,23.2662,23.1811,23.2378,23.1101,
125,6.27292,1.37875,3.15336,4.12575,6.27432,1.97583,1.55563,-1.60301e-05,-0.0424053,-0.000106945,0.0787413,0.00156827,-0.0473507,0.000132176,0.4859,-15.2123,-0.566198,-5.34414,1.07566,-58.034,1.63457,0.0288258,-20,-0.558572,-0.508036,-0.0399751,-2.9085,0.05201,-0.000182853,0.0170249,-0.000103961,0.493975,0.00126257,0.0734373,0.0316735,0.000373931,0.0106913,1.91692,-0.000107108,0.005,1.69672,-0.000432934,-0.00512217,-0.543197,48.1802,-0.331192,0.239405,19.4844,0.592632,0.509772,0.34209,-2.91116,0.0571214,0.265991,-2.23175,0.041081,0.338379,0.157311,0.378662,-0.0201416,23.4506,23.2804,23.1385,23.2662,23.1811,23.2378,23.1101,
126,6.27292,1.37875,3.15336,4.12575,6.27433,1.97578,1.55563,-1.60301e-05,-0.0424053,-0.000106945,0.0787413,0.00164072,-0.0491577,0.000132176,0.485894,-15.2124,-0.566203,-5.34336,1.07547,-58.0349,1.6343,0.0288244,-20,-0.558575,-0.507873,-0.0399773,-2.90845,0.0519951,-0.000182853,0.0170249,-0.000103961,0.493975,0.00126257,0.0734373,0.0316758,0.00037814,0.0104998,1.91692,-0.000107108,0.005,1.69672,-0.000432934,-0.00512217,-0.543197,48.1802,-0.331192,0.239405,19.4844,0.592632,0.509772,0.372774,-2.90837,0.0571214,0.265991,-2.23175,0.041081,0.338379,0.161133,0.370605,-0.0201416,23.4506,23.2804,23.1385,23.2662,23.1811,23.252,23.1101,
127,6.27292,1.3787,3.15336,4.12583,6.27433,1.97578,1.55563,-3.21337e-05,-0.04234,-0.000105133,0.0802189,0.00164072,-0.0491577,0.000132176,0.485526,-15.1598,-0.569483,-5.30636,1.06158,-57.8339,1.63663,0.0287144,-20,-0.558134,-0.500192,-0.0400337,-2.88884,0.0524877,-0.000184319,0.0169762,-0.00010666,0.493975,0.00126257,0.0734373,0.0320895,0.000387098,0.010456,1.91692,-0.000112828,0.005,1.69672,-0.000441871,-0.00494983,-0.547994,47.9946,-0.339677,0.26379,19.3928,0.532763,0.5375,0.372774,-2.90837,0.0571214,0.290039,-2.1996,0.0483398,0.322668,0.161133,0.370605,-0.0201416,23.4648,23.3087,23.1385,23.2662,23.1811,23.252,23.1101,
128,6.27292,1.37866,3.15336,4.1259,6.27433,1.97573,1.55563,-3.12056e-05,-0.0426754,-0.000105133,0.0799489,0.00184363,-0.0510484,0.000132176,0.486789,-15.2624,-0.571709,-5.38616,1.06614,-58.2341,1.64393,0.0290378,-20,-0.559693,-0.512818,-0.040037,-2.92907,0.052805,-0.000185416,0.0171003,-0.000107574,0.493975,0.00126257,0.0734373,0.032084,0.00040367,0.0103972,1.91627,-0.000118151,0.005,1.69577,-0.000454724,-0.0049104,-0.551234,48.372,-0.343133,0.29117,19.3304,0.521509,0.555918,0.388614,-2.9126,0.0426404,0.273926,-2.17535,0.0569691,0.265991,0.149102,0.378684,-0.0205405,23.4506,23.2804,23.1385,23.2662,23.1952,23.252,23.1101,
129,6.27292,1.37866,3.15336,4.1259,6.27433,1.97573,1.55563,-3.12056e-05,-0.0426754,-0.000105133,0.0799489,0.00184363,-0.0510484,0.000132176,0.48761,-15.2995,-0.579145,-5.41539,1.04993,-58.378,1.65551,0.0292556,-20,-0.560721,-0.51805,-0.0401351,-2.94354,0.0538738,-0.000188366,0.0171709,-0.000112138,0.493975,0.00126257,0.0734373,0.032084,0.00040367,0.0103972,1.91564,-0.000131083,0.005,1.6952,-0.000481277,-0.00485748,-0.561572,48.5079,-0.360113,0.29117,19.3304,0.521509,0.555918,0.388614,-2.9126,0.0426404,0.273926,-2.17535,0.0569691,0.265991,0.149102,0.378684,-0.0205405,23.4506,23.2804,23.1385,23.2662,23.1952,23.252,23.1101,
130,6.27292,1.37862,3.15336,4.12598,6.27434,1.97568,1.55563,-3.12056e-05,-0.0432156,-0.000103384,0.0783283,0.00236017,-0.0536645,0.000132176,0.487608,-15.2984,-0.579225,-5.41512,1.04969,-58.3772,1.65505,0.0292455,-20,-0.560736,-0.516626,-0.0401323,-2.94365,0.0538516,-0.000188366,0.0171709,-0.000112138,0.493975,0.00126257,0.0734373,0.0317317,0.000447047,0.0103627,1.91564,-0.000131083,0.005,1.6952,-0.000481277,-0.00485748,-0.561572,48.5079,-0.360113,0.314649,19.1994,0.463781,0.576053,0.416763,-2.9253,0.0585168,0.265869,-2.15136,0.0483398,0.249756,0.153129,0.394796,-0.0166092,23.4506,23.2946,23.1527,23.2804,23.2094,23.252,23.1101,
131,6.27292,1.37862,3.15336,4.12598,6.27434,1.97568,1.55563,-3.12056e-05,-0.0432156,-0.000103384,0.0783283,0.00236017,-0.0536645,0.000132176,0.488393,-15.3142,-0.590227,-5.4275,1.02154,-58.4393,1.66929,0.0294536,-20,-0.561733,-0.518881,-0.0402921,-2.9499,0.0553201,-0.000191517,0.0172337,-0.000117072,0.493975,0.00126257,0.0734373,0.0317317,0.000447047,0.0103627,1.91501,-0.000144792,0.005,1.69495,-0.000532655,-0.00482642,-0.575753,48.5663,-0.386005,0.314649,19.1994,0.463781,0.576053,0.416763,-2.9253,0.0585168,0.265869,-2.15136,0.0483398,0.249756,0.153129,0.394796,-0.0166092,23.4506,23.2946,23.1527,23.2804,23.2094,23.252,23.1101,
132,6.27292,1.37862,3.15336,4.12598,6.27434,1.97568,1.55563,-3.12056e-05,-0.0432156,-0.000103384,0.0783283,0.00236017,-0.0536645,0.000132176,0.488393,-15.3142,-0.590227,-5.4275,1.02154,-58.4393,1.66929,0.0294536,-20,-0.561733,-0.518881,-0.0402921,-2.9499,0.0553201,-0.000191517,0.0172337,-0.000117072,0.493975,0.00126257,0.0734373,0.0317317,0.000447047,0.0103627,1.91501,-0.000144792,0.005,1.69495,-0.000532655,-0.00482642,-0.575753,48.5663,-0.386005,0.314649,19.1994,0.463781,0.576053,0.416763,-2.9253,0.0585168,0.265869,-2.15136,0.0483398,0.249756,0.153129,0.394796,-0.0166092,23.4506,23.2946,23.1527,23.2804,23.2094,23.252,23.1101,
133,6.27292,1.37858,3.15336,4.12606,6.27435,1.97562,1.55563,-3.02641e-05,-0.0426754,-0.000103253,0.0782398,0.00318782,-0.0528855,0.000142749,0.488383,-15.3132,-0.590337,-5.42763,1.02124,-58.4382,1.6687,0.0294444,-20,-0.561759,-0.517472,-0.0402871,-2.94999,0.0552904,-0.000191517,0.0172337,-0.000117072,0.493975,0.00126257,0.0734373,0.0315927,0.000527152,0.0102345,1.91501,-0.000144792,0.005,1.69495,-0.000532655,-0.00482642,-0.575753,48.5663,-0.386005,0.378044,19.0882,0.441167,0.621526,0.425967,-2.91685,0.0406009,0.265991,-2.11098,0.0483398,0.274044,0.149102,0.394796,-0.0166092,23.4506,23.3229,23.1243,23.2662,23.1952,23.2662,23.1101,
134,6.27292,1.37858,3.15336,4.12606,6.27435,1.97562,1.55563,-3.02641e-05,-0.0426754,-0.000103253,0.0782398,0.00318782,-0.0528855,0.000142749,0.489961,-15.3684,-0.607919,-5.46976,0.979241,-58.6526,1.68689,0.029863,-20,-0.563754,-0.524928,-0.0405367,-2.9714,0.0570465,-0.000194403,0.0173066,-0.000123614,0.493975,0.00126257,0.0734373,0.0315927,0.000527152,0.0102345,1.91436,-0.000161995,0.005,1.69449,-0.000620232,-0.00471108,-0.592546,48.7672,-0.426888,0.378044,19.0882,0.441167,0.621526,0.425967,-2.91685,0.0406009,0.265991,-2.11098,0.0483398,0.274044,0.149102,0.394796,-0.0166092,23.4506,23.3229,23.1243,23.2662,23.1952,23.2662,23.1101,
135,6.27292,1.37853,3.15336,4.12614,6.27435,1.97557,1.55563,-3.02632e-05,-0.0410873,-0.000103253,0.0801377,0.0042551,-0.0529929,0.000142749,0.489946,-15.3673,-0.608053,-5.46982,0.978891,-58.6514,1.68624,0.0298545,-20,-0.563782,-0.523522,-0.0405296,-2.97148,0.0570144,-0.000194403,0.0173066,-0.000123614,0.493975,0.00126257,0.0734373,0.0318101,0.000631627,0.00956543,1.91436,-0.000161995,0.005,1.69449,-0.000620232,-0.00471108,-0.592546,48.7672,-0.426888,0.358402,18.9004,0.425883,0.700933,0.441529,-2.89255,0.0381259,0.273926,-2.11903,0.0433863,0.257938,0.145075,0.38269,-0.0127387,23.4506,23.2804,23.1385,23.2804,23.1952,23.2662,23.1101,
136,6.27292,1.37853,3.15336,4.12614,6.27435,1.97557,1.55563,-3.02632e-05,-0.0410873,-0.000103253,0.0801377,0.0042551,-0.0529929,0.000142749,0.491695,-15.4219,-0.62902,-5.51243,0.927497,-58.859,1.7104,0.0303185,-20,-0.566011,-0.531175,-0.0408329,-2.99218,0.0594136,-0.00019841,0.0173768,-0.000130602,0.493975,0.00126257,0.0734373,0.0318101,0.000631627,0.00956543,1.91372,-0.000180121,0.005,1.69371,-0.000730573,-0.00410889,-0.615598,48.9624,-0.47594,0.358402,18.9004,0.425883,0.700933,0.441529,-2.89255,0.0381259,0.273926,-2.11903,0.0433863,0.257938,0.145075,0.38269,-0.0127387,23.4506,23.2804,23.1385,23.2804,23.1952,23.2662,23.1101,
137,6.27292,1.3785,3.15336,4.12622,6.27436,1.97552,1.55563,-1.51643e-05,-0.037852,-0.000101565,0.0812993,0.00556412,-0.0539648,0.000142749,0.491685,-15.4209,-0.629185,-5.51241,0.927081,-58.8581,1.70964,0.0303111,-20,-0.566041,-0.529721,-0.0408251,-2.99229,0.0593743,-0.00019841,0.0173768,-0.000130602,0.493975,0.00126257,0.0734373,0.0314717,0.000746675,0.00815901,1.91372,-0.000180121,0.005,1.69371,-0.000730573,-0.00410889,-0.615598,48.9624,-0.47594,0.35666,18.8067,0.408436,0.723635,0.453677,-2.88267,0.00545493,0.281982,-2.14313,0.0509547,0.185303,0.132996,0.366599,-0.0166092,23.4506,23.2804,23.1385,23.2804,23.2094,23.2236,23.1243,
138,6.27292,1.3785,3.15336,4.12622,6.27436,1.97552,1.55563,-1.51643e-05,-0.037852,-0.000101565,0.0812993,0.00556412,-0.0539648,0.000142749,0.4933,-15.4459,-0.653925,-5.53141,0.862329,-58.9458,1.73638,0.0307395,-20,-0.568147,-0.533173,-0.0411946,-3.00072,0.0622023,-0.00020319,0.0174408,-0.000139017,0.493975,0.00126257,0.0734373,0.0314717,0.000746675,0.00815901,1.91309,-0.000197902,0.005,1.69346,-0.000850119,-0.00284311,-0.64278,49.0434,-0.53444,0.35666,18.8067,0.408436,0.723635,0.453677,-2.88267,0.00545493,0.281982,-2.14313,0.0509547,0.185303,0.132996,0.366599,-0.0166092,23.4506,23.2804,23.1385,23.2804,23.2094,23.2236,23.1243,
139,6.27292,1.37846,3.15336,4.1263,6.27438,1.97546,1.55563,-1.51648e-05,-0.0353469,-0.000101691,0.0788685,0.00781089,-0.0559102,0.00014275,0.493284,-15.4451,-0.654149,-5.53122,0.861741,-58.9452,1.73526,0.0307337,-20,-0.568181,-0.531722,-0.0411853,-3.00086,0.0621433,-0.00020319,0.0174408,-0.000139017,0.493975,0.00126257,0.0734373,0.0302479,0.000951885,0.00699158,1.91309,-0.000197902,0.005,1.69346,-0.000850119,-0.00284311,-0.64278,49.0434,-0.53444,0.364701,18.6501,0.353037,0.746797,0.461943,-2.87647,0.026155,0.290151,-2.19952,0.0483398,0.169189,0.129471,0.37472,-0.0090076,23.4648,23.2946,23.1385,23.2662,23.2094,23.2378,23.1101,
140,6.27292,1.37846,3.15336,4.1263,6.27438,1.97546,1.55563,-1.51648e-05,-0.0353469,-0.000101691,0.0788685,0.00781089,-0.0559102,0.00014275,0.495299,-15.4331,-0.693397,-5.51987,0.753673,-58.8931,1.77351,0.0312681,-20,-0.570827,-0.529774,-0.0417891,-2.99518,0.0664377,-0.00020939,0.0174982,-0.000151339,0.493975,0.00126257,0.0734373,0.0302479,0.000951885,0.00699158,1.9125,-0.000226924,0.005,1.69403,-0.00106093,-0.00179242,-0.68399,48.9908,-0.628258,0.364701,18.6501,0.353037,0.746797,0.461943,-2.87647,0.026155,0.290151,-2.19952,0.0483398,0.169189,0.129471,0.37472,-0.0090076,23.4648,23.2946,23.1385,23.2662,23.2094,23.2378,23.1101,
141,6.27292,1.37843,3.15336,4.12638,6.27439,1.9754,1.55563,-1.47197e-05,-0.0334921,-0.000100053,0.0767077,0.0113918,-0.0564229,0.000150681,0.495258,-15.4324,-0.693717,-5.51971,0.752895,-58.8926,1.77212,0.0312647,-20,-0.570876,-0.528419,-0.0417729,-2.99529,0.0663691,-0.00020939,0.0174982,-0.000151339,0.493975,0.00126257,0.0734373,0.029236,0.00129058,0.00622879,1.9125,-0.000226924,0.005,1.69403,-0.00106093,-0.00179242,-0.68399,48.9908,-0.628258,0.394935,18.4548,0.336555,0.79194,0.460169,-2.86887,0.0256196,0.265991,-2.23976,0.041081,0.217678,0.105431,0.366666,-0.0090076,23.4364,23.2946,23.1527,23.2662,23.1811,23.2662,23.1101,
142,6.27292,1.37843,3.15336,4.12638,6.27439,1.9754,1.55563,-1.47197e-05,-0.0334921,-0.000100053,0.0767077,0.0113918,-0.0564229,0.000150681,0.498404,-15.4317,-0.75089,-5.5171,0.59718,-58.8897,1.82468,0.0320992,-20,-0.574953,-0.528113,-0.0426503,-2.99468,0.072235,-0.000215454,0.0175467,-0.000165524,0.493975,0.00126257,0.0734373,0.029236,0.00129058,0.00622879,1.91192,-0.000259774,0.005,1.69442,-0.00139532,-0.00110591,-0.740133,48.9845,-0.764781,0.394935,18.4548,0.336555,0.79194,0.460169,-2.86887,0.0256196,0.265991,-2.23976,0.041081,0.217678,0.105431,0.366666,-0.0090076,23.4364,23.2946,23.1527,23.2662,23.1811,23.2662,23.1101,
143,6.27292,1.37839,3.15336,4.12646,6.27441,1.97535,1.55563,-1.47197e-05,-0.033603,-9.99294e-05,0.0769859,0.0147466,-0.0578009,0.000150681,0.498351,-15.4305,-0.751196,-5.51705,0.596384,-58.8886,1.82324,0.0320957,-20,-0.575006,-0.526765,-0.0426338,-2.99477,0.0721647,-0.000215454,0.0175467,-0.000165524,0.493975,0.00126257,0.0734373,0.0293409,0.00161596,0.0061222,1.91192,-0.000259774,0.005,1.69442,-0.00139532,-0.00110591,-0.740133,48.9845,-0.764781,0.37674,18.2407,0.311184,0.837145,0.459778,-2.84646,0.0328307,0.274044,-2.27199,0.0332184,0.233781,0.0649547,0.362571,-0.0127387,23.4648,23.3087,23.1243,23.252,23.1952,23.2662,23.1243,
144,6.27292,1.37839,3.15336,4.12646,6.27441,1.97535,1.55563,-1.47197e-05,-0.033603,-9.99294e-05,0.0769859,0.0147466,-0.0578009,0.000150681,0.501832,-15.4654,-0.806912,-5.54439,0.448555,-59.0293,1.87969,0.0330189,-20,-0.579454,-0.531933,-0.0434732,-3.00895,0.0782414,-0.000222734,0.0176069,-0.000180315,0.493975,0.00126257,0.0734373,0.0293409,0.00161596,0.0061222,1.9113,-0.000294134,0.005,1.69376,-0.00171908,-0.00100998,-0.798409,49.1161,-0.897168,0.37674,18.2407,0.311184,0.837145,0.459778,-2.84646,0.0328307,0.274044,-2.27199,0.0332184,0.233781,0.0649547,0.362571,-0.0127387,23.4648,23.3087,23.1243,23.252,23.1952,23.2662,23.1243,
145,6.27292,1.37836,3.15336,4.12653,6.27442,1.97529,1.55563,-1.43289e-05,-0.0351127,-0.000104276,0.0769778,0.016746,-0.0615822,0.000150566,0.501827,-15.4641,-0.80713,-5.54409,0.447838,-59.0283,1.87829,0.033017,-20,-0.579495,-0.530647,-0.0434674,-3.00903,0.0781667,-0.000222734,0.0176069,-0.000180315,0.493975,0.00126257,0.0734373,0.0296583,0.00180907,0.00632421,1.9113,-0.000294134,0.005,1.69376,-0.00171908,-0.00100998,-0.798409,49.1161,-0.897168,0.386703,18.09,0.300772,0.872876,0.462652,-2.81695,0.0332591,0.282442,-2.23182,0.041081,0.217529,0.0281982,0.370802,-0.0127387,23.4506,23.2946,23.1243,23.2662,23.1952,23.252,23.1101,
146,6.27292,1.37836,3.15336,4.12653,6.27442,1.97529,1.55563,-1.43289e-05,-0.0351127,-0.000104276,0.0769778,0.016746,-0.0615822,0.000150566,0.504261,-15.4796,-0.847634,-5.55787,0.339768,-59.095,1.92152,0.0336626,-20,-0.582595,-0.533475,-0.0440704,-3.01603,0.0828331,-0.00023063,0.0176562,-0.000196013,0.493975,0.00126257,0.0734373,0.0296583,0.00180907,0.00632421,1.91071,-0.000331642,0.005,1.69295,-0.00192664,-0.00119179,-0.843246,49.18,-0.9933,0.386703,18.09,0.300772,0.872876,0.462652,-2.81695,0.0332591,0.282442,-2.23182,0.041081,0.217529,0.0281982,0.370802,-0.0127387,23.4506,23.2946,23.1243,23.2662,23.1952,23.252,23.1101,
147,6.27292,1.37836,3.15336,4.12653,6.27442,1.97529,1.55563,-1.43289e-05,-0.0351127,-0.000104276,0.0769778,0.016746,-0.0615822,0.000150566,0.504261,-15.4796,-0.847634,-5.55787,0.339768,-59.095,1.92152,0.0336626,-20,-0.582595,-0.533475,-0.0440704,-3.01603,0.0828331,-0.00023063,0.0176562,-0.000196013,0.493975,0.00126257,0.0734373,0.0296583,0.00180907,0.00632421,1.91071,-0.000331642,0.005,1.69295,-0.00192664,-0.00119179,-0.843246,49.18,-0.9933,0.386703,18.09,0.300772,0.872876,0.462652,-2.81695,0.0332591,0.282442,-2.23182,0.041081,0.217529,0.0281982,0.370802,-0.0127387,23.4506,23.2946,23.1243,23.2662,23.1952,23.252,23.1101,
148,6.27292,1.37832,3.15336,4.12661,6.27444,1.97522,1.55563,-1.43292e-05,-0.036696,-0.000102625,0.0763601,0.0164676,-0.0626626,0.000161253,0.504271,-15.4786,-0.847624,-5.55769,0.339371,-59.0942,1.92053,0.0336532,-20,-0.582616,-0.532208,-0.0440796,-3.0161,0.0827677,-0.00023063,0.0176562,-0.000196013,0.493975,0.00126257,0.0734373,0.0298124,0.00178196,0.00685357,1.91071,-0.000331642,0.005,1.69295,-0.00192664,-0.00119179,-0.843246,49.18,-0.9933,0.374974,17.8966,0.293448,0.928482,0.468672,-2.76561,0.0241009,0.290039,-2.19154,0.0241699,0.209473,0.0127387,0.374655,-0.00569691,23.4364,23.3087,23.1385,23.2662,23.1811,23.252,23.1243,
149,6.27292,1.37832,3.15336,4.12661,6.27444,1.97522,1.55563,-1.43292e-05,-0.036696,-0.000102625,0.0763601,0.0164676,-0.0626626,0.000161253,0.505384,-15.5126,-0.860665,-5.58495,0.308303,-59.2318,1.93434,0.0339485,-20,-0.584002,-0.53716,-0.0442471,-3.03014,0.0841002,-0.000236584,0.0177058,-0.000210169,0.493975,0.00126257,0.0734373,0.0298124,0.00178196,0.00685357,1.91013,-0.000364564,0.005,1.69228,-0.00193187,-0.00166821,-0.856015,49.3106,-1.02313,0.374974,17.8966,0.293448,0.928482,0.468672,-2.76561,0.0241009,0.290039,-2.19154,0.0241699,0.209473,0.0127387,0.374655,-0.00569691,23.4364,23.3087,23.1385,23.2662,23.1811,23.252,23.1243,
150,6.27292,1.37828,3.15336,4.12668,6.27445,1.97516,1.55563,-1.39309e-05,-0.0386547,-0.000102749,0.0734665,0.0148242,-0.0655672,0.000161375,0.505445,-15.5116,-0.860535,-5.58451,0.308095,-59.2313,1.93357,0.0339354,-20,-0.584003,-0.53581,-0.0442689,-3.03023,0.0840381,-0.000236584,0.0177058,-0.000210169,0.493975,0.00126257,0.0734373,0.0293892,0.00161531,0.00737424,1.91013,-0.000364564,0.005,1.69228,-0.00193187,-0.00166821,-0.856015,49.3106,-1.02313,0.404326,17.7066,0.289207,1.01421,0.458082,-2.70179,0.017184,0.298205,-2.15114,0.0332184,0.233781,0.0161133,0.370627,-0.00402832,23.4506,23.2946,23.1527,23.2662,23.1811,23.252,23.1243,
151,6.27292,1.37828,3.15336,4.12668,6.27445,1.97516,1.55563,-1.39309e-05,-0.0386547,-0.000102749,0.0734665,0.0148242,-0.0655672,0.000161375,0.505256,-15.5148,-0.856282,-5.58745,0.321105,-59.2476,1.93378,0.0338852,-20,-0.58374,-0.536345,-0.0441753,-3.03204,0.083959,-0.000243416,0.0177542,-0.000223762,0.493975,0.00126257,0.0734373,0.0293892,0.00161531,0.00737424,1.90953,-0.000396433,0.005,1.69213,-0.00181056,-0.00213681,-0.855413,49.3267,-1.01202,0.404326,17.7066,0.289207,1.01421,0.458082,-2.70179,0.017184,0.298205,-2.15114,0.0332184,0.233781,0.0161133,0.370627,-0.00402832,23.4506,23.2946,23.1527,23.2662,23.1811,23.252,23.1243,
152,6.27292,1.37828,3.15336,4.12668,6.27445,1.97516,1.55563,-1.39309e-05,-0.0386547,-0.000102749,0.0734665,0.0148242,-0.0655672,0.000161375,0.505256,-15.5148,-0.856282,-5.58745,0.321105,-59.2476,1.93378,0.0338852,-20,-0.58374,-0.536345,-0.0441753,-3.03204,0.083959,-0.000243416,0.0177542,-0.000223762,0.493975,0.00126257,0.0734373,0.0293892,0.00161531,0.00737424,1.90953,-0.000396433,0.005,1.69213,-0.00181056,-0.00213681,-0.855413,49.3267,-1.01202,0.404326,17.7066,0.289207,1.01421,0.458082,-2.70179,0.017184,0.298205,-2.15114,0.0332184,0.233781,0.0161133,0.370627,-0.00402832,23.4506,23.2946,23.1527,23.2662,23.1811,23.252,23.1243,
153,6.27292,1.37824,3.15336,4.12676,6.27447,1.97509,1.55563,-1.39586e-05,-0.0404736,-0.000101024,0.0712182,0.0124836,-0.068209,0.000161497,0.505316,-15.5138,-0.856101,-5.58697,0.321057,-59.2471,1.93337,0.0338705,-20,-0.583735,-0.534959,-0.0441976,-3.03212,0.0839164,-0.000243416,0.0177542,-0.000223762,0.493975,0.00126257,0.0734373,0.0291234,0.00138189,0.00785854,1.90953,-0.000396433,0.005,1.69213,-0.00181056,-0.00213681,-0.855413,49.3267,-1.01202,0.358724,17.4881,0.295206,1.07774,0.451606,-2.63109,0.0154077,0.282442,-2.1028,0.0360304,0.281982,0.0241699,0.390934,0,23.4506,23.2946,23.1243,23.2662,23.1952,23.2378,23.1101,
154,6.27292,1.37824,3.15336,4.12676,6.27447,1.97509,1.55563,-1.39586e-05,-0.0404736,-0.000101024,0.0712182,0.0124836,-0.068209,0.000161497,0.504464,-15.5197,-0.839376,-5.59259,0.368204,-59.2722,1.92202,0.0336445,-20,-0.582618,-0.535945,-0.0439137,-3.03484,0.0825415,-0.000248596,0.0177973,-0.000233357,0.493975,0.00126257,0.0734373,0.0291234,0.00138189,0.00785854,1.90893,-0.000419862,0.005,1.69182,-0.00162157,-0.00257269,-0.842411,49.352,-0.971129,0.358724,17.4881,0.295206,1.07774,0.451606,-2.63109,0.0154077,0.282442,-2.1028,0.0360304,0.281982,0.0241699,0.390934,0,23.4506,23.2946,23.1243,23.2662,23.1952,23.2378,23.1101,
155,6.27292,1.3782,3.15336,4.12683,6.27447,1.97502,1.55563,-1.3607e-05,-0.0418651,-9.26053e-05,0.0713057,0.00972351,-0.0656337,0.000161376,0.504493,-15.519,-0.839163,-5.59254,0.368249,-59.2715,1.92183,0.0336304,-20,-0.582617,-0.534738,-0.0439333,-3.03487,0.0825085,-0.000248596,0.0177973,-0.000233357,0.493975,0.00126257,0.0734373,0.0294376,0.0011179,0.00869167,1.90893,-0.000419862,0.005,1.69182,-0.00162157,-0.00257269,-0.842411,49.352,-0.971129,0.354733,17.3467,0.296021,1.13852,0.452025,-2.57869,0.0113223,0.282097,-2.06252,0.0254773,0.314312,0.036478,0.390747,-0.0113938,23.4648,23.3087,23.1243,23.2662,23.2094,23.2662,23.1101,
156,6.27292,1.3782,3.15336,4.12683,6.27447,1.97502,1.55563,-1.3607e-05,-0.0418651,-9.26053e-05,0.0713057,0.00972351,-0.0656337,0.000161376,0.504021,-15.5857,-0.817147,-5.64487,0.436089,-59.5342,1.90657,0.0335052,-20,-0.581935,-0.543854,-0.0435505,-3.06143,0.0804177,-0.000252911,0.0178441,-0.000241045,0.493975,0.00126257,0.0734373,0.0294376,0.0011179,0.00869167,1.90835,-0.000439212,0.005,1.69102,-0.0014014,-0.00332251,-0.822513,49.601,-0.916545,0.354733,17.3467,0.296021,1.13852,0.452025,-2.57869,0.0113223,0.282097,-2.06252,0.0254773,0.314312,0.036478,0.390747,-0.0113938,23.4648,23.3087,23.1243,23.2662,23.2094,23.2662,23.1101,
