LWingKi/MAS_RnD/log/us2/contactless/12/grasp_log_12_08_2023_15_05_59.csv
Index,joint_angle_0,joint_angle_1,joint_angle_2,joint_angle_3,joint_angle_4,joint_angle_5,joint_angle_6,joint_velocity_0,joint_velocity_1,joint_velocity_2,joint_velocity_3,joint_velocity_4,joint_velocity_5,joint_velocity_6,joint_accel_0,joint_accel_1,joint_accel_2,joint_accel_3,joint_accel_4,joint_accel_5,joint_accel_6,constraint_tau_0,constraint_tau_1,constraint_tau_2,constraint_tau_3,constraint_tau_4,constraint_tau_5,constraint_tau_6,current_pos_x,current_pos_y,current_pos_z,target_pos_x,target_pos_y,target_pos_z,current_vel_x,current_vel_y,current_vel_z,target_vel_x,target_vel_y,target_vel_z,control_signal_linear_x,control_signal_linear_y,control_signal_linear_z,control_signal_angular_x,control_signal_angular_y,control_signal_angular_z,joint_torque_0,joint_torque_1,joint_torque_2,joint_torque_3,joint_torque_4,joint_torque_5,joint_torque_6,actuar_current_0,actuar_current_1,actuar_current_2,actuar_current_3,actuar_current_4,actuar_current_5,actuar_current_6,actuar_voltage_0,actuar_voltage_1,actuar_voltage_2,actuar_voltage_3,actuar_voltage_4,actuar_voltage_5,actuar_voltage_6
0,6.27297,1.38185,3.15346,4.12405,6.27431,1.9632,1.5558,0.0043201,0.0362298,3.05268e-05,0.116412,0.000121969,0.0128113,-1.0606e-05,0.394789,-6.98307,-0.657389,1.12473,-0.0756102,-26.0062,1.0467,0.0051086,-20,-0.453822,0.575259,-0.0446288,0.335351,0.03152,-0.00012803,0.00663029,-0.000264162,0.496988,0.00119065,0.0733561,0.0261545,-0.0015212,-0.0149248,1.97731,-0.00316052,0.005,1.77958,-0.00284446,0.0045,-0.345681,17.9018,-0.713239,1.64131,-0.269719,-0.447167,5.16636,0.429946,5.87733,0.216101,0.547911,0.153288,0.22573,-0.217678,0.0927389,-0.729226,-0.100789,23.4932,23.3371,23.1952,23.3087,23.2378,23.2946,23.1669,
1,6.27297,1.38188,3.15345,4.12416,6.27431,1.96321,1.5558,0.00456291,0.0345374,1.96116e-05,0.112361,0.000132474,0.0153369,-1.0598e-05,0.330359,-2.79672,-0.30397,4.11622,0.486009,-9.69297,0.56792,-0.0120054,-18.9766,-0.37275,1.08594,-0.039654,1.9458,-0.00203283,0,0,0,0.496988,0.00119065,0.0733561,0.0253374,-0.00161465,-0.0139177,2,0,0.005,1.77646,0.00136908,0.0179323,-0.0175864,2.78943,0.0799376,1.65437,-0.223887,-0.451491,5.03534,0.398489,5.96811,0.241767,0.539855,0.169381,0.193527,-0.194864,0.0927389,-0.729137,-0.0966797,23.5074,23.3371,23.1811,23.2946,23.2378,23.2804,23.1811,
2,6.27298,1.38192,3.15345,4.12427,6.27431,1.96323,1.5558,0.00438886,0.0329519,0,0.10993,0.000132474,0.0172862,-1.0598e-05,0.330816,-2.8657,-0.298599,4.06687,0.508647,-9.96824,0.575029,-0.0118825,-19.0193,-0.373315,1.07844,-0.0395226,1.91831,-0.00169257,-1.21128e-06,9.29158e-05,2.76168e-06,0.496988,0.00119065,0.0733561,0.0249673,-0.00153884,-0.0130404,1.9995,3.49297e-05,0.005,1.77675,0.00148462,0.0170259,-0.0208207,3.04529,0.0945997,1.66651,-0.134929,-0.448499,4.9705,0.383214,6.0397,0.210904,0.539855,0.185303,0.209628,-0.112793,0.0926514,-0.721114,-0.11308,23.5074,23.3513,23.1952,23.3087,23.2378,23.2946,23.1669,
3,6.27298,1.38192,3.15345,4.12427,6.27431,1.96323,1.5558,0.00438886,0.0329519,0,0.10993,0.000132474,0.0172862,-1.0598e-05,0.331641,-2.94361,-0.29811,4.0105,0.517527,-10.2762,0.580291,-0.0116633,-19.0663,-0.374319,1.06882,-0.0395049,1.88767,-0.00148784,-1.74059e-06,0.000186781,5.48725e-06,0.496988,0.00119065,0.0733561,0.0249673,-0.00153884,-0.0130404,1.99901,6.49742e-05,0.005,1.77664,0.00144343,0.0162363,-0.0227088,3.33184,0.0965936,1.66651,-0.134929,-0.448499,4.9705,0.383214,6.0397,0.210904,0.539855,0.185303,0.209628,-0.112793,0.0926514,-0.721114,-0.11308,23.5074,23.3513,23.1952,23.3087,23.2378,23.2946,23.1669,
4,6.27298,1.38195,3.15345,4.12438,6.27431,1.96325,1.5558,0.00456442,0.0300922,-1.89246e-05,0.109335,0.000143072,0.0202573,-1.0606e-05,0.331674,-2.94303,-0.298208,4.01012,0.517581,-10.2753,0.580321,-0.0116589,-19.0671,-0.374344,1.06958,-0.0395007,1.88758,-0.00148857,-1.74059e-06,0.000186781,5.48725e-06,0.496988,0.00119065,0.0733561,0.0254009,-0.00159271,-0.0115786,1.99901,6.49742e-05,0.005,1.77664,0.00144343,0.0162363,-0.0227088,3.33184,0.0965936,1.6563,-0.0374206,-0.413175,4.87787,0.370275,6.10033,0.213109,0.555967,0.201577,0.193527,-0.0586532,0.10103,-0.713024,-0.108839,23.4932,23.3371,23.1811,23.2946,23.2236,23.2804,23.1385,
5,6.27298,1.38195,3.15345,4.12438,6.27431,1.96325,1.5558,0.00456442,0.0300922,-1.89246e-05,0.109335,0.000143072,0.0202573,-1.0606e-05,0.332867,-3.0624,-0.295994,3.92127,0.536561,-10.7484,0.591646,-0.011342,-19.1393,-0.375777,1.05418,-0.0394149,1.84021,-0.000910148,-3.27314e-06,0.000292609,6.98534e-06,0.496988,0.00119065,0.0733561,0.0254009,-0.00159271,-0.0115786,1.99847,8.94596e-05,0.005,1.77576,0.00151395,0.0149208,-0.0282334,3.77463,0.104371,1.6563,-0.0374206,-0.413175,4.87787,0.370275,6.10033,0.213109,0.555967,0.201577,0.193527,-0.0586532,0.10103,-0.713024,-0.108839,23.4932,23.3371,23.1811,23.2946,23.2236,23.2804,23.1385,
6,6.27299,1.38198,3.15345,4.12449,6.27431,1.96328,1.5558,0.00432156,0.0270097,-3.65681e-05,0.107229,0.000142964,0.0240511,-1.06061e-05,0.33289,-3.06186,-0.296034,3.9208,0.53662,-10.7474,0.591676,-0.0113371,-19.1399,-0.375802,1.05488,-0.039406,1.84011,-0.00091062,-3.27314e-06,0.000292609,6.98534e-06,0.496988,0.00119065,0.0733561,0.0254428,-0.00148327,-0.00991672,1.99847,8.94596e-05,0.005,1.77576,0.00151395,0.0149208,-0.0282334,3.77463,0.104371,1.63309,0.0591743,-0.380381,4.8402,0.359944,6.15864,0.198704,0.572078,0.266966,0.193527,-0.0332184,0.100789,-0.713024,-0.100708,23.4932,23.3371,23.1669,23.2804,23.2236,23.2804,23.1385,
7,6.27299,1.38198,3.15345,4.12449,6.27431,1.96328,1.5558,0.00432156,0.0270097,-3.65681e-05,0.107229,0.000142964,0.0240511,-1.06061e-05,0.334221,-3.17641,-0.297191,3.83678,0.54468,-11.2038,0.600399,-0.0109837,-19.2092,-0.377411,1.04041,-0.0394066,1.79448,-0.000500269,-4.36327e-06,0.000397387,9.52761e-06,0.496988,0.00119065,0.0733561,0.0254428,-0.00148327,-0.00991672,1.99797,0.000116117,0.005,1.77527,0.00143945,0.013425,-0.0321,4.20062,0.102875,1.63309,0.0591743,-0.380381,4.8402,0.359944,6.15864,0.198704,0.572078,0.266966,0.193527,-0.0332184,0.100789,-0.713024,-0.100708,23.4932,23.3371,23.1669,23.2804,23.2236,23.2804,23.1385,
8,6.27299,1.382,3.15345,4.12459,6.27431,1.96331,1.5558,0.00456442,0.0243088,-3.53709e-05,0.106041,0.000143072,0.0289004,-1.06061e-05,0.334248,-3.17601,-0.297297,3.83636,0.544737,-11.203,0.600443,-0.0109843,-19.2099,-0.377432,1.04112,-0.0394021,1.79438,-0.000499932,-4.36327e-06,0.000397387,9.52761e-06,0.496988,0.00119065,0.0733561,0.025672,-0.00156922,-0.00830946,1.99797,0.000116117,0.005,1.77527,0.00143945,0.013425,-0.0321,4.20062,0.102875,1.62842,0.116772,-0.369124,4.89501,0.313282,6.19172,0.232182,0.588135,0.161334,0.177429,0.0254773,0.093001,-0.721081,-0.108839,23.479,23.3371,23.1669,23.2946,23.2094,23.2804,23.1527,
9,6.27299,1.382,3.15345,4.12459,6.27431,1.96331,1.5558,0.00456442,0.0243088,-3.53709e-05,0.106041,0.000143072,0.0289004,-1.06061e-05,0.335399,-3.30739,-0.292011,3.73952,0.573504,-11.7233,0.609141,-0.0106785,-19.2893,-0.378807,1.02444,-0.0392606,1.74242,-0.000268809,-4.94905e-06,0.000506697,1.32053e-05,0.496988,0.00119065,0.0733561,0.025672,-0.00156922,-0.00830946,1.99746,0.000154082,0.005,1.77461,0.00155097,0.0119785,-0.0341435,4.68661,0.118315,1.62842,0.116772,-0.369124,4.89501,0.313282,6.19172,0.232182,0.588135,0.161334,0.177429,0.0254773,0.093001,-0.721081,-0.108839,23.479,23.3371,23.1669,23.2946,23.2094,23.2804,23.1527,
10,6.273,1.38202,3.15345,4.1247,6.27431,1.96333,1.5558,0.00438742,0.0194273,-6.1899e-05,0.108579,0.000148371,0.0280901,-1.0598e-05,0.335427,-3.30644,-0.292091,3.73883,0.573551,-11.7216,0.609171,-0.0106742,-19.2901,-0.378835,1.02514,-0.0392546,1.74235,-0.000269829,-4.94905e-06,0.000506697,1.32053e-05,0.496988,0.00119065,0.0733561,0.0274399,-0.00147651,-0.00649547,1.99746,0.000154082,0.005,1.77461,0.00155097,0.0119785,-0.0341435,4.68661,0.118315,1.59801,0.201791,-0.381794,4.98548,0.287372,6.22454,0.192204,0.580134,-0.0490066,0.169955,0.0490066,0.108839,-0.721171,-0.112865,23.4932,23.3371,23.1669,23.2946,23.2378,23.2946,23.1527,
11,6.273,1.38203,3.15345,4.12482,6.27431,1.96337,1.5558,0.00456291,0.0121667,-6.833e-05,0.110589,0.000148373,0.0295907,-1.0606e-05,0.33709,-3.44124,-0.293929,3.63293,0.582793,-12.2604,0.62176,-0.0102463,-19.3731,-0.38079,1.00729,-0.0392452,1.6877,0.000426182,-6.33036e-06,0.00062212,1.46788e-05,0.496988,0.00119065,0.0733561,0.0295596,-0.00152235,-0.00348255,1.99692,0.000175039,0.005,1.77253,0.00148639,0.0103459,-0.040809,5.19651,0.116172,1.57959,0.328981,-0.317528,5.0944,0.262538,6.2557,0.20824,0.588355,-0.201416,0.169189,0.0332184,0.100789,-0.66875,-0.0970148,23.479,23.3371,23.1811,23.2946,23.2378,23.2804,23.1243,
12,6.27301,1.38203,3.15345,4.12493,6.27431,1.9634,1.5558,0.0045001,0.00250533,-8.27943e-05,0.113711,0.000148484,0.0307911,-1.0606e-05,0.33902,-3.62363,-0.290695,3.4908,0.611983,-12.9926,0.63644,-0.00974707,-19.4851,-0.383024,0.983072,-0.0391113,1.61348,0.00103973,-7.3991e-06,0.000758856,1.75832e-05,0.496988,0.00119065,0.0733561,0.0325096,-0.00146424,0.000435034,1.99629,0.000206135,0.005,1.77006,0.00155563,0.0076343,-0.0465564,5.8888,0.127866,1.51812,0.519034,-0.280531,5.23933,0.225484,6.29022,0.201416,0.58819,-0.314622,0.153076,0.00805664,0.108765,-0.656629,-0.100789,23.4932,23.3513,23.1811,23.2946,23.2236,23.2804,23.1669,
13,6.27301,1.38203,3.15345,4.12505,6.27431,1.96343,1.5558,0.00491552,-0.00837302,-9.63982e-05,0.116682,0.000148371,0.0337622,-1.0606e-05,0.341475,-3.83227,-0.290611,3.32685,0.635146,-13.8344,0.653982,-0.00912233,-19.6131,-0.385819,0.954834,-0.0390376,1.52793,0.00186863,-8.78145e-06,0.000898785,2.05119e-05,0.496988,0.00119065,0.0733561,0.0356746,-0.00159131,0.0050273,1.99565,0.000235585,0.005,1.76682,0.00152985,0.00410847,-0.0543856,6.6861,0.132177,1.53115,0.649576,-0.251388,5.41087,0.232862,6.30011,0.206472,0.612358,-0.354584,0.153076,-0.0180152,0.104814,-0.624442,-0.0970148,23.4932,23.3513,23.1811,23.3087,23.2378,23.2946,23.1669,
14,6.27302,1.38201,3.15345,4.12516,6.27431,1.96347,1.5558,0.00509108,-0.0121544,-0.000101415,0.119262,0.000148371,0.0386239,-1.0598e-05,0.343974,-4.07607,-0.284969,3.13792,0.678188,-14.8161,0.674683,-0.0084783,-19.7619,-0.388687,0.922606,-0.0388269,1.42833,0.00276948,-1.02969e-05,0.00105536,2.38973e-05,0.496988,0.00119065,0.0733561,0.0372256,-0.00163862,0.00700797,1.99494,0.000268589,0.005,1.76334,0.00167391,-2.45711e-05,-0.0628625,7.61342,0.151332,1.44972,0.820168,-0.250695,5.51174,0.230934,6.29488,0.200491,0.604248,-0.338475,0.145243,-0.0360304,0.108839,-0.612318,-0.0967636,23.5074,23.3371,23.1952,23.3229,23.2378,23.3087,23.1385,
15,6.27302,1.38201,3.15345,4.12516,6.27431,1.96347,1.5558,0.00509108,-0.0121544,-0.000101415,0.119262,0.000148371,0.0386239,-1.0598e-05,0.346187,-4.29242,-0.281998,2.97492,0.709192,-15.6685,0.690385,-0.00789041,-19.8927,-0.391361,0.894205,-0.0387008,1.34295,0.00336266,-1.16446e-05,0.00122671,2.72293e-05,0.496988,0.00119065,0.0733561,0.0372256,-0.00163862,0.00700797,1.99419,0.000302522,0.005,1.76127,0.00174703,-0.00180718,-0.0683575,8.41274,0.16247,1.44972,0.820168,-0.250695,5.51174,0.230934,6.29488,0.200491,0.604248,-0.338475,0.145243,-0.0360304,0.108839,-0.612318,-0.0967636,23.5074,23.3371,23.1952,23.3229,23.2378,23.3087,23.1385,
16,6.27302,1.38199,3.15345,4.12528,6.27431,1.96351,1.5558,0.0052649,-0.0205274,-0.000113487,0.118303,0.000158969,0.041595,-1.0598e-05,0.346271,-4.29113,-0.282218,2.97337,0.709273,-15.6657,0.69045,-0.00789026,-19.8934,-0.391386,0.894868,-0.0386969,1.34287,0.00336141,-1.16446e-05,0.00122671,2.72293e-05,0.496988,0.00119065,0.0733561,0.0387186,-0.00168292,0.01067,1.99419,0.000302522,0.005,1.76127,0.00174703,-0.00180718,-0.0683575,8.41274,0.16247,1.44426,1.07024,-0.207701,5.6067,0.200501,6.28175,0.189611,0.58819,-0.483466,0.1372,-0.088623,0.108839,-0.624403,-0.0926514,23.5074,23.3513,23.1952,23.3087,23.2378,23.2946,23.1669,
17,6.27303,1.38196,3.15345,4.12541,6.27431,1.96356,1.5558,0.00540012,-0.0258292,-0.000139833,0.119366,0.00015909,0.0455969,-1.06059e-05,0.348583,-4.50026,-0.279966,2.81369,0.738807,-16.5062,0.708919,-0.00729796,-20,-0.394039,0.868209,-0.0385677,1.25788,0.00423803,-1.37052e-05,0.00140444,2.95003e-05,0.496988,0.00119065,0.0733561,0.0401491,-0.00170958,0.0131899,1.99343,0.00033263,0.005,1.75924,0.00181399,-0.00510297,-0.0766755,9.20412,0.172453,1.35184,1.37649,-0.153135,5.75855,0.175226,6.28391,0.178755,0.580134,-0.483466,0.136963,-0.0649547,0.108765,-0.604261,-0.100789,23.5074,23.3513,23.1811,23.3087,23.2378,23.2804,23.1527,
18,6.27303,1.38196,3.15345,4.12541,6.27431,1.96356,1.5558,0.00540012,-0.0258292,-0.000139833,0.119366,0.00015909,0.0455969,-1.06059e-05,0.351009,-4.73171,-0.277676,2.63978,0.769398,-17.4215,0.728572,-0.0066537,-20,-0.396964,0.837963,-0.0384516,1.16614,0.0051729,-1.60263e-05,0.00160708,3.24213e-05,0.496988,0.00119065,0.0733561,0.0401491,-0.00170958,0.0131899,1.99258,0.000360844,0.005,1.75719,0.00186338,-0.00737095,-0.0855297,10.0622,0.182072,1.35184,1.37649,-0.153135,5.75855,0.175226,6.28391,0.178755,0.580134,-0.483466,0.136963,-0.0649547,0.108765,-0.604261,-0.100789,23.5074,23.3513,23.1811,23.3087,23.2378,23.2804,23.1527,
19,6.27303,1.38193,3.15345,4.12552,6.27431,1.9636,1.5558,0.00544039,-0.0297107,-0.000136124,0.119923,0.000158971,0.0453764,-1.0606e-05,0.351044,-4.73032,-0.277815,2.63897,0.769455,-17.4193,0.728635,-0.00665898,-20,-0.396986,0.839091,-0.0384439,1.16597,0.00517304,-1.60263e-05,0.00160708,3.24213e-05,0.496988,0.00119065,0.0733561,0.0411301,-0.00171791,0.0147064,1.99258,0.000360844,0.005,1.75719,0.00186338,-0.00737095,-0.0855297,10.0622,0.182072,1.36814,1.53021,-0.126353,5.8675,0.183475,6.22122,0.168414,0.58819,-0.580302,0.129158,-0.0569691,0.112865,-0.608276,-0.0967636,23.479,23.3513,23.1669,23.3087,23.2378,23.2804,23.1385,
20,6.27304,1.3819,3.15345,4.12564,6.27431,1.96365,1.5558,0.00561774,-0.0339978,-0.000143292,0.119802,0.000158969,0.0472671,-1.0582e-05,0.352841,-4.90419,-0.274502,2.50611,0.797378,-18.1061,0.741428,-0.00620344,-20,-0.399096,0.817214,-0.0383261,1.09683,0.00565596,-1.72526e-05,0.00179947,3.62295e-05,0.496988,0.00119065,0.0733561,0.0420007,-0.00177487,0.016619,1.99177,0.000399708,0.005,1.75557,0.00190586,-0.00873572,-0.0900099,10.7082,0.193494,1.24577,1.70779,-0.124807,5.91155,0.200841,6.15079,0.175795,0.596246,-0.676806,0.128906,-0.0332184,0.112793,-0.563979,-0.0966797,23.479,23.3371,23.1669,23.3087,23.2236,23.2946,23.1385,
21,6.27305,1.38186,3.15345,4.12576,6.27431,1.9637,1.5558,0.00596885,-0.0372735,-0.000139309,0.121127,0.000158969,0.0502381,-1.059e-05,0.354869,-5.09727,-0.271349,2.35976,0.827459,-18.8698,0.757495,-0.00569396,-20,-0.401466,0.793106,-0.0381957,1.02005,0.00636512,-1.91945e-05,0.00199784,3.89784e-05,0.496988,0.00119065,0.0733561,0.0430778,-0.00190147,0.0182215,1.99094,0.000434756,0.005,1.75404,0.00198866,-0.0104571,-0.0966892,11.4255,0.205389,1.24577,1.88243,-0.0568338,5.95233,0.203048,6.0561,0.152283,0.596191,-0.749311,0.128906,-0.0113938,0.11308,-0.55188,-0.0845947,23.4932,23.3513,23.1811,23.3087,23.2378,23.2946,23.1527,
22,6.27305,1.38182,3.15345,4.12589,6.27432,1.96375,1.5558,0.00621224,-0.041126,-0.000153239,0.124765,0.000169696,0.0518602,-1.0606e-05,0.356905,-5.30871,-0.26499,2.19894,0.868571,-19.7022,0.772714,-0.00518087,-20,-0.403866,0.766607,-0.0379996,0.936467,0.00686987,-2.04996e-05,0.00220342,4.32349e-05,0.496988,0.00119065,0.0733561,0.0449472,-0.00197523,0.0198755,1.99009,0.00047736,0.005,1.75231,0.00214095,-0.0118994,-0.101342,12.2077,0.225634,1.16027,2.11243,-0.0133248,5.98834,0.173448,5.99346,0.154993,0.580134,-0.837929,0.112793,0,0.116891,-0.55188,-0.0927389,23.4932,23.3513,23.1669,23.2946,23.2378,23.2662,23.1385,
23,6.27306,1.38177,3.15345,4.12602,6.27432,1.9638,1.5558,0.00597879,-0.0456465,-0.000162968,0.125865,0.000169696,0.0521817,-1.05821e-05,0.359448,-5.5511,-0.262189,2.0129,0.902497,-20.656,0.791919,-0.00451511,-20,-0.406948,0.735503,-0.0378468,0.840519,0.00768174,-2.2391e-05,0.00243468,4.57379e-05,0.496988,0.00119065,0.0733561,0.0462195,-0.00186771,0.0216976,1.98913,0.000512623,0.005,1.74977,0.00223907,-0.013388,-0.108966,13.1054,0.237319,1.12891,2.25257,0.0263188,5.92098,0.195304,5.87954,0.158598,0.580078,-0.910436,0.121118,-0.0402832,0.120917,-0.531754,-0.0970148,23.4932,23.3371,23.1811,23.2946,23.2236,23.2946,23.1527,
24,6.27306,1.38172,3.15345,4.12615,6.27432,1.96386,1.5558,0.00624178,-0.0502381,-0.000158971,0.129377,0.000180165,0.052076,-1.05821e-05,0.361815,-5.75886,-0.26223,1.85358,0.924204,-21.4778,0.808368,-0.00391491,-20,-0.409756,0.70912,-0.0377942,0.757789,0.00843888,-2.43379e-05,0.00265516,4.98112e-05,0.496988,0.00119065,0.0733561,0.048207,-0.00195589,0.0234657,1.98822,0.000551626,0.005,1.7478,0.0021774,-0.0150278,-0.116095,13.879,0.240736,1.01129,2.39774,0.0696775,5.88153,0.20809,5.79548,0.168176,0.58819,-0.950718,0.129158,-0.0649547,0.112865,-0.499528,-0.076644,23.479,23.3371,23.1811,23.2946,23.2094,23.2804,23.1527,
25,6.27306,1.38172,3.15345,4.12615,6.27432,1.96386,1.5558,0.00624178,-0.0502381,-0.000158971,0.129377,0.000180165,0.052076,-1.05821e-05,0.364126,-5.99107,-0.257907,1.67671,0.960868,-22.3899,0.826851,-0.00330116,-20,-0.412548,0.678203,-0.037633,0.666307,0.00922072,-2.62482e-05,0.00288376,5.29622e-05,0.496988,0.00119065,0.0733561,0.048207,-0.00195589,0.0234657,1.98727,0.000591217,0.005,1.74516,0.0022924,-0.0166191,-0.123437,14.7361,0.255692,1.01129,2.39774,0.0696775,5.88153,0.20809,5.79548,0.168176,0.58819,-0.950718,0.129158,-0.0649547,0.112865,-0.499528,-0.076644,23.479,23.3371,23.1811,23.2946,23.2094,23.2804,23.1527,
26,6.27307,1.38167,3.15345,4.12642,6.27432,1.96396,1.5558,0.00648234,-0.0561234,-0.000155166,0.13178,0.000196062,0.0529391,-1.05901e-05,0.364216,-5.98801,-0.258228,1.6745,0.961007,-22.3846,0.826842,-0.00331366,-20,-0.412596,0.680611,-0.0376288,0.66595,0.00920961,-2.62482e-05,0.00288376,5.29622e-05,0.496988,0.00119065,0.0733561,0.0501444,-0.00203287,0.025877,1.98727,0.000591217,0.005,1.74516,0.0022924,-0.0166191,-0.123437,14.7361,0.255692,1.03851,2.53746,0.143218,5.65971,0.230138,5.55861,0.188809,0.572078,-0.983042,0.112793,-0.129158,0.116891,-0.443134,-0.0887145,23.479,23.3371,23.1669,23.2946,23.2236,23.3087,23.1385,
27,6.27308,1.38153,3.15345,4.12655,6.27432,1.96402,1.5558,0.00650186,-0.0687106,-0.000168092,0.132482,0.000206817,0.0550999,-1.0582e-05,0.368645,-6.37846,-0.25916,1.37609,1.00094,-23.9184,0.856324,-0.00218125,-20,-0.417923,0.630188,-0.0374821,0.512043,0.0104213,-2.95364e-05,0.00331619,5.31254e-05,0.496988,0.00119065,0.0733561,0.0530029,-0.00200529,0.0311158,1.98547,0.000621749,0.005,1.74179,0.00238915,-0.0187893,-0.134686,16.1782,0.261709,0.913664,2.88936,0.174356,5.52641,0.250012,5.42829,0.162641,0.588135,-0.958876,0.0889885,-0.0970148,0.120917,-0.427002,-0.0805664,23.4932,23.3229,23.1811,23.2946,23.2378,23.2804,23.1243,
28,6.27308,1.38153,3.15345,4.12655,6.27432,1.96402,1.5558,0.00650186,-0.0687106,-0.000168092,0.132482,0.000206817,0.0550999,-1.0582e-05,0.372126,-6.73221,-0.25078,1.10725,1.06094,-25.3293,0.885016,-0.00125675,-20,-0.422043,0.583315,-0.0372337,0.369958,0.0116847,-3.23176e-05,0.00363586,6.31256e-05,0.496988,0.00119065,0.0733561,0.0530029,-0.00200529,0.0311158,1.98414,0.000712603,0.005,1.73802,0.0024461,-0.0235042,-0.146555,17.5048,0.287712,0.913664,2.88936,0.174356,5.52641,0.250012,5.42829,0.162641,0.588135,-0.958876,0.0889885,-0.0970148,0.120917,-0.427002,-0.0805664,23.4932,23.3229,23.1811,23.2946,23.2378,23.2804,23.1243,
29,6.27309,1.38146,3.15345,4.12667,6.27432,1.96407,1.5558,0.00650186,-0.0734665,-0.000164163,0.130457,0.000217258,0.0569906,-1.0582e-05,0.37218,-6.73049,-0.250955,1.10586,1.06101,-25.3262,0.885065,-0.00126649,-20,-0.422064,0.584675,-0.0372232,0.3697,0.0116823,-3.23176e-05,0.00363586,6.31256e-05,0.496988,0.00119065,0.0733561,0.0534162,-0.00199716,0.0332507,1.98414,0.000712603,0.005,1.73802,0.0024461,-0.0235042,-0.146555,17.5048,0.287712,0.833239,3.08057,0.191553,5.43755,0.26791,5.28308,0.192569,0.572021,-0.95874,0.113938,-0.0809682,0.128969,-0.414937,-0.0805664,23.4932,23.3371,23.1811,23.3087,23.2236,23.2946,23.1385,
30,6.2731,1.38139,3.15345,4.12681,6.27432,1.96413,1.5558,0.00675244,-0.0772479,-0.000163867,0.128273,0.000227856,0.0578009,-1.059e-05,0.37465,-6.95465,-0.249524,0.93667,1.08918,-26.2144,0.90225,-0.000644387,-20,-0.42498,0.55737,-0.0371195,0.280351,0.0123962,-3.44599e-05,0.00389322,6.61924e-05,0.496988,0.00119065,0.0733561,0.0535767,-0.00209189,0.0348867,1.98309,0.00075107,0.005,1.7367,0.00247341,-0.0254256,-0.153234,18.3383,0.295583,0.863027,3.27338,0.250328,5.21388,0.295241,5.08624,0.178154,0.580302,-0.974987,0.121118,-0.0402832,0.120917,-0.42305,-0.0845947,23.5074,23.3229,23.1952,23.2946,23.2378,23.2946,23.1385,
31,6.2731,1.3813,3.15345,4.12694,6.27432,1.96419,1.5558,0.00702253,-0.0807474,-0.000163871,0.128026,0.000233332,0.0563698,-1.05901e-05,0.376818,-7.17058,-0.244463,0.773915,1.12707,-27.0669,0.919627,-0.000103285,-20,-0.427529,0.531257,-0.0369459,0.194726,0.0131102,-3.66965e-05,0.00416269,6.969e-05,0.496988,0.00119065,0.0733561,0.054239,-0.00219493,0.0361437,1.98197,0.000793286,0.005,1.73556,0.00259666,-0.026898,-0.159949,19.1381,0.312654,0.764726,3.53395,0.279045,5.15165,0.278637,4.97026,0.183702,0.556142,-0.999153,0.113938,0.0113938,0.124943,-0.394775,-0.0845947,23.479,23.3371,23.1669,23.2946,23.2236,23.3087,23.1385,
32,6.27311,1.38121,3.15345,4.12706,6.27432,1.96425,1.5558,0.00701858,-0.085804,-0.000160131,0.127486,0.000254348,0.0569906,-1.05901e-05,0.378861,-7.3841,-0.238235,0.610904,1.16764,-27.9061,0.936693,0.000414731,-20,-0.429976,0.504697,-0.0367503,0.110371,0.013803,-3.87418e-05,0.00443471,7.37524e-05,0.496988,0.00119065,0.0733561,0.0551449,-0.00218255,0.0382422,1.98088,0.000836478,0.005,1.73397,0.00272827,-0.0280293,-0.166487,19.9272,0.33231,0.78947,3.73884,0.286775,5.00656,0.296138,4.79886,0.183702,0.547852,-1.0237,0.11308,0.0113938,0.137022,-0.366577,-0.0845947,23.4932,23.3371,23.1669,23.2946,23.2236,23.2804,23.1385,
33,6.27312,1.38112,3.15345,4.12719,6.27433,1.9643,1.5558,0.00727853,-0.0919264,-0.000172752,0.128296,0.000270248,0.0559102,-1.05821e-05,0.381463,-7.6184,-0.236972,0.431736,1.19663,-28.8344,0.956282,0.0010688,-20,-0.433046,0.475241,-0.0366468,0.0169065,0.014713,-4.13863e-05,0.0047011,7.6937e-05,0.496988,0.00119065,0.0733561,0.0566671,-0.00226874,0.0405654,1.97979,0.000880996,0.005,1.73218,0.00275719,-0.029918,-0.175091,20.8005,0.340144,0.761433,3.99814,0.271663,4.8576,0.335176,4.63726,0.151597,0.564022,-1.01594,0.129158,0.0332184,0.128906,-0.346459,-0.0805664,23.479,23.3229,23.1527,23.2946,23.2378,23.2946,23.1385,
34,6.27313,1.38103,3.15345,4.12732,6.27433,1.96436,1.5558,0.00729263,-0.0963271,-0.000168894,0.130187,0.000291444,0.0546675,-1.0582e-05,0.383927,-7.8618,-0.231918,0.244062,1.23737,-29.7996,0.97744,0.00169762,-20,-0.435981,0.444372,-0.0364582,-0.0805035,0.0156883,-4.38877e-05,0.0049731,8.06194e-05,0.496988,0.00119065,0.0733561,0.0581386,-0.00226288,0.0421707,1.97867,0.000926325,0.005,1.72981,0.00287556,-0.0320089,-0.184383,21.7105,0.357584,0.775227,4.24612,0.249121,4.62765,0.332857,4.45125,0.176597,0.548088,-0.983207,0.112793,0.0483398,0.133178,-0.326393,-0.076961,23.479,23.3229,23.1811,23.2946,23.2236,23.2804,23.1527,
35,6.27313,1.38093,3.15345,4.12746,6.27433,1.96441,1.5558,0.00729263,-0.0983155,-0.000168604,0.131904,0.00031264,0.0521288,0,0.386618,-8.10703,-0.231066,0.0555941,1.26597,-30.7675,0.998137,0.00238958,-20,-0.439247,0.413843,-0.0363505,-0.178023,0.0166711,-4.66554e-05,0.00525454,8.32125e-05,0.496988,0.00119065,0.0733561,0.0590503,-0.002258,0.0426824,1.97753,0.000966018,0.005,1.72745,0.00290601,-0.0334536,-0.193709,22.6218,0.364351,0.687899,4.50507,0.243647,4.49263,0.350314,4.30329,0.160826,0.531799,-0.983042,0.128906,0.0241699,0.132996,-0.290039,-0.0805664,23.4648,23.3229,23.1669,23.2804,23.2236,23.2662,23.1527,
36,6.27313,1.38093,3.15345,4.12746,6.27433,1.96441,1.5558,0.00729263,-0.0983155,-0.000168604,0.131904,0.00031264,0.0521288,0,0.388933,-8.33048,-0.229181,-0.113027,1.29411,-31.6353,1.01447,0.00300436,-20,-0.442103,0.384606,-0.0362535,-0.264585,0.0173293,-4.85988e-05,0.00554277,8.62983e-05,0.496988,0.00119065,0.0733561,0.0590503,-0.002258,0.0426824,1.9763,0.00100962,0.005,1.72553,0.00294086,-0.0339142,-0.199835,23.4351,0.372648,0.687899,4.50507,0.243647,4.49263,0.350314,4.30329,0.160826,0.531799,-0.983042,0.128906,0.0241699,0.132996,-0.290039,-0.0805664,23.4648,23.3229,23.1669,23.2804,23.2236,23.2662,23.1527,
37,6.27314,1.38082,3.15345,4.12759,6.27433,1.96446,1.5558,0.00780223,-0.102564,-0.000168604,0.130325,0.000328785,0.0510484,0,0.389071,-8.32811,-0.229591,-0.11405,1.29419,-31.6319,1.01464,0.0029888,-20,-0.442111,0.38646,-0.0362514,-0.264913,0.01733,-4.85988e-05,0.00554277,8.62983e-05,0.496988,0.00119065,0.0733561,0.0594822,-0.00245635,0.0442987,1.9763,0.00100962,0.005,1.72553,0.00294086,-0.0339142,-0.199835,23.4351,0.372648,0.696832,4.74278,0.226938,4.33521,0.344128,4.158,0.165348,0.531982,-1.03943,0.1372,0.0180152,0.132996,-0.257844,-0.0726216,23.479,23.3229,23.1527,23.2804,23.2236,23.2946,23.1385,
38,6.27315,1.38072,3.15345,4.12772,6.27433,1.96451,1.5558,0.00780223,-0.106418,-0.000164927,0.131267,0.000360331,0.0491079,0,0.391015,-8.55028,-0.219876,-0.283327,1.34597,-32.5091,1.03436,0.00348024,-20,-0.444432,0.359277,-0.0359794,-0.353152,0.0181943,-5.12943e-05,0.00583062,9.10939e-05,0.496988,0.00119065,0.0733561,0.0605621,-0.0024482,0.045629,1.9751,0.00106276,0.005,1.72405,0.0031672,-0.0353688,-0.208141,24.2599,0.401481,0.609223,4.97744,0.181495,4.18791,0.355147,4.01534,0.144324,0.515688,-1.03934,0.12085,0.0113938,0.145243,-0.233677,-0.072956,23.479,23.3371,23.1669,23.2946,23.2094,23.2804,23.1243,
39,6.27315,1.38072,3.15345,4.12772,6.27433,1.96451,1.5558,0.00780223,-0.106418,-0.000164927,0.131267,0.000360331,0.0491079,0,0.3935,-8.78179,-0.219114,-0.458327,1.37209,-33.4152,1.05539,0.00413994,-20,-0.447475,0.328918,-0.0358934,-0.443776,0.0192915,-5.45765e-05,0.00611364,9.33678e-05,0.496988,0.00119065,0.0733561,0.0605621,-0.0024482,0.045629,1.9739,0.0011045,0.005,1.72201,0.00319743,-0.0365661,-0.218591,25.1097,0.40732,0.609223,4.97744,0.181495,4.18791,0.355147,4.01534,0.144324,0.515688,-1.03934,0.12085,0.0113938,0.145243,-0.233677,-0.072956,23.479,23.3371,23.1669,23.2946,23.2094,23.2804,23.1243,
40,6.27316,1.38061,3.15345,4.12784,6.27434,1.96456,1.5558,0.00809882,-0.10685,-0.000164927,0.129647,0.000413333,0.0492076,0,0.393595,-8.77986,-0.21941,-0.458887,1.37213,-33.4127,1.05546,0.0041256,-20,-0.447489,0.331237,-0.0358838,-0.444178,0.0192871,-5.45765e-05,0.00611364,9.33678e-05,0.496988,0.00119065,0.0733561,0.0601766,-0.00256447,0.0458508,1.9739,0.0011045,0.005,1.72201,0.00319743,-0.0365661,-0.218591,25.1097,0.40732,0.670915,5.21419,0.148277,3.94221,0.346038,3.84391,0.158728,0.515877,-1.01526,0.129158,-0.00805664,0.1372,-0.201416,-0.076644,23.479,23.3371,23.1669,23.2804,23.2094,23.2804,23.1385,
41,6.27317,1.38051,3.15345,4.12798,6.27434,1.96461,1.5558,0.00836878,-0.108579,-0.000160615,0.12739,0.000504661,0.0483528,0,0.395575,-8.97935,-0.214902,-0.608494,1.40679,-34.1905,1.07493,0.00461494,-20,-0.449863,0.308083,-0.0357168,-0.522032,0.0202889,-5.80514e-05,0.00639546,9.62364e-05,0.496988,0.00119065,0.0733561,0.0598796,-0.00266773,0.046498,1.97271,0.00115375,0.005,1.72128,0.0033464,-0.0367657,-0.228256,25.838,0.42302,0.574818,5.50421,0.115666,3.77452,0.358578,3.70834,0.151927,0.515625,-1.07971,0.1372,0.0332184,0.141221,-0.189374,-0.0689537,23.479,23.3229,23.1669,23.2804,23.2236,23.2804,23.1527,
42,6.27317,1.38039,3.15345,4.1281,6.27434,1.96466,1.5558,0.0080623,-0.11109,-0.000172369,0.127216,0.00064527,0.0472671,0,0.397551,-9.18406,-0.210345,-0.76268,1.44152,-34.9921,1.09419,0.00513162,-20,-0.452335,0.283927,-0.0355379,-0.602354,0.0212575,-6.11852e-05,0.00668915,9.94236e-05,0.496988,0.00119065,0.0733561,0.0603508,-0.00252638,0.0474018,1.97148,0.00120039,0.005,1.72044,0.00348131,-0.0373482,-0.237569,26.5894,0.438397,0.609028,5.76067,0.1015,3.57719,0.354659,3.55398,0.132379,0.499512,-1.12013,0.129158,0.0970148,0.14502,-0.173265,-0.0644531,23.479,23.3229,23.1669,23.2804,23.2094,23.2662,23.1385,
43,6.27318,1.38027,3.15345,4.12823,6.27435,1.9647,1.5558,0.0080623,-0.115062,-0.000174401,0.127896,0.000889855,0.0464568,0,0.400147,-9.40634,-0.212806,-0.932455,1.45765,-35.8648,1.11633,0.00580137,-20,-0.455535,0.256587,-0.0355134,-0.690015,0.0225616,-6.48711e-05,0.0069791,0.000103231,0.496988,0.00119065,0.0733561,0.0613781,-0.00249439,0.0489039,1.97025,0.0012484,0.005,1.71891,0.0033973,-0.0381616,-0.250131,27.4098,0.436079,0.495557,6.01956,0.0476642,3.39136,0.380805,3.39112,0.127984,0.507824,-1.12819,0.11308,0.090076,0.145243,-0.153076,-0.0644531,23.479,23.3087,23.1669,23.2804,23.2094,23.2804,23.1385,
44,6.27319,1.38016,3.15345,4.12836,6.27435,1.96475,1.5558,0.00783283,-0.118843,-0.000181579,0.129238,0.00120401,0.0453764,0,0.402936,-9.64464,-0.21597,-1.1157,1.47439,-36.8051,1.14246,0.00653684,-20,-0.459013,0.226844,-0.0354609,-0.784706,0.0241646,-6.90791e-05,0.00726437,0.000104596,0.496988,0.00119065,0.0733561,0.0625565,-0.00236212,0.0502929,1.96904,0.0012897,0.005,1.7169,0.00340568,-0.0395135,-0.265651,28.2951,0.433111,0.541811,6.32224,0.0243014,3.18497,0.347183,3.18931,0.136565,0.483466,-1.09582,0.112793,0.0569691,0.137022,-0.141049,-0.0689537,23.4648,23.3229,23.1669,23.2804,23.1952,23.2662,23.1527,
45,6.2732,1.38004,3.15345,4.1285,6.27436,1.96479,1.5558,0.00756273,-0.122624,-0.000188739,0.129024,0.00165648,0.0445948,1.0574e-05,0.405977,-9.88734,-0.223278,-1.30269,1.47947,-37.7621,1.17004,0.00734669,-20,-0.462854,0.196598,-0.0354854,-0.881167,0.0259601,-7.35922e-05,0.00755336,0.00010538,0.496988,0.00119065,0.0733561,0.0632828,-0.00220292,0.0517376,1.96781,0.00132511,0.005,1.71473,0.00331851,-0.0407636,-0.283046,29.1965,0.419625,0.412816,6.6953,0.00187387,3.12577,0.353972,3.02201,0.143798,0.507568,-1.08791,0.121118,0.0227876,0.140991,-0.12085,-0.0609595,23.4932,23.3229,23.1669,23.2946,23.2094,23.2662,23.1243,
46,6.2732,1.37991,3.15345,4.12862,6.27437,1.96484,1.5558,0.00729263,-0.12388,-0.000200905,0.128566,0.00235711,0.0432156,1.0582e-05,0.40919,-10.1322,-0.2338,-1.48927,1.4758,-38.7283,1.1972,0.00821121,-20,-0.466952,0.166899,-0.0355556,-0.978409,0.0277375,-7.76956e-05,0.00785871,0.000105022,0.496988,0.00119065,0.0733561,0.0634056,-0.00202473,0.0521154,1.9665,0.0013578,0.005,1.7129,0.00320464,-0.0420638,-0.300236,30.1044,0.398411,0.474397,7.04958,-0.038809,3.0591,0.350083,2.8234,0.133251,0.491455,-1.07986,0.105046,0.0113938,0.136963,-0.112793,-0.0604248,23.4648,23.3229,23.1527,23.3087,23.2094,23.2662,23.1243,
47,6.27321,1.37978,3.15345,4.12875,6.27437,1.96488,1.5558,0.00675863,-0.12196,-0.000207419,0.128026,0.00371709,0.0394342,1.05821e-05,0.412107,-10.3484,-0.24768,-1.65225,1.45915,-39.5762,1.22882,0.00903967,-20,-0.470937,0.141818,-0.0356749,-1.06349,0.0301473,-8.3224e-05,0.00815953,0.000103787,0.496988,0.00119065,0.0733561,0.0628368,-0.00168901,0.0509724,1.96521,0.00138385,0.005,1.71163,0.00306772,-0.0424038,-0.323778,30.8988,0.368274,0.381797,7.39278,-0.116692,2.99241,0.40001,2.61652,0.134289,0.499577,-1.11208,0.121118,0,0.137022,-0.0927389,-0.0604248,23.479,23.3229,23.1669,23.2804,23.2094,23.2804,23.1385,
48,6.27322,1.37967,3.15345,4.12887,6.27439,1.96492,1.5558,0.00623874,-0.120193,-0.000223863,0.125865,0.00557062,0.0376153,1.05821e-05,0.415066,-10.51,-0.274086,-1.77304,1.40176,-40.2003,1.26486,0.00989234,-20,-0.475092,0.123975,-0.0360201,-1.12581,0.033383,-8.9401e-05,0.00844487,0.000100206,0.496988,0.00119065,0.0733561,0.0618295,-0.00130762,0.0501199,1.96397,0.00140682,0.005,1.71102,0.00278625,-0.0413751,-0.355526,31.4815,0.306751,0.421971,7.83657,-0.109224,2.93954,0.339824,2.40303,0.136055,0.491521,-1.16824,0.11308,0.0290486,0.117099,-0.0565402,-0.0644531,23.4648,23.3371,23.1669,23.2946,23.2236,23.2804,23.1243,
49,6.27322,1.37967,3.15345,4.12887,6.27439,1.96492,1.5558,0.00623874,-0.120193,-0.000223863,0.125865,0.00557062,0.0376153,1.05821e-05,0.418792,-10.6752,-0.309737,-1.89342,1.31991,-40.8352,1.31043,0.0108813,-20,-0.479865,0.103369,-0.0365645,-1.1884,0.0375871,-9.68908e-05,0.00872724,9.35072e-05,0.496988,0.00119065,0.0733561,0.0618295,-0.00130762,0.0501199,1.96276,0.00141427,0.005,1.71083,0.0024497,-0.0406079,-0.396413,32.0707,0.22317,0.421971,7.83657,-0.109224,2.93954,0.339824,2.40303,0.136055,0.491521,-1.16824,0.11308,0.0290486,0.117099,-0.0565402,-0.0644531,23.4648,23.3371,23.1669,23.2946,23.2236,23.2804,23.1243,
50,6.27322,1.37955,3.15344,4.129,6.2744,1.96495,1.5558,0.00567205,-0.119653,-0.00024434,0.123629,0.00844319,0.0345725,1.05821e-05,0.418438,-10.6727,-0.309791,-1.89337,1.31906,-40.8328,1.30922,0.010892,-20,-0.47995,0.106281,-0.0364926,-1.1889,0.0375477,-9.68908e-05,0.00872724,9.35072e-05,0.496988,0.00119065,0.0733561,0.0610587,-0.000806194,0.049627,1.96276,0.00141427,0.005,1.71083,0.0024497,-0.0406079,-0.396413,32.0707,0.22317,0.305512,8.26206,-0.129533,2.99554,0.326531,2.22824,0.120646,0.515625,-1.25694,0.0966797,0.0402832,0.109063,-0.0281982,-0.0485074,23.4506,23.3087,23.1243,23.2804,23.2236,23.2804,23.1385,
51,6.27323,1.37942,3.15344,4.12913,6.27441,1.96498,1.5558,0.00572164,-0.121121,-0.000264392,0.125198,0.0121866,0.0307911,1.0582e-05,0.422634,-10.8335,-0.36087,-2.01385,1.19503,-41.4635,1.36762,0.0121124,-20,-0.48588,0.0880058,-0.0372006,-1.25194,0.0432702,-0.000105516,0.00901052,8.42626e-05,0.496988,0.00119065,0.0733561,0.0618157,-0.00045469,0.0498017,1.9615,0.00141172,0.005,1.71039,0.00199613,-0.0401643,-0.45251,32.6598,0.103608,0.358436,8.65871,-0.18523,3.08092,0.346843,2.00481,0.109884,0.523744,-1.30528,0.0889885,0.0649547,0.080667,-0.00402832,-0.0565402,23.479,23.3087,23.1527,23.2804,23.2094,23.2662,23.1243,
52,6.27323,1.3793,3.15344,4.12925,6.27443,1.96501,1.5558,0.00544219,-0.124785,-0.000283729,0.124785,0.0164759,0.0289004,1.0582e-05,0.427389,-11.033,-0.416386,-2.1675,1.06419,-42.2494,1.44157,0.0135211,-20,-0.492669,0.0632859,-0.0379042,-1.33104,0.0503822,-0.000115002,0.00929297,7.42632e-05,0.496988,0.00119065,0.0733561,0.0624583,8.48752e-05,0.0510801,1.96024,0.00141351,0.005,1.70858,0.00168138,-0.0403215,-0.522334,33.3986,-0.0246562,0.291619,8.9876,-0.239555,3.0453,0.405306,1.76753,0.0951127,0.523682,-1.32139,0.0970148,0.0402832,0.0404841,0.0402832,-0.0605589,23.4648,23.3229,23.1527,23.2804,23.1952,23.2804,23.1243,
53,6.27324,1.37917,3.15344,4.12937,6.27445,1.96504,1.55581,0.0052649,-0.125865,-0.00030239,0.123435,0.017425,0.0250533,1.85184e-05,0.433492,-11.2411,-0.48544,-2.32602,0.897036,-43.0803,1.52357,0.0151506,-20,-0.500479,0.0381962,-0.0389033,-1.41488,0.0583187,-0.000125048,0.00956727,6.12271e-05,0.496988,0.00119065,0.0733561,0.062287,0.000246394,0.0511382,1.95901,0.00139976,0.005,1.70689,0.0011834,-0.0414721,-0.600037,34.1782,-0.186305,0.317572,9.39994,-0.211897,3.01545,0.371325,1.52829,0.122862,0.531799,-1.28103,0.0889885,0.0332184,0,0.0645789,-0.0605589,23.479,23.3087,23.1385,23.2804,23.2236,23.2662,23.1101,
54,6.27324,1.37917,3.15344,4.12937,6.27445,1.96504,1.55581,0.0052649,-0.125865,-0.00030239,0.123435,0.017425,0.0250533,1.85184e-05,0.436967,-11.4092,-0.515425,-2.45143,0.832647,-43.7343,1.56674,0.0160724,-20,-0.504886,0.0165176,-0.0393159,-1.47991,0.0621602,-0.000134772,0.00983929,4.67574e-05,0.496988,0.00119065,0.0733561,0.062287,0.000246394,0.0511382,1.95778,0.00138298,0.005,1.70594,0.00102292,-0.0415244,-0.637373,34.7888,-0.254949,0.317572,9.39994,-0.211897,3.01545,0.371325,1.52829,0.122862,0.531799,-1.28103,0.0889885,0.0332184,0,0.0645789,-0.0605589,23.479,23.3087,23.1385,23.2804,23.2236,23.2662,23.1101,
55,6.27324,1.37905,3.15344,4.12949,6.27447,1.96506,1.55581,0.00468011,-0.124119,-0.00030239,0.122354,0.0166448,0.022148,1.85045e-05,0.437045,-11.4069,-0.515228,-2.4513,0.832711,-43.7321,1.56633,0.0160544,-20,-0.504899,0.019472,-0.0393145,-1.48037,0.0621252,-0.000134772,0.00983929,4.67574e-05,0.496988,0.00119065,0.0733561,0.0616,0.000392407,0.0501658,1.95778,0.00138298,0.005,1.70594,0.00102292,-0.0415244,-0.637373,34.7888,-0.254949,0.242259,9.83352,-0.211897,3.01435,0.378646,1.35457,0.109196,0.515688,-1.2653,0.0889885,0.0569691,-0.0090076,0.0927389,-0.0483398,23.479,23.3087,23.1385,23.2662,23.1811,23.2804,23.1101,
56,6.27324,1.37905,3.15344,4.12949,6.27447,1.96506,1.55581,0.00468011,-0.124119,-0.00030239,0.122354,0.0166448,0.022148,1.85045e-05,0.439306,-11.5599,-0.526818,-2.56424,0.815648,-44.3162,1.58412,0.0166543,-20,-0.507785,0.000157894,-0.0394766,-1.53804,0.0633848,-0.000142865,0.0101043,3.50332e-05,0.496988,0.00119065,0.0733561,0.0616,0.000392407,0.0501658,1.95656,0.00137597,0.005,1.70547,0.000885204,-0.0406492,-0.649415,35.3327,-0.280875,0.242259,9.83352,-0.211897,3.01435,0.378646,1.35457,0.109196,0.515688,-1.2653,0.0889885,0.0569691,-0.0090076,0.0927389,-0.0483398,23.479,23.3087,23.1385,23.2662,23.1811,23.2804,23.1101,
57,6.27325,1.37893,3.15344,4.12962,6.27448,1.96508,1.55581,0.0043201,-0.122624,-0.000372114,0.122375,0.0132348,0.0202573,1.85186e-05,0.43985,-11.5575,-0.526732,-2.56456,0.816374,-44.3136,1.58467,0.0166629,-20,-0.50776,0.00299615,-0.0395173,-1.53844,0.0633631,-0.000142865,0.0101043,3.50332e-05,0.496988,0.00119065,0.0733561,0.0612864,0.000215748,0.0493905,1.95656,0.00137597,0.005,1.70547,0.000885204,-0.0406492,-0.649415,35.3327,-0.280875,0.268749,10.1922,-0.263121,2.99218,0.395976,1.16829,0.110783,0.523744,-1.32131,0.0563965,0.0821619,-0.0090076,0.12085,-0.0605589,23.479,23.3087,23.1385,23.2946,23.1952,23.2804,23.1243,
58,6.27325,1.3788,3.15343,4.12974,6.27448,1.96509,1.55581,0.0038622,-0.12062,-0.000442405,0.120193,0.00809882,0.0153956,1.85184e-05,0.441049,-11.7321,-0.501873,-2.69617,0.901975,-44.9865,1.58287,0.016787,-20,-0.5083,-0.0163125,-0.0391672,-1.60577,0.0621337,-0.000152301,0.0103748,2.65256e-05,0.496988,0.00119065,0.0733561,0.0602279,-0.000100717,0.0481289,1.9553,0.0013558,0.005,1.70461,0.00102604,-0.0399514,-0.637416,35.9636,-0.219658,0.211943,10.4689,-0.280471,2.84427,0.427619,0.987047,0.0781055,0.531799,-1.37771,0.0742786,0.0809682,0.0180152,0.137022,-0.0563965,23.4506,23.3087,23.1527,23.2804,23.1952,23.2378,23.1243,
59,6.27325,1.3788,3.15343,4.12974,6.27448,1.96509,1.55581,0.0038622,-0.12062,-0.000442405,0.120193,0.00809882,0.0153956,1.85184e-05,0.439541,-11.8576,-0.451113,-2.78886,1.05217,-45.4551,1.54953,0.0163872,-20,-0.506347,-0.0317886,-0.0383663,-1.65179,0.0578843,-0.000158357,0.0106365,2.33835e-05,0.496988,0.00119065,0.0733561,0.0602279,-0.000100717,0.0481289,1.95408,0.00135389,0.005,1.70446,0.00130915,-0.038816,-0.596011,36.4008,-0.0969094,0.211943,10.4689,-0.280471,2.84427,0.427619,0.987047,0.0781055,0.531799,-1.37771,0.0742786,0.0809682,0.0180152,0.137022,-0.0563965,23.4506,23.3087,23.1527,23.2804,23.1952,23.2378,23.1243,
60,6.27325,1.37868,3.15343,4.12986,6.27449,1.96511,1.55581,0.00351109,-0.118303,-0.000442405,0.117763,0.00467905,0.0135049,2.64549e-05,0.439935,-11.8557,-0.450869,-2.78869,1.05301,-45.4533,1.55024,0.0163591,-20,-0.506298,-0.0288592,-0.0384072,-1.65226,0.0578802,-0.000158357,0.0106365,2.33835e-05,0.496988,0.00119065,0.0733561,0.0590311,-0.000308206,0.0470564,1.95408,0.00135389,0.005,1.70446,0.00130915,-0.038816,-0.596011,36.4008,-0.0969094,0.279039,10.8229,-0.280471,2.62216,0.445861,0.789171,0.103995,0.547911,-1.45022,0.0742786,0.0966797,0.0565402,0.189374,-0.0483398,23.4506,23.2946,23.1527,23.2662,23.1952,23.252,23.1243,
61,6.27325,1.37857,3.15343,4.12997,6.27449,1.96512,1.55581,0.00351109,-0.119113,-0.000501511,0.116024,0.00338097,0.0115353,2.64549e-05,0.43978,-11.9866,-0.418333,-2.88628,1.15515,-45.952,1.52473,0.016247,-20,-0.505735,-0.0427161,-0.0378934,-1.70187,0.0544797,-0.000161107,0.0108825,2.1092e-05,0.496988,0.00119065,0.0733561,0.058692,-0.000423682,0.0472121,1.95291,0.001361,0.005,1.70449,0.00150228,-0.0378508,-0.562855,36.8672,-0.0170894,0.279039,11.1891,-0.25009,2.46332,0.468063,0.665801,0.0716858,0.547911,-1.51473,0.0664368,0.1372,0.076644,0.213539,-0.0485074,23.4506,23.2946,23.1385,23.2804,23.1952,23.252,23.1385,
62,6.27326,1.37845,3.15343,4.13009,6.27449,1.96513,1.55581,0.0030611,-0.117763,-0.000550208,0.113598,0.00270097,0.010793,2.64549e-05,0.441092,-12.1432,-0.408784,-3.00476,1.19751,-46.5628,1.53256,0.0165619,-20,-0.507192,-0.0601649,-0.0376849,-1.76323,0.0544914,-0.000166017,0.0111268,1.67668e-05,0.496988,0.00119065,0.0733561,0.0576985,-0.000306223,0.0466434,1.95175,0.00133523,0.005,1.70375,0.00158302,-0.0379909,-0.562873,37.4404,0.0083901,0.300249,11.5114,-0.259053,2.26243,0.507944,0.559272,0.0721218,0.555967,-1.49856,0.0563965,0.185303,0.0967636,0.225622,-0.0569691,23.4648,23.3087,23.1527,23.2804,23.1952,23.2378,23.1243,
63,6.27326,1.37833,3.15343,4.1302,6.27449,1.96514,1.55581,0.00298344,-0.115245,-0.000629006,0.11182,0.00324117,0.00864312,2.64549e-05,0.442512,-12.2906,-0.405151,-3.11419,1.22148,-47.1331,1.54459,0.0169252,-20,-0.508948,-0.075812,-0.037601,-1.82015,0.0550971,-0.000170929,0.0113741,1.82569e-05,0.496988,0.00119065,0.0733561,0.0566487,-0.000212785,0.0454483,1.95056,0.00135614,0.005,1.70358,0.00149612,-0.037479,-0.568795,37.9729,0.0186769,0.255026,11.836,-0.259758,2.10901,0.534445,0.455193,0.058366,0.539855,-1.53958,0.0563965,0.209628,0.105046,0.234198,-0.0444942,23.4648,23.2804,23.1385,23.2662,23.2094,23.252,23.1243,
64,6.27327,1.37822,3.15343,4.13031,6.2745,1.96514,1.55581,0.00280795,-0.113441,-0.000772526,0.112631,0.0036013,0.00675244,3.70372e-05,0.444446,-12.4184,-0.414893,-3.20946,1.20765,-47.6239,1.56959,0.0174284,-20,-0.511416,-0.0893984,-0.0377119,-1.86896,0.0571658,-0.000175725,0.0116154,1.63505e-05,0.496988,0.00119065,0.0733561,0.0565003,-7.22774e-05,0.0445308,1.94941,0.00135692,0.005,1.70348,0.00141274,-0.0364035,-0.589041,38.4309,-0.00266437,0.289199,12.1993,-0.228734,1.87022,0.567898,0.341429,0.0898543,0.539795,-1.58716,0.0332184,0.249886,0.108765,0.249788,-0.0529843,23.4648,23.2804,23.1527,23.2662,23.1952,23.252,23.0959,
65,6.27327,1.37811,3.15343,4.13042,6.2745,1.96515,1.55581,0.00280795,-0.11182,-0.00101497,0.112631,0.00370895,0.00551691,3.70369e-05,0.446716,-12.5658,-0.425533,-3.32163,1.19327,-48.1925,1.59349,0.0180053,-20,-0.514197,-0.106139,-0.037846,-1.92585,0.0590513,-0.000179696,0.011845,1.34377e-05,0.496988,0.00119065,0.0733561,0.056155,1.11881e-06,0.0437678,1.94829,0.00135289,0.005,1.70262,0.00128265,-0.0355777,-0.607401,38.9641,-0.0260515,0.216244,12.5914,-0.165185,1.76985,0.571817,0.259537,0.0840264,0.539855,-1.63558,0.0483398,0.201416,0.105431,0.2659,-0.0576768,23.4506,23.2946,23.1385,23.2804,23.1811,23.2378,23.1101,
66,6.27327,1.378,3.15343,4.13054,6.27451,1.96516,1.55581,0.00278172,-0.11128,-0.00126386,0.111236,0.00393597,0.00486175,3.70369e-05,0.448629,-12.7113,-0.431326,-3.43207,1.19199,-48.7545,1.62095,0.0184914,-20,-0.516607,-0.122506,-0.0378995,-1.9821,0.0612661,-0.000184843,0.012072,1.04901e-05,0.496988,0.00119065,0.0733561,0.0556315,9.87655e-05,0.0435168,1.94719,0.00134746,0.005,1.70193,0.00121171,-0.034891,-0.629148,39.4911,-0.037843,0.225542,12.9694,-0.138223,1.64146,0.59102,0.150561,0.112776,0.531738,-1.65967,0.0402832,0.185478,0.112865,0.286039,-0.0402832,23.4506,23.3087,23.1385,23.252,23.1811,23.252,23.1101,
67,6.27327,1.378,3.15343,4.13054,6.27451,1.96516,1.55581,0.00278172,-0.11128,-0.00126386,0.111236,0.00393597,0.00486175,3.70369e-05,0.450695,-12.8642,-0.439087,-3.5455,1.18579,-49.344,1.64753,0.0190395,-20,-0.519217,-0.141888,-0.0379922,-2.04055,0.0633674,-0.000188935,0.0123045,7.22994e-06,0.496988,0.00119065,0.0733561,0.0556315,9.87655e-05,0.0435168,1.94604,0.00134827,0.005,1.70137,0.00112456,-0.0346651,-0.649588,40.0411,-0.0543964,0.225542,12.9694,-0.138223,1.64146,0.59102,0.150561,0.112776,0.531738,-1.65967,0.0402832,0.185478,0.112865,0.286039,-0.0402832,23.4506,23.3087,23.1385,23.252,23.1811,23.252,23.1101,
68,6.27327,1.37788,3.15343,4.13065,6.27451,1.96516,1.55581,0.00251742,-0.11084,-0.0013675,0.1102,0.00382166,0.00216078,3.70369e-05,0.450735,-12.862,-0.439078,-3.54555,1.18583,-49.3418,1.64739,0.0190273,-20,-0.519228,-0.139338,-0.0379818,-2.04091,0.0633593,-0.000188935,0.0123045,7.22994e-06,0.496988,0.00119065,0.0733561,0.0552341,0.000214925,0.043083,1.94604,0.00134827,0.005,1.70137,0.00112456,-0.0346651,-0.649588,40.0411,-0.0543964,0.172206,13.2744,-0.114509,1.53681,0.605646,0.0273013,0.0626248,0.539855,-1.67596,0.0483398,0.19403,0.108839,0.294095,-0.0404841,23.4648,23.2946,23.1385,23.2662,23.1811,23.2662,23.1101,
69,6.27328,1.37777,3.15343,4.13076,6.27451,1.96516,1.55581,0.00251679,-0.112361,-0.00130266,0.109119,0.00382166,0,4.76188e-05,0.452515,-12.9965,-0.443885,-3.64794,1.18602,-49.8647,1.66425,0.0194722,-20,-0.521413,-0.154627,-0.0380333,-2.09332,0.0645457,-0.00019268,0.0125327,5.01355e-06,0.496988,0.00119065,0.0733561,0.0552366,0.000194095,0.0434889,1.94492,0.00134661,0.005,1.70071,0.00101851,-0.0342747,-0.661069,40.5318,-0.0641763,0.182011,13.6643,-0.110455,1.4428,0.617908,-0.17938,0.0863125,0.531738,-1.68386,0.041081,0.193527,0.108839,0.322366,-0.0444942,23.4506,23.2946,23.1385,23.252,23.2094,23.2378,23.1101,
70,6.27328,1.37777,3.15343,4.13076,6.27451,1.96516,1.55581,0.00251679,-0.112361,-0.00130266,0.109119,0.00382166,0,4.76188e-05,0.454208,-13.1439,-0.445615,-3.75902,1.19666,-50.4384,1.67522,0.0199213,-20,-0.523516,-0.173726,-0.0380109,-2.15055,0.0650164,-0.000195074,0.0127509,3.86311e-06,0.496988,0.00119065,0.0733561,0.0552366,0.000194095,0.0434889,1.94383,0.00135064,0.005,1.69973,0.00104089,-0.03464,-0.665489,41.0694,-0.0655955,0.182011,13.6643,-0.110455,1.4428,0.617908,-0.17938,0.0863125,0.531738,-1.68386,0.041081,0.193527,0.108839,0.322366,-0.0444942,23.4506,23.2946,23.1385,23.252,23.2094,23.2378,23.1101,
71,6.27328,1.37766,3.15343,4.13086,6.27452,1.96515,1.55581,0.00225186,-0.11074,-0.00119226,0.106959,0.00343437,-0.00181963,4.76188e-05,0.454262,-13.1421,-0.445602,-3.75894,1.19681,-50.4367,1.67529,0.0199023,-20,-0.523517,-0.17112,-0.0380034,-2.15094,0.0650153,-0.000195074,0.0127509,3.86311e-06,0.496988,0.00119065,0.0733561,0.0542666,0.000220053,0.0426889,1.94383,0.00135064,0.005,1.69973,0.00104089,-0.03464,-0.665489,41.0694,-0.0655955,0.104857,14.0429,-0.00351107,1.45219,0.575549,-0.354605,0.0539635,0.515625,-1.63558,0.0490066,0.201577,0.116821,0.338379,-0.0402832,23.4648,23.2662,23.1385,23.2662,23.1952,23.2378,23.1243,
72,6.27328,1.37755,3.15343,4.13098,6.27452,1.96515,1.55581,0.00198694,-0.106226,-0.00108187,0.105072,0.00343437,-0.00350993,4.76188e-05,0.455442,-13.2538,-0.444803,-3.84183,1.21011,-50.8666,1.67775,0.0201877,-20,-0.524988,-0.182141,-0.0379585,-2.19386,0.0647865,-0.000197371,0.0129616,3.30428e-06,0.496988,0.00119065,0.0733561,0.0527697,0.000278686,0.0407415,1.94276,0.00135257,0.005,1.69964,0.00101927,-0.03392,-0.663047,41.4706,-0.0621119,0.138318,14.3673,0.0292329,1.47682,0.575549,-0.601471,0.0256364,0.515688,-1.65163,0.0402832,0.22573,0.116821,0.354492,-0.0322266,23.4648,23.2946,23.1385,23.252,23.1952,23.252,23.1101,
73,6.27328,1.37744,3.15343,4.13108,6.27452,1.96514,1.55581,0.00172201,-0.106148,-0.000927315,0.103988,0.00301988,-0.00450373,4.76188e-05,0.456656,-13.3531,-0.447304,-3.91478,1.21271,-51.2387,1.68205,0.0204795,-20,-0.526537,-0.19207,-0.0379851,-2.23053,0.0648327,-0.000199344,0.0131796,3.69911e-06,0.496988,0.00119065,0.0733561,0.052436,0.00029633,0.0406303,1.94164,0.00135626,0.005,1.69998,0.000969817,-0.0321673,-0.663333,41.8164,-0.0669594,0.120954,14.6605,0.121178,1.40903,0.604465,-0.899684,0.0458615,0.523744,-1.74829,0.0402832,0.241833,0.120917,0.370627,-0.0402832,23.4648,23.2946,23.1385,23.252,23.1952,23.2378,23.1101,
74,6.27328,1.37744,3.15343,4.13108,6.27452,1.96514,1.55581,0.00172201,-0.106148,-0.000927315,0.103988,0.00301988,-0.00450373,4.76188e-05,0.458053,-13.4846,-0.447053,-4.01308,1.22644,-51.7462,1.68423,0.0208499,-20,-0.528286,-0.208871,-0.0379529,-2.28094,0.0644972,-0.000201577,0.0133792,2.69766e-06,0.496988,0.00119065,0.0733561,0.052436,0.00029633,0.0406303,1.9406,0.00135436,0.005,1.69935,0.000952228,-0.0320673,-0.659819,42.2908,-0.0644,0.120954,14.6605,0.121178,1.40903,0.604465,-0.899684,0.0458615,0.523744,-1.74829,0.0402832,0.241833,0.120917,0.370627,-0.0402832,23.4648,23.2946,23.1385,23.252,23.1952,23.2378,23.1101,
75,6.27328,1.37734,3.15343,4.13118,6.27452,1.96513,1.55581,0.00132496,-0.104258,-0.000772763,0.102263,0.00241557,-0.00553163,4.76188e-05,0.458107,-13.4829,-0.446998,-4.01312,1.22664,-51.7445,1.68436,0.0208313,-20,-0.528287,-0.206428,-0.037946,-2.28128,0.0644985,-0.000201577,0.0133792,2.69766e-06,0.496988,0.00119065,0.0733561,0.0515367,0.000343158,0.0397985,1.9406,0.00135436,0.005,1.69935,0.000952228,-0.0320673,-0.659819,42.2908,-0.0644,0.100199,15.0572,0.162579,1.38722,0.610059,-1.15257,0.06142,0.531799,-1.71614,0.0241699,0.250275,0.120917,0.374634,-0.0362549,23.4648,23.3087,23.1243,23.252,23.1952,23.252,23.0959,
76,6.27328,1.37734,3.15343,4.13118,6.27452,1.96513,1.55581,0.00132496,-0.104258,-0.000772763,0.102263,0.00241557,-0.00553163,4.76188e-05,0.459122,-13.592,-0.444614,-4.09327,1.24331,-52.1588,1.68142,0.0211006,-20,-0.529584,-0.21997,-0.037901,-2.32209,0.0637495,-0.00020337,0.0135734,2.7261e-06,0.496988,0.00119065,0.0733561,0.0515367,0.000343158,0.0397985,1.93958,0.00135475,0.005,1.69924,0.000910432,-0.0313186,-0.652284,42.6763,-0.0575116,0.100199,15.0572,0.162579,1.38722,0.610059,-1.15257,0.06142,0.531799,-1.71614,0.0241699,0.250275,0.120917,0.374634,-0.0362549,23.4648,23.3087,23.1243,23.252,23.1952,23.252,23.0959,
77,6.27328,1.37724,3.15343,4.13128,6.27452,1.96512,1.55581,0.00132496,-0.0993959,-0.00061821,0.101016,0.00190798,-0.00627504,4.76548e-05,0.45923,-13.5906,-0.444719,-4.09314,1.24352,-52.1576,1.68162,0.0210816,-20,-0.529579,-0.21729,-0.0378988,-2.32246,0.0637511,-0.00020337,0.0135734,2.7261e-06,0.496988,0.00119065,0.0733561,0.0501542,0.000235901,0.0378012,1.93958,0.00135475,0.005,1.69924,0.000910432,-0.0313186,-0.652284,42.6763,-0.0575116,0.0271472,15.4147,0.25432,1.41297,0.590361,-1.33519,0.0498096,0.539795,-1.74023,0.0322266,0.273926,0.129158,0.38269,-0.0444942,23.4364,23.2946,23.1385,23.2662,23.1811,23.2662,23.0959,
78,6.27328,1.37715,3.15343,4.13138,6.27452,1.96511,1.55581,0.00117039,-0.0958846,-0.000463658,0.100746,0.00135895,-0.0089375,4.76188e-05,0.459869,-13.6774,-0.438826,-4.15651,1.2688,-52.4801,1.67904,0.0212128,-20,-0.530347,-0.225323,-0.0377767,-2.3542,0.0630515,-0.000205305,0.0137604,2.82705e-06,0.496988,0.00119065,0.0733561,0.0493399,0.000188283,0.0361277,1.9386,0.00135865,0.005,1.6996,0.00101048,-0.0295211,-0.645456,42.9758,-0.0414928,0.00927079,15.7025,0.319792,1.36405,0.510745,-1.52061,0.0362865,0.531738,-1.84499,0.0254773,0.257812,0.136963,0.374655,-0.0332184,23.4648,23.2946,23.1243,23.252,23.1952,23.252,23.1101,
79,6.27328,1.37704,3.15343,4.13149,6.27452,1.9651,1.55581,0.00104787,-0.0960443,-0.000353263,0.102063,0.00120795,-0.0107053,4.76188e-05,0.460628,-13.763,-0.435804,-4.22173,1.28585,-52.8023,1.67667,0.0213882,-20,-0.531324,-0.234121,-0.0377032,-2.38619,0.062425,-0.000207416,0.0139437,1.37416e-06,0.496988,0.00119065,0.0733561,0.0497543,0.000191515,0.035998,1.93762,0.00135314,0.005,1.69945,0.00104837,-0.0280149,-0.639297,43.2777,-0.0326351,-0.0702242,15.8369,0.356758,1.29771,0.524282,-1.68878,0.0252146,0.523929,-1.88527,0.0180152,0.257938,0.153129,0.398804,-0.036478,23.4506,23.2946,23.1243,23.2662,23.1811,23.2378,23.1101,
80,6.27328,1.37704,3.15343,4.13149,6.27452,1.9651,1.55581,0.00104787,-0.0960443,-0.000353263,0.102063,0.00120795,-0.0107053,4.76188e-05,0.462348,-13.9088,-0.438477,-4.33292,1.29344,-53.3656,1.68555,0.0218443,-20,-0.533476,-0.25334,-0.0377026,-2.44239,0.0627122,-0.000210076,0.0141427,-6.23403e-07,0.496988,0.00119065,0.0733561,0.0497543,0.000191515,0.035998,1.93657,0.00134915,0.005,1.69813,0.00104187,-0.0278982,-0.641872,43.8064,-0.0365458,-0.0702242,15.8369,0.356758,1.29771,0.524282,-1.68878,0.0252146,0.523929,-1.88527,0.0180152,0.257938,0.153129,0.398804,-0.036478,23.4506,23.2946,23.1243,23.2662,23.1811,23.2378,23.1101,
81,6.27328,1.37695,3.15343,4.13159,6.27452,1.96509,1.55581,0.000957398,-0.0944383,-0.000242868,0.101016,0.00105696,-0.0106202,5.82013e-05,0.462393,-13.9073,-0.438547,-4.33329,1.29351,-53.3637,1.68549,0.0218275,-20,-0.533483,-0.25116,-0.0376973,-2.44268,0.0627042,-0.000210076,0.0141427,-6.23403e-07,0.496988,0.00119065,0.0733561,0.0491118,0.000176345,0.0353872,1.93657,0.00134915,0.005,1.69813,0.00104187,-0.0278982,-0.641872,43.8064,-0.0365458,-0.0417719,16.0965,0.381982,1.21171,0.531886,-1.84819,0.0213717,0.523744,-1.86108,0.0254773,0.201416,0.14502,0.398885,-0.0284845,23.4648,23.2946,23.1243,23.2662,23.1811,23.252,23.1101,
82,6.27328,1.37695,3.15343,4.13159,6.27452,1.96509,1.55581,0.000957398,-0.0944383,-0.000242868,0.101016,0.00105696,-0.0106202,5.82013e-05,0.463748,-14.0245,-0.440602,-4.42001,1.29977,-53.8118,1.68824,0.0221868,-20,-0.535208,-0.265889,-0.0376969,-2.48696,0.0624932,-0.000211447,0.0143259,-2.58504e-06,0.496988,0.00119065,0.0733561,0.0491118,0.000176345,0.0353872,1.9356,0.00134262,0.005,1.69784,0.00104964,-0.0273485,-0.639568,44.2241,-0.0393992,-0.0417719,16.0965,0.381982,1.21171,0.531886,-1.84819,0.0213717,0.523744,-1.86108,0.0254773,0.201416,0.14502,0.398885,-0.0284845,23.4648,23.2946,23.1243,23.2662,23.1811,23.252,23.1101,
83,6.27329,1.37686,3.15343,4.13169,6.27452,1.96508,1.55581,0.000957398,-0.0939939,-0.000110395,0.102907,0.00120795,-0.00963022,5.81563e-05,0.46377,-14.0227,-0.440726,-4.42091,1.29977,-53.8092,1.6881,0.0221711,-20,-0.535227,-0.264018,-0.0376888,-2.48716,0.0624846,-0.000211447,0.0143259,-2.58504e-06,0.496988,0.00119065,0.0733561,0.0495646,0.00015814,0.0352992,1.9356,0.00134262,0.005,1.69784,0.00104964,-0.0273485,-0.639568,44.2241,-0.0393992,-0.0829124,16.3383,0.436729,1.1415,0.503821,-1.95209,0.0370641,0.539795,-1.84583,0.0241699,0.20206,0.169381,0.394775,-0.0324774,23.4364,23.2946,23.1385,23.2662,23.1811,23.252,23.0959,
84,6.27329,1.37677,3.15343,4.13179,6.27453,1.96507,1.55581,0.000888757,-0.0939939,-8.83157e-05,0.103717,0.00132463,-0.00912883,5.82008e-05,0.465797,-14.18,-0.446191,-4.54246,1.30167,-54.4219,1.69968,0.0226888,-20,-0.53777,-0.282935,-0.0377098,-2.54872,0.063001,-0.00021396,0.0145126,-4.55777e-06,0.496988,0.00119065,0.0733561,0.0497968,0.00019319,0.0353522,1.93462,0.00133918,0.005,1.69655,0.00106294,-0.0272693,-0.644437,44.8011,-0.0492572,-0.0749407,16.5475,0.501339,1.09643,0.446497,-2.07997,0.0437688,0.523744,-1.8208,0.0254773,0.153076,0.16521,0.370605,-0.0322266,23.4648,23.2946,23.1385,23.252,23.1952,23.2378,23.1101,
85,6.27329,1.37677,3.15343,4.13179,6.27453,1.96507,1.55581,0.000888757,-0.0939939,-8.83157e-05,0.103717,0.00132463,-0.00912883,5.82008e-05,0.467736,-14.328,-0.452362,-4.65445,1.29986,-54.9954,1.71354,0.0232028,-20,-0.540202,-0.302216,-0.0377655,-2.6059,0.0638097,-0.000216483,0.0146971,-7.03072e-06,0.496988,0.00119065,0.0733561,0.0497968,0.00019319,0.0353522,1.93364,0.00133154,0.005,1.69546,0.00102452,-0.027317,-0.652081,45.3386,-0.0616156,-0.0749407,16.5475,0.501339,1.09643,0.446497,-2.07997,0.0437688,0.523744,-1.8208,0.0254773,0.153076,0.16521,0.370605,-0.0322266,23.4648,23.2946,23.1385,23.252,23.1952,23.2378,23.1101,
86,6.27329,1.37667,3.15343,4.1319,6.27453,1.96506,1.55581,0.000614339,-0.0937874,-4.41579e-05,0.103219,0.00122861,-0.00965231,6.61372e-05,0.467747,-14.3261,-0.452358,-4.65501,1.29993,-54.9929,1.71343,0.0231853,-20,-0.540214,-0.300013,-0.0377567,-2.60618,0.0638035,-0.000216483,0.0146971,-7.03072e-06,0.496988,0.00119065,0.0733561,0.0496064,0.00027887,0.0352314,1.93364,0.00133154,0.005,1.69546,0.00102452,-0.027317,-0.652081,45.3386,-0.0616156,-0.138429,16.7276,0.53463,1.02125,0.422022,-2.20526,0.0682476,0.499577,-1.80471,0.0180152,0.121118,0.169381,0.358543,-0.0284845,23.479,23.2804,23.1243,23.2662,23.1811,23.252,23.1101,
87,6.27329,1.37658,3.15343,4.132,6.27453,1.96504,1.55581,0.00052649,-0.0899425,0,0.099666,0.00123895,-0.0119338,6.61372e-05,0.469523,-14.4622,-0.456997,-4.75801,1.30082,-55.5235,1.71912,0.0236276,-20,-0.542391,-0.315105,-0.0378008,-2.65945,0.0638484,-0.000217589,0.0148949,-8.63153e-06,0.496988,0.00119065,0.0733561,0.0477696,0.000283669,0.0335042,1.93258,0.0013222,0.005,1.69468,0.000938999,-0.0272082,-0.652266,45.836,-0.0708412,-0.126707,16.9738,0.563393,0.966797,0.405438,-2.35525,0.0455273,0.507632,-1.78865,0.0241699,0.112793,0.173265,0.346436,-0.0284845,23.479,23.3087,23.1243,23.252,23.1952,23.252,23.0959,
88,6.27329,1.37649,3.15343,4.13209,6.27453,1.96503,1.55581,0.000355562,-0.0853508,4.0821e-05,0.0977753,0.00111696,-0.0168811,6.61372e-05,0.470208,-14.5143,-0.459632,-4.79391,1.29864,-55.7156,1.72356,0.0237821,-20,-0.543305,-0.318331,-0.0378323,-2.67818,0.0641029,-0.000219637,0.0150676,-1.05491e-05,0.496988,0.00119065,0.0733561,0.0462623,0.000307443,0.0311741,1.93164,0.00131284,0.005,1.69548,0.00092625,-0.0256537,-0.654675,46.0119,-0.0764358,-0.162461,17.2039,0.630659,0.942685,0.375723,-2.50032,0.0431608,0.515688,-1.86108,0.0254773,0.185303,0.173265,0.350487,-0.0241699,23.4364,23.3087,23.1385,23.252,23.1811,23.2378,23.1101,
89,6.27329,1.37641,3.15343,4.13219,6.27453,1.965,1.55581,0.000266627,-0.0821096,3.77486e-05,0.0964248,0.00122346,-0.0223664,6.61372e-05,0.470528,-14.5444,-0.460001,-4.81478,1.30011,-55.8177,1.72301,0.023845,-20,-0.543765,-0.319299,-0.0378408,-2.68791,0.0639522,-0.000220693,0.015229,-1.12906e-05,0.496988,0.00119065,0.0733561,0.0451952,0.000336217,0.0293204,1.93073,0.00130898,0.005,1.69602,0.000901385,-0.0235567,-0.653202,46.1048,-0.0770805,-0.143481,17.4254,0.680052,0.941966,0.302318,-2.65853,0.00990267,0.507568,-1.94971,0.0402832,0.193527,0.177292,0.394796,-0.0281982,23.4506,23.2804,23.1243,23.2662,23.1952,23.2378,23.1243,
90,6.27329,1.37633,3.15343,4.13229,6.27453,1.96497,1.55581,8.77628e-05,-0.0792428,7.54971e-05,0.0940382,0.00110604,-0.0280901,7.40744e-05,0.471012,-14.575,-0.463142,-4.83735,1.29426,-55.9264,1.72934,0.0239478,-20,-0.544428,-0.320627,-0.0378886,-2.6986,0.064502,-0.000222641,0.0153782,-1.29855e-05,0.496988,0.00119065,0.0733561,0.0439063,0.000365836,0.0276042,1.92984,0.00130046,0.005,1.69618,0.00086782,-0.0218884,-0.658542,46.2055,-0.084391,-0.166447,17.5782,0.717677,0.93292,0.296145,-2.83484,0.0531131,0.491455,-1.98195,0.0322266,0.193527,0.181453,0.43103,-0.0241699,23.4506,23.3087,23.1243,23.2378,23.1811,23.252,23.1101,
91,6.27329,1.37625,3.15343,4.13238,6.27453,1.96494,1.55581,0,-0.0755507,8.82075e-05,0.0910229,0.00105795,-0.0299808,7.40737e-05,0.471328,-14.604,-0.463341,-4.85804,1.29618,-56.0276,1.72675,0.024005,-20,-0.544848,-0.321811,-0.0378949,-2.70842,0.0641424,-0.000222794,0.0155346,-1.36389e-05,0.496988,0.00119065,0.0733561,0.0422591,0.000375862,0.0259697,1.92891,0.00129673,0.005,1.6965,0.000837808,-0.0203437,-0.654945,46.2983,-0.0846598,-0.156733,17.8034,0.745339,0.922506,0.283566,-3.00215,0.0391207,0.499577,-1.99805,0.0322266,0.233781,0.185303,0.459388,-0.0362549,23.4648,23.2662,23.1385,23.2662,23.1811,23.2378,23.1101,
92,6.27329,1.37625,3.15343,4.13238,6.27453,1.96494,1.55581,0,-0.0755507,8.82075e-05,0.0910229,0.00105795,-0.0299808,7.40737e-05,0.471668,-14.638,-0.463811,-4.88036,1.29773,-56.1448,1.7285,0.0240953,-20,-0.545344,-0.325311,-0.0379059,-2.7193,0.0641966,-0.000223969,0.0156692,-1.41945e-05,0.496988,0.00119065,0.0733561,0.0422591,0.000375862,0.0259697,1.92807,0.00129238,0.005,1.69723,0.000824864,-0.0188727,-0.655431,46.4039,-0.0854945,-0.156733,17.8034,0.745339,0.922506,0.283566,-3.00215,0.0391207,0.499577,-1.99805,0.0322266,0.233781,0.185303,0.459388,-0.0362549,23.4648,23.2662,23.1385,23.2662,23.1811,23.2378,23.1101,
93,6.27329,1.37612,3.15343,4.13256,6.27453,1.96488,1.55581,0,-0.0648234,0.000108732,0.0934537,0.000774738,-0.0313461,8.46557e-05,0.471742,-14.6356,-0.463928,-4.88052,1.29787,-56.1422,1.72847,0.0240596,-20,-0.545353,-0.321172,-0.0379004,-2.71976,0.0641939,-0.000223969,0.0156692,-1.41945e-05,0.496988,0.00119065,0.0733561,0.0407218,0.000323124,0.0215122,1.92807,0.00129238,0.005,1.69723,0.000824864,-0.0188727,-0.655431,46.4039,-0.0854945,-0.167301,18.1713,0.835627,1.02169,0.195562,-3.16552,0.0268962,0.475342,-2.18372,0.0483398,0.22573,0.185347,0.467285,-0.0245033,23.4506,23.2946,23.1385,23.2378,23.1811,23.2236,23.1101,
94,6.27329,1.37605,3.15343,4.13266,6.27453,1.96485,1.55581,0,-0.0631937,0.000140421,0.0942889,0.000721333,-0.0318392,8.46557e-05,0.472842,-14.7528,-0.46276,-4.96807,1.31239,-56.5616,1.73,0.0243288,-20,-0.546885,-0.333981,-0.0378597,-2.76047,0.0638656,-0.000225251,0.0159208,-1.52781e-05,0.496988,0.00119065,0.0733561,0.0406238,0.000306554,0.0208039,1.92645,0.00128435,0.005,1.69716,0.0008651,-0.0148609,-0.652156,46.7936,-0.0806714,-0.16068,18.2921,0.847571,1.02433,0.189132,-3.2142,0.0401838,0.483398,-2.2317,0.0725098,0.193527,0.185347,0.45119,-0.0180152,23.4364,23.2804,23.1243,23.2378,23.1952,23.2378,23.1101,
95,6.27329,1.37599,3.15343,4.13275,6.27453,1.96481,1.55581,0,-0.063743,0.000162253,0.0926434,0.000528977,-0.0329519,8.46565e-05,0.473923,-14.8434,-0.464595,-5.03806,1.31687,-56.9102,1.73567,0.0245931,-20,-0.548258,-0.344282,-0.0378596,-2.7954,0.0640586,-0.000226579,0.0160566,-1.68632e-05,0.496988,0.00119065,0.0733561,0.0402616,0.000277564,0.0209329,1.92559,0.00127934,0.005,1.69647,0.000875512,-0.0142235,-0.653913,47.1217,-0.0833572,-0.129002,18.4526,0.853563,1.02954,0.187666,-3.23562,0.0282891,0.475342,-2.19142,0.0490066,0.153076,0.189331,0.439087,-0.0281982,23.4648,23.2946,23.1243,23.252,23.1811,23.2378,23.0959,
96,6.27329,1.37593,3.15343,4.13285,6.27453,1.96478,1.55581,0,-0.0636784,0.000167837,0.0929135,0.000384746,-0.0341045,9.52376e-05,0.474627,-14.9143,-0.462991,-5.09272,1.32884,-57.1895,1.73805,0.0247588,-20,-0.549121,-0.351886,-0.0378099,-2.82356,0.0639766,-0.000227391,0.0161786,-1.7346e-05,0.496988,0.00119065,0.0733561,0.0403274,0.000260514,0.0207885,1.9248,0.00127699,0.005,1.69608,0.000899482,-0.0143396,-0.653096,47.3849,-0.0781196,-0.128427,18.5697,0.846555,1.01851,0.192621,-3.23876,0.0213144,0.475342,-2.15919,0.0569691,0.177429,0.201577,0.435077,-0.0205405,23.4506,23.2804,23.1243,23.252,23.1811,23.2236,23.0959,
97,6.27329,1.37587,3.15343,4.13294,6.27453,1.96474,1.55581,0,-0.0632028,0.000185457,0.0929135,0.00043583,-0.0356529,9.53096e-05,0.475474,-14.9931,-0.46285,-5.15443,1.33753,-57.4974,1.74032,0.024965,-20,-0.550196,-0.360779,-0.0377802,-2.85463,0.0638681,-0.000227739,0.0162968,-1.83144e-05,0.496988,0.00119065,0.0733561,0.0402293,0.000257131,0.0204404,1.924,0.0012722,0.005,1.69531,0.000910518,-0.0142097,-0.651983,47.6757,-0.0762708,-0.0898561,18.6954,0.853882,1.0112,0.206451,-3.20111,0.0228173,0.483667,-2.13503,0.0725098,0.161334,0.197429,0.422993,-0.0241699,23.4648,23.2946,23.1385,23.2378,23.1811,23.2378,23.0959,
98,6.27329,1.3758,3.15343,4.13303,6.27453,1.96471,1.55581,0,-0.061689,0.000202051,0.0904422,0.000485737,-0.0356529,9.52376e-05,0.476384,-15.0643,-0.465312,-5.20982,1.33838,-57.7735,1.74648,0.0251843,-20,-0.55135,-0.368388,-0.0377923,-2.88247,0.064203,-0.000228957,0.0164157,-1.97425e-05,0.496988,0.00119065,0.0733561,0.039195,0.000249096,0.0198699,1.92321,0.00126786,0.005,1.69468,0.000909655,-0.0138963,-0.655199,47.936,-0.0807578,-0.0744033,18.7561,0.809947,1.00665,0.206432,-3.15956,0.0200049,0.459299,-2.1109,0.0725098,0.1372,0.201456,0.42305,-0.0201416,23.4648,23.2804,23.1385,23.2378,23.1669,23.2236,23.0959,
99,6.27329,1.3758,3.15343,4.13303,6.27453,1.96471,1.55581,0,-0.061689,0.000202051,0.0904422,0.000485737,-0.0356529,9.52376e-05,0.477172,-15.1276,-0.46763,-5.25552,1.33843,-58.0133,1.75168,0.025393,-20,-0.55237,-0.37602,-0.0378113,-2.90599,0.0644724,-0.000230241,0.0165423,-2.12236e-05,0.496988,0.00119065,0.0733561,0.039195,0.000249096,0.0198699,1.92237,0.0012632,0.005,1.69486,0.000912691,-0.0133829,-0.657723,48.1583,-0.085191,-0.0744033,18.7561,0.809947,1.00665,0.206432,-3.15956,0.0200049,0.459299,-2.1109,0.0725098,0.1372,0.201456,0.42305,-0.0201416,23.4648,23.2804,23.1385,23.2378,23.1669,23.2236,23.0959,
100,6.27329,1.37574,3.15343,4.13312,6.27453,1.96467,1.55581,0,-0.0591513,0.000217145,0.0861611,0.000530673,-0.0377753,9.52376e-05,0.477178,-15.1266,-0.467673,-5.25527,1.33843,-58.0126,1.75155,0.025373,-20,-0.552368,-0.374113,-0.0378089,-2.90625,0.0644671,-0.000230241,0.0165423,-2.12236e-05,0.496988,0.00119065,0.0733561,0.0374234,0.000231793,0.0186845,1.92237,0.0012632,0.005,1.69486,0.000912691,-0.0133829,-0.657723,48.1583,-0.085191,-0.0174472,18.8928,0.79035,0.986197,0.210509,-3.11834,0.0406568,0.459299,-2.11084,0.088623,0.193359,0.197388,0.40694,-0.0205405,23.4506,23.2804,23.1385,23.252,23.1669,23.2236,23.0959,
101,6.27329,1.37568,3.15343,4.1332,6.27453,1.96463,1.55581,0,-0.0591513,0.000207861,0.08319,0.000607248,-0.0386239,9.53096e-05,0.477308,-15.1343,-0.468764,-5.25851,1.33625,-58.0354,1.75305,0.0253898,-20,-0.552571,-0.372709,-0.0378231,-2.90812,0.0646024,-0.000231367,0.0166485,-2.25444e-05,0.496988,0.00119065,0.0733561,0.0365612,0.000234437,0.0186355,1.92164,0.00125936,0.005,1.69579,0.000924814,-0.0123161,-0.659114,48.1766,-0.0874868,0.0018363,18.9811,0.769192,0.998614,0.22745,-3.0527,0.0487935,0.451172,-2.14313,0.104736,0.274399,0.205602,0.410908,-0.0216932,23.4648,23.2804,23.1101,23.2662,23.1952,23.2378,23.1101,
102,6.27329,1.37568,3.15343,4.1332,6.27453,1.96463,1.55581,0,-0.0591513,0.000207861,0.08319,0.000607248,-0.0386239,9.53096e-05,0.477938,-15.1794,-0.4715,-5.29105,1.33337,-58.2093,1.76033,0.0255567,-20,-0.553375,-0.378149,-0.0378533,-2.92528,0.0651616,-0.000233197,0.0167507,-2.44082e-05,0.496988,0.00119065,0.0733561,0.0365612,0.000234437,0.0186355,1.92092,0.00125163,0.005,1.69592,0.000915472,-0.012272,-0.664516,48.338,-0.0932926,0.0018363,18.9811,0.769192,0.998614,0.22745,-3.0527,0.0487935,0.451172,-2.14313,0.104736,0.274399,0.205602,0.410908,-0.0216932,23.4648,23.2804,23.1101,23.2662,23.1952,23.2378,23.1101,
103,6.27329,1.37563,3.15343,4.13328,6.27454,1.96459,1.55581,0,-0.0583411,0.000218688,0.0834601,0.00070566,-0.040123,9.53105e-05,0.47794,-15.1781,-0.471549,-5.29106,1.3333,-58.208,1.7601,0.0255409,-20,-0.553384,-0.376543,-0.0378508,-2.92543,0.0651514,-0.000233197,0.0167507,-2.44082e-05,0.496988,0.00119065,0.0733561,0.0364718,0.000237553,0.0181539,1.92092,0.00125163,0.005,1.69592,0.000915472,-0.012272,-0.664516,48.338,-0.0932926,0.0580962,19.1182,0.770011,1.01305,0.262477,-2.98981,0.0692298,0.459229,-2.11086,0.0966797,0.338762,0.205444,0.402852,-0.0205405,23.4506,23.2804,23.1385,23.2662,23.1952,23.2378,23.1101,
104,6.27329,1.37563,3.15343,4.13328,6.27454,1.96459,1.55581,0,-0.0583411,0.000218688,0.0834601,0.00070566,-0.040123,9.53105e-05,0.478748,-15.2342,-0.475375,-5.33412,1.32861,-58.4216,1.76781,0.0257549,-20,-0.554416,-0.383993,-0.0378925,-2.94665,0.0657142,-0.000234963,0.0168476,-2.66482e-05,0.496988,0.00119065,0.0733561,0.0364718,0.000237553,0.0181539,1.9202,0.00124453,0.005,1.69535,0.000906278,-0.0118386,-0.669906,48.5385,-0.101444,0.0580962,19.1182,0.770011,1.01305,0.262477,-2.98981,0.0692298,0.459229,-2.11086,0.0966797,0.338762,0.205444,0.402852,-0.0205405,23.4506,23.2804,23.1385,23.2662,23.1952,23.2378,23.1101,
105,6.27329,1.37557,3.15343,4.13337,6.27454,1.96455,1.55581,0,-0.0576225,0.000231829,0.0822521,0.000728635,-0.0426754,9.52386e-05,0.478744,-15.2328,-0.475406,-5.33403,1.3286,-58.4203,1.76765,0.0257346,-20,-0.55442,-0.382233,-0.0378904,-2.94684,0.065709,-0.000234963,0.0168476,-2.66482e-05,0.496988,0.00119065,0.0733561,0.0359734,0.000228103,0.0176154,1.9202,0.00124453,0.005,1.69535,0.000906278,-0.0118386,-0.669906,48.5385,-0.101444,0.0771365,19.184,0.718754,1.00642,0.280898,-2.9327,0.0184759,0.443115,-2.1028,0.105046,0.314622,0.209511,0.394775,-0.0205405,23.4648,23.2662,23.1243,23.252,23.1811,23.252,23.1243,
106,6.27329,1.37557,3.15343,4.13337,6.27454,1.96455,1.55581,0,-0.0576225,0.000231829,0.0822521,0.000728635,-0.0426754,9.52386e-05,0.479274,-15.2763,-0.47676,-5.36676,1.32932,-58.5843,1.77208,0.025875,-20,-0.555105,-0.387822,-0.0378985,-2.96302,0.0659782,-0.000236136,0.0169541,-2.79256e-05,0.496988,0.00119065,0.0733561,0.0359734,0.000228103,0.0176154,1.91943,0.00124063,0.005,1.69511,0.000911275,-0.0113538,-0.672483,48.6917,-0.103902,0.0771365,19.184,0.718754,1.00642,0.280898,-2.9327,0.0184759,0.443115,-2.1028,0.105046,0.314622,0.209511,0.394775,-0.0205405,23.4648,23.2662,23.1243,23.252,23.1811,23.252,23.1243,
107,6.27329,1.37551,3.15343,4.13345,6.27454,1.9645,1.55581,0,-0.0534793,0.000222726,0.0804891,0.000780162,-0.044296,0.000103175,0.479304,-15.2755,-0.476829,-5.36657,1.32927,-58.5836,1.77193,0.0258627,-20,-0.55511,-0.386046,-0.0378957,-2.96323,0.0659707,-0.000236136,0.0169541,-2.79256e-05,0.496988,0.00119065,0.0733561,0.0345976,0.000220986,0.015808,1.91943,0.00124063,0.005,1.69511,0.000911275,-0.0113538,-0.672483,48.6917,-0.103902,0.116547,19.2686,0.710846,1.0189,0.310086,-2.89692,0.0293578,0.443408,-2.07863,0.11308,0.322366,0.213539,0.402832,-0.0161133,23.4648,23.2946,23.1243,23.2378,23.1811,23.2378,23.1243,
108,6.27329,1.37551,3.15343,4.13345,6.27454,1.9645,1.55581,0,-0.0534793,0.000222726,0.0804891,0.000780162,-0.044296,0.000103175,0.479459,-15.2839,-0.478903,-5.37055,1.3241,-58.601,1.7733,0.0259036,-20,-0.555378,-0.3865,-0.0379319,-2.96423,0.0660996,-0.000236959,0.0170425,-2.96735e-05,0.496988,0.00119065,0.0733561,0.0345976,0.000220986,0.015808,1.91875,0.00123341,0.005,1.69574,0.000911181,-0.00972718,-0.673696,48.7045,-0.108774,0.116547,19.2686,0.710846,1.0189,0.310086,-2.89692,0.0293578,0.443408,-2.07863,0.11308,0.322366,0.213539,0.402832,-0.0161133,23.4648,23.2946,23.1243,23.2378,23.1811,23.2378,23.1243,
109,6.27329,1.37546,3.15343,4.13353,6.27454,1.96446,1.55581,0,-0.0502381,0.000222734,0.0801377,0.000855516,-0.0464097,0.000111111,0.479481,-15.2829,-0.478966,-5.3704,1.32402,-58.6001,1.7731,0.0258919,-20,-0.555386,-0.384845,-0.0379294,-2.96439,0.0660896,-0.000236959,0.0170425,-2.96735e-05,0.496988,0.00119065,0.0733561,0.0338209,0.000217641,0.014293,1.91875,0.00123341,0.005,1.69574,0.000911181,-0.00972718,-0.673696,48.7045,-0.108774,0.113049,19.302,0.692678,1.02658,0.33671,-2.88808,0.0103164,0.435059,-2.15919,0.112793,0.346529,0.209511,0.390747,-0.0201416,23.4506,23.2662,23.1385,23.2662,23.1811,23.252,23.1101,
110,6.27329,1.37546,3.15343,4.13353,6.27454,1.96446,1.55581,0,-0.0502381,0.000222734,0.0801377,0.000855516,-0.0464097,0.000111111,0.479809,-15.3012,-0.482011,-5.38345,1.31735,-58.6585,1.77849,0.0259787,-20,-0.555856,-0.387012,-0.0379747,-2.96973,0.0665836,-0.000238886,0.0171256,-3.18821e-05,0.496988,0.00119065,0.0733561,0.0338209,0.000217641,0.014293,1.91808,0.00122535,0.005,1.69584,0.000906936,-0.00836368,-0.678484,48.7576,-0.115772,0.113049,19.302,0.692678,1.02658,0.33671,-2.88808,0.0103164,0.435059,-2.15919,0.112793,0.346529,0.209511,0.390747,-0.0201416,23.4506,23.2662,23.1385,23.2662,23.1811,23.252,23.1101,
111,6.27329,1.37542,3.15343,4.13361,6.27454,1.96441,1.55581,0,-0.0459166,0.000234039,0.0804891,0.000891575,-0.0492076,0.000111111,0.479808,-15.3002,-0.482042,-5.38325,1.3173,-58.6576,1.77831,0.0259606,-20,-0.55586,-0.385351,-0.037973,-2.9699,0.0665768,-0.000238886,0.0171256,-3.18821e-05,0.496988,0.00119065,0.0733561,0.0330236,0.000205407,0.0122635,1.91808,0.00122535,0.005,1.69584,0.000906936,-0.00836368,-0.678484,48.7576,-0.115772,0.135892,19.335,0.668799,1.03813,0.36817,-2.90729,0.0191712,0.443115,-2.19141,0.105046,0.322266,0.209473,0.398824,-0.0166092,23.4648,23.2946,23.1385,23.252,23.1811,23.2236,23.1101,
112,6.27329,1.37537,3.15343,4.13369,6.27455,1.96436,1.55581,2.52564e-05,-0.0453891,0.000225542,0.0817505,0.000953826,-0.0511086,0.000111111,0.479926,-15.3044,-0.483849,-5.38681,1.3127,-58.6609,1.7802,0.0259771,-20,-0.55608,-0.384362,-0.0379997,-2.96987,0.0667792,-0.000240047,0.0172017,-3.3459e-05,0.496988,0.00119065,0.0733561,0.0332823,0.000202323,0.0118407,1.91743,0.00122159,0.005,1.69597,0.000914569,-0.00653718,-0.680515,48.7601,-0.119849,0.182251,19.2762,0.643864,1.04087,0.396785,-2.92099,0.00883064,0.443115,-2.25609,0.0970148,0.306576,0.209511,0.414917,-0.0205405,23.4648,23.2946,23.1385,23.252,23.1811,23.2378,23.0959,
113,6.27329,1.37532,3.15343,4.13378,6.27455,1.9643,1.55582,2.40444e-05,-0.0456465,0.000225542,0.0812993,0.00103551,-0.0540195,0.000121694,0.480617,-15.354,-0.486392,-5.42689,1.31105,-58.8535,1.7885,0.0261469,-20,-0.556954,-0.389971,-0.0380191,-2.98939,0.0674279,-0.000242016,0.0172825,-3.50979e-05,0.496988,0.00119065,0.0733561,0.0332087,0.000205852,0.0116453,1.91672,0.00121781,0.005,1.6951,0.00091394,-0.00615664,-0.686927,48.9432,-0.124894,0.240037,19.2467,0.641514,1.03885,0.410303,-2.96532,0.0374034,0.443408,-2.19142,0.11308,0.257938,0.209511,0.40688,-0.012085,23.4364,23.3087,23.1243,23.252,23.1811,23.2378,23.0959,
114,6.27329,1.37528,3.15343,4.13385,6.27455,1.96425,1.55582,2.41272e-05,-0.0464568,0.00021764,0.0807591,0.00108577,-0.0550999,0.000121786,0.481121,-15.3807,-0.489957,-5.44899,1.3043,-58.9591,1.79277,0.0262667,-20,-0.557594,-0.392485,-0.0380612,-3.00019,0.0677741,-0.000243044,0.0173544,-3.76962e-05,0.496988,0.00119065,0.0733561,0.0332226,0.000211854,0.0118666,1.91607,0.00120909,0.005,1.69457,0.000902916,-0.00598073,-0.690304,49.0441,-0.132767,0.293177,19.1932,0.600931,1.05247,0.416506,-2.99622,0.0332119,0.435357,-2.15918,0.105046,0.274044,0.217567,0.418965,-0.00402832,23.4648,23.3087,23.1243,23.252,23.1952,23.2236,23.0959,
115,6.27329,1.37523,3.15343,4.13393,6.27455,1.96419,1.55582,4.61913e-05,-0.0471001,0.000227103,0.0812993,0.00115104,-0.0569906,0.000121786,0.481784,-15.4249,-0.493011,-5.48429,1.30074,-59.1363,1.80048,0.026428,-20,-0.558433,-0.397194,-0.0380904,-3.01824,0.0683896,-0.000244939,0.0174257,-3.97842e-05,0.496988,0.00119065,0.0733561,0.0335165,0.000206199,0.0119228,1.91541,0.00120143,0.005,1.69397,0.000890615,-0.00617998,-0.696338,49.2124,-0.139181,0.318216,19.1758,0.574887,1.02797,0.425108,-3.02702,0.0333798,0.451172,-2.11896,0.105046,0.257938,0.221594,0.40694,-0.00805664,23.4648,23.2946,23.1243,23.252,23.1669,23.252,23.1385,
116,6.27329,1.37518,3.15343,4.13402,6.27456,1.96413,1.55582,4.42974e-05,-0.0480774,0.000219408,0.0835059,0.00123642,-0.0564229,0.000132274,0.482472,-15.472,-0.495885,-5.52298,1.2981,-59.3233,1.80811,0.0265983,-20,-0.559307,-0.402556,-0.038112,-3.03731,0.0689801,-0.000246816,0.0174997,-4.1759e-05,0.496988,0.00119065,0.0733561,0.0343614,0.000225013,0.0123546,1.91474,0.00119837,0.005,1.6931,0.000892953,-0.00623051,-0.702188,49.3909,-0.144964,0.38615,19.1537,0.527532,0.987965,0.437963,-3.06622,0.0117256,0.451172,-2.07057,0.121118,0.241699,0.217567,0.398824,-0.0090076,23.4648,23.2946,23.1385,23.2378,23.1811,23.252,23.1101,
117,6.27329,1.37513,3.15343,4.13411,6.27456,1.96407,1.55582,6.62395e-05,-0.0475372,0.000219408,0.0840003,0.00129393,-0.0578009,0.000132274,0.483736,-15.5563,-0.501536,-5.59047,1.29171,-59.6579,1.81706,0.0269185,-20,-0.560873,-0.412908,-0.0381666,-3.0713,0.0695625,-0.00024827,0.0175757,-4.48503e-05,0.496988,0.00119065,0.0733561,0.0343943,0.000219597,0.0119909,1.91402,0.00118837,0.005,1.6917,0.000867019,-0.00661912,-0.707757,49.7086,-0.156809,0.374879,19.1398,0.505866,0.95284,0.45597,-3.09228,0.0188715,0.443188,-2.02223,0.112793,0.20206,0.225586,0.374634,-0.00805664,23.479,23.2946,23.1385,23.2662,23.1952,23.252,23.1101,
118,6.27329,1.37513,3.15343,4.13411,6.27456,1.96407,1.55582,6.62395e-05,-0.0475372,0.000219408,0.0840003,0.00129393,-0.0578009,0.000132274,0.48435,-15.599,-0.504396,-5.62398,1.28839,-59.8206,1.82521,0.0270812,-20,-0.561655,-0.418769,-0.0381947,-3.08756,0.0702168,-0.000250397,0.0176483,-4.68941e-05,0.496988,0.00119065,0.0733561,0.0343943,0.000219597,0.0119909,1.91335,0.00118385,0.005,1.69106,0.000867827,-0.00629181,-0.714104,49.8621,-0.162834,0.374879,19.1398,0.505866,0.95284,0.45597,-3.09228,0.0188715,0.443188,-2.02223,0.112793,0.20206,0.225586,0.374634,-0.00805664,23.479,23.2946,23.1385,23.2662,23.1952,23.252,23.1101,
119,6.27329,1.37509,3.15343,4.13419,6.27456,1.96401,1.55582,6.36384e-05,-0.0456465,0.000212232,0.081217,0.00138791,-0.0607104,0.000132274,0.484371,-15.5981,-0.504454,-5.62361,1.28825,-59.82,1.8249,0.0270695,-20,-0.561661,-0.417136,-0.0381937,-3.08772,0.0702003,-0.000250397,0.0176483,-4.68941e-05,0.496988,0.00119065,0.0733561,0.0331948,0.000217656,0.0109602,1.91335,0.00118385,0.005,1.69106,0.000867827,-0.00629181,-0.714104,49.8621,-0.162834,0.421703,19.0644,0.472638,0.92989,0.457303,-3.09748,0.00298141,0.443188,-2.03027,0.121919,0.185478,0.229756,0.362571,-0.0090076,23.4648,23.2946,23.1527,23.2662,23.1811,23.2378,23.0959,
120,6.27329,1.37505,3.15343,4.13427,6.27457,1.96395,1.55582,8.48444e-05,-0.0437558,0.000211691,0.0797444,0.0015909,-0.063743,0.000132376,0.48446,-15.5856,-0.508585,-5.61315,1.27574,-59.7666,1.83068,0.0270776,-20,-0.561814,-0.413645,-0.0382589,-3.08219,0.0708829,-0.000252896,0.0177135,-5.03806e-05,0.496988,0.00119065,0.0733561,0.0323763,0.000217462,0.0099012,1.91269,0.00117325,0.005,1.69155,0.000860036,-0.00536421,-0.720944,49.8105,-0.172726,0.480562,19.0418,0.45389,0.927244,0.474277,-3.09736,0.0111592,0.443188,-2.04645,0.112793,0.217678,0.233643,0.370627,-0.0127387,23.4648,23.2946,23.1669,23.2662,23.1952,23.2662,23.1101,
121,6.27329,1.375,3.15343,4.13435,6.27457,1.96388,1.55582,0.000102049,-0.0446368,0.000212225,0.0804891,0.00206359,-0.0672059,0.000132376,0.484731,-15.5821,-0.514479,-5.61059,1.25947,-59.7492,1.83924,0.0271391,-20,-0.562224,-0.411777,-0.0383429,-3.0803,0.07182,-0.000255814,0.0177785,-5.43284e-05,0.496988,0.00119065,0.0733561,0.0327811,0.000254606,0.0098834,1.91202,0.00116482,0.005,1.69168,0.000852625,-0.00441108,-0.730231,49.7939,-0.186548,0.556883,19.0616,0.444643,0.888691,0.468023,-3.08511,0.0339059,0.459299,-2.07057,0.105046,0.242236,0.22965,0.370693,-0.00569691,23.4648,23.2662,23.1243,23.2662,23.1811,23.252,23.1101,
122,6.27329,1.375,3.15343,4.13435,6.27457,1.96388,1.55582,0.000102049,-0.0446368,0.000212225,0.0804891,0.00206359,-0.0672059,0.000132376,0.48552,-15.607,-0.523675,-5.63202,1.2372,-59.8466,1.85369,0.0273481,-20,-0.563221,-0.41575,-0.0384715,-3.09031,0.0732277,-0.000258733,0.0178336,-5.80872e-05,0.496988,0.00119065,0.0733561,0.0327811,0.000254606,0.0098834,1.91136,0.00115671,0.005,1.69072,0.000811898,-0.00439506,-0.743842,49.8876,-0.208061,0.556883,19.0616,0.444643,0.888691,0.468023,-3.08511,0.0339059,0.459299,-2.07057,0.105046,0.242236,0.22965,0.370693,-0.00569691,23.4648,23.2662,23.1243,23.2662,23.1811,23.252,23.1101,
123,6.27329,1.37495,3.15343,4.13443,6.27458,1.96381,1.55582,0.00011767,-0.0453304,0.000196935,0.0804891,0.00278206,-0.0686048,0.000142856,0.485526,-15.6059,-0.523799,-5.63174,1.23689,-59.8457,1.85317,0.0273415,-20,-0.563243,-0.414315,-0.0384664,-3.09038,0.073204,-0.000258733,0.0178336,-5.80872e-05,0.496988,0.00119065,0.0733561,0.0329279,0.000322225,0.0100172,1.91136,0.00115671,0.005,1.69072,0.000811898,-0.00439506,-0.743842,49.8876,-0.208061,0.535472,19.0498,0.441366,0.783714,0.458746,-3.06904,0.0235051,0.459229,-2.00612,0.112793,0.209628,0.241733,0.382712,-0.00805664,23.4648,23.2946,23.1527,23.2804,23.1669,23.2378,23.0959,
124,6.27329,1.37491,3.15343,4.13451,6.27459,1.96374,1.55582,0.000113547,-0.0459166,0.000196935,0.0782489,0.00362095,-0.0694151,0.000142856,0.48667,-15.6399,-0.537581,-5.65935,1.20308,-59.9833,1.86908,0.0276352,-20,-0.564719,-0.417859,-0.0386593,-3.10447,0.0747828,-0.000261359,0.01789,-6.29365e-05,0.496988,0.00119065,0.0733561,0.0324008,0.000401299,0.0101952,1.91071,0.001145,0.005,1.69,0.0007405,-0.00451552,-0.759307,50.0183,-0.240157,0.5641,18.9457,0.419985,0.655965,0.448691,-3.06351,0.0347869,0.467285,-1.982,0.0889885,0.209473,0.229614,0.37472,-0.0113938,23.4648,23.3087,23.1527,23.2662,23.1952,23.2662,23.1385,
125,6.27329,1.37491,3.15343,4.13451,6.27459,1.96374,1.55582,0.000113547,-0.0459166,0.000196935,0.0782489,0.00362095,-0.0694151,0.000142856,0.487833,-15.659,-0.554704,-5.67348,1.1586,-60.0604,1.88897,0.0279432,-20,-0.566211,-0.420343,-0.0389138,-3.1122,0.0768186,-0.00026526,0.0179441,-6.97098e-05,0.496988,0.00119065,0.0733561,0.0324008,0.000401299,0.0101952,1.91007,0.00112748,0.005,1.6899,0.000653561,-0.00467567,-0.778868,50.0901,-0.280791,0.5641,18.9457,0.419985,0.655965,0.448691,-3.06351,0.0347869,0.467285,-1.982,0.0889885,0.209473,0.229614,0.37472,-0.0113938,23.4648,23.3087,23.1527,23.2662,23.1952,23.2662,23.1385,
126,6.27329,1.37486,3.15343,4.13458,6.27459,1.96368,1.55582,0.000151402,-0.0464568,0.000190884,0.074817,0.00472035,-0.0704954,0.000142856,0.487833,-15.6583,-0.554847,-5.67303,1.15824,-60.0602,1.88835,0.0279334,-20,-0.566232,-0.418883,-0.0389082,-3.1123,0.0767908,-0.00026526,0.0179441,-6.97098e-05,0.496988,0.00119065,0.0733561,0.031518,0.000487697,0.0103389,1.91007,0.00112748,0.005,1.6899,0.000653561,-0.00467567,-0.778868,50.0901,-0.280791,0.563012,18.902,0.399469,0.570723,0.457981,-2.97811,0.0150059,0.467355,-1.95778,0.12085,0.257812,0.221558,0.342502,-0.0090076,23.4506,23.3087,23.1527,23.2662,23.1952,23.2662,23.1101,
127,6.27329,1.37482,3.15343,4.13466,6.27461,1.96361,1.55582,0.000164562,-0.0451383,0.000190433,0.0737259,0.00664375,-0.0701542,0.000150907,0.48887,-15.6614,-0.573119,-5.67464,1.10913,-60.0779,1.90919,0.0282028,-20,-0.567623,-0.417675,-0.039172,-3.11416,0.0790463,-0.000269129,0.0179942,-7.53622e-05,0.496988,0.00119065,0.0733561,0.0309254,0.000666357,0.00985962,1.90945,0.00111866,0.005,1.69013,0.000567867,-0.00480504,-0.801143,50.1058,-0.323894,0.616071,18.8584,0.422543,0.525974,0.425012,-2.90092,0.024716,0.475342,-1.93374,0.104736,0.314209,0.209628,0.326319,-0.0090076,23.479,23.3087,23.1527,23.2662,23.1811,23.252,23.0959,
128,6.27329,1.37477,3.15343,4.13473,6.27462,1.96353,1.55582,0.00019405,-0.0426754,0.000190433,0.0729263,0.0094676,-0.0699644,0.000150793,0.491056,-15.6861,-0.608305,-5.69263,1.01616,-60.1754,1.94212,0.0287805,-20,-0.570525,-0.419485,-0.0396859,-3.12383,0.0825587,-0.000274151,0.0180508,-8.65252e-05,0.496988,0.00119065,0.0733561,0.0301786,0.000924454,0.00889969,1.90879,0.00109487,0.005,1.69008,0.000385665,-0.00437366,-0.835279,50.1956,-0.406974,0.587963,18.7582,0.437428,0.449965,0.38686,-2.836,-0.0208823,0.467285,-1.96589,0.112793,0.322266,0.197429,0.302151,0,23.4648,23.3087,23.1385,23.2662,23.1952,23.2662,23.1101,
129,6.27329,1.37473,3.15343,4.1348,6.27464,1.96346,1.55582,0.000204997,-0.0405146,0.000184769,0.0731964,0.0147417,-0.0713057,0.000150794,0.493565,-15.6905,-0.65411,-5.69509,0.89227,-60.1923,1.98647,0.0294565,-20,-0.573934,-0.418714,-0.0403569,-3.12534,0.0874266,-0.0002804,0.0180904,-9.79951e-05,0.496988,0.00119065,0.0733561,0.0298067,0.00143187,0.0078836,1.90819,0.00107393,0.005,1.69021,0.000134527,-0.00350972,-0.882734,50.2093,-0.515502,0.586482,18.6164,0.447041,0.344084,0.380883,-2.80088,0.0120081,0.475342,-1.99806,0.0980133,0.322366,0.169237,0.2659,-0.00805664,23.4648,23.2946,23.1527,23.2662,23.1811,23.2378,23.1243,
130,6.27329,1.37469,3.15343,4.13487,6.27466,1.96339,1.55582,0.000215272,-0.0385848,0.000168702,0.0718459,0.0199872,-0.0704954,0.000158731,0.497945,-15.6942,-0.733399,-5.6976,0.676684,-60.2087,2.06164,0.0306254,-20,-0.579749,-0.41827,-0.0415587,-3.12691,0.0956488,-0.000288253,0.0181319,-0.000114001,0.496988,0.00119065,0.0733561,0.0290095,0.00194022,0.00720606,1.90761,0.00104032,0.005,1.69002,-0.000352394,-0.00259524,-0.962368,50.2224,-0.704789,0.53296,18.4981,0.43891,0.260856,0.360651,-2.72984,0.0208303,0.483667,-2.02223,0.0966797,0.282442,0.116891,0.257812,-0.0090076,23.4648,23.2946,23.1527,23.2804,23.1952,23.252,23.1243,
131,6.27329,1.37465,3.15343,4.13495,6.27468,1.96332,1.55582,0.000224936,-0.0381168,0.000168702,0.0699644,0.0230707,-0.0723861,0.000158851,0.502607,-15.7017,-0.815786,-5.70152,0.452904,-60.2439,2.13708,0.031851,-20,-0.585835,-0.417894,-0.0428256,-3.1303,0.103878,-0.000296358,0.0181711,-0.000132958,0.496988,0.00119065,0.0733561,0.0283671,0.0022304,0.00683817,1.90703,0.00100056,0.005,1.69022,-0.000845687,-0.00198546,-1.04207,50.2518,-0.901729,0.522175,18.3554,0.516596,0.209562,0.309829,-2.68825,0.060035,0.483667,-2.05446,0.0970148,0.306152,0.0645789,0.221704,0.0090076,23.4506,23.2946,23.1385,23.2662,23.1952,23.252,23.1243,
132,6.27329,1.37462,3.15343,4.13502,6.2747,1.96324,1.55582,0.00024909,-0.0380837,0.000163829,0.0693447,0.0205066,-0.0724721,0.000158729,0.505942,-15.6973,-0.875497,-5.69751,0.289691,-60.233,2.19585,0.0327096,-20,-0.590115,-0.416262,-0.043764,-3.1292,0.110218,-0.000306658,0.0182141,-0.000154887,0.496988,0.00119065,0.0733561,0.0281816,0.00196976,0.00682927,1.90643,0.000954366,0.005,1.69026,-0.00114843,-0.00165435,-1.10363,50.2396,-1.04506,0.47947,18.1666,0.541947,0.171685,0.265573,-2.63965,0.0364274,0.467355,-2.06256,0.072956,0.338475,0.0324774,0.213539,-0.00569691,23.4648,23.3087,23.1385,23.2662,23.1952,23.2662,23.1243,
133,6.27329,1.37458,3.15343,4.13509,6.27472,1.96317,1.55582,0.000257244,-0.0397043,0.000148222,0.0696851,0.0151255,-0.0742016,0.000169311,0.505613,-15.7118,-0.865086,-5.70974,0.320086,-60.2916,2.19155,0.0325894,-20,-0.589584,-0.417181,-0.043605,-3.1352,0.109562,-0.000315256,0.0182429,-0.000172192,0.496988,0.00119065,0.0733561,0.0286229,0.00144569,0.00730385,1.90587,0.000921323,0.005,1.68992,-0.000943595,-0.00164634,-1.09812,50.2961,-1.01948,0.495764,17.9697,0.513543,0.109629,0.278429,-2.67442,0.0537958,0.467285,-2.03835,0.0980133,0.314209,0.0490066,0.189374,-0.00569691,23.4648,23.3087,23.1385,23.2804,23.1952,23.2662,23.1385,
134,6.2733,1.37454,3.15343,4.13516,6.27473,1.96308,1.55582,0.000264955,-0.0410548,0.000140421,0.0704954,0.00972351,-0.0754211,0.000169311,0.503345,-15.7381,-0.817357,-5.73284,0.453727,-60.3955,2.1508,0.0319546,-20,-0.58651,-0.419931,-0.0428552,-3.146,0.1049,-0.000320914,0.0182773,-0.000185162,0.496988,0.00119065,0.0733561,0.029144,0.000918733,0.00771889,1.90531,0.000894231,0.005,1.68902,-0.000496315,-0.00207346,-1.054,50.3982,-0.903887,0.448089,17.8134,0.516871,0.0749461,0.239459,-2.65117,0.0382417,0.475342,-1.99001,0.0889885,0.298205,0.0926514,0.169189,0.00569691,23.479,23.2946,23.1527,23.2804,23.2094,23.252,23.1101,
135,6.2733,1.37449,3.15343,4.13523,6.27474,1.96302,1.55582,0.000272248,-0.0432156,0.000124541,0.068209,0.00702152,-0.0765459,0.000169184,0.500709,-15.7629,-0.763884,-5.75534,0.603004,-60.4918,2.10689,0.0312307,-20,-0.583,-0.422525,-0.042004,-3.15612,0.0999235,-0.000325498,0.0183014,-0.000193034,0.496988,0.00119065,0.0733561,0.0289331,0.000653823,0.00850018,1.90474,0.000877869,0.005,1.68803,-3.67778e-05,-0.002447,-1.00689,50.4937,-0.774296,0.44878,17.6661,0.550195,0.109215,0.236853,-2.6501,0.0467706,0.491455,-1.94977,0.0966797,0.257812,0.137022,0.165161,-0.00569691,23.4648,23.3087,23.1385,23.2804,23.1952,23.2662,23.1101,
136,6.2733,1.37445,3.15343,4.13529,6.27474,1.96294,1.55582,0.000264686,-0.0453464,0.000132624,0.0661739,0.00702253,-0.077989,0.000169313,0.499651,-15.7888,-0.739506,-5.77565,0.672855,-60.5988,2.08939,0.030936,-20,-0.581607,-0.4247,-0.0415991,-3.16709,0.097861,-0.000329311,0.0183527,-0.000199297,0.496988,0.00119065,0.0733561,0.0287885,0.000652634,0.00922912,1.90414,0.000864773,0.005,1.68768,0.000189855,-0.00315016,-0.987616,50.5958,-0.714559,0.419118,17.5368,0.563953,0.182443,0.231061,-2.61635,0.0507283,0.483398,-1.90944,0.0970148,0.306576,0.153288,0.145075,-0.00402832,23.4506,23.2946,23.1527,23.2804,23.2094,23.2662,23.1243,
137,6.2733,1.3744,3.15343,4.13536,6.27475,1.96285,1.55582,0.000265213,-0.0456465,0.000128901,0.063743,0.00675244,-0.0786311,0.000179895,0.500146,-15.7977,-0.74585,-5.78307,0.65683,-60.6425,2.09835,0.0310494,-20,-0.582197,-0.424871,-0.0416886,-3.17178,0.0987637,-0.000332666,0.0183832,-0.000205183,0.496988,0.00119065,0.0733561,0.0281459,0.000621659,0.00931182,1.90355,0.000850615,0.005,1.68729,0.000178183,-0.0038062,-0.99659,50.6378,-0.729329,0.42322,17.4228,0.604698,0.265235,0.219053,-2.59188,0.0428745,0.483667,-1.8611,0.0980133,0.322366,0.161183,0.124878,0.0090076,23.479,23.2946,23.1385,23.2804,23.1952,23.252,23.1243,
138,6.2733,1.37436,3.15343,4.13542,6.27476,1.96278,1.55582,0.00027214,-0.0451063,0.000113736,0.0638858,0.00675244,-0.0742768,0.000179893,0.500183,-15.7879,-0.748314,-5.7758,0.649367,-60.6067,2.10045,0.031048,-20,-0.582266,-0.422382,-0.0417213,-3.16829,0.0990337,-0.0003351,0.0184017,-0.000210499,0.496988,0.00119065,0.0733561,0.0280698,0.000629189,0.00955792,1.903,0.000836425,0.005,1.68737,0.000193289,-0.00388064,-0.999449,50.6045,-0.735047,0.398177,17.3299,0.633607,0.340143,0.211026,-2.56933,0.0430614,0.475342,-1.8693,0.088623,0.362549,0.161183,0.108839,-0.00402832,23.479,23.2946,23.1385,23.2946,23.2094,23.2662,23.1243,
139,6.2733,1.37431,3.15343,4.13549,6.27476,1.9627,1.55582,0.000265453,-0.0453764,9.83554e-05,0.0642832,0.00649337,-0.0734752,0.000190475,0.501273,-15.8482,-0.755905,-5.82161,0.635026,-60.8455,2.11249,0.0313236,-20,-0.583648,-0.429045,-0.0418167,-3.19222,0.100042,-0.000338691,0.0184407,-0.000216076,0.496988,0.00119065,0.0733561,0.0282411,0.000613557,0.00975083,1.90242,0.000824782,0.005,1.68691,0.000176033,-0.00410213,-1.0094,50.8287,-0.751979,0.411456,17.275,0.653155,0.430628,0.23444,-2.57252,0.0183959,0.491455,-1.89333,0.105046,0.346436,0.161133,0.0443115,0.00569691,23.4648,23.3229,23.1385,23.2946,23.1952,23.2662,23.1243,
140,6.2733,1.37426,3.15343,4.13555,6.27477,1.96262,1.55582,0.000278199,-0.0456399,0.000105921,0.0634729,0.00631788,-0.0742768,0.000190475,0.501848,-15.8809,-0.759744,-5.84781,0.628116,-60.9769,2.11715,0.0314592,-20,-0.584384,-0.432427,-0.0418617,-3.20561,0.100398,-0.000340987,0.0184706,-0.000221568,0.496988,0.00119065,0.0733561,0.028062,0.000586747,0.00978409,1.90186,0.000810231,0.005,1.68626,0.000177007,-0.00427574,-1.01298,50.9535,-0.760385,0.38343,17.2304,0.655936,0.577981,0.249406,-2.52658,0.0375567,0.499577,-1.89346,0.0970148,0.33042,0.157311,0.0161133,0.0090076,23.4648,23.3087,23.1527,23.2804,23.1952,23.2662,23.1101,
141,6.2733,1.37422,3.15343,4.13561,6.27477,1.96255,1.55582,0.000271533,-0.0480286,0.000103035,0.0613121,0.00561589,-0.0761675,0.000190475,0.5022,-15.8968,-0.762468,-5.86045,0.622562,-61.0422,2.12254,0.0315355,-20,-0.584811,-0.433514,-0.0418959,-3.21226,0.100882,-0.000343649,0.0185085,-0.000226,0.496988,0.00119065,0.0733561,0.0279352,0.000519041,0.0105714,1.90129,0.000803739,0.005,1.68591,0.000195293,-0.00430568,-1.01786,51.0154,-0.766415,0.368091,17.1562,0.71261,0.729037,0.274476,-2.52485,0.0256878,0.491455,-1.86921,0.104736,0.346436,0.169381,-0.0127387,0.00569691,23.4506,23.3087,23.1385,23.252,23.2094,23.252,23.1243,
142,6.2733,1.37422,3.15343,4.13561,6.27477,1.96255,1.55582,0.000271533,-0.0480286,0.000103035,0.0613121,0.00561589,-0.0761675,0.000190475,0.502088,-15.9052,-0.758457,-5.86797,0.63482,-61.0808,2.12311,0.031506,-20,-0.584632,-0.43489,-0.0418204,-3.21645,0.100858,-0.000346404,0.0185409,-0.000230025,0.496988,0.00119065,0.0733561,0.0279352,0.000519041,0.0105714,1.90074,0.00079224,0.005,1.68552,0.000245879,-0.00501425,-1.01777,51.0533,-0.756368,0.368091,17.1562,0.71261,0.729037,0.274476,-2.52485,0.0256878,0.491455,-1.86921,0.104736,0.346436,0.169381,-0.0127387,0.00569691,23.4506,23.3087,23.1385,23.252,23.2094,23.252,23.1243,
143,6.2733,1.37417,3.15343,4.13567,6.27478,1.96247,1.55582,0.000271533,-0.0502381,0.000103255,0.0588813,0.00522188,-0.0779791,0.000198412,0.502077,-15.9046,-0.75842,-5.86713,0.63469,-61.0811,2.12281,0.0314866,-20,-0.584635,-0.433582,-0.0418256,-3.2165,0.100841,-0.000346404,0.0185409,-0.000230025,0.496988,0.00119065,0.0733561,0.0276921,0.000477108,0.0112974,1.90074,0.00079224,0.005,1.68552,0.000245879,-0.00501425,-1.01777,51.0533,-0.756368,0.329014,17.1029,0.724909,0.833301,0.277689,-2.5052,0.0460781,0.483466,-1.82087,0.0889885,0.378748,0.173265,-0.0205405,0,23.4648,23.3087,23.1527,23.2804,23.2094,23.252,23.1385,
144,6.2733,1.37417,3.15343,4.13567,6.27478,1.96247,1.55582,0.000271533,-0.0502381,0.000103255,0.0588813,0.00522188,-0.0779791,0.000198412,0.5021,-15.9087,-0.757675,-5.87114,0.637598,-61.1032,2.12216,0.0314926,-20,-0.584635,-0.434348,-0.0418024,-3.219,0.100735,-0.000347709,0.0185716,-0.000233894,0.496988,0.00119065,0.0733561,0.0276921,0.000477108,0.0112974,1.90019,0.00078381,0.005,1.68525,0.000276032,-0.0056677,-1.01675,51.0754,-0.754202,0.329014,17.1029,0.724909,0.833301,0.277689,-2.5052,0.0460781,0.483466,-1.82087,0.0889885,0.378748,0.173265,-0.0205405,0,23.4648,23.3087,23.1527,23.2804,23.2094,23.252,23.1385,
145,6.2733,1.37412,3.15343,4.13573,6.27478,1.96239,1.55582,0.000265186,-0.0518587,0.000100305,0.0568709,0.00473841,-0.0787413,0.000198414,0.502114,-15.9081,-0.757665,-5.87032,0.637451,-61.1035,2.1219,0.0314794,-20,-0.584642,-0.432993,-0.0418068,-3.21904,0.100717,-0.000347709,0.0185716,-0.000233894,0.496988,0.00119065,0.0733561,0.0274471,0.00043117,0.0118936,1.90019,0.00078381,0.005,1.68525,0.000276032,-0.0056677,-1.01675,51.0754,-0.754202,0.30324,16.9916,0.737715,0.92904,0.30737,-2.49781,0.0250818,0.47541,-1.78865,0.0966797,0.427078,0.173218,-0.0245033,-0.00805664,23.4648,23.3087,23.1385,23.2804,23.1811,23.252,23.1101,
146,6.2733,1.37406,3.15343,4.13579,6.27479,1.96231,1.55582,0.000264709,-0.0501537,0.000100299,0.058941,0.00473841,-0.0810292,0.000198712,0.502146,-15.9167,-0.756281,-5.87765,0.642454,-61.1449,2.1244,0.0314708,-20,-0.584674,-0.433031,-0.0417745,-3.22349,0.100921,-0.000350502,0.0185992,-0.000237793,0.496988,0.00119065,0.0733561,0.0276963,0.000428626,0.0109471,1.89963,0.000772422,0.005,1.68496,0.000307127,-0.00620427,-1.019,51.1156,-0.750442,0.286628,16.9326,0.745338,1.01029,0.331886,-2.44053,0.0410652,0.47541,-1.77263,0.090076,0.459229,0.181319,-0.0443115,0.0090076,23.479,23.3229,23.1101,23.2804,23.2094,23.252,23.0959,
147,6.2733,1.37402,3.15343,4.13585,6.27479,1.96223,1.55582,0.000264709,-0.0464568,9.31376e-05,0.0599009,0.00476865,-0.0829199,0.00020666,0.502483,-15.925,-0.760644,-5.88602,0.631486,-61.172,2.13043,0.0315408,-20,-0.585115,-0.433402,-0.0418358,-3.22625,0.101532,-0.000352773,0.0186306,-0.000241622,0.496988,0.00119065,0.0733561,0.0272068,0.000425096,0.00925353,1.89907,0.000763935,0.005,1.68423,0.000301777,-0.00535242,-1.02508,51.1427,-0.760518,0.279569,16.8755,0.777844,1.07424,0.343097,-2.43021,0.03872,0.491455,-1.82893,0.105046,0.386803,0.181319,-0.041081,0.0180152,23.4648,23.3229,23.1527,23.2804,23.2094,23.2378,23.1101,
148,6.2733,1.37397,3.15343,4.13591,6.2748,1.96214,1.55582,0.000258673,-0.0432156,0.000107466,0.061042,0.00489337,-0.085891,0.000206348,0.502506,-15.907,-0.765106,-5.87273,0.617324,-61.0914,2.1327,0.0315289,-20,-0.585214,-0.429947,-0.0419108,-3.2179,0.101886,-0.00035431,0.0186538,-0.000245483,0.496988,0.00119065,0.0733561,0.0268667,0.000426791,0.00762633,1.89853,0.000754254,0.005,1.68419,0.000296242,-0.00382818,-1.02865,51.0666,-0.771337,0.23211,16.8233,0.765429,1.06167,0.33313,-2.38338,0.0629474,0.499512,-1.92555,0.112793,0.379005,0.177292,-0.0525229,0.0090076,23.4648,23.3087,23.1385,23.2662,23.2094,23.2378,23.1243,
149,6.2733,1.37393,3.15343,4.13597,6.2748,1.96205,1.55582,0.000259128,-0.041595,0.000118412,0.0614383,0.00500248,-0.0842582,0.000206817,0.50251,-15.8814,-0.770929,-5.85427,0.598695,-60.981,2.13773,0.031516,-20,-0.585312,-0.425699,-0.0420074,-3.20662,0.102558,-0.000356695,0.0186719,-0.000249759,0.496988,0.00119065,0.0733561,0.0266425,0.000434273,0.00714627,1.898,0.000745221,0.005,1.68402,0.000286587,-0.00236369,-1.03536,50.9631,-0.785552,0.188545,16.7029,0.800405,1.07293,0.343698,-2.35552,0.0460702,0.47541,-1.99001,0.113938,0.346529,0.181274,-0.0324774,0.012085,23.4648,23.2946,23.1385,23.2662,23.1952,23.252,23.0959,
150,6.2733,1.37389,3.15344,4.13603,6.27481,1.96197,1.55582,0.000252906,-0.0405863,0.000129016,0.0605018,0.00535353,-0.0828359,0.000217258,0.503063,-15.8976,-0.778115,-5.8668,0.58082,-61.0417,2.14529,0.0316485,-20,-0.586066,-0.426736,-0.0421093,-3.21264,0.103311,-0.000359303,0.0186884,-0.000254515,0.496988,0.00119065,0.0733561,0.0261584,0.000466384,0.00690351,1.89745,0.000735154,0.005,1.68372,0.000270793,-0.00193165,-1.04285,51.0201,-0.802229,0.176507,16.5943,0.795243,1.07686,0.343015,-2.28558,0.0491434,0.47541,-2.02228,0.121118,0.338379,0.173218,-0.0726216,0.0166092,23.4506,23.3087,23.1527,23.2662,23.2094,23.2804,23.1385,
151,6.2733,1.37385,3.15344,4.13609,6.27482,1.96189,1.55582,0.000252906,-0.041595,0.000132476,0.0605018,0.005689,-0.0840003,0.000217258,0.503783,-15.9085,-0.789106,-5.87459,0.552104,-61.0858,2.15334,0.0318277,-20,-0.58703,-0.426985,-0.0422708,-3.21698,0.104161,-0.00036136,0.0187094,-0.000260305,0.496988,0.00119065,0.0733561,0.0263706,0.000498566,0.00718822,1.89692,0.000722899,0.005,1.68368,0.000230864,-0.00171315,-1.05113,51.0608,-0.82808,0.199759,16.4765,0.774638,1.05057,0.358376,-2.28525,0.0397261,0.475342,-2.05459,0.1372,0.346529,0.181274,-0.0966797,0.0127387,23.4648,23.2804,23.1385,23.2662,23.1952,23.2662,23.1243,
152,6.2733,1.37381,3.15344,4.13615,6.27482,1.96189,1.55583,0.000247391,-0.0432156,0.000129305,0.0617897,0.00613345,-0.0840003,0.000227854,0.504455,-15.9174,-0.798977,-5.88486,0.526582,-61.1276,2.16514,0.0319991,-20,-0.587895,-0.427893,-0.0424103,-3.22175,0.105385,-0.000364386,0.018727,-0.000265639,0.496988,0.00119065,0.0733561,0.0270831,0.000551252,0.00782892,1.8964,0.000710305,0.005,1.68302,0.000190565,-0.00196939,-1.0632,51.1036,-0.851308,0.174222,16.4187,0.773003,1.0193,0.388131,-2.28525,0.0338555,0.483466,-2.03029,0.123243,0.346436,0.169189,-0.0966797,0.012085,23.4648,23.3087,23.1527,23.2804,23.2094,23.2662,23.1243,
153,6.2733,1.37376,3.15344,4.13623,6.27483,1.9618,1.55583,0.000247391,-0.0448362,0.000135767,0.0643286,0.00681115,-0.0848106,0.000228029,0.506323,-16.015,-0.813836,-5.9606,0.496344,-61.5166,2.18131,0.0324867,-20,-0.59032,-0.439686,-0.0426007,-3.26097,0.106715,-0.000367156,0.0188306,-0.000273255,0.496988,0.00119065,0.0733561,0.0281608,0.000623205,0.00837112,1.89586,0.000691402,0.005,1.6819,0.000126135,-0.00254603,-1.07613,51.4704,-0.884899,0.183843,16.3711,0.750718,1.00862,0.396022,-2.24794,0.0208495,0.47541,-2.00612,0.121118,0.322266,0.165161,-0.100708,0.012085,23.479,23.2946,23.1385,23.252,23.1952,23.2662,23.1243,
154,6.2733,1.37371,3.15344,4.13628,6.27484,1.96171,1.55583,0.000241713,-0.0458906,0.000132593,0.0660209,0.00744643,-0.0867659,0.000235805,0.507834,-16.0674,-0.83032,-6.00389,0.457161,-61.7299,2.20048,0.032877,-20,-0.592241,-0.446419,-0.0428273,-3.28283,0.108547,-0.000370694,0.018869,-0.000280222,0.496988,0.00119065,0.0733561,0.0288754,0.000691319,0.00857292,1.89522,0.000676312,0.005,1.68036,4.77965e-05,-0.003034,-1.09403,51.6742,-0.923103,0.188037,16.3691,0.732921,1.00832,0.398818,-2.23015,0.0357104,0.475342,-1.97394,0.1372,0.257812,0.161133,-0.104736,0.0245033,23.479,23.2946,23.1385,23.252,23.2094,23.2662,23.1101,
155,6.2733,1.37367,3.15344,4.13636,6.27485,1.96162,1.55583,0.000241713,-0.0459166,0.000119965,0.0646467,0.00808022,-0.0907527,0.000235805,0.508884,-16.0796,-0.845979,-6.01633,0.416087,-61.7846,2.2163,0.0331373,-20,-0.593558,-0.447571,-0.0430569,-3.2888,0.110207,-0.000373897,0.0188805,-0.000287383,0.496988,0.00119065,0.0733561,0.0284866,0.000748028,0.00817833,1.8947,0.000658193,0.005,1.67924,-2.98133e-05,-0.00321563,-1.11026,51.7287,-0.960073,0.189844,16.3679,0.676785,0.996268,0.373743,-2.20867,0.03874,0.467285,-1.98193,0.128906,0.233643,0.161183,-0.0926514,0.0216932,23.479,23.2946,23.1385,23.2662,23.2094,23.252,23.1243,
156,6.2733,1.37362,3.15344,4.13642,6.27486,1.96153,1.55583,0.00023667,-0.0456002,0.000119965,0.0626331,0.00861007,-0.0944383,0.000243753,0.509492,-16.0569,-0.860767,-5.99965,0.373618,-61.6978,2.23286,0.0332787,-20,-0.594338,-0.44361,-0.0432883,-3.28022,0.112088,-0.000378136,0.0189098,-0.000294804,0.496988,0.00119065,0.0733561,0.0278402,0.000791454,0.00768425,1.89408,0.000639356,0.005,1.67903,-9.78049e-05,-0.0028605,-1.12878,51.6475,-0.995633,0.23657,16.4283,0.637806,1.01997,0.387486,-2.19882,0.0329099,0.459299,-1.98999,0.129158,0.257812,0.157311,-0.0645789,0.0127387,23.4648,23.3229,23.1527,23.2662,23.1952,23.252,23.1243,
157,6.2733,1.37358,3.15344,4.13649,6.27487,1.96143,1.55583,0.000237046,-0.0451383,0.000117019,0.0615822,0.0091422,-0.0956145,0.000243937,0.509926,-16.0209,-0.875248,-5.97231,0.330659,-61.5582,2.24527,0.0333763,-20,-0.594919,-0.437838,-0.0435168,-3.26625,0.113602,-0.000381789,0.018928,-0.000303073,0.496988,0.00119065,0.0733561,0.02744,0.000839372,0.00738724,1.8935,0.000618851,0.005,1.6791,-0.000155342,-0.00241583,-1.1437,51.5161,-1.03057,0.252971,16.5179,0.578197,0.980985,0.362216,-2.18116,0.0422284,0.459229,-2.01418,0.137907,0.298205,0.149102,-0.0293266,0.0166092,23.4506,23.3229,23.1527,23.252,23.1811,23.252,23.1385,
