LWingKi/MAS_RnD/log/us2/contact/42/grasp_log_12_08_2023_13_47_04.csv
Index,joint_angle_0,joint_angle_1,joint_angle_2,joint_angle_3,joint_angle_4,joint_angle_5,joint_angle_6,joint_velocity_0,joint_velocity_1,joint_velocity_2,joint_velocity_3,joint_velocity_4,joint_velocity_5,joint_velocity_6,joint_accel_0,joint_accel_1,joint_accel_2,joint_accel_3,joint_accel_4,joint_accel_5,joint_accel_6,constraint_tau_0,constraint_tau_1,constraint_tau_2,constraint_tau_3,constraint_tau_4,constraint_tau_5,constraint_tau_6,current_pos_x,current_pos_y,current_pos_z,target_pos_x,target_pos_y,target_pos_z,current_vel_x,current_vel_y,current_vel_z,target_vel_x,target_vel_y,target_vel_z,control_signal_linear_x,control_signal_linear_y,control_signal_linear_z,control_signal_angular_x,control_signal_angular_y,control_signal_angular_z,joint_torque_0,joint_torque_1,joint_torque_2,joint_torque_3,joint_torque_4,joint_torque_5,joint_torque_6,actuar_current_0,actuar_current_1,actuar_current_2,actuar_current_3,actuar_current_4,actuar_current_5,actuar_current_6,actuar_voltage_0,actuar_voltage_1,actuar_voltage_2,actuar_voltage_3,actuar_voltage_4,actuar_voltage_5,actuar_voltage_6
0,0.0239546,1.2863,3.1454,4.44154,0.107357,1.55887,1.56845,0,0,5.29098e-06,0,0,0,0,0.663236,0.0253644,-0.893582,0.0254177,0.413899,-0.088928,0.847333,0.0399258,-17.8336,-0.370392,0.0202476,-0.0111309,2.20059,-0.00349162,0,0,-0,0.513573,-0.000866927,0.0886649,-7.69826e-09,-1.7589e-06,-1.17745e-07,0,0,0,0,0,0,0,0,-0,-0.12267,21.3649,1.40191,-2.47836,0.336161,-2.60195,0.032585,-0.0180152,-1.75642,-0.177246,0.507632,0.189374,0.0725098,-0.140991,23.4648,23.2804,23.1669,23.2946,23.3229,23.2804,23.1385,
1,0.0235661,1.3162,3.14587,4.44135,0.107388,1.55873,1.56845,3.31532e-05,0.415273,0.00972351,-0.00137757,0.00020931,-0.0160492,1.0598e-05,0.629574,0.0200826,-0.830234,0.0124212,0.392966,-0.0765439,0.805769,0.0404011,-17.9305,-0.371836,-0.327862,-0.00275672,2.20167,-0.00407288,0,0,-0,0.513573,-0.000866927,0.0886649,-0.0882942,-0.0011536,-0.212719,0,0,0,2.30948e-07,5.2767e-05,3.53235e-06,1.01537e-05,-2.43267e-07,2.97012e-06,0.452966,16.9739,1.41284,-1.29423,0.281937,-2.21681,0.0159566,0.0402832,-1.02323,0.209473,-0.22573,0.282011,-0.0967636,-0.149102,23.5074,23.3513,23.2378,23.3513,23.3939,23.3655,23.2236,
2,0.0235661,1.3162,3.14587,4.44135,0.107388,1.55873,1.56845,3.31532e-05,0.415273,0.00972351,-0.00137757,0.00020931,-0.0160492,1.0598e-05,0.72522,-22.5077,-1.12405,16.9705,0.506476,-35.4936,-2.77405,0.0651539,-33.9432,-0.79372,7.96545,-0.269185,4.93605,0.0432467,-0.000251343,-0.0302375,-0.000293059,0.513573,-0.000866927,0.0886649,-0.0882942,-0.0011536,-0.212719,0.246187,-0.00763568,0.1,10.0344,-0.194462,9.38158,-0.0232912,-3.88925,-0.0246834,0.452966,16.9739,1.41284,-1.29423,0.281937,-2.21681,0.0159566,0.0402832,-1.02323,0.209473,-0.22573,0.282011,-0.0967636,-0.149102,23.5074,23.3513,23.2378,23.3513,23.3939,23.3655,23.2236,
3,0.0235661,1.31661,3.14588,4.44135,0.107388,1.55872,1.56845,3.31532e-05,0.417148,0.0102637,-0.00172216,0.00020931,-0.0164593,1.05979e-05,0.724594,-22.518,-1.12272,16.9509,0.506251,-35.4843,-2.77404,0.0651247,-33.9516,-0.793857,7.95729,-0.269019,4.93691,0.0432318,-0.000251343,-0.0302375,-0.000293059,0.513573,-0.000866927,0.0886649,-0.0888913,-0.00131943,-0.213723,0.246187,-0.00763568,0.1,10.0344,-0.194462,9.38158,-0.0232912,-3.88925,-0.0246834,0.4515,16.9984,1.47175,-1.39594,0.264462,-2.23193,0.0430029,0.0569691,-1.07962,0.233643,-0.241833,0.286011,-0.108839,-0.149048,23.5357,23.3655,23.252,23.3655,23.3939,23.3513,23.2378,
4,0.0235661,1.31703,3.14589,4.44134,0.107389,1.5587,1.56845,3.27071e-05,0.417571,0.0102637,-0.00250012,0.000217094,-0.0168811,1.0606e-05,0.725369,-22.5942,-1.1549,17.2818,0.49945,-35.844,-2.78356,0.0654394,-34.0067,-0.798446,8.05582,-0.270069,4.95249,0.0435552,-0.000250128,-0.0306701,-0.000290386,0.513573,-0.000866927,0.0886649,-0.0893183,-0.00130865,-0.214023,0.249731,-0.00758434,0.1,10.1587,-0.187947,9.41169,-0.0221602,-3.9378,-0.0241486,0.462337,16.8378,1.48722,-1.43943,0.254095,-2.26618,0.0372547,0.0563965,-1.01517,0.217678,-0.241833,0.290039,-0.117099,-0.165161,23.5357,23.3939,23.2378,23.3655,23.3939,23.3513,23.2236,
5,0.0235665,1.31744,3.1459,4.44134,0.107389,1.55868,1.56844,3.63041e-05,0.420542,0.0100307,-0.00431119,0.000217258,-0.0176851,0,0.724555,-22.6196,-1.16693,17.6316,0.496111,-36.1716,-2.80814,0.0653618,-34.0264,-0.800276,8.14975,-0.272168,4.96317,0.0440481,-0.000248882,-0.031105,-0.000288659,0.513573,-0.000866927,0.0886649,-0.0906151,-0.00120302,-0.215752,0.253297,-0.00753746,0.1,10.2784,-0.186864,9.42068,-0.0220224,-3.98452,-0.0239933,0.525022,17.0152,1.53566,-1.47816,0.229473,-2.29458,0.0369779,0.0483398,-1.08765,0.225586,-0.217678,0.282011,-0.116891,-0.16521,23.5357,23.3797,23.2378,23.3655,23.3939,23.3513,23.2378,
6,0.0235665,1.31744,3.1459,4.44134,0.107389,1.55868,1.56844,3.63041e-05,0.420542,0.0100307,-0.00431119,0.000217258,-0.0176851,0,0.724615,-22.7394,-1.17493,18.0184,0.495043,-36.6213,-2.8496,0.0653775,-34.1116,-0.80326,8.27428,-0.275609,4.98394,0.0447477,-0.000247963,-0.0315449,-0.000285365,0.513573,-0.000866927,0.0886649,-0.0906151,-0.00120302,-0.215752,0.256893,-0.00747085,0.1,10.4252,-0.188035,9.47255,-0.0224975,-4.03967,-0.0237639,0.525022,17.0152,1.53566,-1.47816,0.229473,-2.29458,0.0369779,0.0483398,-1.08765,0.225586,-0.217678,0.282011,-0.116891,-0.16521,23.5357,23.3797,23.2378,23.3655,23.3939,23.3513,23.2378,
7,0.0235665,1.31789,3.14591,4.44133,0.10739,1.55866,1.56844,3.58221e-05,0.421291,0.0102637,-0.00582836,0.000227858,-0.019447,0,0.724039,-22.7512,-1.17373,17.9953,0.494942,-36.6099,-2.84923,0.0653588,-34.1212,-0.803426,8.2653,-0.275412,4.98496,0.0447307,-0.000247963,-0.0315449,-0.000285365,0.513573,-0.000866927,0.0886649,-0.0913597,-0.00126273,-0.216433,0.256893,-0.00747085,0.1,10.4252,-0.188035,9.47255,-0.0224975,-4.03967,-0.0237639,0.483334,16.9479,1.55394,-1.48994,0.230417,-2.31956,0.0331273,0.0563965,-1.19263,0.233643,-0.193527,0.298123,-0.108765,-0.161133,23.5357,23.3797,23.252,23.3797,23.3939,23.3513,23.2378,
8,0.0235665,1.3183,3.14592,4.44132,0.10739,1.55864,1.56844,3.58221e-05,0.420542,0.0110628,-0.00715396,0.000227854,-0.0202573,-1.0598e-05,0.72373,-22.8037,-1.19371,18.388,0.489845,-36.9994,-2.8736,0.0654003,-34.1594,-0.806485,8.37681,-0.277597,4.99949,0.0452372,-0.000247416,-0.0320182,-0.000283653,0.513573,-0.000866927,0.0886649,-0.0917167,-0.00152063,-0.216249,0.26078,-0.00743155,0.1,10.5642,-0.185065,9.49298,-0.021809,-4.09505,-0.0234878,0.447882,17.0916,1.56478,-1.48877,0.21237,-2.34518,0.0370352,0.0569691,-1.51518,0.217529,-0.169381,0.298096,-0.0927389,-0.161183,23.5357,23.3797,23.2662,23.3797,23.3797,23.3655,23.2378,
9,0.0235665,1.3183,3.14592,4.44132,0.10739,1.55864,1.56844,3.58221e-05,0.420542,0.0110628,-0.00715396,0.000227854,-0.0202573,-1.0598e-05,0.725002,-22.7822,-1.23637,18.7808,0.480117,-37.3259,-2.87036,0.0657301,-34.1442,-0.810345,8.48022,-0.278007,5.00603,0.0454606,-0.000246314,-0.0324602,-0.000280747,0.513573,-0.000866927,0.0886649,-0.0917167,-0.00152063,-0.216249,0.264397,-0.0073712,0.1,10.6834,-0.175517,9.48748,-0.0200672,-4.14206,-0.0227921,0.447882,17.0916,1.56478,-1.48877,0.21237,-2.34518,0.0370352,0.0569691,-1.51518,0.217529,-0.169381,0.298096,-0.0927389,-0.161183,23.5357,23.3797,23.2662,23.3797,23.3797,23.3655,23.2378,
10,0.023567,1.31871,3.14592,4.44132,0.107391,1.55862,1.56844,4.24239e-05,0.41433,0.0110628,-0.00715204,0.000235802,-0.0183666,-1.0606e-05,0.725168,-22.7926,-1.23657,18.7627,0.480471,-37.3183,-2.86906,0.0658328,-34.151,-0.810548,8.47565,-0.277873,5.00664,0.0454493,-0.000246314,-0.0324602,-0.000280747,0.513573,-0.000866927,0.0886649,-0.0904782,-0.00155126,-0.212862,0.264397,-0.0073712,0.1,10.6834,-0.175517,9.48748,-0.0200672,-4.14206,-0.0227921,0.471617,17.0026,1.56478,-1.47961,0.212178,-2.36462,0.0234462,0.0563965,-1.78857,0.217529,-0.0980133,0.290067,-0.0655763,-0.153129,23.5357,23.3655,23.2662,23.3655,23.408,23.3655,23.2378,
11,0.023567,1.31911,3.14593,4.44131,0.107391,1.55861,1.56844,4.18341e-05,0.405146,0.0108039,-0.00637182,0.000235805,-0.0180553,-1.05979e-05,0.722217,-22.5488,-1.23395,19.1365,0.477654,-37.4203,-2.88237,0.0651014,-33.9766,-0.806262,8.53654,-0.279533,4.9889,0.0459105,-0.000254703,-0.0328942,-0.000281252,0.513573,-0.000866927,0.0886649,-0.0883601,-0.00151467,-0.208057,0.267969,-0.00744973,0.1,10.7534,-0.176954,9.38587,-0.0209242,-4.16927,-0.0228638,0.529658,17.2731,1.56012,-1.51383,0.194256,-2.35134,0.0192152,0.0725098,-2.09487,0.201577,-0.0161133,0.298096,-0.0609595,-0.157156,23.5499,23.3939,23.2662,23.3939,23.4222,23.3797,23.252,
12,0.023567,1.31911,3.14593,4.44131,0.107391,1.55861,1.56844,4.18341e-05,0.405146,0.0108039,-0.00637182,0.000235805,-0.0180553,-1.05979e-05,0.7193,-22.1894,-1.23596,19.5053,0.472723,-37.4081,-2.88025,0.0643453,-33.7211,-0.800447,8.57746,-0.280122,4.95993,0.0461789,-0.000252472,-0.0333184,-0.000278446,0.513573,-0.000866927,0.0886649,-0.0883601,-0.00151467,-0.208057,0.271444,-0.00738957,0.1,10.7941,-0.176247,9.2417,-0.0207806,-4.19113,-0.0227306,0.529658,17.2731,1.56012,-1.51383,0.194256,-2.35134,0.0192152,0.0725098,-2.09487,0.201577,-0.0161133,0.298096,-0.0609595,-0.157156,23.5499,23.3939,23.2662,23.3939,23.4222,23.3797,23.252,
13,0.0235675,1.31949,3.14595,4.44131,0.107391,1.55859,1.56844,4.88551e-05,0.389086,0.0112846,-0.00418651,0.000235805,-0.01538,-1.0598e-05,0.719014,-22.1992,-1.23562,19.4904,0.472928,-37.4029,-2.87971,0.0642642,-33.7254,-0.800523,8.57746,-0.280176,4.96008,0.0461795,-0.000252472,-0.0333184,-0.000278446,0.513573,-0.000866927,0.0886649,-0.0843166,-0.00177174,-0.199398,0.271444,-0.00738957,0.1,10.7941,-0.176247,9.2417,-0.0207806,-4.19113,-0.0227306,0.476126,17.3571,1.57963,-1.52393,0.192046,-2.33552,0.0133174,0.072956,-2.27249,0.209473,0.0649547,0.290039,-0.0402832,-0.161183,23.5499,23.3939,23.2946,23.3655,23.408,23.3797,23.2378,
14,0.0235675,1.31989,3.14596,4.44131,0.107392,1.55858,1.56844,4.82319e-05,0.369633,0.0116142,-0.00108039,0.000246403,-0.0116142,-1.05821e-05,0.715976,-21.5667,-1.26473,19.8342,0.459823,-37.1203,-2.82319,0.0634469,-33.2727,-0.792512,8.57056,-0.277232,4.90142,0.0459051,-0.00024884,-0.0337203,-0.000274855,0.513573,-0.000866927,0.0886649,-0.0792476,-0.00199712,-0.188813,0.274751,-0.00729859,0.1,10.772,-0.165805,8.98193,-0.0190627,-4.18953,-0.0221564,0.416636,17.6505,1.57587,-1.51215,0.193197,-2.31724,0.0120107,0.0889885,-2.27249,0.186002,0.121919,0.294095,-0.0444942,-0.165161,23.5641,23.408,23.2662,23.3939,23.4222,23.3797,23.252,
15,0.0235675,1.31989,3.14596,4.44131,0.107392,1.55858,1.56844,4.82319e-05,0.369633,0.0116142,-0.00108039,0.000246403,-0.0116142,-1.05821e-05,0.711794,-20.7836,-1.28468,20.1921,0.44662,-36.7117,-2.76185,0.0623626,-32.716,-0.781128,8.53926,-0.273887,4.82798,0.0455847,-0.000246149,-0.0341238,-0.000272845,0.513573,-0.000866927,0.0886649,-0.0792476,-0.00199712,-0.188813,0.278095,-0.00722891,0.1,10.7203,-0.156954,8.66439,-0.0177061,-4.17729,-0.0218646,0.416636,17.6505,1.57587,-1.51215,0.193197,-2.31724,0.0120107,0.0889885,-2.27249,0.186002,0.121919,0.294095,-0.0444942,-0.165161,23.5641,23.408,23.2662,23.3939,23.4222,23.3797,23.252,
16,0.0235679,1.32023,3.14597,4.44131,0.107392,1.55857,1.56844,5.51222e-05,0.350316,0.0121421,0.00298939,0.000246403,-0.00864312,-1.059e-05,0.711568,-20.7921,-1.2845,20.1804,0.446816,-36.7085,-2.76139,0.062271,-32.719,-0.781173,8.54097,-0.273986,4.82794,0.0455888,-0.000246149,-0.0341238,-0.000272845,0.513573,-0.000866927,0.0886649,-0.0738877,-0.00230053,-0.178299,0.278095,-0.00722891,0.1,10.7203,-0.156954,8.66439,-0.0177061,-4.17729,-0.0218646,0.502152,17.7387,1.61064,-1.56282,0.167079,-2.29788,0.00469917,0.0889885,-2.15209,0.177429,0.169381,0.298123,-0.0569691,-0.161183,23.5357,23.3939,23.2804,23.3939,23.408,23.3797,23.2378,
17,0.0235679,1.32023,3.14597,4.44131,0.107392,1.55857,1.56844,5.51222e-05,0.350316,0.0121421,0.00298939,0.000246403,-0.00864312,-1.059e-05,0.708203,-20.0142,-1.3144,20.4631,0.431904,-36.2367,-2.68415,0.0613983,-32.166,-0.770795,8.49027,-0.269428,4.75387,0.0450682,-0.000241948,-0.0344723,-0.000269306,0.513573,-0.000866927,0.0886649,-0.0738877,-0.00230053,-0.178299,0.280974,-0.00712796,0.1,10.6459,-0.144823,8.34898,-0.015642,-4.15948,-0.0212894,0.502152,17.7387,1.61064,-1.56282,0.167079,-2.29788,0.00469917,0.0889885,-2.15209,0.177429,0.169381,0.298123,-0.0569691,-0.161183,23.5357,23.3939,23.2804,23.3939,23.408,23.3797,23.2378,
18,0.0235679,1.32056,3.14598,4.44132,0.107392,1.55856,1.56844,5.43745e-05,0.33249,0.0120482,0.00438742,0.0002464,-0.00594214,-1.0582e-05,0.707927,-20.0221,-1.31435,20.451,0.432208,-36.2325,-2.6834,0.0613008,-32.1695,-0.770861,8.49103,-0.269477,4.75396,0.0450689,-0.000241948,-0.0344723,-0.000269306,0.513573,-0.000866927,0.0886649,-0.0696842,-0.00236647,-0.168823,0.280974,-0.00712796,0.1,10.6459,-0.144823,8.34898,-0.015642,-4.15948,-0.0212894,0.532762,18.3448,1.59025,-1.76493,0.154515,-2.29909,0.0244766,0.0970148,-2.05446,0.177429,0.169189,0.290039,-0.0604248,-0.153288,23.5357,23.3939,23.2662,23.3797,23.4222,23.3655,23.2378,
19,0.0235684,1.32087,3.14599,4.44133,0.107392,1.55856,1.56844,5.77729e-05,0.318175,0.0121421,0.00675662,0.000246403,-0.00250768,-1.0582e-05,0.703299,-19.3288,-1.32231,20.7662,0.42267,-35.8685,-2.6376,0.060097,-31.6749,-0.759824,8.46442,-0.267165,4.68834,0.0448679,-0.000236741,-0.0347989,-0.000266031,0.513573,-0.000866927,0.0886649,-0.065912,-0.00248618,-0.160959,0.283685,-0.0070218,0.1,10.6011,-0.13966,8.0647,-0.0148385,-4.14831,-0.0210402,0.471999,18.7251,1.61249,-1.98242,0.168258,-2.27126,0.0160551,0.088623,-1.95783,0.161334,0.226161,0.286011,-0.0725098,-0.153288,23.5215,23.3797,23.2662,23.3797,23.408,23.3655,23.252,
20,0.0235684,1.32087,3.14599,4.44133,0.107392,1.55856,1.56844,5.77729e-05,0.318175,0.0121421,0.00675662,0.000246403,-0.00250768,-1.0582e-05,0.700248,-18.7471,-1.33822,21.0418,0.412751,-35.5749,-2.59191,0.0593057,-31.2614,-0.751474,8.44379,-0.264688,4.63382,0.0446433,-0.000232202,-0.0351077,-0.000262519,0.513573,-0.000866927,0.0886649,-0.065912,-0.00248618,-0.160959,0.286269,-0.00691402,0.1,10.5654,-0.132835,7.82878,-0.0139775,-4.13899,-0.0206768,0.471999,18.7251,1.61249,-1.98242,0.168258,-2.27126,0.0160551,0.088623,-1.95783,0.161334,0.226161,0.286011,-0.0725098,-0.153288,23.5215,23.3797,23.2662,23.3797,23.408,23.3655,23.252,
21,0.0235684,1.3212,3.14601,4.44134,0.107392,1.55856,1.56844,5.7055e-05,0.303645,0.0124245,0.00864312,0.000246403,-0.00216078,0,0.699896,-18.7551,-1.33777,21.0291,0.412832,-35.5703,-2.59157,0.0592178,-31.2656,-0.751532,8.44301,-0.264711,4.63404,0.0446427,-0.000232202,-0.0351077,-0.000262519,0.513573,-0.000866927,0.0886649,-0.0622551,-0.00266566,-0.153368,0.286269,-0.00691402,0.1,10.5654,-0.132835,7.82878,-0.0139775,-4.13899,-0.0206768,0.346967,19.4018,1.59557,-2.17594,0.199754,-2.26904,0.0341502,0.0966797,-1.96582,0.161133,0.257812,0.290151,-0.0846906,-0.16521,23.5357,23.3797,23.2662,23.3797,23.408,23.3513,23.252,
22,0.0235688,1.32149,3.14602,4.44135,0.107392,1.55856,1.56844,6.37674e-05,0.295757,0.0132348,0.00949271,0.000246403,-0.00108039,0,0.696737,-18.1988,-1.35894,21.2982,0.401593,-35.2886,-2.54301,0.0584412,-30.8696,-0.744137,8.42456,-0.262003,4.5826,0.0443552,-0.00022658,-0.0354233,-0.00025943,0.513573,-0.000866927,0.0886649,-0.0603386,-0.00298299,-0.149178,0.288913,-0.00681347,0.1,10.535,-0.124434,7.60103,-0.0121247,-4.13705,-0.0202556,0.444333,19.6801,1.61644,-2.41604,0.181,-2.3228,0.0205319,0.105046,-1.8531,0.169189,0.290151,0.282241,-0.076644,-0.157104,23.5357,23.3797,23.2378,23.3797,23.3797,23.3513,23.2236,
23,0.0235688,1.32149,3.14602,4.44135,0.107392,1.55856,1.56844,6.37674e-05,0.295757,0.0132348,0.00949271,0.000246403,-0.00108039,0,0.696953,-17.8859,-1.40426,21.5502,0.388545,-35.2239,-2.49509,0.0584975,-30.6472,-0.743192,8.4421,-0.259216,4.55582,0.0440414,-0.000220585,-0.0357059,-0.000255656,0.513573,-0.000866927,0.0886649,-0.0603386,-0.00298299,-0.149178,0.291282,-0.00668655,0.1,10.5486,-0.111107,7.47533,-0.00971866,-4.14572,-0.0194835,0.444333,19.6801,1.61644,-2.41604,0.181,-2.3228,0.0205319,0.105046,-1.8531,0.169189,0.290151,0.282241,-0.076644,-0.157104,23.5357,23.3797,23.2378,23.3797,23.3797,23.3513,23.2236,
24,0.0235693,1.32177,3.14603,4.44136,0.107393,1.55856,1.56844,6.94177e-05,0.288464,0.0132907,0.00890419,0.000254351,-0.00188877,0,0.696382,-17.893,-1.4035,21.5381,0.388502,-35.2189,-2.49505,0.0583888,-30.6521,-0.743255,8.43939,-0.259187,4.55623,0.0440368,-0.000220585,-0.0357059,-0.000255656,0.513573,-0.000866927,0.0886649,-0.0590087,-0.0030355,-0.145615,0.291282,-0.00668655,0.1,10.5486,-0.111107,7.47533,-0.00971866,-4.14572,-0.0194835,0.437942,20.461,1.60084,-2.84956,0.158831,-2.36763,0.0142021,0.0889885,-1.95858,0.129158,0.354584,0.290067,-0.0725098,-0.149102,23.5357,23.3655,23.2378,23.3655,23.3797,23.3513,23.2236,
25,0.0235698,1.32205,3.14605,4.44137,0.107393,1.55856,1.56844,7.18441e-05,0.278741,0.0129647,0.00864312,0.000254351,-0.00129974,0,0.694876,-17.633,-1.42312,21.8005,0.381138,-35.2073,-2.47653,0.0580184,-30.4668,-0.740773,8.46816,-0.258437,4.53511,0.0440278,-0.00021335,-0.0359835,-0.000252549,0.513573,-0.000866927,0.0886649,-0.0570443,-0.00297432,-0.140635,0.293608,-0.00654841,0.1,10.5785,-0.105387,7.36845,-0.00843724,-4.16169,-0.019149,0.431289,20.9875,1.63962,-3.16067,0.189748,-2.38981,-0.0132856,0.11308,-1.97414,0.12085,0.419255,0.290151,-0.0523682,-0.157156,23.5215,23.3655,23.2378,23.3797,23.408,23.3371,23.2236,
26,0.0235698,1.32205,3.14605,4.44137,0.107393,1.55856,1.56844,7.18441e-05,0.278741,0.0129647,0.00864312,0.000254351,-0.00129974,0,0.692315,-17.2632,-1.42709,22.0756,0.375949,-35.1068,-2.46283,0.0573538,-30.2039,-0.734924,8.482,-0.258065,4.50263,0.0440915,-0.000207256,-0.0362511,-0.000248839,0.513573,-0.000866927,0.0886649,-0.0570443,-0.00297432,-0.140635,0.295858,-0.00642218,0.1,10.5871,-0.103436,7.21905,-0.00811016,-4.16834,-0.0189409,0.431289,20.9875,1.63962,-3.16067,0.189748,-2.38981,-0.0132856,0.11308,-1.97414,0.12085,0.419255,0.290151,-0.0523682,-0.157156,23.5215,23.3655,23.2378,23.3797,23.408,23.3371,23.2236,
27,0.0235702,1.32234,3.14606,4.44137,0.107393,1.55855,1.56844,7.7439e-05,0.271833,0.0135049,0.00837302,0.000254351,-0.00143041,0,0.691752,-17.2703,-1.42621,22.0639,0.375802,-35.1022,-2.46297,0.0572565,-30.2088,-0.734986,8.47921,-0.25804,4.50306,0.0440868,-0.000207256,-0.0362511,-0.000248839,0.513573,-0.000866927,0.0886649,-0.0556905,-0.0031888,-0.137176,0.295858,-0.00642218,0.1,10.5871,-0.103436,7.21905,-0.00811016,-4.16834,-0.0189409,0.26595,21.8039,1.60132,-3.52076,0.219801,-2.44823,0.012959,0.104736,-1.9175,0.1372,0.47541,0.290039,-0.0490066,-0.14502,23.5215,23.3797,23.252,23.3655,23.3797,23.3513,23.2094,
28,0.0235702,1.32234,3.14606,4.44137,0.107393,1.55855,1.56844,7.7439e-05,0.271833,0.0135049,0.00837302,0.000254351,-0.00143041,0,0.691707,-17.0111,-1.46275,22.3346,0.365103,-35.102,-2.43024,0.0572448,-30.0246,-0.734133,8.51046,-0.256301,4.48228,0.0439286,-0.000200894,-0.0365339,-0.000244992,0.513573,-0.000866927,0.0886649,-0.0556905,-0.0031888,-0.137176,0.298232,-0.00629177,0.1,10.6177,-0.093089,7.11529,-0.00609175,-4.18364,-0.0182838,0.26595,21.8039,1.60132,-3.52076,0.219801,-2.44823,0.012959,0.104736,-1.9175,0.1372,0.47541,0.290039,-0.0490066,-0.14502,23.5215,23.3797,23.252,23.3655,23.3797,23.3513,23.2094,
29,0.0235707,1.3226,3.14607,4.44138,0.107393,1.55855,1.56844,8.2901e-05,0.267397,0.0140308,0.0087769,0.000254351,-0.0019311,0,0.691083,-17.0178,-1.46178,22.3241,0.364891,-35.098,-2.43057,0.0571371,-30.0293,-0.734183,8.50753,-0.256276,4.4827,0.043924,-0.000200894,-0.0365339,-0.000244992,0.513573,-0.000866927,0.0886649,-0.0546489,-0.00339128,-0.134943,0.298232,-0.00629177,0.1,10.6177,-0.093089,7.11529,-0.00609175,-4.18364,-0.0182838,0.346328,22.1898,1.65946,-3.84901,0.218464,-2.61013,0.0347092,0.121118,-1.94986,0.129909,0.531982,0.290067,-0.0254773,-0.149265,23.5215,23.3797,23.2236,23.3513,23.408,23.3513,23.2236,
30,0.0235711,1.32286,3.14609,4.44139,0.107394,1.55855,1.56844,8.81581e-05,0.261184,0.0137923,0.00783283,0.000264949,-0.00211993,0,0.691145,-16.8552,-1.49875,22.5318,0.355003,-35.1295,-2.4006,0.0571923,-29.9138,-0.735027,8.53682,-0.254581,4.47079,0.0437566,-0.00019333,-0.0367913,-0.000241003,0.513573,-0.000866927,0.0886649,-0.0536497,-0.00333725,-0.131894,0.300378,-0.00614893,0.1,10.6508,-0.0827293,7.04829,-0.00400271,-4.20072,-0.0176243,0.277943,22.9526,1.64424,-4.35401,0.200948,-2.73697,0.0347092,0.129158,-1.95778,0.12085,0.564022,0.282011,-0.00805664,-0.149265,23.5215,23.3655,23.2236,23.3513,23.3797,23.3371,23.2236,
31,0.0235711,1.32286,3.14609,4.44139,0.107394,1.55855,1.56844,8.81581e-05,0.261184,0.0137923,0.00783283,0.000264949,-0.00211993,0,0.689799,-16.6273,-1.50934,22.7911,0.349907,-35.1467,-2.39353,0.0568428,-29.7518,-0.732236,8.56978,-0.25458,4.45277,0.0438515,-0.000184893,-0.0370441,-0.000237746,0.513573,-0.000866927,0.0886649,-0.0536497,-0.00333725,-0.131894,0.302494,-0.00599869,0.1,10.6843,-0.0798432,6.95682,-0.00334304,-4.21584,-0.0174246,0.277943,22.9526,1.64424,-4.35401,0.200948,-2.73697,0.0347092,0.129158,-1.95778,0.12085,0.564022,0.282011,-0.00805664,-0.149265,23.5215,23.3655,23.2236,23.3513,23.3797,23.3371,23.2236,
32,0.0235716,1.32313,3.1461,4.4414,0.107394,1.55854,1.56844,9.02534e-05,0.256044,0.0135049,0.00783283,0.000264749,-0.00282925,0,0.689255,-16.6343,-1.50871,22.7801,0.3499,-35.1426,-2.39345,0.0567476,-29.7567,-0.732313,8.56676,-0.254528,4.45322,0.043845,-0.000184893,-0.0370441,-0.000237746,0.513573,-0.000866927,0.0886649,-0.052583,-0.00326835,-0.129349,0.302494,-0.00599869,0.1,10.6843,-0.0798432,6.95682,-0.00334304,-4.21584,-0.0174246,0.283383,23.5031,1.68758,-4.69597,0.243025,-2.83516,0.0282516,0.11308,-1.9175,0.12085,0.612358,0.286124,-0.00402832,-0.149102,23.5074,23.3513,23.252,23.3655,23.3655,23.3513,23.2236,
33,0.023572,1.32338,3.14611,4.44141,0.107395,1.55854,1.56844,9.53788e-05,0.255782,0.0132348,0.00769778,0.000275547,-0.00342275,0,0.687379,-16.4495,-1.51559,23.0106,0.345799,-35.1706,-2.39082,0.0563249,-29.6258,-0.729943,8.59683,-0.25472,4.43945,0.0439849,-0.000177844,-0.0373147,-0.000233889,0.513573,-0.000866927,0.0886649,-0.052604,-0.00317985,-0.129273,0.304738,-0.00586513,0.1,10.7196,-0.0779033,6.88046,-0.00283424,-4.23401,-0.0171801,0.126924,24.3214,1.67301,-5.02343,0.28621,-2.97479,0.0166538,0.121919,-1.96589,0.129158,0.628418,0.282097,0.0180152,-0.149265,23.5357,23.3655,23.2378,23.3513,23.408,23.3513,23.2236,
34,0.023573,1.32363,3.14613,4.44141,0.107396,1.55853,1.56844,0.000103431,0.256052,0.0124245,0.00676193,0.000283495,-0.00430334,0,0.686728,-16.447,-1.52408,23.2059,0.343432,-35.3373,-2.4013,0.056219,-29.6247,-0.730839,8.64715,-0.25569,4.44378,0.0442252,-0.000170509,-0.0375663,-0.000231045,0.513573,-0.000866927,0.0886649,-0.0529942,-0.00290502,-0.129564,0.306814,-0.00573517,0.1,10.7826,-0.0766596,6.8782,-0.00251979,-4.26009,-0.0170429,0.176858,24.7615,1.6902,-5.31478,0.305267,-3.17787,0.00141691,0.112793,-1.98193,0.137907,0.652588,0.290067,0.0245033,-0.153288,23.5357,23.3513,23.2236,23.3797,23.3797,23.3371,23.2236,
35,0.023573,1.32363,3.14613,4.44141,0.107396,1.55853,1.56844,0.000103431,0.256052,0.0124245,0.00676193,0.000283495,-0.00430334,0,0.685627,-16.4655,-1.51423,23.4305,0.345231,-35.5483,-2.43354,0.055933,-29.6377,-0.730314,8.71084,-0.258268,4.45065,0.044719,-0.000163744,-0.0378221,-0.000227947,0.513573,-0.000866927,0.0886649,-0.0529942,-0.00290502,-0.129564,0.308908,-0.00560687,0.1,10.8571,-0.0810556,6.88692,-0.00332698,-4.2898,-0.0171247,0.176858,24.7615,1.6902,-5.31478,0.305267,-3.17787,0.00141691,0.112793,-1.98193,0.137907,0.652588,0.290067,0.0245033,-0.153288,23.5357,23.3513,23.2236,23.3797,23.3797,23.3371,23.2236,
36,0.0235734,1.32389,3.14614,4.44142,0.107397,1.55851,1.56844,0.000108201,0.256593,0.0112846,0.00558887,0.000294096,-0.00533228,0,0.685097,-16.4721,-1.51375,23.4197,0.345328,-35.5441,-2.4333,0.0558567,-29.6431,-0.73042,8.70662,-0.258162,4.45122,0.0447091,-0.000163744,-0.0378221,-0.000227947,0.513573,-0.000866927,0.0886649,-0.0535182,-0.00251562,-0.130022,0.308908,-0.00560687,0.1,10.8571,-0.0810556,6.88692,-0.00332698,-4.2898,-0.0171247,0.0857279,25.4094,1.69366,-5.71682,0.334536,-3.30324,0.038461,0.128906,-2.08669,0.169189,0.692918,0.282011,0.0529843,-0.153129,23.5215,23.3655,23.2378,23.3655,23.3797,23.3513,23.2236,
37,0.0235734,1.32414,3.14615,4.44142,0.107398,1.5585,1.56844,0.000108201,0.256593,0.0116024,0.00445435,0.000302042,-0.00844319,0,0.682706,-16.5101,-1.48972,23.6392,0.349729,-35.7665,-2.47975,0.0553079,-29.6707,-0.728929,8.76959,-0.261633,4.46009,0.0453409,-0.000157042,-0.0380826,-0.000225361,0.513573,-0.000866927,0.0886649,-0.0539251,-0.00261286,-0.130456,0.311026,-0.0054919,0.1,10.9363,-0.0892885,6.90066,-0.00477957,-4.32128,-0.0174274,0.0857279,25.8665,1.74107,-5.91825,0.379515,-3.39349,0.00661092,0.128906,-2.19154,0.193359,0.725098,0.278217,0.0685998,-0.153129,23.5215,23.3655,23.2236,23.3655,23.3797,23.3371,23.2236,
38,0.0235739,1.32414,3.14615,4.44142,0.107398,1.5585,1.56844,0.000112955,0.256593,0.0116024,0.00445435,0.000302042,-0.00844319,0,0.683776,-16.537,-1.51656,23.8631,0.343994,-35.9838,-2.47967,0.0555863,-29.6898,-0.732044,8.83501,-0.261961,4.46857,0.0454605,-0.000150801,-0.0383454,-0.000223367,0.513573,-0.000866927,0.0886649,-0.0539251,-0.00261524,-0.130456,0.313161,-0.00539368,0.1,11.0126,-0.0834247,6.91368,-0.00308045,-4.35603,-0.0170734,0.114224,25.8665,1.74107,-5.91825,0.379515,-3.39349,0.00661092,0.105046,-2.19154,0.193359,0.725098,0.278217,0.0685998,-0.153129,23.5074,23.3655,23.2236,23.3655,23.3797,23.3371,23.2236,
39,0.0235739,1.32441,3.14616,4.44143,0.1074,1.55848,1.56844,0.000111726,0.254781,0.011074,0.00378136,0.000320346,-0.0132496,0,0.683371,-16.5446,-1.51708,23.8502,0.343803,-35.9786,-2.47841,0.0555397,-29.6957,-0.732248,8.8306,-0.261796,4.46919,0.0454473,-0.00015081,-0.0383454,-0.000222908,0.513573,-0.000866927,0.0886649,-0.0538021,-0.00244286,-0.130088,0.313161,-0.00538438,0.1,11.0126,-0.0830742,6.91368,-0.00308157,-4.35603,-0.0170179,0.010191,26.5409,1.73067,-6.12053,0.420601,-3.5038,0.00673547,0.112793,-2.18341,0.185303,0.749311,0.290039,0.100789,-0.149102,23.5215,23.3371,23.252,23.3655,23.408,23.3513,23.2236,
40,0.0235739,1.32466,3.14617,4.44143,0.107401,1.55847,1.56844,0.000111727,0.251206,0.0118843,0.00312089,0.000331186,-0.0171565,0,0.681695,-16.5192,-1.51109,24.0669,0.3436,-36.1325,-2.50203,0.055163,-29.6778,-0.731373,8.88344,-0.263739,4.47261,0.0458338,-0.000145119,-0.0386303,-0.000222005,0.513573,-0.000866927,0.0886649,-0.0532911,-0.00272568,-0.128764,0.315451,-0.0053008,0.1,11.0776,-0.0857379,6.90265,-0.00269056,-4.39181,-0.017208,0.0590372,26.9137,1.74883,-6.31146,0.452199,-3.64128,-0.0190684,0.112793,-2.19194,0.193359,0.78166,0.294178,0.161183,-0.149102,23.5215,23.3513,23.2378,23.3513,23.3797,23.3229,23.1952,
41,0.0235739,1.32466,3.14617,4.44143,0.107401,1.55847,1.56844,0.000111727,0.251206,0.0118843,0.00312089,0.000331186,-0.0171565,0,0.683043,-16.4156,-1.55477,24.2884,0.33301,-36.2258,-2.4736,0.0555133,-29.6041,-0.733851,8.92702,-0.262152,4.46798,0.0456573,-0.000138209,-0.0388929,-0.000219928,0.513573,-0.000866927,0.0886649,-0.0532911,-0.00272568,-0.128764,0.31756,-0.0051983,0.1,11.1255,-0.0741786,6.86292,0.000353686,-4.42007,-0.0166133,0.0590372,26.9137,1.74883,-6.31146,0.452199,-3.64128,-0.0190684,0.112793,-2.19194,0.193359,0.78166,0.294178,0.161183,-0.149102,23.5215,23.3513,23.2378,23.3513,23.3797,23.3229,23.1952,
42,0.0235739,1.32491,3.14619,4.44143,0.107402,1.55845,1.56844,0.000110524,0.24957,0.0120369,0.00260074,0.000349733,-0.0164676,0,0.68245,-16.422,-1.55394,24.2787,0.332887,-36.2225,-2.47392,0.05542,-29.6091,-0.733923,8.92363,-0.262104,4.46849,0.0456521,-0.000138209,-0.0388929,-0.000219928,0.513573,-0.000866927,0.0886649,-0.0531334,-0.00277726,-0.127905,0.31756,-0.0051983,0.1,11.1255,-0.0741786,6.86292,0.000353686,-4.42007,-0.0166133,-0.0535847,27.3904,1.70804,-6.52747,0.478323,-3.72781,0.0205465,0.105046,-2.15924,0.169381,0.797607,0.282011,0.201456,-0.141221,23.4932,23.3513,23.2236,23.3513,23.3939,23.3087,23.1952,
43,0.0235739,1.32515,3.1462,4.44143,0.107404,1.55844,1.56844,0.000116341,0.247949,0.011074,0.00256463,0.000371927,-0.0144502,0,0.682258,-16.362,-1.575,24.4989,0.327309,-36.3616,-2.46997,0.0554182,-29.5666,-0.735021,8.97195,-0.262147,4.46703,0.0457361,-0.000130396,-0.0391517,-0.000218537,0.513573,-0.000866927,0.0886649,-0.0528165,-0.00246396,-0.126842,0.319654,-0.00508537,0.1,11.1836,-0.0692435,6.83716,0.00136887,-4.44235,-0.0164434,-0.0412147,27.7684,1.76571,-6.61655,0.504923,-3.78382,0.000653535,0.112793,-2.11109,0.193359,0.789715,0.286039,0.213539,-0.153129,23.5074,23.3371,23.2236,23.3513,23.3655,23.3513,23.1811,
44,0.0235739,1.32541,3.14621,4.44143,0.107407,1.55843,1.56844,0.000116341,0.244248,0.0116142,0.00216078,0.000427423,-0.0117033,0,0.679508,-16.2892,-1.55359,24.7118,0.329987,-36.4806,-2.50253,0.05476,-29.5149,-0.731864,9.01593,-0.26473,4.46357,0.0462298,-0.000124501,-0.0394071,-0.000217635,0.513573,-0.000866927,0.0886649,-0.0521692,-0.00265142,-0.124719,0.321737,-0.00499699,0.1,11.2366,-0.075991,6.80526,-0.000167524,-4.46065,-0.0168671,-0.0412147,28.3057,1.77056,-6.68812,0.528273,-3.84685,-0.00109575,0.112793,-2.11098,0.201577,0.813761,0.286039,0.201456,-0.141049,23.5074,23.3797,23.2236,23.3513,23.3939,23.3371,23.2094,
45,0.0235739,1.32541,3.14621,4.44143,0.107407,1.55843,1.56844,0.000116341,0.244248,0.0116142,0.00216078,0.000427423,-0.0117033,0,0.679797,-16.1303,-1.58518,24.9687,0.320997,-36.5665,-2.48307,0.0548349,-29.402,-0.732254,9.05986,-0.263848,4.45211,0.0461745,-0.000118697,-0.0396753,-0.000217567,0.513573,-0.000866927,0.0886649,-0.0521692,-0.00265142,-0.124719,0.323959,-0.00490888,0.1,11.2838,-0.067724,6.74156,0.00115979,-4.47543,-0.0167205,-0.0412147,28.3057,1.77056,-6.68812,0.528273,-3.84685,-0.00109575,0.112793,-2.11098,0.201577,0.813761,0.286039,0.201456,-0.141049,23.5074,23.3797,23.2236,23.3513,23.3939,23.3371,23.2094,
46,0.0235739,1.32565,3.14622,4.44144,0.107409,1.55842,1.56844,0.000115102,0.243088,0.0116142,0.00208059,0.000513177,-0.00936268,0,0.679282,-16.1365,-1.58452,24.96,0.320911,-36.564,-2.4833,0.0547574,-29.4068,-0.732336,9.05675,-0.263797,4.45259,0.0461692,-0.000118697,-0.0396753,-0.000217567,0.513573,-0.000866927,0.0886649,-0.0519651,-0.00264518,-0.12388,0.323959,-0.00490888,0.1,11.2838,-0.067724,6.74156,0.00115979,-4.47543,-0.0167205,-0.149675,28.6322,1.77367,-6.7454,0.5408,-3.91703,-0.0185911,0.11308,-2.07861,0.201577,0.805664,0.290151,0.185347,-0.145075,23.5215,23.3371,23.2378,23.3513,23.3797,23.3371,23.2094,
47,0.0235734,1.32589,3.14623,4.44144,0.107411,1.55841,1.56844,0.000109256,0.241737,0.011274,0.00181963,0.0006124,-0.00810292,0,0.678602,-16.0794,-1.5972,25.1692,0.316763,-36.6987,-2.48617,0.0546321,-29.3664,-0.732684,9.10239,-0.2643,4.45072,0.0463232,-0.000112572,-0.0399213,-0.000216554,0.513573,-0.000866927,0.0886649,-0.0517808,-0.00252228,-0.123069,0.326004,-0.00481266,0.1,11.3391,-0.0650245,6.71639,0.00143311,-4.49321,-0.0168061,-0.159432,28.948,1.75781,-6.78568,0.563913,-3.95699,0.0126167,0.0966797,-2.0464,0.201416,0.813721,0.298205,0.169237,-0.14502,23.5074,23.3655,23.2236,23.3513,23.3797,23.3513,23.1952,
48,0.0235734,1.32589,3.14623,4.44144,0.107411,1.55841,1.56844,0.000109256,0.241737,0.011274,0.00181963,0.0006124,-0.00810292,0,0.677711,-16.0179,-1.59789,25.3884,0.3152,-36.8359,-2.50073,0.0544004,-29.3227,-0.731787,9.15166,-0.265672,4.44875,0.0466007,-0.000105995,-0.0401661,-0.000215862,0.513573,-0.000866927,0.0886649,-0.0517808,-0.00252228,-0.123069,0.328052,-0.00471874,0.1,11.395,-0.0658937,6.69208,0.00126963,-4.51298,-0.0171195,-0.159432,28.948,1.75781,-6.78568,0.563913,-3.95699,0.0126167,0.0966797,-2.0464,0.201416,0.813721,0.298205,0.169237,-0.14502,23.5074,23.3655,23.2236,23.3513,23.3797,23.3513,23.1952,
49,0.0235734,1.32615,3.14624,4.44144,0.107413,1.5584,1.56844,0.000109257,0.246505,0.0113441,0.00162058,0.000710644,-0.00884253,0,0.677116,-16.0252,-1.59691,25.3775,0.315002,-36.8322,-2.50116,0.0543342,-29.3288,-0.731882,9.14652,-0.265576,4.44943,0.0465922,-0.000105995,-0.0401661,-0.000215862,0.513573,-0.000866927,0.0886649,-0.0529129,-0.00250903,-0.125564,0.328052,-0.00471874,0.1,11.395,-0.0658937,6.69208,0.00126963,-4.51298,-0.0171195,-0.289498,29.2651,1.80826,-6.72142,0.547215,-4.00049,-0.00733415,0.0889885,-2.04639,0.217678,0.805704,0.294095,0.169189,-0.153076,23.5215,23.3513,23.2236,23.3513,23.3655,23.3371,23.2094,
50,0.0235734,1.32639,3.14625,4.44144,0.107414,1.55839,1.56844,0.000108105,0.249317,0.0105338,0.00202573,0.00075304,-0.00877483,0,0.678045,-16.2127,-1.6138,25.5675,0.312627,-37.1709,-2.52236,0.054644,-29.4627,-0.736834,9.22619,-0.267193,4.47333,0.0469117,-0.000100499,-0.0404367,-0.000214917,0.513573,-0.000866927,0.0886649,-0.0534223,-0.00222244,-0.126907,0.330297,-0.00463071,0.1,11.4963,-0.0636505,6.76692,0.00183881,-4.55145,-0.0171893,-0.307865,29.5214,1.82853,-6.66772,0.529884,-4.06478,-0.011025,0.088623,-2.20758,0.217529,0.805825,0.298123,0.177429,-0.141049,23.5215,23.3513,23.2378,23.3513,23.3797,23.3371,23.1952,
51,0.0235734,1.32639,3.14625,4.44144,0.107414,1.55839,1.56844,0.000108105,0.249317,0.0105338,0.00202573,0.00075304,-0.00877483,0,0.677196,-16.3099,-1.59915,25.7514,0.316169,-37.4191,-2.56278,0.0544231,-29.5317,-0.737185,9.29174,-0.27025,4.48741,0.0474649,-9.55529e-05,-0.0406893,-0.000213235,0.513573,-0.000866927,0.0886649,-0.0534223,-0.00222244,-0.126907,0.332404,-0.00454608,0.1,11.5748,-0.0697092,6.80721,0.000636417,-4.58135,-0.01751,-0.307865,29.5214,1.82853,-6.66772,0.529884,-4.06478,-0.011025,0.088623,-2.20758,0.217529,0.805825,0.298123,0.177429,-0.141049,23.5215,23.3513,23.2378,23.3513,23.3797,23.3371,23.1952,
52,0.023573,1.32664,3.14626,4.44144,0.107416,1.55838,1.56845,0.000102415,0.251191,0.0108039,0.00210596,0.000801271,-0.00974006,1.05741e-05,0.676652,-16.3169,-1.5982,25.7409,0.315985,-37.4157,-2.56321,0.0543563,-29.5373,-0.737264,9.28742,-0.270181,4.48801,0.0474588,-9.55529e-05,-0.0406893,-0.000213235,0.513573,-0.000866927,0.0886649,-0.0538395,-0.00229509,-0.127941,0.332404,-0.00454608,0.1,11.5748,-0.0697092,6.80721,0.000636417,-4.58135,-0.01751,-0.406493,29.7175,1.84887,-6.6351,0.531451,-4.11014,-0.00614391,0.0889885,-2.23976,0.226161,0.805664,0.298096,0.185347,-0.14502,23.5215,23.3513,23.2236,23.3513,23.3797,23.3371,23.2094,
53,0.0235725,1.32689,3.14628,4.44145,0.107417,1.55837,1.56845,9.68049e-05,0.251731,0.010783,0.00225186,0.000814404,-0.00990023,1.05821e-05,0.67724,-16.3967,-1.6196,25.923,0.311422,-37.6471,-2.56917,0.054577,-29.5945,-0.740795,9.34779,-0.270774,4.50071,0.0476015,-8.92809e-05,-0.040945,-0.000212915,0.513573,-0.000866927,0.0886649,-0.053943,-0.00228162,-0.128203,0.334522,-0.00447141,0.1,11.6509,-0.0652896,6.83822,0.00188232,-4.61245,-0.017459,-0.500339,29.7264,1.80004,-6.51629,0.52241,-4.11982,-0.0140247,0.0725098,-2.28004,0.241833,0.821817,0.294178,0.205484,-0.145075,23.5215,23.3513,23.2378,23.3655,23.3797,23.3229,23.2094,
54,0.0235725,1.32689,3.14628,4.44145,0.107417,1.55837,1.56845,9.68049e-05,0.251731,0.010783,0.00225186,0.000814404,-0.00990023,1.05821e-05,0.677541,-16.4132,-1.6329,26.1239,0.308357,-37.8379,-2.57808,0.0546552,-29.6062,-0.742431,9.40507,-0.271699,4.50698,0.047814,-8.31834e-05,-0.0412013,-0.000211417,0.513573,-0.000866927,0.0886649,-0.053943,-0.00228162,-0.128203,0.336645,-0.00438223,0.1,11.7176,-0.0630181,6.84608,0.00246023,-4.63918,-0.0173631,-0.500339,29.7264,1.80004,-6.51629,0.52241,-4.11982,-0.0140247,0.0725098,-2.28004,0.241833,0.821817,0.294178,0.205484,-0.145075,23.5215,23.3513,23.2378,23.3655,23.3797,23.3229,23.2094,
55,0.0235725,1.32716,3.14629,4.44145,0.107418,1.55836,1.56845,9.67264e-05,0.249515,0.0102533,0.00244668,0.00081597,-0.0107088,1.0582e-05,0.677117,-16.4207,-1.63241,26.1128,0.308404,-37.8344,-2.57796,0.0545996,-29.6117,-0.742538,9.40145,-0.27162,4.50754,0.0478063,-8.31834e-05,-0.0412013,-0.000211417,0.513573,-0.000866927,0.0886649,-0.0534366,-0.00211772,-0.127125,0.336645,-0.00438223,0.1,11.7176,-0.0630181,6.84608,0.00246023,-4.63918,-0.0173631,-0.652586,29.7885,1.83238,-6.39016,0.491958,-4.14165,-0.015868,0.076432,-2.29614,0.233781,0.821817,0.294095,0.209473,-0.136963,23.5074,23.3655,23.2236,23.3513,23.3939,23.3371,23.2094,
56,0.023572,1.3274,3.1463,4.44146,0.107419,1.55835,1.56845,9.38815e-05,0.245789,0.011074,0.00284402,0.0008145,-0.0103577,1.05821e-05,0.675199,-16.3452,-1.62551,26.3262,0.308057,-37.9468,-2.59709,0.0541561,-29.558,-0.740713,9.44549,-0.273281,4.50463,0.0481607,-7.86727e-05,-0.0414746,-0.000209825,0.513573,-0.000866927,0.0886649,-0.0525326,-0.00241048,-0.125173,0.338907,-0.00430476,0.1,11.7703,-0.0656111,6.81374,0.00213189,-4.66328,-0.0174679,-0.652874,29.814,1.85865,-6.24182,0.454395,-4.14704,-0.00889523,0.0725098,-2.20753,0.249756,0.813761,0.294178,0.217567,-0.137022,23.5215,23.3797,23.2378,23.3655,23.3797,23.3371,23.2094,
57,0.023572,1.3274,3.1463,4.44146,0.107419,1.55835,1.56845,9.38815e-05,0.245789,0.011074,0.00284402,0.0008145,-0.0103577,1.05821e-05,0.676249,-16.1978,-1.66689,26.5345,0.297483,-37.9956,-2.56509,0.0544293,-29.4533,-0.742216,9.47826,-0.27145,4.49416,0.0479495,-7.29622e-05,-0.0417221,-0.000208481,0.513573,-0.000866927,0.0886649,-0.0525326,-0.00241048,-0.125173,0.340954,-0.0042209,0.1,11.8046,-0.0543126,6.7552,0.00443389,-4.67912,-0.0169505,-0.652874,29.814,1.85865,-6.24182,0.454395,-4.14704,-0.00889523,0.0725098,-2.20753,0.249756,0.813761,0.294178,0.217567,-0.137022,23.5215,23.3797,23.2378,23.3655,23.3797,23.3371,23.2094,
58,0.0235716,1.32764,3.14631,4.44146,0.107419,1.55834,1.56845,8.81907e-05,0.245789,0.0126946,0.00346663,0.000789244,-0.00947682,1.0574e-05,0.675576,-16.2046,-1.66554,26.5252,0.297038,-37.9929,-2.56604,0.0543347,-29.4584,-0.742261,9.47478,-0.271433,4.49468,0.0479458,-7.29622e-05,-0.0417221,-0.000208481,0.513573,-0.000866927,0.0886649,-0.0523646,-0.00295258,-0.125044,0.340954,-0.0042209,0.1,11.8046,-0.0543126,6.7552,0.00443389,-4.67912,-0.0169505,-0.683343,29.9032,1.81627,-6.0969,0.444195,-4.11574,0.0021124,0.0569691,-2.15112,0.233781,0.821817,0.302231,0.225586,-0.141049,23.5357,23.3513,23.2378,23.3513,23.3797,23.3371,23.2094,
59,0.0235716,1.32764,3.14631,4.44146,0.107419,1.55834,1.56845,8.81907e-05,0.245789,0.0126946,0.00346663,0.000789244,-0.00947682,1.0574e-05,0.679268,-16.1911,-1.73907,26.7113,0.28146,-38.1504,-2.51594,0.0552958,-29.4489,-0.749112,9.524,-0.268263,4.49761,0.0475116,-6.58405e-05,-0.0419665,-0.000205782,0.513573,-0.000866927,0.0886649,-0.0523646,-0.00295258,-0.125044,0.342988,-0.00411149,0.1,11.8606,-0.0347673,6.75131,0.00817876,-4.70063,-0.0158751,-0.683343,29.9032,1.81627,-6.0969,0.444195,-4.11574,0.0021124,0.0569691,-2.15112,0.233781,0.821817,0.302231,0.225586,-0.141049,23.5357,23.3513,23.2378,23.3513,23.3797,23.3371,23.2094,
60,0.0235711,1.32788,3.14632,4.44147,0.107419,1.55834,1.56845,8.2568e-05,0.24554,0.0125384,0.00484114,0.000789244,-0.00810019,1.0582e-05,0.678657,-16.1978,-1.73831,26.7024,0.28133,-38.1482,-2.51624,0.0551973,-29.4538,-0.749191,9.52078,-0.26821,4.4981,0.0475053,-6.58405e-05,-0.0419665,-0.000205782,0.513573,-0.000866927,0.0886649,-0.0518969,-0.00290792,-0.124624,0.342988,-0.00411149,0.1,11.8606,-0.0347673,6.75131,0.00817876,-4.70063,-0.0158751,-0.750161,29.8023,1.76544,-5.82223,0.455275,-4.08808,-0.0169201,0.0563965,-2.19141,0.209473,0.821777,0.290067,0.217678,-0.141221,23.5074,23.3513,23.2378,23.3371,23.3797,23.3371,23.2094,
61,0.0235711,1.32788,3.14632,4.44147,0.107419,1.55834,1.56845,8.2568e-05,0.24554,0.0125384,0.00484114,0.000789244,-0.00810019,1.0582e-05,0.67867,-16.1649,-1.74958,26.8717,0.278328,-38.2668,-2.51893,0.0552008,-29.4305,-0.749773,9.56136,-0.268681,4.49838,0.0476523,-5.7974e-05,-0.042208,-0.000202891,0.513573,-0.000866927,0.0886649,-0.0518969,-0.00290792,-0.124624,0.344998,-0.00399096,0.1,11.9068,-0.0324915,6.73873,0.00851593,-4.71878,-0.0156955,-0.750161,29.8023,1.76544,-5.82223,0.455275,-4.08808,-0.0169201,0.0563965,-2.19141,0.209473,0.821777,0.290067,0.217678,-0.141221,23.5074,23.3513,23.2378,23.3371,23.3797,23.3371,23.2094,
62,0.0235707,1.32813,3.14634,4.44148,0.10742,1.55833,1.56845,7.96561e-05,0.245789,0.0135049,0.00737329,0.000795894,-0.00675015,1.0582e-05,0.678001,-16.1717,-1.74843,26.8631,0.277964,-38.2649,-2.51976,0.0550982,-29.4353,-0.749824,9.55816,-0.268662,4.49885,0.0476488,-5.7974e-05,-0.042208,-0.000202891,0.513573,-0.000866927,0.0886649,-0.0511715,-0.00324322,-0.124373,0.344998,-0.00399096,0.1,11.9068,-0.0324915,6.73873,0.00851593,-4.71878,-0.0156955,-0.880786,29.8425,1.76348,-5.5363,0.371777,-4.09213,-0.00713174,0.0490066,-2.14307,0.209628,0.805664,0.298096,0.209473,-0.145522,23.5215,23.3655,23.2378,23.3513,23.3655,23.3371,23.2094,
63,0.0235707,1.32813,3.14634,4.44148,0.10742,1.55833,1.56845,7.96561e-05,0.245789,0.0135049,0.00737329,0.000795894,-0.00675015,1.0582e-05,0.680468,-16.1499,-1.79934,26.9987,0.266877,-38.3663,-2.48428,0.0557405,-29.4199,-0.754357,9.59201,-0.266446,4.49998,0.0473684,-5.01668e-05,-0.0424476,-0.000200959,0.513573,-0.000866927,0.0886649,-0.0511715,-0.00324322,-0.124373,0.346997,-0.0038742,0.1,11.9451,-0.0189293,6.73118,0.0110637,-4.73554,-0.0150907,-0.880786,29.8425,1.76348,-5.5363,0.371777,-4.09213,-0.00713174,0.0490066,-2.14307,0.209628,0.805664,0.298096,0.209473,-0.145522,23.5215,23.3655,23.2378,23.3513,23.3655,23.3371,23.2094,
64,0.0235707,1.32813,3.14634,4.44148,0.10742,1.55833,1.56845,7.96561e-05,0.245789,0.0135049,0.00737329,0.000795894,-0.00675015,1.0582e-05,0.680468,-16.1499,-1.79934,26.9987,0.266877,-38.3663,-2.48428,0.0557405,-29.4199,-0.754357,9.59201,-0.266446,4.49998,0.0473684,-5.01668e-05,-0.0424476,-0.000200959,0.513573,-0.000866927,0.0886649,-0.0511715,-0.00324322,-0.124373,0.346997,-0.0038742,0.1,11.9451,-0.0189293,6.73118,0.0110637,-4.73554,-0.0150907,-0.880786,29.8425,1.76348,-5.5363,0.371777,-4.09213,-0.00713174,0.0490066,-2.14307,0.209628,0.805664,0.298096,0.209473,-0.145522,23.5215,23.3655,23.2378,23.3513,23.3655,23.3371,23.2094,
65,0.0235702,1.32839,3.14635,4.44149,0.10742,1.55832,1.56845,7.39672e-05,0.247759,0.0143152,0.00998854,0.000772576,-0.00561774,1.05821e-05,0.67974,-16.1572,-1.79812,26.9892,0.26649,-38.3642,-2.4851,0.055635,-29.4254,-0.754422,9.58815,-0.266406,4.50052,0.0473629,-5.01668e-05,-0.0424476,-0.000200959,0.513573,-0.000866927,0.0886649,-0.0507968,-0.0035202,-0.125001,0.346997,-0.0038742,0.1,11.9451,-0.0189293,6.73118,0.0110637,-4.73554,-0.0150907,-0.896919,29.7555,1.80027,-5.26892,0.344532,-4.10796,-0.00923305,0.041081,-2.19142,0.185303,0.773479,0.298123,0.209473,-0.136963,23.5074,23.3513,23.2378,23.3655,23.3655,23.3229,23.2236,
66,0.0235702,1.32839,3.14635,4.44149,0.10742,1.55832,1.56845,7.39672e-05,0.247759,0.0143152,0.00998854,0.000772576,-0.00561774,1.05821e-05,0.682339,-16.2003,-1.84567,27.1289,0.256913,-38.5285,-2.45938,0.0563119,-29.4561,-0.75975,9.6337,-0.264847,4.5085,0.0471919,-4.21041e-05,-0.0427047,-0.000197894,0.513573,-0.000866927,0.0886649,-0.0507968,-0.0035202,-0.125001,0.34915,-0.00374642,0.1,11.9984,-0.00678648,6.75003,0.0132949,-4.75774,-0.0143948,-0.896919,29.7555,1.80027,-5.26892,0.344532,-4.10796,-0.00923305,0.041081,-2.19142,0.185303,0.773479,0.298123,0.209473,-0.136963,23.5074,23.3513,23.2378,23.3655,23.3655,23.3229,23.2236,
67,0.0235698,1.32863,3.14637,4.4415,0.10742,1.55832,1.56845,6.82767e-05,0.24903,0.0164759,0.0125384,0.000771233,-0.00473997,1.0574e-05,0.681458,-16.2071,-1.8439,27.1201,0.256216,-38.5263,-2.46087,0.0561715,-29.4612,-0.759763,9.63024,-0.264862,4.50898,0.0471905,-4.21041e-05,-0.0427047,-0.000197894,0.513573,-0.000866927,0.0886649,-0.0502932,-0.00424717,-0.125341,0.34915,-0.00374642,0.1,11.9984,-0.00678648,6.75003,0.0132949,-4.75774,-0.0143948,-0.903666,29.7835,1.72036,-5.06544,0.337907,-4.07292,0.00836635,0.0254773,-2.28009,0.169381,0.757324,0.302231,0.205444,-0.136963,23.5074,23.3513,23.2236,23.3513,23.3797,23.3371,23.2094,
68,0.0235698,1.32863,3.14637,4.4415,0.10742,1.55832,1.56845,6.82767e-05,0.24903,0.0164759,0.0125384,0.000771233,-0.00473997,1.0574e-05,0.686895,-16.2275,-1.94158,27.245,0.236006,-38.6611,-2.38619,0.0575872,-29.4758,-0.769469,9.66877,-0.259895,4.5146,0.0464627,-3.15841e-05,-0.0429412,-0.000195241,0.513573,-0.000866927,0.0886649,-0.0502932,-0.00424717,-0.125341,0.351122,-0.00359013,0.1,12.0424,0.019711,6.76022,0.018464,-4.77718,-0.0131354,-0.903666,29.7835,1.72036,-5.06544,0.337907,-4.07292,0.00836635,0.0254773,-2.28009,0.169381,0.757324,0.302231,0.205444,-0.136963,23.5074,23.3513,23.2236,23.3513,23.3797,23.3371,23.2094,
69,0.0235698,1.32863,3.14637,4.4415,0.10742,1.55832,1.56845,6.82767e-05,0.24903,0.0164759,0.0125384,0.000771233,-0.00473997,1.0574e-05,0.686895,-16.2275,-1.94158,27.245,0.236006,-38.6611,-2.38619,0.0575872,-29.4758,-0.769469,9.66877,-0.259895,4.5146,0.0464627,-3.15841e-05,-0.0429412,-0.000195241,0.513573,-0.000866927,0.0886649,-0.0502932,-0.00424717,-0.125341,0.351122,-0.00359013,0.1,12.0424,0.019711,6.76022,0.018464,-4.77718,-0.0131354,-0.903666,29.7835,1.72036,-5.06544,0.337907,-4.07292,0.00836635,0.0254773,-2.28009,0.169381,0.757324,0.302231,0.205444,-0.136963,23.5074,23.3513,23.2236,23.3513,23.3797,23.3371,23.2094,
70,0.0235693,1.32888,3.14638,4.44151,0.10742,1.55832,1.56845,6.25876e-05,0.24876,0.0162846,0.0126946,0.000746537,-0.00368664,1.0582e-05,0.686092,-16.2342,-1.94059,27.2356,0.235811,-38.6582,-2.38664,0.0574433,-29.4809,-0.769537,9.6654,-0.259849,4.51511,0.0464564,-3.15841e-05,-0.0429412,-0.000195241,0.513573,-0.000866927,0.0886649,-0.0502099,-0.00418459,-0.125062,0.351122,-0.00359013,0.1,12.0424,0.019711,6.76022,0.018464,-4.77718,-0.0131354,-0.936402,29.6319,1.66468,-4.75357,0.359566,-4.02817,0.00329155,0.0113938,-2.29614,0.128906,0.717041,0.306152,0.201456,-0.137022,23.5215,23.3513,23.2236,23.3513,23.3797,23.3087,23.2094,
71,0.0235693,1.32888,3.14638,4.44151,0.10742,1.55832,1.56845,6.25876e-05,0.24876,0.0162846,0.0126946,0.000746537,-0.00368664,1.0582e-05,0.686366,-16.2118,-1.95656,27.4314,0.231993,-38.8117,-2.38885,0.0575145,-29.465,-0.770758,9.71496,-0.260308,4.51689,0.0465905,-2.01261e-05,-0.0431771,-0.000191357,0.513573,-0.000866927,0.0886649,-0.0502099,-0.00418459,-0.125062,0.353101,-0.00341584,0.1,12.0993,0.0230625,6.75186,0.0190882,-4.79781,-0.0128136,-0.936402,29.6319,1.66468,-4.75357,0.359566,-4.02817,0.00329155,0.0113938,-2.29614,0.128906,0.717041,0.306152,0.201456,-0.137022,23.5215,23.3513,23.2236,23.3513,23.3797,23.3087,23.2094,
72,0.0235693,1.32888,3.14638,4.44151,0.10742,1.55832,1.56845,6.25876e-05,0.24876,0.0162846,0.0126946,0.000746537,-0.00368664,1.0582e-05,0.686366,-16.2118,-1.95656,27.4314,0.231993,-38.8117,-2.38885,0.0575145,-29.465,-0.770758,9.71496,-0.260308,4.51689,0.0465905,-2.01261e-05,-0.0431771,-0.000191357,0.513573,-0.000866927,0.0886649,-0.0502099,-0.00418459,-0.125062,0.353101,-0.00341584,0.1,12.0993,0.0230625,6.75186,0.0190882,-4.79781,-0.0128136,-0.936402,29.6319,1.66468,-4.75357,0.359566,-4.02817,0.00329155,0.0113938,-2.29614,0.128906,0.717041,0.306152,0.201456,-0.137022,23.5215,23.3513,23.2236,23.3513,23.3797,23.3087,23.2094,
73,0.0235684,1.32912,3.1464,4.44153,0.10742,1.55832,1.56845,5.40524e-05,0.24822,0.0180965,0.0140451,0.000743934,-0.00315998,1.0582e-05,0.68545,-16.2186,-1.95486,27.4221,0.231378,-38.809,-2.39015,0.0573556,-29.4701,-0.77077,9.71173,-0.260322,4.51738,0.0465887,-2.01261e-05,-0.0431771,-0.000191357,0.513573,-0.000866927,0.0886649,-0.0496944,-0.00479487,-0.124633,0.353101,-0.00341584,0.1,12.0993,0.0230625,6.75186,0.0190882,-4.79781,-0.0128136,-1.01544,29.6172,1.63829,-4.48284,0.315779,-4.04519,0.0128639,0.00805664,-2.28821,0.12085,0.757367,0.302124,0.189374,-0.14502,23.5074,23.3513,23.2378,23.3655,23.3797,23.3371,23.1952,
74,0.0235684,1.32912,3.1464,4.44153,0.10742,1.55832,1.56845,5.40524e-05,0.24822,0.0180965,0.0140451,0.000743934,-0.00315998,1.0582e-05,0.689838,-16.1826,-2.04124,27.5831,0.212911,-38.9232,-2.32385,0.0584986,-29.4446,-0.778449,9.75061,-0.255995,4.51773,0.0459557,-8.08587e-06,-0.0434113,-0.000187801,0.513573,-0.000866927,0.0886649,-0.0496944,-0.00479487,-0.124633,0.35506,-0.00324323,0.1,12.1426,0.0465492,6.73899,0.0238171,-4.81648,-0.011625,-1.01544,29.6172,1.63829,-4.48284,0.315779,-4.04519,0.0128639,0.00805664,-2.28821,0.12085,0.757367,0.302124,0.189374,-0.14502,23.5074,23.3513,23.2378,23.3655,23.3797,23.3371,23.1952,
75,0.0235684,1.32912,3.1464,4.44153,0.10742,1.55832,1.56845,5.40524e-05,0.24822,0.0180965,0.0140451,0.000743934,-0.00315998,1.0582e-05,0.689838,-16.1826,-2.04124,27.5831,0.212911,-38.9232,-2.32385,0.0584986,-29.4446,-0.778449,9.75061,-0.255995,4.51773,0.0459557,-8.08587e-06,-0.0434113,-0.000187801,0.513573,-0.000866927,0.0886649,-0.0496944,-0.00479487,-0.124633,0.35506,-0.00324323,0.1,12.1426,0.0465492,6.73899,0.0238171,-4.81648,-0.011625,-1.01544,29.6172,1.63829,-4.48284,0.315779,-4.04519,0.0128639,0.00805664,-2.28821,0.12085,0.757367,0.302124,0.189374,-0.14502,23.5074,23.3513,23.2378,23.3655,23.3797,23.3371,23.1952,
76,0.0235679,1.32939,3.14642,4.44154,0.10742,1.55831,1.56845,4.83627e-05,0.248278,0.0186367,0.0148554,0.000729311,-0.00280795,1.05821e-05,0.688948,-16.19,-2.0399,27.5728,0.21254,-38.9202,-2.32464,0.0583437,-29.4502,-0.778502,9.7469,-0.255963,4.51828,0.0459503,-8.08587e-06,-0.0434113,-0.000187801,0.513573,-0.000866927,0.0886649,-0.0494813,-0.00497794,-0.124547,0.35506,-0.00324323,0.1,12.1426,0.0465492,6.73899,0.0238171,-4.81648,-0.011625,-1.0134,29.4464,1.63694,-4.22401,0.291994,-4.03491,0.00994756,-0.00805664,-2.31227,0.105046,0.773438,0.302124,0.193359,-0.141049,23.5074,23.3513,23.2094,23.3513,23.3797,23.3229,23.2094,
77,0.0235679,1.32939,3.14642,4.44154,0.10742,1.55831,1.56845,4.83627e-05,0.248278,0.0186367,0.0148554,0.000729311,-0.00280795,1.05821e-05,0.690904,-16.1805,-2.08336,27.7602,0.203193,-39.0784,-2.30236,0.0588534,-29.4436,-0.782559,9.79671,-0.254714,4.52167,0.0458169,4.01528e-06,-0.0436637,-0.000183667,0.513573,-0.000866927,0.0886649,-0.0494813,-0.00497794,-0.124547,0.357178,-0.00305802,0.1,12.1998,0.0575974,6.73642,0.0260583,-4.83954,-0.0109539,-1.0134,29.4464,1.63694,-4.22401,0.291994,-4.03491,0.00994756,-0.00805664,-2.31227,0.105046,0.773438,0.302124,0.193359,-0.141049,23.5074,23.3513,23.2094,23.3513,23.3797,23.3229,23.2094,
78,0.0235679,1.32939,3.14642,4.44154,0.10742,1.55831,1.56845,4.83627e-05,0.248278,0.0186367,0.0148554,0.000729311,-0.00280795,1.05821e-05,0.690904,-16.1805,-2.08336,27.7602,0.203193,-39.0784,-2.30236,0.0588534,-29.4436,-0.782559,9.79671,-0.254714,4.52167,0.0458169,4.01528e-06,-0.0436637,-0.000183667,0.513573,-0.000866927,0.0886649,-0.0494813,-0.00497794,-0.124547,0.357178,-0.00305802,0.1,12.1998,0.0575974,6.73642,0.0260583,-4.83954,-0.0109539,-1.0134,29.4464,1.63694,-4.22401,0.291994,-4.03491,0.00994756,-0.00805664,-2.31227,0.105046,0.773438,0.302124,0.193359,-0.141049,23.5074,23.3513,23.2094,23.3513,23.3797,23.3229,23.2094,
79,0.0235675,1.32963,3.14644,4.44156,0.10742,1.55831,1.56845,4.55183e-05,0.244168,0.0186367,0.016746,0.000725489,-0.00219371,1.05821e-05,0.690113,-16.1871,-2.08242,27.7512,0.202999,-39.076,-2.3028,0.0586921,-29.4481,-0.782605,9.79443,-0.254704,4.52207,0.0458131,4.01528e-06,-0.0436637,-0.000183667,0.513573,-0.000866927,0.0886649,-0.0480091,-0.00501111,-0.122217,0.357178,-0.00305802,0.1,12.1998,0.0575974,6.73642,0.0260583,-4.83954,-0.0109539,-0.974916,29.3948,1.58974,-4.06108,0.290259,-3.9708,0.00614675,-0.0113938,-2.29614,0.0809682,0.781494,0.294178,0.193401,-0.132996,23.5215,23.3513,23.2094,23.3371,23.3655,23.3371,23.2094,
80,0.0235675,1.32963,3.14644,4.44156,0.10742,1.55831,1.56845,4.55183e-05,0.244168,0.0186367,0.016746,0.000725489,-0.00219371,1.05821e-05,0.690114,-16.0126,-2.10559,27.9096,0.19609,-39.0529,-2.27974,0.0586924,-29.3241,-0.781885,9.80897,-0.253426,4.50781,0.045684,1.65618e-05,-0.0438891,-0.00017954,0.513573,-0.000866927,0.0886649,-0.0480091,-0.00501111,-0.122217,0.359069,-0.00286754,0.1,12.2123,0.064307,6.66652,0.027501,-4.84886,-0.010568,-0.974916,29.3948,1.58974,-4.06108,0.290259,-3.9708,0.00614675,-0.0113938,-2.29614,0.0809682,0.781494,0.294178,0.193401,-0.132996,23.5215,23.3513,23.2094,23.3371,23.3655,23.3371,23.2094,
81,0.0235675,1.32963,3.14644,4.44156,0.10742,1.55831,1.56845,4.55183e-05,0.244168,0.0186367,0.016746,0.000725489,-0.00219371,1.05821e-05,0.690114,-16.0126,-2.10559,27.9096,0.19609,-39.0529,-2.27974,0.0586924,-29.3241,-0.781885,9.80897,-0.253426,4.50781,0.045684,1.65618e-05,-0.0438891,-0.00017954,0.513573,-0.000866927,0.0886649,-0.0480091,-0.00501111,-0.122217,0.359069,-0.00286754,0.1,12.2123,0.064307,6.66652,0.027501,-4.84886,-0.010568,-0.974916,29.3948,1.58974,-4.06108,0.290259,-3.9708,0.00614675,-0.0113938,-2.29614,0.0809682,0.781494,0.294178,0.193401,-0.132996,23.5215,23.3513,23.2094,23.3371,23.3655,23.3371,23.2094,
82,0.023567,1.32986,3.14646,4.44158,0.10742,1.55831,1.56845,3.98281e-05,0.237686,0.0188076,0.0180383,0.00070088,-0.00162004,1.0582e-05,0.689276,-16.0189,-2.10461,27.9007,0.195888,-39.0503,-2.28021,0.0585102,-29.3283,-0.781917,9.80722,-0.253435,4.50817,0.0456814,1.65618e-05,-0.0438891,-0.00017954,0.513573,-0.000866927,0.0886649,-0.046208,-0.0051097,-0.118757,0.359069,-0.00286754,0.1,12.2123,0.064307,6.66652,0.027501,-4.84886,-0.010568,-1.04116,29.081,1.55576,-3.81587,0.304029,-3.92515,0.00590356,-0.0180152,-2.23976,0.0809682,0.773479,0.302231,0.189502,-0.145243,23.5074,23.3371,23.2236,23.3371,23.3655,23.3371,23.2094,
83,0.023567,1.32986,3.14646,4.44158,0.10742,1.55831,1.56845,3.98281e-05,0.237686,0.0188076,0.0180383,0.00070088,-0.00162004,1.0582e-05,0.689254,-15.7608,-2.13552,28.0761,0.18652,-38.966,-2.24366,0.0585046,-29.1448,-0.780508,9.81275,-0.251272,4.48557,0.0454111,3.08806e-05,-0.0441056,-0.000175006,0.513573,-0.000866927,0.0886649,-0.046208,-0.0051097,-0.118757,0.360872,-0.00265367,0.1,12.2124,0.0736809,6.5627,0.0295429,-4.85383,-0.0100182,-1.04116,29.081,1.55576,-3.81587,0.304029,-3.92515,0.00590356,-0.0180152,-2.23976,0.0809682,0.773479,0.302231,0.189502,-0.145243,23.5074,23.3371,23.2236,23.3371,23.3655,23.3371,23.2094,
84,0.023567,1.32986,3.14646,4.44158,0.10742,1.55831,1.56845,3.98281e-05,0.237686,0.0188076,0.0180383,0.00070088,-0.00162004,1.0582e-05,0.689254,-15.7608,-2.13552,28.0761,0.18652,-38.966,-2.24366,0.0585046,-29.1448,-0.780508,9.81275,-0.251272,4.48557,0.0454111,3.08806e-05,-0.0441056,-0.000175006,0.513573,-0.000866927,0.0886649,-0.046208,-0.0051097,-0.118757,0.360872,-0.00265367,0.1,12.2124,0.0736809,6.5627,0.0295429,-4.85383,-0.0100182,-1.04116,29.081,1.55576,-3.81587,0.304029,-3.92515,0.00590356,-0.0180152,-2.23976,0.0809682,0.773479,0.302231,0.189502,-0.145243,23.5074,23.3371,23.2236,23.3371,23.3655,23.3371,23.2094,
85,0.0235665,1.33009,3.14648,4.4416,0.107421,1.55831,1.56845,3.41387e-05,0.234715,0.0189068,0.0202573,0.000725489,-0.000702218,1.05821e-05,0.688439,-15.767,-2.13452,28.0679,0.186269,-38.964,-2.24426,0.0583396,-29.1492,-0.780545,9.81049,-0.251268,4.48596,0.0454082,3.08806e-05,-0.0441056,-0.000175006,0.513573,-0.000866927,0.0886649,-0.0448754,-0.0051679,-0.116941,0.360872,-0.00265367,0.1,12.2124,0.0736809,6.5627,0.0295429,-4.85383,-0.0100182,-1.07986,28.8729,1.52155,-3.67166,0.292799,-3.89169,0.00390818,-0.0332184,-2.11891,0.0809682,0.805664,0.306258,0.185478,-0.128969,23.5215,23.3371,23.2094,23.3229,23.3655,23.3229,23.2094,
86,0.0235665,1.33009,3.14648,4.4416,0.107421,1.55831,1.56845,3.41387e-05,0.234715,0.0189068,0.0202573,0.000725489,-0.000702218,1.05821e-05,0.688905,-15.6306,-2.16106,28.202,0.178973,-38.9553,-2.21958,0.0584611,-29.0522,-0.780791,9.82477,-0.24983,4.47513,0.0452417,4.3906e-05,-0.0443174,-0.00017178,0.513573,-0.000866927,0.0886649,-0.0448754,-0.0051679,-0.116941,0.362641,-0.0024608,0.1,12.2255,0.0812129,6.50824,0.0311369,-4.86281,-0.00974163,-1.07986,28.8729,1.52155,-3.67166,0.292799,-3.89169,0.00390818,-0.0332184,-2.11891,0.0809682,0.805664,0.306258,0.185478,-0.128969,23.5215,23.3371,23.2094,23.3229,23.3655,23.3229,23.2094,
87,0.0235656,1.33034,3.14649,4.44162,0.107421,1.55831,1.56845,2.5604e-05,0.232713,0.0186178,0.0232284,0.000708128,-0.000351109,1.0582e-05,0.688102,-15.6374,-2.16011,28.1932,0.178784,-38.9532,-2.22006,0.0583044,-29.057,-0.780843,9.82215,-0.249807,4.47555,0.0452373,4.3906e-05,-0.0443174,-0.00017178,0.513573,-0.000866927,0.0886649,-0.0435173,-0.0051009,-0.115595,0.362641,-0.0024608,0.1,12.2255,0.0812129,6.50824,0.0311369,-4.86281,-0.00974163,-1.068,28.4895,1.52025,-3.54294,0.296274,-3.8533,0.0177265,-0.0433863,-2.03833,0.072956,0.789551,0.298123,0.185347,-0.136963,23.5074,23.3655,23.2236,23.3371,23.3797,23.3371,23.2094,
88,0.0235656,1.33034,3.14649,4.44162,0.107421,1.55831,1.56845,2.5604e-05,0.232713,0.0186178,0.0232284,0.000708128,-0.000351109,1.0582e-05,0.687966,-15.5355,-2.17254,28.3111,0.174895,-38.9586,-2.20989,0.0582687,-28.9845,-0.780331,9.8375,-0.249338,4.46819,0.0452293,5.63979e-05,-0.0445419,-0.000168159,0.513573,-0.000866927,0.0886649,-0.0435173,-0.0051009,-0.115595,0.36451,-0.00227911,0.1,12.2408,0.0846538,6.46784,0.0320116,-4.8746,-0.0095386,-1.068,28.4895,1.52025,-3.54294,0.296274,-3.8533,0.0177265,-0.0433863,-2.03833,0.072956,0.789551,0.298123,0.185347,-0.136963,23.5074,23.3655,23.2236,23.3371,23.3797,23.3371,23.2094,
89,0.0235656,1.33034,3.14649,4.44162,0.107421,1.55831,1.56845,2.5604e-05,0.232713,0.0186178,0.0232284,0.000708128,-0.000351109,1.0582e-05,0.687966,-15.5355,-2.17254,28.3111,0.174895,-38.9586,-2.20989,0.0582687,-28.9845,-0.780331,9.8375,-0.249338,4.46819,0.0452293,5.63979e-05,-0.0445419,-0.000168159,0.513573,-0.000866927,0.0886649,-0.0435173,-0.0051009,-0.115595,0.36451,-0.00227911,0.1,12.2408,0.0846538,6.46784,0.0320116,-4.8746,-0.0095386,-1.068,28.4895,1.52025,-3.54294,0.296274,-3.8533,0.0177265,-0.0433863,-2.03833,0.072956,0.789551,0.298123,0.185347,-0.136963,23.5074,23.3655,23.2236,23.3371,23.3797,23.3371,23.2094,
90,0.0235647,1.33057,3.14651,4.44165,0.107421,1.55831,1.56845,1.42243e-05,0.229583,0.0191964,0.0264696,0.000684124,0.000351109,1.0582e-05,0.687121,-15.5415,-2.17137,28.3034,0.17453,-38.9568,-2.21069,0.0580977,-28.9887,-0.780349,9.8355,-0.249352,4.46853,0.0452276,5.63979e-05,-0.0445419,-0.000168159,0.513573,-0.000866927,0.0886649,-0.0418236,-0.00532932,-0.113636,0.36451,-0.00227911,0.1,12.2408,0.0846538,6.46784,0.0320116,-4.8746,-0.0095386,-1.02526,28.3218,1.49013,-3.44967,0.300431,-3.7802,0.00323625,-0.0586532,-2.03847,0.0742786,0.757324,0.294067,0.181274,-0.1372,23.5074,23.3513,23.2236,23.3371,23.3655,23.3229,23.1952,
91,0.0235647,1.33057,3.14651,4.44165,0.107421,1.55831,1.56845,1.42243e-05,0.229583,0.0191964,0.0264696,0.000684124,0.000351109,1.0582e-05,0.688624,-15.3937,-2.21493,28.3992,0.163813,-38.9035,-2.16568,0.0584895,-28.8837,-0.782006,9.83777,-0.246454,4.45608,0.0448282,6.98852e-05,-0.0447415,-0.000164408,0.513573,-0.000866927,0.0886649,-0.0418236,-0.00532932,-0.113636,0.366158,-0.00208513,0.1,12.2395,0.0973258,6.40909,0.0346795,-4.88045,-0.00890493,-1.02526,28.3218,1.49013,-3.44967,0.300431,-3.7802,0.00323625,-0.0586532,-2.03847,0.0742786,0.757324,0.294067,0.181274,-0.1372,23.5074,23.3513,23.2236,23.3371,23.3655,23.3229,23.1952,
92,0.0235647,1.33057,3.14651,4.44165,0.107421,1.55831,1.56845,1.42243e-05,0.229583,0.0191964,0.0264696,0.000684124,0.000351109,1.0582e-05,0.688624,-15.3937,-2.21493,28.3992,0.163813,-38.9035,-2.16568,0.0584895,-28.8837,-0.782006,9.83777,-0.246454,4.45608,0.0448282,6.98852e-05,-0.0447415,-0.000164408,0.513573,-0.000866927,0.0886649,-0.0418236,-0.00532932,-0.113636,0.366158,-0.00208513,0.1,12.2395,0.0973258,6.40909,0.0346795,-4.88045,-0.00890493,-1.02526,28.3218,1.49013,-3.44967,0.300431,-3.7802,0.00323625,-0.0586532,-2.03847,0.0742786,0.757324,0.294067,0.181274,-0.1372,23.5074,23.3513,23.2236,23.3371,23.3655,23.3229,23.1952,
93,0.0235647,1.33057,3.14651,4.44165,0.107421,1.55831,1.56845,1.42243e-05,0.229583,0.0191964,0.0264696,0.000684124,0.000351109,1.0582e-05,0.688624,-15.3937,-2.21493,28.3992,0.163813,-38.9035,-2.16568,0.0584895,-28.8837,-0.782006,9.83777,-0.246454,4.45608,0.0448282,6.98852e-05,-0.0447415,-0.000164408,0.513573,-0.000866927,0.0886649,-0.0418236,-0.00532932,-0.113636,0.366158,-0.00208513,0.1,12.2395,0.0973258,6.40909,0.0346795,-4.88045,-0.00890493,-1.02526,28.3218,1.49013,-3.44967,0.300431,-3.7802,0.00323625,-0.0586532,-2.03847,0.0742786,0.757324,0.294067,0.181274,-0.1372,23.5074,23.3513,23.2236,23.3371,23.3655,23.3229,23.1952,
94,0.0235642,1.33079,3.14653,4.44168,0.107422,1.55831,1.56845,8.53459e-06,0.228001,0.0180383,0.030343,0.000709327,0.000264991,1.0582e-05,0.687825,-15.3996,-2.21421,28.3916,0.163772,-38.9018,-2.16597,0.0583215,-28.8878,-0.782054,9.83559,-0.246429,4.45642,0.0448239,6.98852e-05,-0.0447415,-0.000164408,0.513573,-0.000866927,0.0886649,-0.040266,-0.00497514,-0.112445,0.366158,-0.00208513,0.1,12.2395,0.0973258,6.40909,0.0346795,-4.88045,-0.00890493,-1.1104,27.9365,1.49519,-3.35628,0.296636,-3.74011,0.00539015,-0.0742786,-2.04653,0.072956,0.741386,0.298123,0.177429,-0.128969,23.5215,23.3513,23.2378,23.3513,23.3655,23.3229,23.1952,
95,0.0235642,1.33079,3.14653,4.44168,0.107422,1.55831,1.56845,8.53459e-06,0.228001,0.0180383,0.030343,0.000709327,0.000264991,1.0582e-05,0.686207,-15.3098,-2.1975,28.4532,0.165962,-38.8635,-2.17786,0.0578996,-28.8239,-0.77895,9.83729,-0.247407,4.44932,0.0450378,8.38848e-05,-0.0449347,-0.000161105,0.513573,-0.000866927,0.0886649,-0.040266,-0.00497514,-0.112445,0.367719,-0.00188028,0.1,12.2395,0.0928459,6.37335,0.0341113,-4.88898,-0.00923312,-1.1104,27.9365,1.49519,-3.35628,0.296636,-3.74011,0.00539015,-0.0742786,-2.04653,0.072956,0.741386,0.298123,0.177429,-0.128969,23.5215,23.3513,23.2378,23.3513,23.3655,23.3229,23.1952,
96,0.0235629,1.33101,3.14655,4.44171,0.107422,1.55831,1.56845,-5.68972e-06,0.224451,0.0172862,0.0334921,0.000693884,0.000270029,1.05821e-05,0.685508,-15.3154,-2.1968,28.4457,0.16594,-38.8616,-2.17809,0.057753,-28.8278,-0.778995,9.83546,-0.247391,4.44964,0.0450345,8.38848e-05,-0.0449347,-0.000161105,0.513573,-0.000866927,0.0886649,-0.0385076,-0.00476071,-0.11033,0.367719,-0.00188028,0.1,12.2395,0.0928459,6.37335,0.0341113,-4.88898,-0.00923312,-1.11742,27.6299,1.44908,-3.33496,0.332276,-3.69819,0.0185487,-0.072956,-2.00612,0.0889885,0.700928,0.298123,0.185347,-0.137022,23.5074,23.3513,23.2378,23.3371,23.3655,23.3513,23.1952,
97,0.0235629,1.33101,3.14655,4.44171,0.107422,1.55831,1.56845,-5.68972e-06,0.224451,0.0172862,0.0334921,0.000693884,0.000270029,1.05821e-05,0.684021,-15.1573,-2.18935,28.5306,0.165546,-38.7825,-2.17726,0.0573654,-28.7153,-0.775609,9.83237,-0.247539,4.43586,0.0451134,9.59651e-05,-0.0451233,-0.000158329,0.513573,-0.000866927,0.0886649,-0.0385076,-0.00476071,-0.11033,0.369237,-0.00171729,0.1,12.2323,0.0913027,6.3099,0.0341841,-4.8944,-0.0093493,-1.11742,27.6299,1.44908,-3.33496,0.332276,-3.69819,0.0185487,-0.072956,-2.00612,0.0889885,0.700928,0.298123,0.185347,-0.137022,23.5074,23.3513,23.2378,23.3371,23.3655,23.3513,23.1952,
98,0.0235629,1.33101,3.14655,4.44171,0.107422,1.55831,1.56845,-5.68972e-06,0.224451,0.0172862,0.0334921,0.000693884,0.000270029,1.05821e-05,0.684021,-15.1573,-2.18935,28.5306,0.165546,-38.7825,-2.17726,0.0573654,-28.7153,-0.775609,9.83237,-0.247539,4.43586,0.0451134,9.59651e-05,-0.0451233,-0.000158329,0.513573,-0.000866927,0.0886649,-0.0385076,-0.00476071,-0.11033,0.369237,-0.00171729,0.1,12.2323,0.0913027,6.3099,0.0341841,-4.8944,-0.0093493,-1.11742,27.6299,1.44908,-3.33496,0.332276,-3.69819,0.0185487,-0.072956,-2.00612,0.0889885,0.700928,0.298123,0.185347,-0.137022,23.5074,23.3513,23.2378,23.3371,23.3655,23.3513,23.1952,
99,0.0235624,1.33125,3.14657,4.44175,0.107423,1.55831,1.56845,-8.44563e-06,0.221679,0.016746,0.0361564,0.000710333,0.000212755,1.0582e-05,0.683327,-15.1632,-2.1886,28.5224,0.165485,-38.7803,-2.17755,0.057229,-28.7197,-0.775663,9.83016,-0.247517,4.43624,0.0451097,9.59651e-05,-0.0451233,-0.000158329,0.513573,-0.000866927,0.0886649,-0.0370759,-0.00461152,-0.108666,0.369237,-0.00171729,0.1,12.2323,0.0913027,6.3099,0.0341841,-4.8944,-0.0093493,-1.08834,27.127,1.42715,-3.37408,0.351089,-3.64196,0.0458333,-0.0742786,-1.982,0.088623,0.66875,0.306179,0.185347,-0.124943,23.5074,23.3513,23.2236,23.3371,23.3655,23.3229,23.2094,
100,0.0235624,1.33125,3.14657,4.44175,0.107423,1.55831,1.56845,-8.44563e-06,0.221679,0.016746,0.0361564,0.000710333,0.000212755,1.0582e-05,0.682474,-15.0381,-2.18993,28.6246,0.163529,-38.7484,-2.1736,0.0570066,-28.6307,-0.773689,9.83731,-0.247471,4.42621,0.0451693,0.000107233,-0.0453235,-0.000155753,0.513573,-0.000866927,0.0886649,-0.0370759,-0.00461152,-0.108666,0.370847,-0.00154904,0.1,12.2377,0.0918742,6.25997,0.0345345,-4.90364,-0.00942085,-1.08834,27.127,1.42715,-3.37408,0.351089,-3.64196,0.0458333,-0.0742786,-1.982,0.088623,0.66875,0.306179,0.185347,-0.124943,23.5074,23.3513,23.2236,23.3371,23.3655,23.3229,23.2094,
101,0.0235624,1.33125,3.14657,4.44175,0.107423,1.55831,1.56845,-8.44563e-06,0.221679,0.016746,0.0361564,0.000710333,0.000212755,1.0582e-05,0.682474,-15.0381,-2.18993,28.6246,0.163529,-38.7484,-2.1736,0.0570066,-28.6307,-0.773689,9.83731,-0.247471,4.42621,0.0451693,0.000107233,-0.0453235,-0.000155753,0.513573,-0.000866927,0.0886649,-0.0370759,-0.00461152,-0.108666,0.370847,-0.00154904,0.1,12.2377,0.0918742,6.25997,0.0345345,-4.90364,-0.00942085,-1.08834,27.127,1.42715,-3.37408,0.351089,-3.64196,0.0458333,-0.0742786,-1.982,0.088623,0.66875,0.306179,0.185347,-0.124943,23.5074,23.3513,23.2236,23.3371,23.3655,23.3229,23.2094,
102,0.0235615,1.33147,3.14658,4.44179,0.107424,1.55831,1.56845,-1.95032e-05,0.219859,0.0153956,0.0391641,0.000718205,0.00042551,1.85186e-05,0.681862,-15.0434,-2.18945,28.6175,0.163639,-38.7466,-2.17365,0.0568839,-28.6346,-0.773752,9.83533,-0.247435,4.42654,0.0451654,0.000107233,-0.0453235,-0.000155753,0.513573,-0.000866927,0.0886649,-0.0357371,-0.00418719,-0.107403,0.370847,-0.00154904,0.1,12.2377,0.0918742,6.25997,0.0345345,-4.90364,-0.00942085,-0.997561,26.9255,1.4228,-3.37023,0.371643,-3.58865,0.0220186,-0.0966797,-1.96663,0.11308,0.676806,0.302231,0.197552,-0.136963,23.5074,23.3371,23.2094,23.3371,23.3655,23.3229,23.1811,
103,0.0235615,1.33147,3.14658,4.44179,0.107424,1.55831,1.56845,-1.95032e-05,0.219859,0.0153956,0.0391641,0.000718205,0.00042551,1.85186e-05,0.679411,-14.9491,-2.15913,28.6889,0.168539,-38.7131,-2.19856,0.0562447,-28.5675,-0.769278,9.83873,-0.24932,4.41889,0.0455075,0.000118595,-0.045501,-0.000154003,0.513573,-0.000866927,0.0886649,-0.0357371,-0.00418719,-0.107403,0.372256,-0.00140308,0.1,12.2398,0.0835233,6.22209,0.0332642,-4.91125,-0.00996252,-0.997561,26.9255,1.4228,-3.37023,0.371643,-3.58865,0.0220186,-0.0966797,-1.96663,0.11308,0.676806,0.302231,0.197552,-0.136963,23.5074,23.3371,23.2094,23.3371,23.3655,23.3229,23.1811,
104,0.0235615,1.33147,3.14658,4.44179,0.107424,1.55831,1.56845,-1.95032e-05,0.219859,0.0153956,0.0391641,0.000718205,0.00042551,1.85186e-05,0.679411,-14.9491,-2.15913,28.6889,0.168539,-38.7131,-2.19856,0.0562447,-28.5675,-0.769278,9.83873,-0.24932,4.41889,0.0455075,0.000118595,-0.045501,-0.000154003,0.513573,-0.000866927,0.0886649,-0.0357371,-0.00418719,-0.107403,0.372256,-0.00140308,0.1,12.2398,0.0835233,6.22209,0.0332642,-4.91125,-0.00996252,-0.997561,26.9255,1.4228,-3.37023,0.371643,-3.58865,0.0220186,-0.0966797,-1.96663,0.11308,0.676806,0.302231,0.197552,-0.136963,23.5074,23.3371,23.2094,23.3371,23.3655,23.3229,23.1811,
105,0.0235615,1.33147,3.14658,4.44179,0.107424,1.55831,1.56845,-1.95032e-05,0.219859,0.0153956,0.0391641,0.000718205,0.00042551,1.85186e-05,0.679411,-14.9491,-2.15913,28.6889,0.168539,-38.7131,-2.19856,0.0562447,-28.5675,-0.769278,9.83873,-0.24932,4.41889,0.0455075,0.000118595,-0.045501,-0.000154003,0.513573,-0.000866927,0.0886649,-0.0357371,-0.00418719,-0.107403,0.372256,-0.00140308,0.1,12.2398,0.0835233,6.22209,0.0332642,-4.91125,-0.00996252,-0.997561,26.9255,1.4228,-3.37023,0.371643,-3.58865,0.0220186,-0.0966797,-1.96663,0.11308,0.676806,0.302231,0.197552,-0.136963,23.5074,23.3371,23.2094,23.3371,23.3655,23.3229,23.1811,
106,0.0235606,1.33168,3.1466,4.44183,0.107425,1.55831,1.56845,-2.75772e-05,0.216618,0.0148554,0.0418783,0.000725749,0.000488816,1.85184e-05,0.678806,-14.9541,-2.15848,28.6818,0.16853,-38.711,-2.19879,0.056124,-28.5711,-0.769323,9.83706,-0.249308,4.41919,0.0455051,0.000118595,-0.045501,-0.000154003,0.513573,-0.000866927,0.0886649,-0.0341821,-0.00403908,-0.105487,0.372256,-0.00140308,0.1,12.2398,0.0835233,6.22209,0.0332642,-4.91125,-0.00996252,-1.05817,26.4368,1.4375,-3.3286,0.401838,-3.57023,0.0406716,-0.0966797,-1.96584,0.1372,0.652787,0.302231,0.197429,-0.128969,23.4932,23.3371,23.2094,23.3371,23.3655,23.3371,23.1952,
107,0.0235606,1.33168,3.1466,4.44183,0.107425,1.55831,1.56845,-2.75772e-05,0.216618,0.0148554,0.0418783,0.000725749,0.000488816,1.85184e-05,0.677716,-14.8106,-2.15595,28.7561,0.167193,-38.6371,-2.19387,0.0558398,-28.4691,-0.766653,9.83356,-0.249157,4.40667,0.0455371,0.000128737,-0.0456694,-0.000152396,0.513573,-0.000866927,0.0886649,-0.0341821,-0.00403908,-0.105487,0.373563,-0.00126177,0.1,12.2324,0.0833192,6.1646,0.0335069,-4.91604,-0.0101229,-1.05817,26.4368,1.4375,-3.3286,0.401838,-3.57023,0.0406716,-0.0966797,-1.96584,0.1372,0.652787,0.302231,0.197429,-0.128969,23.4932,23.3371,23.2094,23.3371,23.3655,23.3371,23.1952,
108,0.0235606,1.33168,3.1466,4.44183,0.107425,1.55831,1.56845,-2.75772e-05,0.216618,0.0148554,0.0418783,0.000725749,0.000488816,1.85184e-05,0.677716,-14.8106,-2.15595,28.7561,0.167193,-38.6371,-2.19387,0.0558398,-28.4691,-0.766653,9.83356,-0.249157,4.40667,0.0455371,0.000128737,-0.0456694,-0.000152396,0.513573,-0.000866927,0.0886649,-0.0341821,-0.00403908,-0.105487,0.373563,-0.00126177,0.1,12.2324,0.0833192,6.1646,0.0335069,-4.91604,-0.0101229,-1.05817,26.4368,1.4375,-3.3286,0.401838,-3.57023,0.0406716,-0.0966797,-1.96584,0.1372,0.652787,0.302231,0.197429,-0.128969,23.4932,23.3371,23.2094,23.3371,23.3655,23.3371,23.1952,
109,0.0235601,1.33189,3.14661,4.44187,0.107427,1.55831,1.56845,-3.27327e-05,0.211756,0.0147814,0.0424053,0.000749519,0.00052848,1.85184e-05,0.677063,-14.8154,-2.15517,28.7486,0.167112,-38.6344,-2.19421,0.0557056,-28.4727,-0.766687,9.83196,-0.249159,4.40699,0.0455357,0.000128737,-0.0456694,-0.000152396,0.513573,-0.000866927,0.0886649,-0.032969,-0.00403793,-0.102975,0.373563,-0.00126177,0.1,12.2324,0.0833192,6.1646,0.0335069,-4.91604,-0.0101229,-1.04222,26.1161,1.36932,-3.3286,0.416534,-3.54858,0.0233489,-0.105969,-1.89333,0.145243,0.636679,0.298096,0.197429,-0.132935,23.5074,23.3513,23.2236,23.3513,23.3797,23.3087,23.1811,
110,0.0235601,1.33189,3.14661,4.44187,0.107427,1.55831,1.56845,-3.27327e-05,0.211756,0.0147814,0.0424053,0.000749519,0.00052848,1.85184e-05,0.676647,-14.6279,-2.17079,28.8848,0.161422,-38.5791,-2.17476,0.0555971,-28.3394,-0.765016,9.83826,-0.248097,4.39089,0.0454182,0.000139933,-0.0458359,-0.000151002,0.513573,-0.000866927,0.0886649,-0.032969,-0.00403793,-0.102975,0.374865,-0.00110095,0.1,12.235,0.0881091,6.08925,0.0347316,-4.92183,-0.0100888,-1.04222,26.1161,1.36932,-3.3286,0.416534,-3.54858,0.0233489,-0.105969,-1.89333,0.145243,0.636679,0.298096,0.197429,-0.132935,23.5074,23.3513,23.2236,23.3513,23.3797,23.3087,23.1811,
111,0.0235601,1.33189,3.14661,4.44187,0.107427,1.55831,1.56845,-3.27327e-05,0.211756,0.0147814,0.0424053,0.000749519,0.00052848,1.85184e-05,0.676647,-14.6279,-2.17079,28.8848,0.161422,-38.5791,-2.17476,0.0555971,-28.3394,-0.765016,9.83826,-0.248097,4.39089,0.0454182,0.000139933,-0.0458359,-0.000151002,0.513573,-0.000866927,0.0886649,-0.032969,-0.00403793,-0.102975,0.374865,-0.00110095,0.1,12.235,0.0881091,6.08925,0.0347316,-4.92183,-0.0100888,-1.04222,26.1161,1.36932,-3.3286,0.416534,-3.54858,0.0233489,-0.105969,-1.89333,0.145243,0.636679,0.298096,0.197429,-0.132935,23.5074,23.3513,23.2236,23.3513,23.3797,23.3087,23.1811,
112,0.0235596,1.33211,3.14663,4.44192,0.107428,1.55832,1.56845,-3.7806e-05,0.207691,0.0148554,0.0429455,0.000780128,0.000596156,1.85184e-05,0.676026,-14.633,-2.17,28.877,0.161322,-38.5764,-2.17508,0.0554781,-28.3434,-0.765058,9.83635,-0.248089,4.39124,0.0454157,0.000139933,-0.0458359,-0.000151002,0.513573,-0.000866927,0.0886649,-0.031927,-0.00408121,-0.100864,0.374865,-0.00110095,0.1,12.235,0.0881091,6.08925,0.0347316,-4.92183,-0.0100888,-1.03547,25.6388,1.35063,-3.32453,0.460262,-3.52535,0.0201292,-0.129158,-1.8611,0.153076,0.676806,0.298096,0.197429,-0.125461,23.5074,23.3371,23.1952,23.3229,23.3655,23.3087,23.1811,
113,0.0235596,1.33211,3.14663,4.44192,0.107428,1.55832,1.56845,-3.7806e-05,0.207691,0.0148554,0.0429455,0.000780128,0.000596156,1.85184e-05,0.675993,-14.475,-2.18987,29.0187,0.155127,-38.5537,-2.15514,0.0554693,-28.2311,-0.764301,9.84904,-0.246992,4.37831,0.045299,0.000149843,-0.0460137,-0.00014894,0.513573,-0.000866927,0.0886649,-0.031927,-0.00408121,-0.100864,0.376264,-0.000952579,0.1,12.2457,0.093859,6.02593,0.036073,-4.93027,-0.0099319,-1.03547,25.6388,1.35063,-3.32453,0.460262,-3.52535,0.0201292,-0.129158,-1.8611,0.153076,0.676806,0.298096,0.197429,-0.125461,23.5074,23.3371,23.1952,23.3229,23.3655,23.3087,23.1811,
114,0.0235596,1.33211,3.14663,4.44192,0.107428,1.55832,1.56845,-3.7806e-05,0.207691,0.0148554,0.0429455,0.000780128,0.000596156,1.85184e-05,0.675993,-14.475,-2.18987,29.0187,0.155127,-38.5537,-2.15514,0.0554693,-28.2311,-0.764301,9.84904,-0.246992,4.37831,0.045299,0.000149843,-0.0460137,-0.00014894,0.513573,-0.000866927,0.0886649,-0.031927,-0.00408121,-0.100864,0.376264,-0.000952579,0.1,12.2457,0.093859,6.02593,0.036073,-4.93027,-0.0099319,-1.03547,25.6388,1.35063,-3.32453,0.460262,-3.52535,0.0201292,-0.129158,-1.8611,0.153076,0.676806,0.298096,0.197429,-0.125461,23.5074,23.3371,23.1952,23.3229,23.3655,23.3087,23.1811,
115,0.0235596,1.33211,3.14663,4.44192,0.107428,1.55832,1.56845,-3.7806e-05,0.207691,0.0148554,0.0429455,0.000780128,0.000596156,1.85184e-05,0.675993,-14.475,-2.18987,29.0187,0.155127,-38.5537,-2.15514,0.0554693,-28.2311,-0.764301,9.84904,-0.246992,4.37831,0.045299,0.000149843,-0.0460137,-0.00014894,0.513573,-0.000866927,0.0886649,-0.031927,-0.00408121,-0.100864,0.376264,-0.000952579,0.1,12.2457,0.093859,6.02593,0.036073,-4.93027,-0.0099319,-1.03547,25.6388,1.35063,-3.32453,0.460262,-3.52535,0.0201292,-0.129158,-1.8611,0.153076,0.676806,0.298096,0.197429,-0.125461,23.5074,23.3371,23.1952,23.3229,23.3655,23.3087,23.1811,
116,0.0235592,1.33231,3.14664,4.44196,0.10743,1.55832,1.56845,-4.27791e-05,0.204194,0.0145853,0.0424053,0.000858136,0.000648976,1.85186e-05,0.675392,-14.4795,-2.18917,29.0114,0.155101,-38.5509,-2.15539,0.0553509,-28.2347,-0.764343,9.84721,-0.246981,4.37865,0.0452969,0.000149843,-0.0460137,-0.00014894,0.513573,-0.000866927,0.0886649,-0.0313508,-0.00399427,-0.0991369,0.376264,-0.000952579,0.1,12.2457,0.093859,6.02593,0.036073,-4.93027,-0.0099319,-0.923722,25.4837,1.32322,-3.26609,0.508142,-3.51425,-0.0198558,-0.12085,-1.83698,0.161334,0.717222,0.306152,0.205444,-0.132996,23.5074,23.3371,23.2236,23.3371,23.3655,23.3087,23.1952,
117,0.0235592,1.33231,3.14664,4.44196,0.10743,1.55832,1.56845,-4.27791e-05,0.204194,0.0145853,0.0424053,0.000858136,0.000648976,1.85186e-05,0.674714,-14.3506,-2.19579,29.1623,0.151765,-38.5634,-2.15139,0.055174,-28.1431,-0.762825,9.86696,-0.246983,4.36865,0.045336,0.000159937,-0.0461725,-0.000147891,0.513573,-0.000866927,0.0886649,-0.0313508,-0.00399427,-0.0991369,0.377499,-0.000807867,0.1,12.2655,0.0955922,5.97411,0.0366835,-4.94012,-0.0101223,-0.923722,25.4837,1.32322,-3.26609,0.508142,-3.51425,-0.0198558,-0.12085,-1.83698,0.161334,0.717222,0.306152,0.205444,-0.132996,23.5074,23.3371,23.2236,23.3371,23.3655,23.3087,23.1952,
118,0.0235592,1.33231,3.14664,4.44196,0.10743,1.55832,1.56845,-4.27791e-05,0.204194,0.0145853,0.0424053,0.000858136,0.000648976,1.85186e-05,0.674714,-14.3506,-2.19579,29.1623,0.151765,-38.5634,-2.15139,0.055174,-28.1431,-0.762825,9.86696,-0.246983,4.36865,0.045336,0.000159937,-0.0461725,-0.000147891,0.513573,-0.000866927,0.0886649,-0.0313508,-0.00399427,-0.0991369,0.377499,-0.000807867,0.1,12.2655,0.0955922,5.97411,0.0366835,-4.94012,-0.0101223,-0.923722,25.4837,1.32322,-3.26609,0.508142,-3.51425,-0.0198558,-0.12085,-1.83698,0.161334,0.717222,0.306152,0.205444,-0.132996,23.5074,23.3371,23.2236,23.3371,23.3655,23.3087,23.1952,
119,0.0235587,1.33251,3.14666,4.442,0.107431,1.55832,1.56845,-4.50073e-05,0.200412,0.0145446,0.0441352,0.000917239,0.000585076,1.85184e-05,0.674065,-14.355,-2.195,29.1557,0.151652,-38.5612,-2.15178,0.0550411,-28.1464,-0.76285,9.8655,-0.246988,4.36894,0.0453345,0.000159937,-0.0461725,-0.000147891,0.513573,-0.000866927,0.0886649,-0.0299885,-0.0040054,-0.0970687,0.377499,-0.000807867,0.1,12.2655,0.0955922,5.97411,0.0366835,-4.94012,-0.0101223,-0.919174,25.0891,1.32974,-3.15423,0.549041,-3.49789,0.00789661,-0.129158,-1.77248,0.145243,0.757496,0.302151,0.205602,-0.124943,23.5074,23.3513,23.2094,23.3513,23.3513,23.3087,23.2094,
120,0.0235587,1.33251,3.14666,4.442,0.107431,1.55832,1.56845,-4.50073e-05,0.200412,0.0145446,0.0441352,0.000917239,0.000585076,1.85184e-05,0.674033,-14.1999,-2.21196,29.2402,0.146138,-38.4884,-2.12915,0.0550328,-28.0362,-0.761842,9.86311,-0.245624,4.35539,0.0451668,0.00017136,-0.0463234,-0.000145631,0.513573,-0.000866927,0.0886649,-0.0299885,-0.0040054,-0.0970687,0.378638,-0.000642713,0.1,12.2588,0.100881,5.91206,0.0380187,-4.94432,-0.0100617,-0.919174,25.0891,1.32974,-3.15423,0.549041,-3.49789,0.00789661,-0.129158,-1.77248,0.145243,0.757496,0.302151,0.205602,-0.124943,23.5074,23.3513,23.2094,23.3513,23.3513,23.3087,23.2094,
121,0.0235587,1.33251,3.14666,4.442,0.107431,1.55832,1.56845,-4.50073e-05,0.200412,0.0145446,0.0441352,0.000917239,0.000585076,1.85184e-05,0.674033,-14.1999,-2.21196,29.2402,0.146138,-38.4884,-2.12915,0.0550328,-28.0362,-0.761842,9.86311,-0.245624,4.35539,0.0451668,0.00017136,-0.0463234,-0.000145631,0.513573,-0.000866927,0.0886649,-0.0299885,-0.0040054,-0.0970687,0.378638,-0.000642713,0.1,12.2588,0.100881,5.91206,0.0380187,-4.94432,-0.0100617,-0.919174,25.0891,1.32974,-3.15423,0.549041,-3.49789,0.00789661,-0.129158,-1.77248,0.145243,0.757496,0.302151,0.205602,-0.124943,23.5074,23.3513,23.2094,23.3513,23.3513,23.3087,23.2094,
122,0.0235583,1.3327,3.14667,4.44205,0.107433,1.55832,1.56845,-4.49733e-05,0.198252,0.0145853,0.047489,0.000966274,0.000554275,1.85186e-05,0.673414,-14.2043,-2.21117,29.2342,0.145978,-38.4868,-2.12967,0.0549117,-28.0395,-0.761867,9.86157,-0.24563,4.35566,0.045166,0.00017136,-0.0463234,-0.000145631,0.513573,-0.000866927,0.0886649,-0.0284634,-0.00404944,-0.0956616,0.378638,-0.000642713,0.1,12.2588,0.100881,5.91206,0.0380187,-4.94432,-0.0100617,-0.859996,24.876,1.27708,-3.05119,0.54957,-3.49889,-0.0164252,-0.136963,-1.76448,0.161334,0.749311,0.302231,0.213539,-0.124943,23.5074,23.3371,23.2236,23.3371,23.3513,23.3087,23.1952,
123,0.0235583,1.3327,3.14667,4.44205,0.107433,1.55832,1.56845,-4.49733e-05,0.198252,0.0145853,0.047489,0.000966274,0.000554275,1.85186e-05,0.673854,-14.0978,-2.22978,29.2684,0.140635,-38.4128,-2.10528,0.0550266,-27.9637,-0.761829,9.85358,-0.244065,4.34637,0.0449674,0.000181714,-0.0464715,-0.000144609,0.513573,-0.000866927,0.0886649,-0.0284634,-0.00404944,-0.0956616,0.379761,-0.000495417,0.1,12.2467,0.106621,5.86985,0.0394043,-4.94817,-0.010078,-0.859996,24.876,1.27708,-3.05119,0.54957,-3.49889,-0.0164252,-0.136963,-1.76448,0.161334,0.749311,0.302231,0.213539,-0.124943,23.5074,23.3371,23.2236,23.3371,23.3513,23.3087,23.1952,
124,0.0235583,1.3327,3.14667,4.44205,0.107433,1.55832,1.56845,-4.49733e-05,0.198252,0.0145853,0.047489,0.000966274,0.000554275,1.85186e-05,0.673854,-14.0978,-2.22978,29.2684,0.140635,-38.4128,-2.10528,0.0550266,-27.9637,-0.761829,9.85358,-0.244065,4.34637,0.0449674,0.000181714,-0.0464715,-0.000144609,0.513573,-0.000866927,0.0886649,-0.0284634,-0.00404944,-0.0956616,0.379761,-0.000495417,0.1,12.2467,0.106621,5.86985,0.0394043,-4.94817,-0.010078,-0.859996,24.876,1.27708,-3.05119,0.54957,-3.49889,-0.0164252,-0.136963,-1.76448,0.161334,0.749311,0.302231,0.213539,-0.124943,23.5074,23.3371,23.2236,23.3371,23.3513,23.3087,23.1952,
125,0.0235583,1.3327,3.14667,4.44205,0.107433,1.55832,1.56845,-4.49733e-05,0.198252,0.0145853,0.047489,0.000966274,0.000554275,1.85186e-05,0.673854,-14.0978,-2.22978,29.2684,0.140635,-38.4128,-2.10528,0.0550266,-27.9637,-0.761829,9.85358,-0.244065,4.34637,0.0449674,0.000181714,-0.0464715,-0.000144609,0.513573,-0.000866927,0.0886649,-0.0284634,-0.00404944,-0.0956616,0.379761,-0.000495417,0.1,12.2467,0.106621,5.86985,0.0394043,-4.94817,-0.010078,-0.859996,24.876,1.27708,-3.05119,0.54957,-3.49889,-0.0164252,-0.136963,-1.76448,0.161334,0.749311,0.302231,0.213539,-0.124943,23.5074,23.3371,23.2236,23.3371,23.3513,23.3087,23.1952,
126,0.0235578,1.33292,3.14669,4.4421,0.107433,1.55832,1.56845,-5.02643e-05,0.198609,0.0156498,0.0515886,0.000966274,0.000659852,1.85184e-05,0.673122,-14.1026,-2.22859,29.2623,0.140199,-38.4114,-2.1062,0.0548947,-27.9674,-0.761838,9.85157,-0.244079,4.34668,0.0449661,0.000181714,-0.0464715,-0.000144609,0.513573,-0.000866927,0.0886649,-0.0272564,-0.00442877,-0.0954609,0.379761,-0.000495417,0.1,12.2467,0.106621,5.86985,0.0394043,-4.94817,-0.010078,-0.859862,24.4956,1.24896,-2.96333,0.54957,-3.48944,0.001,-0.14502,-1.79728,0.14502,0.700974,0.302231,0.217529,-0.125138,23.4932,23.3229,23.2094,23.3229,23.3513,23.3087,23.1952,
127,0.0235578,1.33292,3.14669,4.4421,0.107433,1.55832,1.56845,-5.02643e-05,0.198609,0.0156498,0.0515886,0.000966274,0.000659852,1.85184e-05,0.676353,-14.0839,-2.28667,29.2741,0.127993,-38.4021,-2.05237,0.0557379,-27.9542,-0.76706,9.85251,-0.240412,4.34632,0.0444382,0.000192845,-0.0466307,-0.000141435,0.513573,-0.000866927,0.0886649,-0.0272564,-0.00442877,-0.0954609,0.380966,-0.000327848,0.1,12.2467,0.123028,5.86383,0.0427561,-4.95644,-0.00931765,-0.859862,24.4956,1.24896,-2.96333,0.54957,-3.48944,0.001,-0.14502,-1.79728,0.14502,0.700974,0.302231,0.217529,-0.125138,23.4932,23.3229,23.2094,23.3229,23.3513,23.3087,23.1952,
128,0.0235578,1.33292,3.14669,4.4421,0.107433,1.55832,1.56845,-5.02643e-05,0.198609,0.0156498,0.0515886,0.000966274,0.000659852,1.85184e-05,0.676353,-14.0839,-2.28667,29.2741,0.127993,-38.4021,-2.05237,0.0557379,-27.9542,-0.76706,9.85251,-0.240412,4.34632,0.0444382,0.000192845,-0.0466307,-0.000141435,0.513573,-0.000866927,0.0886649,-0.0272564,-0.00442877,-0.0954609,0.380966,-0.000327848,0.1,12.2467,0.123028,5.86383,0.0427561,-4.95644,-0.00931765,-0.859862,24.4956,1.24896,-2.96333,0.54957,-3.48944,0.001,-0.14502,-1.79728,0.14502,0.700974,0.302231,0.217529,-0.125138,23.4932,23.3229,23.2094,23.3229,23.3513,23.3087,23.1952,
129,0.0235578,1.33311,3.1467,4.44216,0.107435,1.55832,1.56845,-5.02648e-05,0.19501,0.0148704,0.0564504,0.000967436,0.000769422,2.64549e-05,0.675769,-14.088,-2.28615,29.2687,0.128006,-38.4008,-2.05261,0.055615,-27.9572,-0.767096,9.8515,-0.240413,4.34653,0.0444372,0.000192845,-0.0466307,-0.000141435,0.513573,-0.000866927,0.0886649,-0.0249301,-0.00422378,-0.0931546,0.380966,-0.000327848,0.1,12.2467,0.123028,5.86383,0.0427561,-4.95644,-0.00931765,-0.79236,24.3722,1.18053,-2.88783,0.544387,-3.43374,-0.00739424,-0.145243,-1.85304,0.129158,0.66875,0.306258,0.225622,-0.124878,23.4932,23.3087,23.2094,23.3087,23.3513,23.3087,23.1669,
130,0.0235578,1.33311,3.1467,4.44216,0.107435,1.55832,1.56845,-5.02648e-05,0.19501,0.0148704,0.0564504,0.000967436,0.000769422,2.64549e-05,0.674399,-13.9154,-2.27717,29.2588,0.127794,-38.222,-2.0423,0.0552574,-27.8344,-0.763278,9.82031,-0.239787,4.32964,0.0443943,0.000204597,-0.0467657,-0.000139942,0.513573,-0.000866927,0.0886649,-0.0249301,-0.00422378,-0.0931546,0.381949,-0.00016446,0.1,12.2064,0.12178,5.79464,0.042826,-4.95277,-0.00959415,-0.79236,24.3722,1.18053,-2.88783,0.544387,-3.43374,-0.00739424,-0.145243,-1.85304,0.129158,0.66875,0.306258,0.225622,-0.124878,23.4932,23.3087,23.2094,23.3087,23.3513,23.3087,23.1669,
131,0.0235574,1.33329,3.14672,4.44222,0.107437,1.55832,1.56845,-5.55553e-05,0.190149,0.015533,0.0594214,0.000996752,0.000861078,2.64549e-05,0.673697,-13.9191,-2.27622,29.2532,0.127526,-38.22,-2.04297,0.0551085,-27.8373,-0.763275,9.81939,-0.239823,4.32986,0.0443955,0.000204597,-0.0467657,-0.000139942,0.513573,-0.000866927,0.0886649,-0.0229313,-0.00448513,-0.0904257,0.381949,-0.00016446,0.1,12.2064,0.12178,5.79464,0.042826,-4.95277,-0.00959415,-0.825366,24.0467,1.17325,-2.76588,0.53423,-3.40142,-0.00754921,-0.14502,-1.80471,0.129158,0.588355,0.302231,0.221594,-0.121118,23.5074,23.3371,23.2094,23.3229,23.3655,23.3087,23.1811,
132,0.0235574,1.33329,3.14672,4.44222,0.107437,1.55832,1.56845,-5.55553e-05,0.190149,0.015533,0.0594214,0.000996752,0.000861078,2.64549e-05,0.675068,-13.7142,-2.3191,29.2884,0.116206,-38.0585,-1.98708,0.0554662,-27.6917,-0.763863,9.79583,-0.236109,4.31048,0.043853,0.000217421,-0.046893,-0.000138428,0.513573,-0.000866927,0.0886649,-0.0229313,-0.00448513,-0.0904257,0.382853,1.62917e-05,0.1,12.1735,0.135043,5.71277,0.0457567,-4.94968,-0.00923715,-0.825366,24.0467,1.17325,-2.76588,0.53423,-3.40142,-0.00754921,-0.14502,-1.80471,0.129158,0.588355,0.302231,0.221594,-0.121118,23.5074,23.3371,23.2094,23.3229,23.3655,23.3087,23.1811,
133,0.0235574,1.33329,3.14672,4.44222,0.107437,1.55832,1.56845,-5.55553e-05,0.190149,0.015533,0.0594214,0.000996752,0.000861078,2.64549e-05,0.675068,-13.7142,-2.3191,29.2884,0.116206,-38.0585,-1.98708,0.0554662,-27.6917,-0.763863,9.79583,-0.236109,4.31048,0.043853,0.000217421,-0.046893,-0.000138428,0.513573,-0.000866927,0.0886649,-0.0229313,-0.00448513,-0.0904257,0.382853,1.62917e-05,0.1,12.1735,0.135043,5.71277,0.0457567,-4.94968,-0.00923715,-0.825366,24.0467,1.17325,-2.76588,0.53423,-3.40142,-0.00754921,-0.14502,-1.80471,0.129158,0.588355,0.302231,0.221594,-0.121118,23.5074,23.3371,23.2094,23.3229,23.3655,23.3087,23.1811,
134,0.0235574,1.33329,3.14672,4.44222,0.107437,1.55832,1.56845,-5.55553e-05,0.190149,0.015533,0.0594214,0.000996752,0.000861078,2.64549e-05,0.675068,-13.7142,-2.3191,29.2884,0.116206,-38.0585,-1.98708,0.0554662,-27.6917,-0.763863,9.79583,-0.236109,4.31048,0.043853,0.000217421,-0.046893,-0.000138428,0.513573,-0.000866927,0.0886649,-0.0229313,-0.00448513,-0.0904257,0.382853,1.62917e-05,0.1,12.1735,0.135043,5.71277,0.0457567,-4.94968,-0.00923715,-0.825366,24.0467,1.17325,-2.76588,0.53423,-3.40142,-0.00754921,-0.14502,-1.80471,0.129158,0.588355,0.302231,0.221594,-0.121118,23.5074,23.3371,23.2094,23.3229,23.3655,23.3087,23.1811,
135,0.0235574,1.33329,3.14672,4.44222,0.107437,1.55832,1.56845,-5.55553e-05,0.190149,0.015533,0.0594214,0.000996752,0.000861078,2.64549e-05,0.675068,-13.7142,-2.3191,29.2884,0.116206,-38.0585,-1.98708,0.0554662,-27.6917,-0.763863,9.79583,-0.236109,4.31048,0.043853,0.000217421,-0.046893,-0.000138428,0.513573,-0.000866927,0.0886649,-0.0229313,-0.00448513,-0.0904257,0.382853,1.62917e-05,0.1,12.1735,0.135043,5.71277,0.0457567,-4.94968,-0.00923715,-0.825366,24.0467,1.17325,-2.76588,0.53423,-3.40142,-0.00754921,-0.14502,-1.80471,0.129158,0.588355,0.302231,0.221594,-0.121118,23.5074,23.3371,23.2094,23.3229,23.3655,23.3087,23.1811,
136,0.0235574,1.33329,3.14672,4.44222,0.107437,1.55832,1.56845,-5.55553e-05,0.190149,0.015533,0.0594214,0.000996752,0.000861078,2.64549e-05,0.675068,-13.7142,-2.3191,29.2884,0.116206,-38.0585,-1.98708,0.0554662,-27.6917,-0.763863,9.79583,-0.236109,4.31048,0.043853,0.000217421,-0.046893,-0.000138428,0.513573,-0.000866927,0.0886649,-0.0229313,-0.00448513,-0.0904257,0.382853,1.62917e-05,0.1,12.1735,0.135043,5.71277,0.0457567,-4.94968,-0.00923715,-0.825366,24.0467,1.17325,-2.76588,0.53423,-3.40142,-0.00754921,-0.14502,-1.80471,0.129158,0.588355,0.302231,0.221594,-0.121118,23.5074,23.3371,23.2094,23.3229,23.3655,23.3087,23.1811,
137,0.0235574,1.33329,3.14672,4.44222,0.107437,1.55832,1.56845,-5.55553e-05,0.190149,0.015533,0.0594214,0.000996752,0.000861078,2.64549e-05,0.675068,-13.7142,-2.3191,29.2884,0.116206,-38.0585,-1.98708,0.0554662,-27.6917,-0.763863,9.79583,-0.236109,4.31048,0.043853,0.000217421,-0.046893,-0.000138428,0.513573,-0.000866927,0.0886649,-0.0229313,-0.00448513,-0.0904257,0.382853,1.62917e-05,0.1,12.1735,0.135043,5.71277,0.0457567,-4.94968,-0.00923715,-0.825366,24.0467,1.17325,-2.76588,0.53423,-3.40142,-0.00754921,-0.14502,-1.80471,0.129158,0.588355,0.302231,0.221594,-0.121118,23.5074,23.3371,23.2094,23.3229,23.3655,23.3087,23.1811,
138,0.0235574,1.33329,3.14672,4.44222,0.107437,1.55832,1.56845,-5.55553e-05,0.190149,0.015533,0.0594214,0.000996752,0.000861078,2.64549e-05,0.675068,-13.7142,-2.3191,29.2884,0.116206,-38.0585,-1.98708,0.0554662,-27.6917,-0.763863,9.79583,-0.236109,4.31048,0.043853,0.000217421,-0.046893,-0.000138428,0.513573,-0.000866927,0.0886649,-0.0229313,-0.00448513,-0.0904257,0.382853,1.62917e-05,0.1,12.1735,0.135043,5.71277,0.0457567,-4.94968,-0.00923715,-0.825366,24.0467,1.17325,-2.76588,0.53423,-3.40142,-0.00754921,-0.14502,-1.80471,0.129158,0.588355,0.302231,0.221594,-0.121118,23.5074,23.3371,23.2094,23.3229,23.3655,23.3087,23.1811,
139,0.0235564,1.33348,3.14673,4.44228,0.107439,1.55832,1.56845,-6.34917e-05,0.188067,0.0153956,0.0609367,0.000971792,0.000933375,2.64549e-05,0.674411,-13.7176,-2.31829,29.2829,0.116118,-38.0564,-1.98756,0.0553356,-27.6946,-0.763879,9.79451,-0.236118,4.31072,0.0438528,0.000217421,-0.046893,-0.000138428,0.513573,-0.000866927,0.0886649,-0.0220051,-0.00445968,-0.089221,0.382853,1.62917e-05,0.1,12.1735,0.135043,5.71277,0.0457567,-4.94968,-0.00923715,-0.787848,23.8673,1.13111,-2.72603,0.52047,-3.35482,0.00586487,-0.153288,-1.74831,0.12085,0.580078,0.302231,0.229756,-0.124943,23.4932,23.3371,23.2094,23.3371,23.3655,23.3087,23.1811,
140,0.0235564,1.33348,3.14673,4.44228,0.107439,1.55832,1.56845,-6.34917e-05,0.188067,0.0153956,0.0609367,0.000971792,0.000933375,2.64549e-05,0.674561,-13.6267,-2.33118,29.3339,0.112212,-38.0133,-1.97173,0.0553746,-27.6299,-0.76357,9.79354,-0.235147,4.30307,0.0437304,0.000229164,-0.0470123,-0.000137738,0.513573,-0.000866927,0.0886649,-0.0220051,-0.00445968,-0.089221,0.383663,0.000172262,0.1,12.17,0.138958,5.67663,0.0468283,-4.95428,-0.00922144,-0.787848,23.8673,1.13111,-2.72603,0.52047,-3.35482,0.00586487,-0.153288,-1.74831,0.12085,0.580078,0.302231,0.229756,-0.124943,23.4932,23.3371,23.2094,23.3371,23.3655,23.3087,23.1811,
141,0.0235564,1.33348,3.14673,4.44228,0.107439,1.55832,1.56845,-6.34917e-05,0.188067,0.0153956,0.0609367,0.000971792,0.000933375,2.64549e-05,0.674561,-13.6267,-2.33118,29.3339,0.112212,-38.0133,-1.97173,0.0553746,-27.6299,-0.76357,9.79354,-0.235147,4.30307,0.0437304,0.000229164,-0.0470123,-0.000137738,0.513573,-0.000866927,0.0886649,-0.0220051,-0.00445968,-0.089221,0.383663,0.000172262,0.1,12.17,0.138958,5.67663,0.0468283,-4.95428,-0.00922144,-0.787848,23.8673,1.13111,-2.72603,0.52047,-3.35482,0.00586487,-0.153288,-1.74831,0.12085,0.580078,0.302231,0.229756,-0.124943,23.4932,23.3371,23.2094,23.3371,23.3655,23.3087,23.1811,
142,0.023556,1.33368,3.14675,4.44234,0.10744,1.55833,1.56845,-6.87827e-05,0.187575,0.0159358,0.0620595,0.000911551,0.00107576,2.64552e-05,0.673841,-13.6306,-2.33014,29.3279,0.11194,-38.0112,-1.97244,0.0552407,-27.6333,-0.763584,9.79173,-0.235154,4.30337,0.0437292,0.000229164,-0.0470123,-0.000137738,0.513573,-0.000866927,0.0886649,-0.0215558,-0.00465336,-0.0888613,0.383663,0.000172262,0.1,12.17,0.138958,5.67663,0.0468283,-4.95428,-0.00922144,-0.745237,23.504,1.11833,-2.67075,0.497374,-3.28573,0.0159517,-0.153922,-1.78946,0.113938,0.604302,0.310207,0.233677,-0.128969,23.479,23.3229,23.2094,23.3087,23.3655,23.3087,23.1811,
143,0.023556,1.33368,3.14675,4.44234,0.10744,1.55833,1.56845,-6.87827e-05,0.187575,0.0159358,0.0620595,0.000911551,0.00107576,2.64552e-05,0.675818,-13.6015,-2.37006,29.3973,0.103316,-38.0452,-1.93992,0.0557568,-27.6127,-0.766921,9.8063,-0.233031,4.30251,0.0434327,0.000240926,-0.0471477,-0.00013551,0.513573,-0.000866927,0.0886649,-0.0215558,-0.00465336,-0.0888613,0.384637,0.000344709,0.1,12.1858,0.149942,5.66584,0.0491152,-4.96432,-0.00865453,-0.745237,23.504,1.11833,-2.67075,0.497374,-3.28573,0.0159517,-0.153922,-1.78946,0.113938,0.604302,0.310207,0.233677,-0.128969,23.479,23.3229,23.2094,23.3087,23.3655,23.3087,23.1811,
144,0.023556,1.33368,3.14675,4.44234,0.10744,1.55833,1.56845,-6.87827e-05,0.187575,0.0159358,0.0620595,0.000911551,0.00107576,2.64552e-05,0.675818,-13.6015,-2.37006,29.3973,0.103316,-38.0452,-1.93992,0.0557568,-27.6127,-0.766921,9.8063,-0.233031,4.30251,0.0434327,0.000240926,-0.0471477,-0.00013551,0.513573,-0.000866927,0.0886649,-0.0215558,-0.00465336,-0.0888613,0.384637,0.000344709,0.1,12.1858,0.149942,5.66584,0.0491152,-4.96432,-0.00865453,-0.745237,23.504,1.11833,-2.67075,0.497374,-3.28573,0.0159517,-0.153922,-1.78946,0.113938,0.604302,0.310207,0.233677,-0.128969,23.479,23.3229,23.2094,23.3087,23.3655,23.3087,23.1811,
145,0.0235555,1.33386,3.14676,4.44241,0.107441,1.55833,1.56845,-7.40737e-05,0.183936,0.0159358,0.063743,0.000911551,0.00125246,2.64552e-05,0.675157,-13.6049,-2.36927,29.3919,0.103202,-38.0431,-1.94038,0.0556194,-27.6155,-0.766933,9.80524,-0.233048,4.30273,0.0434327,0.000240926,-0.0471477,-0.00013551,0.513573,-0.000866927,0.0886649,-0.020232,-0.0046816,-0.0868485,0.384637,0.000344709,0.1,12.1858,0.149942,5.66584,0.0491152,-4.96432,-0.00865453,-0.79643,23.3713,1.11699,-2.60651,0.492519,-3.20253,0.0197188,-0.153922,-1.82888,0.11308,0.596191,0.302151,0.233677,-0.124878,23.5074,23.3371,23.2094,23.3371,23.3513,23.3087,23.1952,
146,0.0235555,1.33386,3.14676,4.44241,0.107441,1.55833,1.56845,-7.40737e-05,0.183936,0.0159358,0.063743,0.000911551,0.00125246,2.64552e-05,0.675364,-13.4541,-2.38821,29.4448,0.0974073,-37.947,-1.91332,0.0556734,-27.5082,-0.766174,9.79502,-0.231327,4.28893,0.0431993,0.000253075,-0.0472628,-0.000134226,0.513573,-0.000866927,0.0886649,-0.020232,-0.0046816,-0.0868485,0.385435,0.000517292,0.1,12.17,0.155967,5.60546,0.0505574,-4.96484,-0.00856157,-0.79643,23.3713,1.11699,-2.60651,0.492519,-3.20253,0.0197188,-0.153922,-1.82888,0.11308,0.596191,0.302151,0.233677,-0.124878,23.5074,23.3371,23.2094,23.3371,23.3513,23.3087,23.1952,
147,0.0235555,1.33386,3.14676,4.44241,0.107441,1.55833,1.56845,-7.40737e-05,0.183936,0.0159358,0.063743,0.000911551,0.00125246,2.64552e-05,0.675364,-13.4541,-2.38821,29.4448,0.0974073,-37.947,-1.91332,0.0556734,-27.5082,-0.766174,9.79502,-0.231327,4.28893,0.0431993,0.000253075,-0.0472628,-0.000134226,0.513573,-0.000866927,0.0886649,-0.020232,-0.0046816,-0.0868485,0.385435,0.000517292,0.1,12.17,0.155967,5.60546,0.0505574,-4.96484,-0.00856157,-0.79643,23.3713,1.11699,-2.60651,0.492519,-3.20253,0.0197188,-0.153922,-1.82888,0.11308,0.596191,0.302151,0.233677,-0.124878,23.5074,23.3371,23.2094,23.3371,23.3513,23.3087,23.1952,
148,0.0235551,1.33404,3.14678,4.44247,0.107442,1.55833,1.56845,-7.67199e-05,0.180425,0.0162846,0.0669842,0.000914221,0.00135783,2.64549e-05,0.674626,-13.4573,-2.38727,29.4399,0.0971681,-37.9453,-1.91397,0.0555165,-27.5109,-0.766168,9.79414,-0.231358,4.28912,0.0431997,0.000253075,-0.0472628,-0.000134226,0.513573,-0.000866927,0.0886649,-0.0184397,-0.00483784,-0.0847679,0.385435,0.000517292,0.1,12.17,0.155967,5.60546,0.0505574,-4.96484,-0.00856157,-0.773361,23.0431,1.09933,-2.49556,0.475743,-3.14588,-0.00893946,-0.169381,-1.78059,0.0966797,0.596409,0.310181,0.241733,-0.129158,23.4932,23.3371,23.1952,23.3229,23.3513,23.3229,23.1952,
149,0.0235551,1.33404,3.14678,4.44247,0.107442,1.55833,1.56845,-7.67199e-05,0.180425,0.0162846,0.0669842,0.000914221,0.00135783,2.64549e-05,0.675814,-13.3005,-2.4214,29.4452,0.0883631,-37.8007,-1.86779,0.0558267,-27.3994,-0.766735,9.77025,-0.228252,4.27412,0.04275,0.000267008,-0.047372,-0.000131603,0.513573,-0.000866927,0.0886649,-0.0184397,-0.00483784,-0.0847679,0.38616,0.000716793,0.1,12.138,0.166639,5.54304,0.0529387,-4.96207,-0.00818673,-0.773361,23.0431,1.09933,-2.49556,0.475743,-3.14588,-0.00893946,-0.169381,-1.78059,0.0966797,0.596409,0.310181,0.241733,-0.129158,23.4932,23.3371,23.1952,23.3229,23.3513,23.3229,23.1952,
150,0.0235551,1.33404,3.14678,4.44247,0.107442,1.55833,1.56845,-7.67199e-05,0.180425,0.0162846,0.0669842,0.000914221,0.00135783,2.64549e-05,0.675814,-13.3005,-2.4214,29.4452,0.0883631,-37.8007,-1.86779,0.0558267,-27.3994,-0.766735,9.77025,-0.228252,4.27412,0.04275,0.000267008,-0.047372,-0.000131603,0.513573,-0.000866927,0.0886649,-0.0184397,-0.00483784,-0.0847679,0.38616,0.000716793,0.1,12.138,0.166639,5.54304,0.0529387,-4.96207,-0.00818673,-0.773361,23.0431,1.09933,-2.49556,0.475743,-3.14588,-0.00893946,-0.169381,-1.78059,0.0966797,0.596409,0.310181,0.241733,-0.129158,23.4932,23.3371,23.1952,23.3229,23.3513,23.3229,23.1952,
151,0.0235541,1.33421,3.1468,4.44255,0.107444,1.55834,1.56845,-8.72361e-05,0.174483,0.0162058,0.0709675,0.000938058,0.00142905,2.64549e-05,0.675177,-13.3032,-2.42069,29.4407,0.0882947,-37.7989,-1.8682,0.0556833,-27.4017,-0.766733,9.76992,-0.228286,4.27427,0.0427516,0.000267008,-0.047372,-0.000131603,0.513573,-0.000866927,0.0886649,-0.0158729,-0.00486389,-0.0813873,0.38616,0.000716793,0.1,12.138,0.166639,5.54304,0.0529387,-4.96207,-0.00818673,-0.767684,22.8917,1.07116,-2.44073,0.452199,-3.09011,0.0122007,-0.161334,-1.77253,0.0889885,0.564195,0.306179,0.249788,-0.128969,23.5074,23.3371,23.2094,23.3229,23.3513,23.3087,23.1952,
152,0.0235541,1.33421,3.1468,4.44255,0.107444,1.55834,1.56845,-8.72361e-05,0.174483,0.0162058,0.0709675,0.000938058,0.00142905,2.64549e-05,0.674822,-13.0506,-2.43516,29.4222,0.0823434,-37.5411,-1.82809,0.0555905,-27.2221,-0.763773,9.72354,-0.225605,4.24897,0.0423677,0.000280033,-0.0474664,-0.00013076,0.513573,-0.000866927,0.0886649,-0.0158729,-0.00486389,-0.0813873,0.386718,0.000889308,0.1,12.0777,0.172596,5.44162,0.0545537,-4.95151,-0.00825593,-0.767684,22.8917,1.07116,-2.44073,0.452199,-3.09011,0.0122007,-0.161334,-1.77253,0.0889885,0.564195,0.306179,0.249788,-0.128969,23.5074,23.3371,23.2094,23.3229,23.3513,23.3087,23.1952,
153,0.0235541,1.33421,3.1468,4.44255,0.107444,1.55834,1.56845,-8.72361e-05,0.174483,0.0162058,0.0709675,0.000938058,0.00142905,2.64549e-05,0.674822,-13.0506,-2.43516,29.4222,0.0823434,-37.5411,-1.82809,0.0555905,-27.2221,-0.763773,9.72354,-0.225605,4.24897,0.0423677,0.000280033,-0.0474664,-0.00013076,0.513573,-0.000866927,0.0886649,-0.0158729,-0.00486389,-0.0813873,0.386718,0.000889308,0.1,12.0777,0.172596,5.44162,0.0545537,-4.95151,-0.00825593,-0.767684,22.8917,1.07116,-2.44073,0.452199,-3.09011,0.0122007,-0.161334,-1.77253,0.0889885,0.564195,0.306179,0.249788,-0.128969,23.5074,23.3371,23.2094,23.3229,23.3513,23.3087,23.1952,
154,0.0235541,1.33421,3.1468,4.44255,0.107444,1.55834,1.56845,-8.72361e-05,0.174483,0.0162058,0.0709675,0.000938058,0.00142905,2.64549e-05,0.674822,-13.0506,-2.43516,29.4222,0.0823434,-37.5411,-1.82809,0.0555905,-27.2221,-0.763773,9.72354,-0.225605,4.24897,0.0423677,0.000280033,-0.0474664,-0.00013076,0.513573,-0.000866927,0.0886649,-0.0158729,-0.00486389,-0.0813873,0.386718,0.000889308,0.1,12.0777,0.172596,5.44162,0.0545537,-4.95151,-0.00825593,-0.767684,22.8917,1.07116,-2.44073,0.452199,-3.09011,0.0122007,-0.161334,-1.77253,0.0889885,0.564195,0.306179,0.249788,-0.128969,23.5074,23.3371,23.2094,23.3229,23.3513,23.3087,23.1952,
155,0.0235541,1.33439,3.14681,4.44262,0.107445,1.55834,1.56845,-8.71695e-05,0.171114,0.0172862,0.0745469,0.000914883,0.00157166,2.64549e-05,0.67408,-13.0537,-2.43411,29.4174,0.0819591,-37.5394,-1.8289,0.0554369,-27.2247,-0.763757,9.72267,-0.225645,4.24916,0.0423686,0.000280033,-0.0474664,-0.00013076,0.513573,-0.000866927,0.0886649,-0.0140043,-0.0052692,-0.0793593,0.386718,0.000889308,0.1,12.0777,0.172596,5.44162,0.0545537,-4.95151,-0.00825593,-0.70656,22.6537,1.05733,-2.36561,0.429889,-3.03827,-0.00372161,-0.169189,-1.71637,0.088623,0.507824,0.314312,0.245761,-0.125461,23.5074,23.3513,23.2094,23.3371,23.3513,23.3087,23.1952,
156,0.0235541,1.33439,3.14681,4.44262,0.107445,1.55834,1.56845,-8.71695e-05,0.171114,0.0172862,0.0745469,0.000914883,0.00157166,2.64549e-05,0.676896,-12.9,-2.49521,29.4076,0.0677661,-37.3863,-1.75696,0.0561722,-27.1154,-0.766941,9.69555,-0.220739,4.23436,0.0416426,0.000293712,-0.0475713,-0.000127791,0.513573,-0.000866927,0.0886649,-0.0140043,-0.0052692,-0.0793593,0.387386,0.00109584,0.1,12.0417,0.190951,5.38078,0.0583373,-4.94788,-0.00745129,-0.70656,22.6537,1.05733,-2.36561,0.429889,-3.03827,-0.00372161,-0.169189,-1.71637,0.088623,0.507824,0.314312,0.245761,-0.125461,23.5074,23.3513,23.2094,23.3371,23.3513,23.3087,23.1952,
