LWingKi/MAS_RnD/main/log/us2/contactless/41/grasp_log_12_08_2023_15_22_22.csv
Index,joint_angle_0,joint_angle_1,joint_angle_2,joint_angle_3,joint_angle_4,joint_angle_5,joint_angle_6,joint_velocity_0,joint_velocity_1,joint_velocity_2,joint_velocity_3,joint_velocity_4,joint_velocity_5,joint_velocity_6,joint_accel_0,joint_accel_1,joint_accel_2,joint_accel_3,joint_accel_4,joint_accel_5,joint_accel_6,constraint_tau_0,constraint_tau_1,constraint_tau_2,constraint_tau_3,constraint_tau_4,constraint_tau_5,constraint_tau_6,current_pos_x,current_pos_y,current_pos_z,target_pos_x,target_pos_y,target_pos_z,current_vel_x,current_vel_y,current_vel_z,target_vel_x,target_vel_y,target_vel_z,control_signal_linear_x,control_signal_linear_y,control_signal_linear_z,control_signal_angular_x,control_signal_angular_y,control_signal_angular_z,joint_torque_0,joint_torque_1,joint_torque_2,joint_torque_3,joint_torque_4,joint_torque_5,joint_torque_6,actuar_current_0,actuar_current_1,actuar_current_2,actuar_current_3,actuar_current_4,actuar_current_5,actuar_current_6,actuar_voltage_0,actuar_voltage_1,actuar_voltage_2,actuar_voltage_3,actuar_voltage_4,actuar_voltage_5,actuar_voltage_6
0,6.27263,1.52976,3.15313,4.23854,6.27093,2.00142,1.55352,0.0172862,-0.0045001,-0.0130277,-0.0248238,0.0123221,0.000894178,0,0.0714769,-6.34232,1.21809,150.837,1.05423,-157.254,0.955157,-0.060897,-20,-0.372301,20,-0.137497,-1.10946,0.00263957,0.000563363,0.00186399,-0.0011137,0.494496,0.00105289,0.0163484,-0.00590946,-0.0019781,0.0026079,1.49167,-0.00476986,0.005,44.75,-0.143096,0.15,0.0225345,0.0745595,-0.044548,1.01487,0.0261752,-1.78713,-1.74061,0.990033,-0.574848,0.0483278,0.419023,-0.274044,-0.217529,-0.088623,0.080667,0.463327,-0.0604248,23.5074,23.3371,23.1952,23.2946,23.252,23.3087,23.1527,
1,6.27263,1.52976,3.15313,4.23854,6.27093,2.00142,1.55352,0.0172862,-0.0045001,-0.0130277,-0.0248238,0.0123221,0.000894178,0,0.109046,-6.61432,0.485992,152.087,1.1324,-158.652,1.7948,-0.0505667,-20,-0.43673,20,-0.0967329,-1.10392,0.00524257,0,0,0,0.494496,0.00105289,0.0163484,-0.00590946,-0.0019781,0.0026079,1.5,0,0.005,45.1773,0.0593431,0.071763,-0.0359578,-0.0394911,0.0116758,1.01487,0.0261752,-1.78713,-1.74061,0.990033,-0.574848,0.0483278,0.419023,-0.274044,-0.217529,-0.088623,0.080667,0.463327,-0.0604248,23.5074,23.3371,23.1952,23.2946,23.252,23.3087,23.1527,
2,6.27265,1.52976,3.15312,4.23851,6.27094,2.00142,1.55352,0.0172687,-0.00465219,-0.0135049,-0.0245789,0.0153369,0.000695515,0,0.109677,-6.61588,0.48366,152.087,1.13177,-158.654,1.79463,-0.0503856,-20,-0.436983,20,-0.0967514,-1.10377,0.00524377,0,0,0,0.494496,0.00105289,0.0163484,-0.00580096,-0.00154443,0.00264045,1.5,0,0.005,45.1773,0.0593431,0.071763,-0.0359578,-0.0394911,0.0116758,0.968523,0.0477285,-1.76313,-1.68798,0.981201,-0.535303,0.0577992,0.410968,-0.265991,-0.209473,-0.0809682,0.0284845,0.463274,-0.0569691,23.4932,23.3371,23.2094,23.3229,23.2378,23.3087,23.1669,
3,6.27265,1.52976,3.15312,4.23851,6.27094,2.00142,1.55352,0.0172687,-0.00465219,-0.0135049,-0.0245789,0.0153369,0.000695515,0,0.107337,-6.61619,0.528156,152.083,1.12528,-158.651,1.75171,-0.051029,-20,-0.43334,20,-0.0993145,-1.10378,0.00587713,-1.98118e-05,-1.96804e-05,2.2726e-06,0.494496,0.00105289,0.0163484,-0.00580096,-0.00154443,0.00264045,1.50008,2.17124e-05,0.005,45.1766,0.0469843,0.0707866,-0.0402417,-0.0399792,0.00621972,0.968523,0.0477285,-1.76313,-1.68798,0.981201,-0.535303,0.0577992,0.410968,-0.265991,-0.209473,-0.0809682,0.0284845,0.463274,-0.0569691,23.4932,23.3371,23.2094,23.3229,23.2378,23.3087,23.1669,
4,6.27267,1.52975,3.15311,4.23849,6.27096,2.00142,1.55352,0.0180553,-0.00482775,-0.0145853,-0.0251191,0.014817,0.000590574,0,0.107984,-6.61776,0.525487,152.083,1.1247,-158.653,1.75209,-0.0508312,-20,-0.433629,20,-0.0992854,-1.10362,0.00587531,-1.98118e-05,-1.96804e-05,2.2726e-06,0.494496,0.00105289,0.0163484,-0.00591077,-0.00159841,0.0027229,1.50008,2.17124e-05,0.005,45.1766,0.0469843,0.0707866,-0.0402417,-0.0399792,0.00621972,0.96146,0.0809553,-1.71874,-1.64249,0.968818,-0.513536,0.0457549,0.410889,-0.257812,-0.185303,-0.0970148,0.012085,0.451172,-0.0644531,23.479,23.3513,23.1952,23.3229,23.2236,23.3229,23.1527,
5,6.27267,1.52975,3.15311,4.23849,6.27096,2.00142,1.55352,0.0180553,-0.00482775,-0.0145853,-0.0251191,0.014817,0.000590574,0,0.108415,-6.62151,0.516947,152.101,1.12784,-158.672,1.7647,-0.0507126,-20,-0.43439,20,-0.0987551,-1.10352,0.00608751,-4.00145e-05,-3.97475e-05,8.08831e-06,0.494496,0.00105289,0.0163484,-0.00591077,-0.00159841,0.0027229,1.50017,5.38066e-05,0.005,45.1824,0.0495665,0.068313,-0.042767,-0.0417273,0.00889607,0.96146,0.0809553,-1.71874,-1.64249,0.968818,-0.513536,0.0457549,0.410889,-0.257812,-0.185303,-0.0970148,0.012085,0.451172,-0.0644531,23.479,23.3513,23.1952,23.3229,23.2236,23.3229,23.1527,
6,6.27269,1.52975,3.15309,4.23846,6.27097,2.00142,1.55352,0.0178264,-0.00482775,-0.0148554,-0.0260799,0.0135049,0.000590574,0,0.109059,-6.62336,0.514532,152.101,1.12746,-158.674,1.76521,-0.050516,-20,-0.434657,20,-0.0987207,-1.10335,0.00608528,-4.00145e-05,-3.97475e-05,8.08831e-06,0.494496,0.00105289,0.0163484,-0.00618599,-0.00155987,0.00275231,1.50017,5.38066e-05,0.005,45.1824,0.0495665,0.068313,-0.042767,-0.0417273,0.00889607,0.924211,0.118779,-1.73607,-1.57761,0.970502,-0.473902,0.0417307,0.378662,-0.241699,-0.169381,-0.0649547,0.0127387,0.451244,-0.0684814,23.479,23.3371,23.1811,23.3229,23.2236,23.3087,23.1669,
7,6.27269,1.52975,3.15309,4.23846,6.27097,2.00142,1.55352,0.0178264,-0.00482775,-0.0148554,-0.0260799,0.0135049,0.000590574,0,0.108885,-6.63099,0.517251,152.133,1.13005,-158.711,1.76422,-0.0505638,-20,-0.434558,20,-0.0988208,-1.10327,0.00611233,-5.95559e-05,-6.21821e-05,1.4247e-05,0.494496,0.00105289,0.0163484,-0.00618599,-0.00155987,0.00275231,1.50027,7.84878e-05,0.005,45.1937,0.0491506,0.0674308,-0.0429699,-0.0445123,0.011066,0.924211,0.118779,-1.73607,-1.57761,0.970502,-0.473902,0.0417307,0.378662,-0.241699,-0.169381,-0.0649547,0.0127387,0.451244,-0.0684814,23.479,23.3371,23.1811,23.3229,23.2236,23.3087,23.1669,
8,6.27271,1.52975,3.15308,4.23843,6.27098,2.00142,1.55352,0.0183666,-0.00468011,-0.0160492,-0.0264696,0.011074,0.000561717,0,0.10959,-6.63275,0.514838,152.133,1.12987,-158.712,1.76517,-0.0503439,-20,-0.434824,20,-0.098753,-1.10309,0.00610796,-5.95559e-05,-6.21821e-05,1.4247e-05,0.494496,0.00105289,0.0163484,-0.00633973,-0.00166868,0.00271522,1.50027,7.84878e-05,0.005,45.1937,0.0491506,0.0674308,-0.0429699,-0.0445123,0.011066,0.882542,0.1331,-1.69174,-1.52079,0.963105,-0.431792,0.0205822,0.362549,-0.233781,-0.177246,-0.0569691,0.0254773,0.447162,-0.0645789,23.479,23.3513,23.1952,23.2946,23.2378,23.3229,23.1669,
9,6.27271,1.52975,3.15308,4.23843,6.27098,2.00142,1.55352,0.0183666,-0.00468011,-0.0160492,-0.0264696,0.011074,0.000561717,0,0.110208,-6.63753,0.502571,152.155,1.13648,-158.737,1.78167,-0.0501739,-20,-0.435908,20,-0.0979368,-1.10298,0.00616165,-8.03873e-05,-8.44693e-05,2.3254e-05,0.494496,0.00105289,0.0163484,-0.00633973,-0.00166868,0.00271522,1.50037,9.99233e-05,0.005,45.2012,0.0530581,0.0685434,-0.0441402,-0.0464888,0.0168308,0.882542,0.1331,-1.69174,-1.52079,0.963105,-0.431792,0.0205822,0.362549,-0.233781,-0.177246,-0.0569691,0.0254773,0.447162,-0.0645789,23.479,23.3513,23.1952,23.2946,23.2378,23.3229,23.1669,
10,6.27272,1.52974,3.15306,4.23841,6.27099,2.00142,1.55352,0.018348,-0.0043201,-0.0162058,-0.0261995,0.00864312,0.000431132,0,0.110884,-6.63928,0.500085,152.155,1.13647,-158.739,1.78304,-0.0499647,-20,-0.436176,20,-0.0978438,-1.10281,0.00615557,-8.03873e-05,-8.44693e-05,2.3254e-05,0.494496,0.00105289,0.0163484,-0.00635923,-0.0018511,0.00255749,1.50037,9.99233e-05,0.005,45.2012,0.0530581,0.0685434,-0.0441402,-0.0464888,0.0168308,0.872613,0.16149,-1.65052,-1.46663,0.949836,-0.397826,0.0290009,0.338379,-0.387054,-0.161936,0.0821619,0.0444942,0.439105,-0.0684814,23.479,23.3513,23.2094,23.3087,23.2378,23.3229,23.1669,
11,6.27272,1.52974,3.15306,4.23841,6.27099,2.00142,1.55352,0.018348,-0.0043201,-0.0162058,-0.0261995,0.00864312,0.000431132,0,0.112026,-6.64111,0.478124,152.165,1.14203,-158.749,1.80648,-0.0496509,-20,-0.438006,20,-0.0965242,-1.10269,0.00595384,-9.92642e-05,-0.000106447,3.42353e-05,0.494496,0.00105289,0.0163484,-0.00635923,-0.0018511,0.00255749,1.50046,0.000128966,0.005,45.2046,0.059402,0.0732753,-0.0431686,-0.0477402,0.0216303,0.872613,0.16149,-1.65052,-1.46663,0.949836,-0.397826,0.0290009,0.338379,-0.387054,-0.161936,0.0821619,0.0444942,0.439105,-0.0684814,23.479,23.3513,23.2094,23.3087,23.2378,23.3229,23.1669,
12,6.27274,1.52973,3.15304,4.23839,6.271,2.00142,1.55352,0.0194668,-0.00561589,-0.0172687,-0.0232048,0.00780223,0.000324776,0,0.112773,-6.64231,0.47548,152.165,1.14198,-158.751,1.80779,-0.0494315,-20,-0.438268,20,-0.096442,-1.10257,0.00594862,-9.92642e-05,-0.000106447,3.42353e-05,0.494496,0.00105289,0.0163484,-0.00515834,-0.00205981,0.00299024,1.50046,0.000128966,0.005,45.2046,0.059402,0.0732753,-0.0431686,-0.0477402,0.0216303,0.837351,0.195226,-1.6503,-1.4141,0.930606,-0.377493,0.0212163,0.354858,-0.701344,-0.169189,0.386803,0.0726216,0.423146,-0.0645789,23.479,23.3371,23.1811,23.3087,23.252,23.3087,23.1669,
13,6.27274,1.52973,3.15304,4.23839,6.271,2.00142,1.55352,0.0194668,-0.00561589,-0.0172687,-0.0232048,0.00780223,0.000324776,0,0.114219,-6.61878,0.449339,152.068,1.14595,-158.637,1.83655,-0.0490338,-20,-0.440029,20,-0.0948741,-1.1027,0.00606595,-0.000119729,-0.000120995,4.52367e-05,0.494496,0.00105289,0.0163484,-0.00515834,-0.00205981,0.00299024,1.50053,0.000157924,0.005,45.1705,0.0665319,0.0602928,-0.0454938,-0.0399516,0.0256811,0.837351,0.195226,-1.6503,-1.4141,0.930606,-0.377493,0.0212163,0.354858,-0.701344,-0.169189,0.386803,0.0726216,0.423146,-0.0645789,23.479,23.3371,23.1811,23.3087,23.252,23.3087,23.1669,
14,6.27276,1.52971,3.15303,4.23837,6.271,2.00142,1.55352,0.0190405,-0.0100066,-0.016746,-0.0137923,0.00805837,0.00027714,0,0.115031,-6.61864,0.446291,152.068,1.14606,-158.637,1.83813,-0.0488229,-20,-0.44027,20,-0.0947918,-1.10273,0.00606088,-0.000119729,-0.000120995,4.52367e-05,0.494496,0.00105289,0.0163484,-0.00129041,-0.00197941,0.00446799,1.50053,0.000157924,0.005,45.1705,0.0665319,0.0602928,-0.0454938,-0.0399516,0.0256811,0.793687,0.210302,-1.63197,-1.35191,0.91652,-0.350066,0.030807,0.314312,-0.918775,-0.137907,0.612305,0.076644,0.410889,-0.0685998,23.4648,23.2946,23.1811,23.3229,23.252,23.2946,23.1527,
15,6.27276,1.52971,3.15303,4.23837,6.271,2.00142,1.55352,0.0190405,-0.0100066,-0.016746,-0.0137923,0.00805837,0.00027714,0,0.115198,-6.54034,0.447954,151.735,1.14244,-158.253,1.83063,-0.0487769,-20,-0.438862,20,-0.0947772,-1.10348,0.00610485,-0.000139615,-0.000118353,5.7713e-05,0.494496,0.00105289,0.0163484,-0.00129041,-0.00197941,0.00446799,1.50052,0.000195535,0.005,45.0542,0.0652483,0.0159603,-0.0457394,-0.0123327,0.024691,0.793687,0.210302,-1.63197,-1.35191,0.91652,-0.350066,0.030807,0.314312,-0.918775,-0.137907,0.612305,0.076644,0.410889,-0.0685998,23.4648,23.2946,23.1811,23.3229,23.252,23.2946,23.1527,
16,6.27278,1.52968,3.15301,4.23837,6.27101,2.00142,1.55352,0.0199872,-0.0313313,-0.0168015,-0.000810292,0.00789735,0.000215553,0,0.116146,-6.53743,0.44479,151.735,1.14234,-158.251,1.83171,-0.0485699,-20,-0.438999,20,-0.0947503,-1.10369,0.00610394,-0.000139615,-0.000118353,5.7713e-05,0.494496,0.00105289,0.0163484,0.00814162,-0.00226038,0.0125371,1.50052,0.000195535,0.005,45.0542,0.0652483,0.0159603,-0.0457394,-0.0123327,0.024691,0.773604,0.230977,-1.601,-1.2918,0.905679,-0.316895,0.0488252,0.322266,-1.05554,-0.169189,0.668701,0.080667,0.40688,-0.0604248,23.4932,23.3229,23.1669,23.2946,23.2378,23.3087,23.1527,
17,6.27278,1.52968,3.15301,4.23837,6.27101,2.00142,1.55352,0.0199872,-0.0313313,-0.0168015,-0.000810292,0.00789735,0.000215553,0,0.118932,-6.34374,0.403793,150.914,1.13921,-157.305,1.86165,-0.0478038,-20,-0.439214,20,-0.0921355,-1.10564,0.00610272,-0.000160884,-8.86883e-05,6.99249e-05,0.494496,0.00105289,0.0163484,0.00814162,-0.00226038,0.0125371,1.5004,0.000224004,0.005,44.7677,0.0745314,-0.226114,-0.0472674,0.0573434,0.0270656,0.773604,0.230977,-1.601,-1.2918,0.905679,-0.316895,0.0488252,0.322266,-1.05554,-0.169189,0.668701,0.080667,0.40688,-0.0604248,23.4932,23.3229,23.1669,23.2946,23.2378,23.3087,23.1527,
18,6.27278,1.52968,3.15301,4.23837,6.27101,2.00142,1.55352,0.0199872,-0.0313313,-0.0168015,-0.000810292,0.00789735,0.000215553,0,0.118932,-6.34374,0.403793,150.914,1.13921,-157.305,1.86165,-0.0478038,-20,-0.439214,20,-0.0921355,-1.10564,0.00610272,-0.000160884,-8.86883e-05,6.99249e-05,0.494496,0.00105289,0.0163484,0.00814162,-0.00226038,0.0125371,1.5004,0.000224004,0.005,44.7677,0.0745314,-0.226114,-0.0472674,0.0573434,0.0270656,0.773604,0.230977,-1.601,-1.2918,0.905679,-0.316895,0.0488252,0.322266,-1.05554,-0.169189,0.668701,0.080667,0.40688,-0.0604248,23.4932,23.3229,23.1669,23.2946,23.2378,23.3087,23.1527,
19,6.2728,1.52964,3.15299,4.23838,6.27102,2.00142,1.55352,0.0189068,-0.0469493,-0.0172862,0.011074,0.00846019,0.000108259,0,0.119734,-6.33783,0.40103,150.915,1.13884,-157.3,1.8621,-0.0476089,-20,-0.439323,20,-0.092116,-1.10603,0.00610298,-0.000160884,-8.86883e-05,6.99249e-05,0.494496,0.00105289,0.0163484,0.015724,-0.00156916,0.0183825,1.5004,0.000224004,0.005,44.7677,0.0745314,-0.226114,-0.0472674,0.0573434,0.0270656,0.745819,0.272491,-1.61856,-1.3002,0.908346,-0.273354,0.0581007,0.298205,-0.76555,-0.177429,0.636475,0.0927389,0.390768,-0.0644531,23.479,23.3229,23.1811,23.2804,23.2378,23.3087,23.1527,
20,6.2728,1.52964,3.15299,4.23838,6.27102,2.00142,1.55352,0.0189068,-0.0469493,-0.0172862,0.011074,0.00846019,0.000108259,0,0.116599,-6.18141,0.470122,150.239,1.12967,-156.526,1.78289,-0.0484712,-20,-0.431122,20,-0.0956809,-1.1078,0.00671549,-0.000182526,-3.17503e-05,7.90343e-05,0.494496,0.00105289,0.0163484,0.015724,-0.00156916,0.0183825,1.50017,0.00024541,0.005,44.5332,0.0544372,-0.401475,-0.0501322,0.114381,0.023939,0.745819,0.272491,-1.61856,-1.3002,0.908346,-0.273354,0.0581007,0.298205,-0.76555,-0.177429,0.636475,0.0927389,0.390768,-0.0644531,23.479,23.3229,23.1811,23.2804,23.2378,23.3087,23.1527,
21,6.27282,1.52958,3.15297,4.2384,6.27103,2.00142,1.55352,0.0183666,-0.0571752,-0.0172687,0.019447,0.00861007,0.000108259,0,0.117346,-6.17366,0.467607,150.241,1.12932,-156.519,1.78333,-0.04828,-20,-0.431212,20,-0.0956442,-1.10836,0.00671511,-0.000182526,-3.17503e-05,7.90343e-05,0.494496,0.00105289,0.0163484,0.0208581,-0.00129767,0.0222006,1.50017,0.00024541,0.005,44.5332,0.0544372,-0.401475,-0.0501322,0.114381,0.023939,0.754413,0.399398,-1.58493,-1.35147,0.906696,-0.237859,0.048841,0.330715,-0.676806,-0.177246,0.596246,0.0846906,0.38269,-0.0684814,23.479,23.3513,23.1811,23.2946,23.2236,23.2946,23.1385,
22,6.27282,1.52958,3.15297,4.2384,6.27103,2.00142,1.55352,0.0183666,-0.0571752,-0.0172687,0.019447,0.00861007,0.000108259,0,0.116413,-6.064,0.492033,149.769,1.12424,-155.979,1.75173,-0.0485366,-20,-0.427429,20,-0.0968146,-1.10961,0.00697212,-0.000204396,4.76901e-05,8.75142e-05,0.494496,0.00105289,0.0163484,0.0208581,-0.00129767,0.0222006,1.49984,0.000262765,0.005,44.3694,0.0468131,-0.516019,-0.0514721,0.154751,0.0227349,0.754413,0.399398,-1.58493,-1.35147,0.906696,-0.237859,0.048841,0.330715,-0.676806,-0.177246,0.596246,0.0846906,0.38269,-0.0684814,23.479,23.3513,23.1811,23.2946,23.2236,23.2946,23.1385,
23,6.27282,1.52958,3.15297,4.2384,6.27103,2.00142,1.55352,0.0183666,-0.0571752,-0.0172687,0.019447,0.00861007,0.000108259,0,0.116413,-6.064,0.492033,149.769,1.12424,-155.979,1.75173,-0.0485366,-20,-0.427429,20,-0.0968146,-1.10961,0.00697212,-0.000204396,4.76901e-05,8.75142e-05,0.494496,0.00105289,0.0163484,0.0208581,-0.00129767,0.0222006,1.49984,0.000262765,0.005,44.3694,0.0468131,-0.516019,-0.0514721,0.154751,0.0227349,0.754413,0.399398,-1.58493,-1.35147,0.906696,-0.237859,0.048841,0.330715,-0.676806,-0.177246,0.596246,0.0846906,0.38269,-0.0684814,23.479,23.3513,23.1811,23.2946,23.2236,23.2946,23.1385,
24,6.27284,1.52951,3.15296,4.23843,6.27104,2.00142,1.55352,0.0175538,-0.0642832,-0.0170161,0.0255784,0.0091422,5.85117e-05,0,0.117089,-6.05555,0.489558,149.771,1.12379,-155.972,1.75216,-0.0483471,-20,-0.427532,20,-0.096758,-1.11025,0.00697079,-0.000204396,4.76901e-05,8.75142e-05,0.494496,0.00105289,0.0163484,0.0245152,-0.000963293,0.02484,1.49984,0.000262765,0.005,44.3694,0.0468131,-0.516019,-0.0514721,0.154751,0.0227349,0.756568,0.547955,-1.58353,-1.47179,0.901444,-0.236878,0.0495315,0.346436,-0.676758,-0.185478,0.660694,0.0887145,0.374655,-0.0645789,23.479,23.3229,23.1811,23.2946,23.2236,23.2946,23.1385,
25,6.27284,1.52951,3.15296,4.23843,6.27104,2.00142,1.55352,0.0175538,-0.0642832,-0.0170161,0.0255784,0.0091422,5.85117e-05,0,0.115677,-5.97495,0.52132,149.423,1.11828,-155.574,1.71447,-0.0487353,-20,-0.42362,20,-0.0984073,-1.11122,0.00723184,-0.000226332,0.000136979,9.59768e-05,0.494496,0.00105289,0.0163484,0.0245152,-0.000963293,0.02484,1.49947,0.000283256,0.005,44.2486,0.0373965,-0.5952,-0.052555,0.18469,0.0203629,0.756568,0.547955,-1.58353,-1.47179,0.901444,-0.236878,0.0495315,0.346436,-0.676758,-0.185478,0.660694,0.0887145,0.374655,-0.0645789,23.479,23.3229,23.1811,23.2946,23.2236,23.2946,23.1385,
26,6.27285,1.52945,3.15294,4.23846,6.27105,2.00142,1.55352,0.0156498,-0.0696851,-0.0165507,0.0307599,0.0096555,0,0,0.116268,-5.96593,0.519627,149.424,1.11782,-155.566,1.71437,-0.0485461,-20,-0.423679,20,-0.0983607,-1.11193,0.00723154,-0.000226332,0.000136979,9.59768e-05,0.494496,0.00105289,0.0163484,0.0274423,-0.0002679,0.026829,1.49947,0.000283256,0.005,44.2486,0.0373965,-0.5952,-0.052555,0.18469,0.0203629,0.735963,0.719434,-1.55291,-1.57669,0.921484,-0.211852,0.043734,0.362638,-0.725142,-0.209628,0.725142,0.0887145,0.358543,-0.0685998,23.4648,23.3229,23.1811,23.3087,23.2378,23.2804,23.1385,
27,6.27285,1.52945,3.15294,4.23846,6.27105,2.00142,1.55352,0.0156498,-0.0696851,-0.0165507,0.0307599,0.0096555,0,0,0.112542,-5.90022,0.594415,149.134,1.10989,-155.237,1.63302,-0.0495707,-20,-0.416483,20,-0.102428,-1.11284,0.00763267,-0.000248928,0.000234922,0.000101656,0.494496,0.00105289,0.0163484,0.0274423,-0.0002679,0.026829,1.49906,0.00028186,0.005,44.1486,0.0164928,-0.654869,-0.0531686,0.209652,0.015771,0.735963,0.719434,-1.55291,-1.57669,0.921484,-0.211852,0.043734,0.362638,-0.725142,-0.209628,0.725142,0.0887145,0.358543,-0.0685998,23.4648,23.3229,23.1811,23.3087,23.2378,23.2804,23.1385,
28,6.27285,1.52945,3.15294,4.23846,6.27105,2.00142,1.55352,0.0156498,-0.0696851,-0.0165507,0.0307599,0.0096555,0,0,0.112542,-5.90022,0.594415,149.134,1.10989,-155.237,1.63302,-0.0495707,-20,-0.416483,20,-0.102428,-1.11284,0.00763267,-0.000248928,0.000234922,0.000101656,0.494496,0.00105289,0.0163484,0.0274423,-0.0002679,0.026829,1.49906,0.00028186,0.005,44.1486,0.0164928,-0.654869,-0.0531686,0.209652,0.015771,0.735963,0.719434,-1.55291,-1.57669,0.921484,-0.211852,0.043734,0.362638,-0.725142,-0.209628,0.725142,0.0887145,0.358543,-0.0685998,23.4648,23.3229,23.1811,23.3087,23.2378,23.2804,23.1385,
29,6.27287,1.52937,3.15292,4.23849,6.27106,2.00142,1.55352,0.0151255,-0.0777881,-0.016746,0.0361931,0.0100066,-5.52838e-05,0,0.113147,-5.88972,0.592652,149.136,1.10926,-155.228,1.63258,-0.0493987,-20,-0.416499,20,-0.102417,-1.11362,0.00763484,-0.000248928,0.000234922,0.000101656,0.494496,0.00105289,0.0163484,0.0311648,6.34743e-05,0.0298845,1.49906,0.00028186,0.005,44.1486,0.0164928,-0.654869,-0.0531686,0.209652,0.015771,0.654956,1.03291,-1.54409,-1.69597,0.952214,-0.178044,0.0529973,0.394775,-0.781536,-0.217529,0.821817,0.0887145,0.350487,-0.0645789,23.479,23.3229,23.1669,23.2946,23.2378,23.2804,23.1243,
30,6.27287,1.52937,3.15292,4.23849,6.27106,2.00142,1.55352,0.0151255,-0.0777881,-0.016746,0.0361931,0.0100066,-5.52838e-05,0,0.111615,-5.80611,0.626815,148.774,1.10442,-154.815,1.59336,-0.04982,-20,-0.412341,20,-0.104171,-1.11466,0.00798148,-0.000271038,0.000346043,0.000105816,0.494496,0.00105289,0.0163484,0.0311648,6.34743e-05,0.0298845,1.4986,0.000279802,0.005,44.0231,0.00648984,-0.746536,-0.0550069,0.241043,0.0141118,0.654956,1.03291,-1.54409,-1.69597,0.952214,-0.178044,0.0529973,0.394775,-0.781536,-0.217529,0.821817,0.0887145,0.350487,-0.0645789,23.479,23.3229,23.1669,23.2946,23.2378,23.2804,23.1243,
31,6.27288,1.52928,3.15291,4.23854,6.27107,2.00142,1.55352,0.0129647,-0.0857628,-0.0159358,0.0434857,0.00947682,-0.000131482,0,0.112106,-5.79352,0.625604,148.776,1.10393,-154.804,1.59298,-0.0496627,-20,-0.412318,20,-0.104135,-1.11558,0.00798242,-0.000271038,0.000346043,0.000105816,0.494496,0.00105289,0.0163484,0.0353849,0.000674068,0.0328334,1.4986,0.000279802,0.005,44.0231,0.00648984,-0.746536,-0.0550069,0.241043,0.0141118,0.717554,1.4583,-1.50451,-1.91885,0.941887,-0.17894,0.0435585,0.394858,-0.765762,-0.209473,0.886267,0.0887145,0.346459,-0.0644531,23.4506,23.3229,23.1669,23.3087,23.2236,23.2804,23.1243,
32,6.27288,1.52928,3.15291,4.23854,6.27107,2.00142,1.55352,0.0129647,-0.0857628,-0.0159358,0.0434857,0.00947682,-0.000131482,0,0.108955,-5.69875,0.691145,148.363,1.09659,-154.332,1.5179,-0.050529,-20,-0.405407,20,-0.107615,-1.1168,0.00818919,-0.000291675,0.000477708,0.000109744,0.494496,0.00105289,0.0163484,0.0353849,0.000674068,0.0328334,1.49805,0.000270794,0.005,43.88,-0.0120982,-0.835003,-0.054072,0.276723,0.0108115,0.717554,1.4583,-1.50451,-1.91885,0.941887,-0.17894,0.0435585,0.394858,-0.765762,-0.209473,0.886267,0.0887145,0.346459,-0.0644531,23.4506,23.3229,23.1669,23.3087,23.2236,23.2804,23.1243,
33,6.27288,1.52928,3.15291,4.23854,6.27107,2.00142,1.55352,0.0129647,-0.0857628,-0.0159358,0.0434857,0.00947682,-0.000131482,0,0.108955,-5.69875,0.691145,148.363,1.09659,-154.332,1.5179,-0.050529,-20,-0.405407,20,-0.107615,-1.1168,0.00818919,-0.000291675,0.000477708,0.000109744,0.494496,0.00105289,0.0163484,0.0353849,0.000674068,0.0328334,1.49805,0.000270794,0.005,43.88,-0.0120982,-0.835003,-0.054072,0.276723,0.0108115,0.717554,1.4583,-1.50451,-1.91885,0.941887,-0.17894,0.0435585,0.394858,-0.765762,-0.209473,0.886267,0.0887145,0.346459,-0.0644531,23.4506,23.3229,23.1669,23.3087,23.2236,23.2804,23.1243,
34,6.27289,1.52919,3.15289,4.23859,6.27108,2.00142,1.55352,0.0115353,-0.093359,-0.0162058,0.0514075,0.00912582,-0.000225681,0,0.109447,-5.68485,0.690109,148.365,1.09605,-154.32,1.51726,-0.0503759,-20,-0.405349,20,-0.107595,-1.1178,0.00819147,-0.000291675,0.000477708,0.000109744,0.494496,0.00105289,0.0163484,0.0396798,0.00132101,0.0356257,1.49805,0.000270794,0.005,43.88,-0.0120982,-0.835003,-0.054072,0.276723,0.0108115,0.764105,1.80196,-1.51029,-2.12731,0.936177,-0.254453,0.0562274,0.459229,-0.757496,-0.257938,0.894287,0.088623,0.330347,-0.0605589,23.4648,23.2946,23.1527,23.2804,23.2094,23.2804,23.1385,
35,6.27289,1.52919,3.15289,4.23859,6.27108,2.00142,1.55352,0.0115353,-0.093359,-0.0162058,0.0514075,0.00912582,-0.000225681,0,0.106038,-5.58759,0.760627,147.941,1.08967,-153.836,1.43979,-0.0513132,-20,-0.39799,20,-0.111313,-1.11904,0.00865274,-0.000312705,0.000622285,0.000112994,0.494496,0.00105289,0.0163484,0.0396798,0.00132101,0.0356257,1.49745,0.000257015,0.005,43.733,-0.0319198,-0.91877,-0.0554654,0.313356,0.00851962,0.764105,1.80196,-1.51029,-2.12731,0.936177,-0.254453,0.0562274,0.459229,-0.757496,-0.257938,0.894287,0.088623,0.330347,-0.0605589,23.4648,23.2946,23.1527,23.2804,23.2094,23.2804,23.1385,
36,6.27289,1.52919,3.15289,4.23859,6.27108,2.00142,1.55352,0.0115353,-0.093359,-0.0162058,0.0514075,0.00912582,-0.000225681,0,0.106038,-5.58759,0.760627,147.941,1.08967,-153.836,1.43979,-0.0513132,-20,-0.39799,20,-0.111313,-1.11904,0.00865274,-0.000312705,0.000622285,0.000112994,0.494496,0.00105289,0.0163484,0.0396798,0.00132101,0.0356257,1.49745,0.000257015,0.005,43.733,-0.0319198,-0.91877,-0.0554654,0.313356,0.00851962,0.764105,1.80196,-1.51029,-2.12731,0.936177,-0.254453,0.0562274,0.459229,-0.757496,-0.257938,0.894287,0.088623,0.330347,-0.0605589,23.4648,23.2946,23.1527,23.2804,23.2094,23.2804,23.1385,
37,6.2729,1.52909,3.15287,4.23865,6.27109,2.00141,1.55352,0.0102637,-0.0977753,-0.0165507,0.0596311,0.00828019,-0.00029852,0,0.106594,-5.57326,0.760071,147.942,1.08939,-153.824,1.43908,-0.0511536,-20,-0.397887,20,-0.111306,-1.12011,0.00865591,-0.000312705,0.000622285,0.000112994,0.494496,0.00105289,0.0163484,0.0432075,0.0018715,0.0371603,1.49745,0.000257015,0.005,43.733,-0.0319198,-0.91877,-0.0554654,0.313356,0.00851962,0.738392,2.13798,-1.43471,-2.27628,0.955004,-0.261139,0.053552,0.475342,-0.749441,-0.241833,0.878211,0.104814,0.326319,-0.0605589,23.4648,23.3087,23.1527,23.2804,23.2094,23.2804,23.1243,
38,6.2729,1.52909,3.15287,4.23865,6.27109,2.00141,1.55352,0.0102637,-0.0977753,-0.0165507,0.0596311,0.00828019,-0.00029852,0,0.103551,-5.49065,0.822703,147.581,1.08482,-153.412,1.37084,-0.0519901,-20,-0.391411,20,-0.114589,-1.12118,0.00905137,-0.000334968,0.000775383,0.000114962,0.494496,0.00105289,0.0163484,0.0432075,0.0018715,0.0371603,1.49681,0.000225023,0.005,43.608,-0.0493942,-0.964809,-0.0565839,0.34463,0.00737684,0.738392,2.13798,-1.43471,-2.27628,0.955004,-0.261139,0.053552,0.475342,-0.749441,-0.241833,0.878211,0.104814,0.326319,-0.0605589,23.4648,23.3087,23.1527,23.2804,23.2094,23.2804,23.1243,
39,6.2729,1.52909,3.15287,4.23865,6.27109,2.00141,1.55352,0.0102637,-0.0977753,-0.0165507,0.0596311,0.00828019,-0.00029852,0,0.103551,-5.49065,0.822703,147.581,1.08482,-153.412,1.37084,-0.0519901,-20,-0.391411,20,-0.114589,-1.12118,0.00905137,-0.000334968,0.000775383,0.000114962,0.494496,0.00105289,0.0163484,0.0432075,0.0018715,0.0371603,1.49681,0.000225023,0.005,43.608,-0.0493942,-0.964809,-0.0565839,0.34463,0.00737684,0.738392,2.13798,-1.43471,-2.27628,0.955004,-0.261139,0.053552,0.475342,-0.749441,-0.241833,0.878211,0.104814,0.326319,-0.0605589,23.4648,23.3087,23.1527,23.2804,23.2094,23.2804,23.1243,
40,6.27291,1.52899,3.15286,4.23872,6.27109,2.00141,1.55352,0.00972351,-0.100206,-0.0161894,0.0659038,0.00792286,-0.00029852,0,0.104079,-5.47619,0.82194,147.583,1.08452,-153.399,1.37024,-0.0518486,-20,-0.391299,20,-0.11458,-1.12236,0.00905443,-0.000334968,0.000775383,0.000114962,0.494496,0.00105289,0.0163484,0.0456483,0.00196922,0.0379636,1.49681,0.000225023,0.005,43.608,-0.0493942,-0.964809,-0.0565839,0.34463,0.00737684,0.632146,2.61119,-1.46988,-2.51614,0.986452,-0.261139,0.0666039,0.507632,-0.805825,-0.233781,0.862098,0.109063,0.326319,-0.0605589,23.4648,23.2946,23.1669,23.2804,23.2094,23.2804,23.1101,
41,6.27291,1.52899,3.15286,4.23872,6.27109,2.00141,1.55352,0.00972351,-0.100206,-0.0161894,0.0659038,0.00792286,-0.00029852,0,0.103649,-5.41381,0.833868,147.314,1.08189,-153.092,1.35356,-0.0519668,-20,-0.389308,20,-0.115132,-1.12317,0.00911277,-0.000355715,0.000938883,0.000116361,0.494496,0.00105289,0.0163484,0.0456483,0.00196922,0.0379636,1.49613,0.000196329,0.005,43.5146,-0.0531868,-0.988908,-0.0565602,0.368594,0.00688811,0.632146,2.61119,-1.46988,-2.51614,0.986452,-0.261139,0.0666039,0.507632,-0.805825,-0.233781,0.862098,0.109063,0.326319,-0.0605589,23.4648,23.2946,23.1669,23.2804,23.2094,23.2804,23.1101,
42,6.27291,1.52899,3.15286,4.23872,6.27109,2.00141,1.55352,0.00972351,-0.100206,-0.0161894,0.0659038,0.00792286,-0.00029852,0,0.103649,-5.41381,0.833868,147.314,1.08189,-153.092,1.35356,-0.0519668,-20,-0.389308,20,-0.115132,-1.12317,0.00911277,-0.000355715,0.000938883,0.000116361,0.494496,0.00105289,0.0163484,0.0456483,0.00196922,0.0379636,1.49613,0.000196329,0.005,43.5146,-0.0531868,-0.988908,-0.0565602,0.368594,0.00688811,0.632146,2.61119,-1.46988,-2.51614,0.986452,-0.261139,0.0666039,0.507632,-0.805825,-0.233781,0.862098,0.109063,0.326319,-0.0605589,23.4648,23.2946,23.1669,23.2804,23.2094,23.2804,23.1101,
43,6.27291,1.52899,3.15286,4.23872,6.27109,2.00141,1.55352,0.00972351,-0.100206,-0.0161894,0.0659038,0.00792286,-0.00029852,0,0.103649,-5.41381,0.833868,147.314,1.08189,-153.092,1.35356,-0.0519668,-20,-0.389308,20,-0.115132,-1.12317,0.00911277,-0.000355715,0.000938883,0.000116361,0.494496,0.00105289,0.0163484,0.0456483,0.00196922,0.0379636,1.49613,0.000196329,0.005,43.5146,-0.0531868,-0.988908,-0.0565602,0.368594,0.00688811,0.632146,2.61119,-1.46988,-2.51614,0.986452,-0.261139,0.0666039,0.507632,-0.805825,-0.233781,0.862098,0.109063,0.326319,-0.0605589,23.4648,23.2946,23.1669,23.2804,23.2094,23.2804,23.1101,
44,6.27292,1.52888,3.15284,4.23879,6.2711,2.00141,1.55352,0.00864312,-0.102815,-0.0175563,0.0710356,0.00789995,-0.00041167,0,0.104117,-5.39824,0.833751,147.316,1.08129,-153.078,1.35204,-0.0518189,-20,-0.389158,20,-0.115153,-1.12443,0.00911847,-0.000355715,0.000938883,0.000116361,0.494496,0.00105289,0.0163484,0.0478042,0.00280138,0.0388706,1.49613,0.000196329,0.005,43.5146,-0.0531868,-0.988908,-0.0565602,0.368594,0.00688811,0.732493,3.10987,-1.37967,-2.87052,0.968028,-0.23344,0.0662538,0.515625,-0.894432,-0.258316,0.88623,0.116891,0.318339,-0.0644531,23.4648,23.3087,23.1527,23.2946,23.1811,23.2804,23.1243,
45,6.27292,1.52888,3.15284,4.23879,6.2711,2.00141,1.55352,0.00864312,-0.102815,-0.0175563,0.0710356,0.00789995,-0.00041167,0,0.0992189,-5.34202,0.930022,147.063,1.07581,-152.793,1.25396,-0.0531658,-20,-0.380353,20,-0.120339,-1.12533,0.00992572,-0.000378619,0.001115,0.000115175,0.494496,0.00105289,0.0163484,0.0478042,0.00280138,0.0388706,1.49539,0.000152803,0.005,43.4277,-0.0794572,-1.01612,-0.0603372,0.390865,0.00449299,0.732493,3.10987,-1.37967,-2.87052,0.968028,-0.23344,0.0662538,0.515625,-0.894432,-0.258316,0.88623,0.116891,0.318339,-0.0644531,23.4648,23.3087,23.1527,23.2946,23.1811,23.2804,23.1243,
46,6.27292,1.52888,3.15284,4.23879,6.2711,2.00141,1.55352,0.00864312,-0.102815,-0.0175563,0.0710356,0.00789995,-0.00041167,0,0.0992189,-5.34202,0.930022,147.063,1.07581,-152.793,1.25396,-0.0531658,-20,-0.380353,20,-0.120339,-1.12533,0.00992572,-0.000378619,0.001115,0.000115175,0.494496,0.00105289,0.0163484,0.0478042,0.00280138,0.0388706,1.49539,0.000152803,0.005,43.4277,-0.0794572,-1.01612,-0.0603372,0.390865,0.00449299,0.732493,3.10987,-1.37967,-2.87052,0.968028,-0.23344,0.0662538,0.515625,-0.894432,-0.258316,0.88623,0.116891,0.318339,-0.0644531,23.4648,23.3087,23.1527,23.2946,23.1811,23.2804,23.1243,
47,6.27293,1.52878,3.15282,4.23886,6.27111,2.00141,1.55352,0.00809471,-0.105878,-0.0178264,0.0742275,0.00789735,-0.000504636,0,0.0997262,-5.32642,0.929771,147.065,1.07535,-152.779,1.25278,-0.0530201,-20,-0.380185,20,-0.12035,-1.12663,0.00993068,-0.000378619,0.001115,0.000115175,0.494496,0.00105289,0.0163484,0.0495319,0.00311001,0.0400001,1.49539,0.000152803,0.005,43.4277,-0.0794572,-1.01612,-0.0603372,0.390865,0.00449299,0.799967,3.48816,-1.36815,-3.20683,0.94636,-0.250054,0.0872388,0.539855,-0.958876,-0.217529,0.9104,0.112793,0.306179,-0.0644531,23.479,23.2946,23.1527,23.2662,23.2094,23.2804,23.1243,
48,6.27293,1.52878,3.15282,4.23886,6.27111,2.00141,1.55352,0.00809471,-0.105878,-0.0178264,0.0742275,0.00789735,-0.000504636,0,0.0978834,-5.27735,0.967692,146.85,1.07207,-152.535,1.21219,-0.0535267,-20,-0.376278,20,-0.122353,-1.12737,0.0102601,-0.000401154,0.00129486,0.000114797,0.494496,0.00105289,0.0163484,0.0495319,0.00311001,0.0400001,1.49464,0.000107181,0.005,43.3532,-0.0900849,-1.05,-0.0618961,0.410378,0.00329226,0.799967,3.48816,-1.36815,-3.20683,0.94636,-0.250054,0.0872388,0.539855,-0.958876,-0.217529,0.9104,0.112793,0.306179,-0.0644531,23.479,23.2946,23.1527,23.2662,23.2094,23.2804,23.1243,
49,6.27293,1.52878,3.15282,4.23886,6.27111,2.00141,1.55352,0.00809471,-0.105878,-0.0178264,0.0742275,0.00789735,-0.000504636,0,0.0978834,-5.27735,0.967692,146.85,1.07207,-152.535,1.21219,-0.0535267,-20,-0.376278,20,-0.122353,-1.12737,0.0102601,-0.000401154,0.00129486,0.000114797,0.494496,0.00105289,0.0163484,0.0495319,0.00311001,0.0400001,1.49464,0.000107181,0.005,43.3532,-0.0900849,-1.05,-0.0618961,0.410378,0.00329226,0.799967,3.48816,-1.36815,-3.20683,0.94636,-0.250054,0.0872388,0.539855,-0.958876,-0.217529,0.9104,0.112793,0.306179,-0.0644531,23.479,23.2946,23.1527,23.2662,23.2094,23.2804,23.1243,
50,6.27294,1.52867,3.1528,4.23894,6.27112,2.00141,1.55352,0.00752305,-0.109119,-0.0185569,0.0802189,0.00754635,-0.000599101,0,0.0984691,-5.26088,0.967626,146.852,1.0718,-152.52,1.21108,-0.0533634,-20,-0.376093,20,-0.122364,-1.12866,0.0102651,-0.000401154,0.00129486,0.000114797,0.494496,0.00105289,0.0163484,0.0521052,0.00353277,0.0411337,1.49464,0.000107181,0.005,43.3532,-0.0900849,-1.05,-0.0618961,0.410378,0.00329226,0.794037,3.91363,-1.31562,-3.46623,0.98816,-0.316276,0.0739431,0.547852,-0.96683,-0.22573,0.967334,0.124878,0.294067,-0.0645789,23.4506,23.3087,23.1243,23.2662,23.1811,23.252,23.1243,
51,6.27294,1.52867,3.1528,4.23894,6.27112,2.00141,1.55352,0.00752305,-0.109119,-0.0185569,0.0802189,0.00754635,-0.000599101,0,0.095968,-5.1948,1.01896,146.562,1.06839,-152.191,1.15678,-0.0540511,-20,-0.37081,20,-0.12505,-1.12958,0.0107295,-0.000425404,0.00147831,0.000115292,0.494496,0.00105289,0.0163484,0.0521052,0.00353277,0.0411337,1.49387,5.38733e-05,0.005,43.2529,-0.104367,-1.08401,-0.0642103,0.435986,0.00261175,0.794037,3.91363,-1.31562,-3.46623,0.98816,-0.316276,0.0739431,0.547852,-0.96683,-0.22573,0.967334,0.124878,0.294067,-0.0645789,23.4506,23.3087,23.1243,23.2662,23.1811,23.252,23.1243,
52,6.27294,1.52856,3.15278,4.23903,6.27112,2.0014,1.55352,0.00756273,-0.112901,-0.019447,0.0861611,0.00738017,-0.000647479,0,0.0965661,-5.17742,1.01883,146.564,1.06798,-152.175,1.1553,-0.0538976,-20,-0.370597,20,-0.125094,-1.13094,0.0107367,-0.000425404,0.00147831,0.000115292,0.494496,0.00105289,0.0163484,0.0548089,0.00377876,0.0424894,1.49387,5.38733e-05,0.005,43.2529,-0.104367,-1.08401,-0.0642103,0.435986,0.00261175,0.679179,4.44213,-1.34657,-3.80565,1.01811,-0.313651,0.0948078,0.563965,-0.990967,-0.22573,0.926654,0.128969,0.290039,-0.0604248,23.4648,23.2946,23.1527,23.2662,23.2094,23.252,23.1385,
53,6.27294,1.52856,3.15278,4.23903,6.27112,2.0014,1.55352,0.00756273,-0.112901,-0.019447,0.0861611,0.00738017,-0.000647479,0,0.0951009,-5.10759,1.05073,146.26,1.06554,-151.829,1.12112,-0.0543004,-20,-0.366847,20,-0.126698,-1.13189,0.0111661,-0.000449884,0.00167226,0.000113741,0.494496,0.00105289,0.0163484,0.0548089,0.00377876,0.0424894,1.49306,-3.01163e-06,0.005,43.1475,-0.113453,-1.12468,-0.0670172,0.46308,0.00272242,0.679179,4.44213,-1.34657,-3.80565,1.01811,-0.313651,0.0948078,0.563965,-0.990967,-0.22573,0.926654,0.128969,0.290039,-0.0604248,23.4648,23.2946,23.1527,23.2662,23.2094,23.252,23.1385,
54,6.27294,1.52856,3.15278,4.23903,6.27112,2.0014,1.55352,0.00756273,-0.112901,-0.019447,0.0861611,0.00738017,-0.000647479,0,0.0951009,-5.10759,1.05073,146.26,1.06554,-151.829,1.12112,-0.0543004,-20,-0.366847,20,-0.126698,-1.13189,0.0111661,-0.000449884,0.00167226,0.000113741,0.494496,0.00105289,0.0163484,0.0548089,0.00377876,0.0424894,1.49306,-3.01163e-06,0.005,43.1475,-0.113453,-1.12468,-0.0670172,0.46308,0.00272242,0.679179,4.44213,-1.34657,-3.80565,1.01811,-0.313651,0.0948078,0.563965,-0.990967,-0.22573,0.926654,0.128969,0.290039,-0.0604248,23.4648,23.2946,23.1527,23.2662,23.2094,23.252,23.1385,
55,6.27294,1.52856,3.15278,4.23903,6.27112,2.0014,1.55352,0.00756273,-0.112901,-0.019447,0.0861611,0.00738017,-0.000647479,0,0.0951009,-5.10759,1.05073,146.26,1.06554,-151.829,1.12112,-0.0543004,-20,-0.366847,20,-0.126698,-1.13189,0.0111661,-0.000449884,0.00167226,0.000113741,0.494496,0.00105289,0.0163484,0.0548089,0.00377876,0.0424894,1.49306,-3.01163e-06,0.005,43.1475,-0.113453,-1.12468,-0.0670172,0.46308,0.00272242,0.679179,4.44213,-1.34657,-3.80565,1.01811,-0.313651,0.0948078,0.563965,-0.990967,-0.22573,0.926654,0.128969,0.290039,-0.0604248,23.4648,23.2946,23.1527,23.2662,23.2094,23.252,23.1385,
56,6.27295,1.52843,3.15276,4.23912,6.27113,2.0014,1.55352,0.00729263,-0.115746,-0.0205274,0.091563,0.00719773,-0.00073137,0,0.095697,-5.08912,1.05087,146.262,1.06516,-151.813,1.11954,-0.054142,-20,-0.366607,20,-0.126737,-1.13338,0.0111734,-0.000449884,0.00167226,0.000113741,0.494496,0.00105289,0.0163484,0.0571059,0.00419566,0.0434891,1.49306,-3.01163e-06,0.005,43.1475,-0.113453,-1.12468,-0.0670172,0.46308,0.00272242,0.799352,5.05748,-1.27183,-4.29635,0.985082,-0.257106,0.0766171,0.555908,-0.991098,-0.185478,0.926654,0.137022,0.277954,-0.0569691,23.4364,23.3087,23.1527,23.252,23.1952,23.2662,23.1101,
57,6.27295,1.52843,3.15276,4.23912,6.27113,2.0014,1.55352,0.00729263,-0.115746,-0.0205274,0.091563,0.00719773,-0.00073137,0,0.0931421,-5.02649,1.103,145.987,1.06206,-151.5,1.06564,-0.0548444,-20,-0.361315,20,-0.129467,-1.13429,0.0117281,-0.000475377,0.00188232,0.00011205,0.494496,0.00105289,0.0163484,0.0571059,0.00419566,0.0434891,1.49218,-6.74773e-05,0.005,43.0522,-0.127894,-1.15467,-0.0702014,0.487791,0.00223425,0.799352,5.05748,-1.27183,-4.29635,0.985082,-0.257106,0.0766171,0.555908,-0.991098,-0.185478,0.926654,0.137022,0.277954,-0.0569691,23.4364,23.3087,23.1527,23.252,23.1952,23.2662,23.1101,
58,6.27295,1.52843,3.15276,4.23912,6.27113,2.0014,1.55352,0.00729263,-0.115746,-0.0205274,0.091563,0.00719773,-0.00073137,0,0.0931421,-5.02649,1.103,145.987,1.06206,-151.5,1.06564,-0.0548444,-20,-0.361315,20,-0.129467,-1.13429,0.0117281,-0.000475377,0.00188232,0.00011205,0.494496,0.00105289,0.0163484,0.0571059,0.00419566,0.0434891,1.49218,-6.74773e-05,0.005,43.0522,-0.127894,-1.15467,-0.0702014,0.487791,0.00223425,0.799352,5.05748,-1.27183,-4.29635,0.985082,-0.257106,0.0766171,0.555908,-0.991098,-0.185478,0.926654,0.137022,0.277954,-0.0569691,23.4364,23.3087,23.1527,23.252,23.1952,23.2662,23.1101,
59,6.27296,1.52832,3.15274,4.23922,6.27114,2.0014,1.55352,0.00702253,-0.117222,-0.0216078,0.0965459,0.00719773,-0.000809414,0,0.093748,-5.00799,1.1032,145.989,1.06176,-151.483,1.06418,-0.0546787,-20,-0.36107,20,-0.129491,-1.13583,0.0117347,-0.000475377,0.00188232,0.00011205,0.494496,0.00105289,0.0163484,0.0589165,0.00462536,0.0439602,1.49218,-6.74773e-05,0.005,43.0522,-0.127894,-1.15467,-0.0702014,0.487791,0.00223425,0.889806,5.54028,-1.24259,-4.76806,0.936664,-0.237908,0.0921391,0.563965,-1.03931,-0.161334,0.918492,0.140991,0.2659,-0.0569691,23.4506,23.2946,23.1385,23.2662,23.1811,23.2662,23.1101,
60,6.27296,1.52832,3.15274,4.23922,6.27114,2.0014,1.55352,0.00702253,-0.117222,-0.0216078,0.0965459,0.00719773,-0.000809414,0,0.0910577,-4.95475,1.15735,145.753,1.05861,-151.216,1.00893,-0.0554183,-20,-0.355764,20,-0.132355,-1.13665,0.0123119,-0.000501532,0.00209744,0.000111142,0.494496,0.00105289,0.0163484,0.0589165,0.00462536,0.0439602,1.49127,-0.000135103,0.005,42.9707,-0.142814,-1.16881,-0.0735279,0.509136,0.00145541,0.889806,5.54028,-1.24259,-4.76806,0.936664,-0.237908,0.0921391,0.563965,-1.03931,-0.161334,0.918492,0.140991,0.2659,-0.0569691,23.4506,23.2946,23.1385,23.2662,23.1811,23.2662,23.1101,
61,6.27297,1.5282,3.15272,4.23932,6.27115,2.0014,1.55352,0.00649868,-0.117222,-0.0232995,0.0983155,0.00741975,-0.000870848,0,0.0917275,-4.93771,1.15795,145.755,1.05824,-151.201,1.00692,-0.0552208,-20,-0.355516,20,-0.132403,-1.1382,0.0123202,-0.000501532,0.00209744,0.000111142,0.494496,0.00105289,0.0163484,0.0594114,0.00533859,0.0439365,1.49127,-0.000135103,0.005,42.9707,-0.142814,-1.16881,-0.0735279,0.509136,0.00145541,0.887798,5.99076,-1.15001,-5.07999,0.978507,-0.305102,0.0601727,0.564022,-1.07962,-0.161334,0.918775,0.145075,0.257844,-0.0605589,23.4364,23.2804,23.1385,23.252,23.1811,23.252,23.1101,
62,6.27297,1.5282,3.15272,4.23932,6.27115,2.0014,1.55352,0.00649868,-0.117222,-0.0232995,0.0983155,0.00741975,-0.000870848,0,0.0871094,-4.9121,1.24705,145.633,1.05448,-151.067,0.91953,-0.0564905,-20,-0.347792,20,-0.137236,-1.13883,0.0131951,-0.000531756,0.00230678,0.00010817,0.494496,0.00105289,0.0163484,0.0594114,0.00533859,0.0439365,1.4904,-0.00022274,0.005,42.9295,-0.16684,-1.16809,-0.0783313,0.520885,-0.000297568,0.887798,5.99076,-1.15001,-5.07999,0.978507,-0.305102,0.0601727,0.564022,-1.07962,-0.161334,0.918775,0.145075,0.257844,-0.0605589,23.4364,23.2804,23.1385,23.252,23.1811,23.252,23.1101,
63,6.27297,1.5282,3.15272,4.23932,6.27115,2.0014,1.55352,0.00649868,-0.117222,-0.0232995,0.0983155,0.00741975,-0.000870848,0,0.0871094,-4.9121,1.24705,145.633,1.05448,-151.067,0.91953,-0.0564905,-20,-0.347792,20,-0.137236,-1.13883,0.0131951,-0.000531756,0.00230678,0.00010817,0.494496,0.00105289,0.0163484,0.0594114,0.00533859,0.0439365,1.4904,-0.00022274,0.005,42.9295,-0.16684,-1.16809,-0.0783313,0.520885,-0.000297568,0.887798,5.99076,-1.15001,-5.07999,0.978507,-0.305102,0.0601727,0.564022,-1.07962,-0.161334,0.918775,0.145075,0.257844,-0.0605589,23.4364,23.2804,23.1385,23.252,23.1811,23.252,23.1101,
64,6.27297,1.52809,3.15269,4.23942,6.27115,2.00139,1.55352,0.00623874,-0.119383,-0.0240387,0.101454,0.00728726,-0.00100053,0,0.0877925,-4.89393,1.24742,145.635,1.05416,-151.051,0.917787,-0.0563055,-20,-0.34753,20,-0.137283,-1.14035,0.0132031,-0.000531756,0.00230678,0.00010817,0.494496,0.00105289,0.0163484,0.0608794,0.00565175,0.0447176,1.4904,-0.00022274,0.005,42.9295,-0.16684,-1.16809,-0.0783313,0.520885,-0.000297568,0.73868,6.54738,-1.18725,-5.43746,0.998242,-0.376967,0.070807,0.580078,-1.16018,-0.123243,0.982943,0.149102,0.253912,-0.0565402,23.4506,23.2804,23.1243,23.2378,23.1811,23.252,23.0959,
65,6.27297,1.52809,3.15269,4.23942,6.27115,2.00139,1.55352,0.00623874,-0.119383,-0.0240387,0.101454,0.00728726,-0.00100053,0,0.0856696,-4.84746,1.29039,145.43,1.05164,-150.818,0.873685,-0.0568892,-20,-0.34325,20,-0.139545,-1.14108,0.0136601,-0.000560743,0.00251946,0.000105717,0.494496,0.00105289,0.0163484,0.0608794,0.00565175,0.0447176,1.4895,-0.000305206,0.005,42.8585,-0.178709,-1.19153,-0.0809567,0.53972,-0.00080541,0.73868,6.54738,-1.18725,-5.43746,0.998242,-0.376967,0.070807,0.580078,-1.16018,-0.123243,0.982943,0.149102,0.253912,-0.0565402,23.4506,23.2804,23.1243,23.2378,23.1811,23.252,23.0959,
66,6.27297,1.52809,3.15269,4.23942,6.27115,2.00139,1.55352,0.00623874,-0.119383,-0.0240387,0.101454,0.00728726,-0.00100053,0,0.0856696,-4.84746,1.29039,145.43,1.05164,-150.818,0.873685,-0.0568892,-20,-0.34325,20,-0.139545,-1.14108,0.0136601,-0.000560743,0.00251946,0.000105717,0.494496,0.00105289,0.0163484,0.0608794,0.00565175,0.0447176,1.4895,-0.000305206,0.005,42.8585,-0.178709,-1.19153,-0.0809567,0.53972,-0.00080541,0.73868,6.54738,-1.18725,-5.43746,0.998242,-0.376967,0.070807,0.580078,-1.16018,-0.123243,0.982943,0.149102,0.253912,-0.0565402,23.4506,23.2804,23.1243,23.2378,23.1811,23.252,23.0959,
67,6.27298,1.52796,3.15267,4.23952,6.27116,2.00139,1.55352,0.00621224,-0.119867,-0.0253892,0.104258,0.00781529,-0.00112205,0,0.0863574,-4.82877,1.29086,145.432,1.05113,-150.801,0.871308,-0.0566948,-20,-0.342971,20,-0.139618,-1.14271,0.0136701,-0.000560743,0.00251946,0.000105717,0.494496,0.00105289,0.0163484,0.0618006,0.00610474,0.0448512,1.4895,-0.000305206,0.005,42.8585,-0.178709,-1.19153,-0.0809567,0.53972,-0.00080541,0.818389,7.08185,-1.11081,-5.83851,0.971502,-0.383362,0.0493533,0.58819,-1.16116,-0.088623,0.999023,0.157156,0.233781,-0.0605589,23.4506,23.2662,23.1385,23.252,23.1811,23.252,23.0959,
68,6.27298,1.52796,3.15267,4.23952,6.27116,2.00139,1.55352,0.00621224,-0.119867,-0.0253892,0.104258,0.00781529,-0.00112205,0,0.0832939,-4.79264,1.35108,145.268,1.04776,-150.618,0.812023,-0.057537,-20,-0.337444,20,-0.142857,-1.14338,0.0143858,-0.000592073,0.00274422,0.00010071,0.494496,0.00105289,0.0163484,0.0618006,0.00610474,0.0448512,1.48854,-0.000400068,0.005,42.8023,-0.195144,-1.19554,-0.0854073,0.555001,-0.00219481,0.818389,7.08185,-1.11081,-5.83851,0.971502,-0.383362,0.0493533,0.58819,-1.16116,-0.088623,0.999023,0.157156,0.233781,-0.0605589,23.4506,23.2662,23.1385,23.252,23.1811,23.252,23.0959,
69,6.27298,1.52796,3.15267,4.23952,6.27116,2.00139,1.55352,0.00621224,-0.119867,-0.0253892,0.104258,0.00781529,-0.00112205,0,0.0832939,-4.79264,1.35108,145.268,1.04776,-150.618,0.812023,-0.057537,-20,-0.337444,20,-0.142857,-1.14338,0.0143858,-0.000592073,0.00274422,0.00010071,0.494496,0.00105289,0.0163484,0.0618006,0.00610474,0.0448512,1.48854,-0.000400068,0.005,42.8023,-0.195144,-1.19554,-0.0854073,0.555001,-0.00219481,0.818389,7.08185,-1.11081,-5.83851,0.971502,-0.383362,0.0493533,0.58819,-1.16116,-0.088623,0.999023,0.157156,0.233781,-0.0605589,23.4506,23.2662,23.1385,23.252,23.1811,23.252,23.0959,
70,6.27298,1.52784,3.15264,4.23963,6.27117,2.00138,1.55352,0.00594214,-0.118303,-0.0253892,0.105323,0.00834515,-0.00133451,0,0.0839717,-4.77497,1.35137,145.27,1.04734,-150.602,0.810138,-0.0573422,-20,-0.337183,20,-0.142897,-1.14502,0.0143936,-0.000592073,0.00274422,0.00010071,0.494496,0.00105289,0.0163484,0.0616812,0.00626001,0.0441974,1.48854,-0.000400068,0.005,42.8023,-0.195144,-1.19554,-0.0854073,0.555001,-0.00219481,0.84798,7.47566,-1.07425,-6.17281,0.932524,-0.423529,0.0589896,0.580078,-1.19249,-0.0742786,1.03959,0.157156,0.225622,-0.0529843,23.4364,23.2946,23.1385,23.2378,23.1669,23.252,23.1101,
71,6.27298,1.52784,3.15264,4.23963,6.27117,2.00138,1.55352,0.00594214,-0.118303,-0.0253892,0.105323,0.00834515,-0.00133451,0,0.082607,-4.75909,1.37826,145.198,1.04469,-150.522,0.782862,-0.0577174,-20,-0.334718,20,-0.144373,-1.1454,0.0146826,-0.000622938,0.00296567,9.65987e-05,0.494496,0.00105289,0.0163484,0.0616812,0.00626001,0.0441974,1.4876,-0.000493246,0.005,42.7775,-0.202598,-1.17592,-0.0870665,0.562421,-0.00388168,0.84798,7.47566,-1.07425,-6.17281,0.932524,-0.423529,0.0589896,0.580078,-1.19249,-0.0742786,1.03959,0.157156,0.225622,-0.0529843,23.4364,23.2946,23.1385,23.2378,23.1669,23.252,23.1101,
72,6.27298,1.52784,3.15264,4.23963,6.27117,2.00138,1.55352,0.00594214,-0.118303,-0.0253892,0.105323,0.00834515,-0.00133451,0,0.082607,-4.75909,1.37826,145.198,1.04469,-150.522,0.782862,-0.0577174,-20,-0.334718,20,-0.144373,-1.1454,0.0146826,-0.000622938,0.00296567,9.65987e-05,0.494496,0.00105289,0.0163484,0.0616812,0.00626001,0.0441974,1.4876,-0.000493246,0.005,42.7775,-0.202598,-1.17592,-0.0870665,0.562421,-0.00388168,0.84798,7.47566,-1.07425,-6.17281,0.932524,-0.423529,0.0589896,0.580078,-1.19249,-0.0742786,1.03959,0.157156,0.225622,-0.0529843,23.4364,23.2946,23.1385,23.2378,23.1669,23.252,23.1101,
73,6.27299,1.52772,3.15262,4.23974,6.27118,2.00137,1.55352,0.00621224,-0.119532,-0.0255784,0.105338,0.00847761,-0.00194244,0,0.0834356,-4.74159,1.37849,145.2,1.04434,-150.506,0.781006,-0.0575052,-20,-0.334438,20,-0.14444,-1.14695,0.0146918,-0.000622938,0.00296567,9.65987e-05,0.494496,0.00105289,0.0163484,0.0620099,0.00622161,0.0446343,1.4876,-0.000493246,0.005,42.7775,-0.202598,-1.17592,-0.0870665,0.562421,-0.00388168,0.865754,7.78331,-1.01676,-6.44174,0.99068,-0.549949,0.0419543,0.596409,-1.26492,-0.0644531,1.04736,0.157104,0.221594,-0.0523682,23.4364,23.2946,23.1243,23.252,23.1669,23.252,23.0818,
74,6.27299,1.52772,3.15262,4.23974,6.27118,2.00137,1.55352,0.00621224,-0.119532,-0.0255784,0.105338,0.00847761,-0.00194244,0,0.0831921,-4.71684,1.38452,145.092,1.04367,-150.383,0.775085,-0.0575722,-20,-0.33354,20,-0.144719,-1.14729,0.0149047,-0.000655864,0.00317857,9.30514e-05,0.494496,0.00105289,0.0163484,0.0620099,0.00622161,0.0446343,1.48668,-0.000592055,0.005,42.7401,-0.20441,-1.18903,-0.0888922,0.572204,-0.00372326,0.865754,7.78331,-1.01676,-6.44174,0.99068,-0.549949,0.0419543,0.596409,-1.26492,-0.0644531,1.04736,0.157104,0.221594,-0.0523682,23.4364,23.2946,23.1243,23.252,23.1669,23.252,23.0818,
75,6.27299,1.52772,3.15262,4.23974,6.27118,2.00137,1.55352,0.00621224,-0.119532,-0.0255784,0.105338,0.00847761,-0.00194244,0,0.0831921,-4.71684,1.38452,145.092,1.04367,-150.383,0.775085,-0.0575722,-20,-0.33354,20,-0.144719,-1.14729,0.0149047,-0.000655864,0.00317857,9.30514e-05,0.494496,0.00105289,0.0163484,0.0620099,0.00622161,0.0446343,1.48668,-0.000592055,0.005,42.7401,-0.20441,-1.18903,-0.0888922,0.572204,-0.00372326,0.865754,7.78331,-1.01676,-6.44174,0.99068,-0.549949,0.0419543,0.596409,-1.26492,-0.0644531,1.04736,0.157104,0.221594,-0.0523682,23.4364,23.2946,23.1243,23.252,23.1669,23.252,23.0818,
76,6.273,1.52761,3.15259,4.23984,6.27119,2.00136,1.55352,0.00598171,-0.120586,-0.0245789,0.108579,0.00874253,-0.00366583,0,0.0838561,-4.69835,1.38465,145.094,1.04318,-150.367,0.7733,-0.0573846,-20,-0.333283,20,-0.144759,-1.1488,0.0149119,-0.000655864,0.00317857,9.30514e-05,0.494496,0.00105289,0.0163484,0.0632168,0.0060615,0.044793,1.48668,-0.000592055,0.005,42.7401,-0.20441,-1.18903,-0.0888922,0.572204,-0.00372326,0.778786,8.13667,-1.00086,-6.70856,0.979383,-0.68408,0.079537,0.580134,-1.27359,-0.0742786,1.11185,0.157104,0.221558,-0.0529843,23.4506,23.2804,23.1101,23.2378,23.1669,23.2378,23.0959,
77,6.273,1.52761,3.15259,4.23984,6.27119,2.00136,1.55352,0.00598171,-0.120586,-0.0245789,0.108579,0.00874253,-0.00366583,0,0.0845024,-4.65507,1.37472,144.91,1.04076,-150.153,0.779228,-0.057207,-20,-0.333394,20,-0.144174,-1.14898,0.0148271,-0.000685906,0.0033927,8.91028e-05,0.494496,0.00105289,0.0163484,0.0632168,0.0060615,0.044793,1.48575,-0.0006816,0.005,42.6759,-0.202293,-1.19379,-0.0883995,0.585925,-0.00475646,0.778786,8.13667,-1.00086,-6.70856,0.979383,-0.68408,0.079537,0.580134,-1.27359,-0.0742786,1.11185,0.157104,0.221558,-0.0529843,23.4506,23.2804,23.1101,23.2378,23.1669,23.2378,23.0959,
78,6.273,1.52761,3.15259,4.23984,6.27119,2.00136,1.55352,0.00598171,-0.120586,-0.0245789,0.108579,0.00874253,-0.00366583,0,0.0845024,-4.65507,1.37472,144.91,1.04076,-150.153,0.779228,-0.057207,-20,-0.333394,20,-0.144174,-1.14898,0.0148271,-0.000685906,0.0033927,8.91028e-05,0.494496,0.00105289,0.0163484,0.0632168,0.0060615,0.044793,1.48575,-0.0006816,0.005,42.6759,-0.202293,-1.19379,-0.0883995,0.585925,-0.00475646,0.778786,8.13667,-1.00086,-6.70856,0.979383,-0.68408,0.079537,0.580134,-1.27359,-0.0742786,1.11185,0.157104,0.221558,-0.0529843,23.4506,23.2804,23.1101,23.2378,23.1669,23.2378,23.0959,
79,6.273,1.52748,3.15257,4.23995,6.2712,2.00135,1.55352,0.00519895,-0.121258,-0.0237686,0.11182,0.00912883,-0.00643147,0,0.0850578,-4.63566,1.3752,144.912,1.03997,-150.136,0.776771,-0.0570293,-20,-0.333124,20,-0.14423,-1.15057,0.0148357,-0.000685906,0.0033927,8.91028e-05,0.494496,0.00105289,0.0163484,0.06432,0.00618259,0.0446931,1.48575,-0.0006816,0.005,42.6759,-0.202293,-1.19379,-0.0883995,0.585925,-0.00475646,0.796547,8.41151,-0.928094,-7.01573,0.979373,-0.789841,0.0556863,0.58819,-1.28111,-0.0805664,1.10402,0.161183,0.225586,-0.0523682,23.4222,23.2662,23.1385,23.252,23.1669,23.2378,23.0959,
80,6.273,1.52748,3.15257,4.23995,6.2712,2.00135,1.55352,0.00519895,-0.121258,-0.0237686,0.11182,0.00912883,-0.00643147,0,0.0840015,-4.5938,1.39735,144.731,1.03559,-149.925,0.750386,-0.0573197,-20,-0.330627,20,-0.145427,-1.15056,0.0149401,-0.000716174,0.00361826,8.21761e-05,0.494496,0.00105289,0.0163484,0.06432,0.00618259,0.0446931,1.48476,-0.00077761,0.005,42.6131,-0.208806,-1.19079,-0.0883894,0.597249,-0.00721741,0.796547,8.41151,-0.928094,-7.01573,0.979373,-0.789841,0.0556863,0.58819,-1.28111,-0.0805664,1.10402,0.161183,0.225586,-0.0523682,23.4222,23.2662,23.1385,23.252,23.1669,23.2378,23.0959,
81,6.273,1.52748,3.15257,4.23995,6.2712,2.00135,1.55352,0.00519895,-0.121258,-0.0237686,0.11182,0.00912883,-0.00643147,0,0.0840015,-4.5938,1.39735,144.731,1.03559,-149.925,0.750386,-0.0573197,-20,-0.330627,20,-0.145427,-1.15056,0.0149401,-0.000716174,0.00361826,8.21761e-05,0.494496,0.00105289,0.0163484,0.06432,0.00618259,0.0446931,1.48476,-0.00077761,0.005,42.6131,-0.208806,-1.19079,-0.0883894,0.597249,-0.00721741,0.796547,8.41151,-0.928094,-7.01573,0.979373,-0.789841,0.0556863,0.58819,-1.28111,-0.0805664,1.10402,0.161183,0.225586,-0.0523682,23.4222,23.2662,23.1385,23.252,23.1669,23.2378,23.0959,
82,6.27301,1.52735,3.15255,4.24007,6.27121,2.00133,1.55352,0.00512925,-0.123435,-0.022935,0.109335,0.0096555,-0.011055,0,0.0846037,-4.5756,1.3975,144.733,1.03465,-149.909,0.748133,-0.0571539,-20,-0.330344,20,-0.145491,-1.15216,0.014949,-0.000716174,0.00361826,8.21761e-05,0.494496,0.00105289,0.0163484,0.0641915,0.00601521,0.0451338,1.48476,-0.00077761,0.005,42.6131,-0.208806,-1.19079,-0.0883894,0.597249,-0.00721741,0.77731,8.6706,-0.888874,-7.24176,0.955294,-0.934816,0.065937,0.604302,-1.32937,-0.113938,1.09618,0.161183,0.233677,-0.0525229,23.4364,23.2804,23.1243,23.2378,23.1669,23.252,23.0818,
83,6.27301,1.52735,3.15255,4.24007,6.27121,2.00133,1.55352,0.00512925,-0.123435,-0.022935,0.109335,0.0096555,-0.011055,0,0.0851587,-4.55744,1.38755,144.661,1.0329,-149.817,0.756287,-0.0570013,-20,-0.330867,20,-0.144951,-1.15145,0.0149038,-0.000745403,0.00383945,7.62812e-05,0.494496,0.00105289,0.0163484,0.0641915,0.00601521,0.0451338,1.48377,-0.000866123,0.005,42.5874,-0.20644,-1.20401,-0.0883312,0.596237,-0.00827945,0.77731,8.6706,-0.888874,-7.24176,0.955294,-0.934816,0.065937,0.604302,-1.32937,-0.113938,1.09618,0.161183,0.233677,-0.0525229,23.4364,23.2804,23.1243,23.2378,23.1669,23.252,23.0818,
84,6.27301,1.52723,3.15252,4.24018,6.27122,2.00131,1.55352,0.00540195,-0.125325,-0.0215661,0.114945,0.0110563,-0.0147417,0,0.085703,-4.53738,1.38738,144.663,1.03179,-149.799,0.753517,-0.0568267,-20,-0.330614,20,-0.145025,-1.15295,0.0149133,-0.000745403,0.00383945,7.62812e-05,0.494496,0.00105289,0.0163484,0.0663009,0.00566529,0.0453543,1.48377,-0.000866123,0.005,42.5874,-0.20644,-1.20401,-0.0883312,0.596237,-0.00827945,0.798796,8.87298,-0.859205,-7.44048,0.95418,-1.12395,0.0522324,0.612517,-1.29752,-0.11308,1.22464,0.149102,0.274044,-0.0523682,23.408,23.2662,23.1243,23.2378,23.1669,23.2378,23.0818,
85,6.27301,1.52723,3.15252,4.24018,6.27122,2.00131,1.55352,0.00540195,-0.125325,-0.0215661,0.114945,0.0110563,-0.0147417,0,0.087565,-4.47431,1.35525,144.398,1.02764,-149.487,0.78011,-0.0563148,-20,-0.332226,20,-0.143236,-1.15278,0.0147671,-0.000775997,0.00406086,6.79659e-05,0.494496,0.00105289,0.0163484,0.0663009,0.00566529,0.0453543,1.48279,-0.000959615,0.005,42.4947,-0.198747,-1.21063,-0.0881329,0.61271,-0.0105039,0.798796,8.87298,-0.859205,-7.44048,0.95418,-1.12395,0.0522324,0.612517,-1.29752,-0.11308,1.22464,0.149102,0.274044,-0.0523682,23.408,23.2662,23.1243,23.2378,23.1669,23.2378,23.0818,
86,6.27301,1.52723,3.15252,4.24018,6.27122,2.00131,1.55352,0.00540195,-0.125325,-0.0215661,0.114945,0.0110563,-0.0147417,0,0.087565,-4.47431,1.35525,144.398,1.02764,-149.487,0.78011,-0.0563148,-20,-0.332226,20,-0.143236,-1.15278,0.0147671,-0.000775997,0.00406086,6.79659e-05,0.494496,0.00105289,0.0163484,0.0663009,0.00566529,0.0453543,1.48279,-0.000959615,0.005,42.4947,-0.198747,-1.21063,-0.0881329,0.61271,-0.0105039,0.798796,8.87298,-0.859205,-7.44048,0.95418,-1.12395,0.0522324,0.612517,-1.29752,-0.11308,1.22464,0.149102,0.274044,-0.0523682,23.408,23.2662,23.1243,23.2378,23.1669,23.2378,23.0818,
87,6.27301,1.52723,3.15252,4.24018,6.27122,2.00131,1.55352,0.00540195,-0.125325,-0.0215661,0.114945,0.0110563,-0.0147417,0,0.087565,-4.47431,1.35525,144.398,1.02764,-149.487,0.78011,-0.0563148,-20,-0.332226,20,-0.143236,-1.15278,0.0147671,-0.000775997,0.00406086,6.79659e-05,0.494496,0.00105289,0.0163484,0.0663009,0.00566529,0.0453543,1.48279,-0.000959615,0.005,42.4947,-0.198747,-1.21063,-0.0881329,0.61271,-0.0105039,0.798796,8.87298,-0.859205,-7.44048,0.95418,-1.12395,0.0522324,0.612517,-1.29752,-0.11308,1.22464,0.149102,0.274044,-0.0523682,23.408,23.2662,23.1243,23.2378,23.1669,23.2378,23.0818,
88,6.27302,1.52711,3.1525,4.2403,6.27124,2.0013,1.55352,0.00526663,-0.125325,-0.0210676,0.116412,0.0122403,-0.0159277,0,0.0880409,-4.45558,1.35528,144.4,1.02652,-149.47,0.777313,-0.0561611,-20,-0.331975,20,-0.143312,-1.15436,0.0147769,-0.000775997,0.00406086,6.79659e-05,0.494496,0.00105289,0.0163484,0.0667173,0.00569223,0.0452027,1.48279,-0.000959615,0.005,42.4947,-0.198747,-1.21063,-0.0881329,0.61271,-0.0105039,0.725357,9.09297,-0.827752,-7.62283,0.900998,-1.2967,0.0608317,0.580134,-1.26489,-0.153288,1.14407,0.136963,0.294067,-0.0490066,23.4222,23.2804,23.1243,23.252,23.1669,23.2378,23.0818,
89,6.27302,1.52711,3.1525,4.2403,6.27124,2.0013,1.55352,0.00526663,-0.125325,-0.0210676,0.116412,0.0122403,-0.0159277,0,0.0875629,-4.4277,1.3659,144.279,1.02249,-149.331,0.76457,-0.0562925,-20,-0.33065,20,-0.143915,-1.15455,0.0149491,-0.000804694,0.00428255,5.92533e-05,0.494496,0.00105289,0.0163484,0.0667173,0.00569223,0.0452027,1.4818,-0.0010448,0.005,42.4526,-0.202111,-1.20608,-0.0892917,0.622118,-0.0132313,0.725357,9.09297,-0.827752,-7.62283,0.900998,-1.2967,0.0608317,0.580134,-1.26489,-0.153288,1.14407,0.136963,0.294067,-0.0490066,23.4222,23.2804,23.1243,23.252,23.1669,23.2378,23.0818,
90,6.27302,1.52711,3.1525,4.2403,6.27124,2.0013,1.55352,0.00526663,-0.125325,-0.0210676,0.116412,0.0122403,-0.0159277,0,0.0875629,-4.4277,1.3659,144.279,1.02249,-149.331,0.76457,-0.0562925,-20,-0.33065,20,-0.143915,-1.15455,0.0149491,-0.000804694,0.00428255,5.92533e-05,0.494496,0.00105289,0.0163484,0.0667173,0.00569223,0.0452027,1.4818,-0.0010448,0.005,42.4526,-0.202111,-1.20608,-0.0892917,0.622118,-0.0132313,0.725357,9.09297,-0.827752,-7.62283,0.900998,-1.2967,0.0608317,0.580134,-1.26489,-0.153288,1.14407,0.136963,0.294067,-0.0490066,23.4222,23.2804,23.1243,23.252,23.1669,23.2378,23.0818,
91,6.27302,1.52697,3.15248,4.24041,6.27125,2.00128,1.55352,0.00509108,-0.127641,-0.0207975,0.118303,0.0143041,-0.0172862,0,0.0879072,-4.40724,1.36601,144.281,1.02084,-149.313,0.760821,-0.0561419,-20,-0.330388,20,-0.144011,-1.15618,0.0149609,-0.000804694,0.00428255,5.92533e-05,0.494496,0.00105289,0.0163484,0.0678726,0.00589185,0.0459409,1.4818,-0.0010448,0.005,42.4526,-0.202111,-1.20608,-0.0892917,0.622118,-0.0132313,0.735134,9.2532,-0.802432,-7.71389,0.907496,-1.48846,0.0591989,0.604302,-1.27297,-0.169381,1.16041,0.136963,0.298123,-0.0483398,23.4222,23.2662,23.1101,23.2378,23.1669,23.2236,23.0818,
92,6.27302,1.52697,3.15248,4.24041,6.27125,2.00128,1.55352,0.00509108,-0.127641,-0.0207975,0.118303,0.0143041,-0.0172862,0,0.0864728,-4.36386,1.39562,144.091,1.01407,-149.095,0.728331,-0.0565363,-20,-0.327251,20,-0.145666,-1.15654,0.0153501,-0.000834376,0.00451618,4.76039e-05,0.494496,0.00105289,0.0163484,0.0678726,0.00589185,0.0459409,1.48076,-0.00113636,0.005,42.3867,-0.210846,-1.22823,-0.0917309,0.637108,-0.017782,0.735134,9.2532,-0.802432,-7.71389,0.907496,-1.48846,0.0591989,0.604302,-1.27297,-0.169381,1.16041,0.136963,0.298123,-0.0483398,23.4222,23.2662,23.1101,23.2378,23.1669,23.2236,23.0818,
93,6.27302,1.52697,3.15248,4.24041,6.27125,2.00128,1.55352,0.00509108,-0.127641,-0.0207975,0.118303,0.0143041,-0.0172862,0,0.0864728,-4.36386,1.39562,144.091,1.01407,-149.095,0.728331,-0.0565363,-20,-0.327251,20,-0.145666,-1.15654,0.0153501,-0.000834376,0.00451618,4.76039e-05,0.494496,0.00105289,0.0163484,0.0678726,0.00589185,0.0459409,1.48076,-0.00113636,0.005,42.3867,-0.210846,-1.22823,-0.0917309,0.637108,-0.017782,0.735134,9.2532,-0.802432,-7.71389,0.907496,-1.48846,0.0591989,0.604302,-1.27297,-0.169381,1.16041,0.136963,0.298123,-0.0483398,23.4222,23.2662,23.1101,23.2378,23.1669,23.2236,23.0818,
94,6.27303,1.52684,3.15246,4.24053,6.27127,2.00126,1.55352,0.00491552,-0.129785,-0.0210676,0.121004,0.0161246,-0.0189854,0,0.0868319,-4.34363,1.39587,144.093,1.01237,-149.077,0.724321,-0.056384,-20,-0.326992,20,-0.145782,-1.15808,0.015363,-0.000834376,0.00451618,4.76039e-05,0.494496,0.00105289,0.0163484,0.0692122,0.00622276,0.0465606,1.48076,-0.00113636,0.005,42.3867,-0.210846,-1.22823,-0.0917309,0.637108,-0.017782,0.630593,9.48227,-0.803471,-7.77011,0.903944,-1.68422,0.055126,0.596191,-1.25686,-0.161334,1.14407,0.112865,0.302124,-0.0523682,23.4364,23.2662,23.0959,23.2378,23.1669,23.2236,23.0676,
95,6.27303,1.52684,3.15246,4.24053,6.27127,2.00126,1.55352,0.00491552,-0.129785,-0.0210676,0.121004,0.0161246,-0.0189854,0,0.0845999,-4.29717,1.44065,143.888,1.00568,-148.841,0.677429,-0.0569976,-20,-0.322559,20,-0.148246,-1.15838,0.0159092,-0.000864716,0.00474222,3.49911e-05,0.494496,0.00105289,0.0163484,0.0692122,0.00622276,0.0465606,1.47974,-0.00123032,0.005,42.3157,-0.223592,-1.24682,-0.095085,0.652385,-0.0219832,0.630593,9.48227,-0.803471,-7.77011,0.903944,-1.68422,0.055126,0.596191,-1.25686,-0.161334,1.14407,0.112865,0.302124,-0.0523682,23.4364,23.2662,23.0959,23.2378,23.1669,23.2236,23.0676,
96,6.27303,1.52684,3.15246,4.24053,6.27129,2.00124,1.55352,0.00491552,-0.129785,-0.0210676,0.121004,0.0191769,-0.0243088,0,0.0843284,-4.29725,1.44037,143.888,1.00337,-148.841,0.673139,-0.0569835,-20,-0.322644,20,-0.148409,-1.15811,0.0159188,-0.000864716,0.00474222,3.49911e-05,0.494496,0.00105289,0.0163484,0.0692136,0.00650776,0.0459927,1.47974,-0.00123032,0.005,42.3157,-0.223592,-1.24682,-0.095085,0.652385,-0.0219832,0.630593,9.48227,-0.803471,-7.77011,0.881034,-1.90416,0.0433007,0.596191,-1.25686,-0.161334,1.14407,0.104736,0.314312,-0.0523682,23.4364,23.2662,23.0959,23.2378,23.1669,23.2378,23.0818,
97,6.27303,1.52671,3.15244,4.24067,6.27129,2.00124,1.55352,0.00486011,-0.131267,-0.0215661,0.123513,0.0191769,-0.0243088,0,0.083148,-4.27547,1.47406,143.89,0.995965,-148.811,0.638955,-0.057315,-20,-0.319571,20,-0.150358,-1.15867,0.0163709,-0.000873404,0.00471809,1.64997e-05,0.494496,0.00105289,0.0163484,0.0703202,0.00668139,0.0465411,1.47974,-0.00125971,0.005,42.3157,-0.233024,-1.22978,-0.0979764,0.64069,-0.0281091,0.6876,9.64734,-0.796922,-7.82785,0.881034,-1.90416,0.0433007,0.604248,-1.23277,-0.169955,1.12804,0.104736,0.314312,-0.0523682,23.4222,23.2804,23.1101,23.2378,23.1669,23.2378,23.0818,
98,6.27303,1.52671,3.15244,4.24067,6.27129,2.00124,1.55352,0.00486011,-0.131267,-0.0215661,0.123513,0.0191769,-0.0243088,0,0.081847,-4.23272,1.50113,143.701,0.994176,-148.597,0.610736,-0.0576727,-20,-0.316651,20,-0.151753,-1.15942,0.0167033,-0.000898867,0.00497856,1.88106e-05,0.494496,0.00105289,0.0163484,0.0703202,0.00668139,0.0465411,1.47866,-0.00133917,0.005,42.2501,-0.240617,-1.24623,-0.100058,0.659081,-0.028231,0.6876,9.64734,-0.796922,-7.82785,0.881034,-1.90416,0.0433007,0.604248,-1.23277,-0.169955,1.12804,0.104736,0.314312,-0.0523682,23.4222,23.2804,23.1101,23.2378,23.1669,23.2378,23.0818,
99,6.27304,1.52657,3.15242,4.24079,6.27131,2.00121,1.55352,0.00504182,-0.131403,-0.0218557,0.123975,0.0216078,-0.0297107,0,0.0822779,-4.21256,1.50109,143.703,0.992027,-148.579,0.606033,-0.0575152,-20,-0.31639,20,-0.151904,-1.16102,0.0167183,-0.000898867,0.00497856,1.88106e-05,0.494496,0.00105289,0.0163484,0.0704843,0.00691799,0.0460294,1.47866,-0.00133917,0.005,42.2501,-0.240617,-1.24623,-0.100058,0.659081,-0.028231,0.626309,9.75863,-0.74669,-7.86956,0.83551,-2.11189,0.0450756,0.604302,-1.23269,-0.128906,1.12819,0.0685998,0.354515,-0.0443115,23.4364,23.2662,23.1101,23.2378,23.1669,23.2378,23.0676,
100,6.27304,1.52657,3.15242,4.24079,6.27131,2.00121,1.55352,0.00504182,-0.131403,-0.0218557,0.123975,0.0216078,-0.0297107,0,0.0804482,-4.18735,1.53661,143.595,0.985581,-148.446,0.570353,-0.0580182,-20,-0.313065,20,-0.153916,-1.16019,0.0172795,-0.000931922,0.00521038,2.91898e-06,0.494496,0.00105289,0.0163484,0.0704843,0.00691799,0.0460294,1.47757,-0.00143988,0.005,42.2127,-0.250736,-1.23088,-0.103985,0.658675,-0.0327996,0.626309,9.75863,-0.74669,-7.86956,0.83551,-2.11189,0.0450756,0.604302,-1.23269,-0.128906,1.12819,0.0685998,0.354515,-0.0443115,23.4364,23.2662,23.1101,23.2378,23.1669,23.2378,23.0676,
101,6.27304,1.52657,3.15242,4.24079,6.27131,2.00121,1.55352,0.00504182,-0.131403,-0.0218557,0.123975,0.0216078,-0.0297107,0,0.0804482,-4.18735,1.53661,143.595,0.985581,-148.446,0.570353,-0.0580182,-20,-0.313065,20,-0.153916,-1.16019,0.0172795,-0.000931922,0.00521038,2.91898e-06,0.494496,0.00105289,0.0163484,0.0704843,0.00691799,0.0460294,1.47757,-0.00143988,0.005,42.2127,-0.250736,-1.23088,-0.103985,0.658675,-0.0327996,0.626309,9.75863,-0.74669,-7.86956,0.83551,-2.11189,0.0450756,0.604302,-1.23269,-0.128906,1.12819,0.0685998,0.354515,-0.0443115,23.4364,23.2662,23.1101,23.2378,23.1669,23.2378,23.0676,
102,6.27304,1.52645,3.15239,4.24091,6.27133,2.00117,1.55352,0.0050894,-0.130457,-0.0229583,0.125595,0.020563,-0.0318715,0,0.0812059,-4.16785,1.53714,143.597,0.984369,-148.429,0.566369,-0.0578614,-20,-0.312749,20,-0.154138,-1.16169,0.0172979,-0.000931922,0.00521038,2.91898e-06,0.494496,0.00105289,0.0163484,0.0706882,0.00710985,0.0454163,1.47757,-0.00143988,0.005,42.2127,-0.250736,-1.23088,-0.103985,0.658675,-0.0327996,0.635532,9.89784,-0.764415,-7.86956,0.856499,-2.34298,0.056703,0.588631,-1.2653,-0.14502,1.18501,0.0529843,0.398885,-0.0523682,23.4222,23.2662,23.1101,23.2378,23.1527,23.2378,23.0959,
103,6.27304,1.52645,3.15239,4.24091,6.27133,2.00117,1.55352,0.0050894,-0.130457,-0.0229583,0.125595,0.020563,-0.0318715,0,0.0794987,-4.14328,1.57047,143.489,0.984491,-148.302,0.53439,-0.0583308,-20,-0.309613,20,-0.155868,-1.16159,0.017714,-0.000966164,0.00543087,-1.34856e-05,0.494496,0.00105289,0.0163484,0.0706882,0.00710985,0.0454163,1.47653,-0.00154546,0.005,42.1752,-0.259659,-1.21249,-0.106695,0.664531,-0.0315304,0.635532,9.89784,-0.764415,-7.86956,0.856499,-2.34298,0.056703,0.588631,-1.2653,-0.14502,1.18501,0.0529843,0.398885,-0.0523682,23.4222,23.2662,23.1101,23.2378,23.1527,23.2378,23.0959,
104,6.27304,1.52645,3.15239,4.24091,6.27133,2.00117,1.55352,0.0050894,-0.130457,-0.0229583,0.125595,0.020563,-0.0318715,0,0.0794987,-4.14328,1.57047,143.489,0.984491,-148.302,0.53439,-0.0583308,-20,-0.309613,20,-0.155868,-1.16159,0.017714,-0.000966164,0.00543087,-1.34856e-05,0.494496,0.00105289,0.0163484,0.0706882,0.00710985,0.0454163,1.47653,-0.00154546,0.005,42.1752,-0.259659,-1.21249,-0.106695,0.664531,-0.0315304,0.635532,9.89784,-0.764415,-7.86956,0.856499,-2.34298,0.056703,0.588631,-1.2653,-0.14502,1.18501,0.0529843,0.398885,-0.0523682,23.4222,23.2662,23.1101,23.2378,23.1527,23.2378,23.0959,
105,6.27305,1.52632,3.15237,4.24104,6.27135,2.00114,1.55352,0.00509108,-0.126406,-0.0240387,0.128296,0.0188877,-0.0356167,0,0.0803727,-4.12443,1.57113,143.491,0.983786,-148.285,0.531139,-0.0581689,-20,-0.309284,20,-0.156068,-1.16304,0.0177305,-0.000966164,0.00543087,-1.34856e-05,0.494496,0.00105289,0.0163484,0.0703722,0.00724465,0.0433795,1.47653,-0.00154546,0.005,42.1752,-0.259659,-1.21249,-0.106695,0.664531,-0.0315304,0.530695,10.095,-0.740049,-7.79396,0.87691,-2.58448,0.0432555,0.588355,-1.28909,-0.0966797,1.20852,0.0525229,0.40688,-0.0565402,23.4222,23.2804,23.1101,23.2378,23.1669,23.2236,23.0676,
106,6.27305,1.52632,3.15237,4.24104,6.27135,2.00114,1.55352,0.00509108,-0.126406,-0.0240387,0.128296,0.0188877,-0.0356167,0,0.0789011,-4.1098,1.59918,143.428,0.985516,-148.207,0.505082,-0.0585734,-20,-0.306745,20,-0.157498,-1.1624,0.0180571,-0.00100012,0.00564606,-2.75312e-05,0.494496,0.00105289,0.0163484,0.0703722,0.00724465,0.0433795,1.47549,-0.00165397,0.005,42.1535,-0.266959,-1.15139,-0.10879,0.662973,-0.0290823,0.530695,10.095,-0.740049,-7.79396,0.87691,-2.58448,0.0432555,0.588355,-1.28909,-0.0966797,1.20852,0.0525229,0.40688,-0.0565402,23.4222,23.2804,23.1101,23.2378,23.1669,23.2236,23.0676,
107,6.27305,1.5262,3.15234,4.24116,6.27137,2.0011,1.55352,0.00473841,-0.124785,-0.0243245,0.128566,0.0178264,-0.0376153,0,0.0797102,-4.09108,1.60001,143.43,0.984699,-148.19,0.501698,-0.0583928,-20,-0.306413,20,-0.157679,-1.1638,0.0180726,-0.00100012,0.00564606,-2.75312e-05,0.494496,0.00105289,0.0163484,0.0700131,0.0073564,0.0425414,1.47549,-0.00165397,0.005,42.1535,-0.266959,-1.15139,-0.10879,0.662973,-0.0290823,0.581832,10.2114,-0.728656,-7.79915,0.83436,-2.80022,0.0332634,0.58819,-1.40195,-0.0809682,1.17671,0.0684814,0.435077,-0.0443115,23.4364,23.2662,23.1243,23.252,23.1669,23.2378,23.0818,
108,6.27305,1.5262,3.15234,4.24116,6.27137,2.0011,1.55352,0.00473841,-0.124785,-0.0243245,0.128566,0.0178264,-0.0376153,0,0.0783619,-4.07779,1.62597,143.371,0.984648,-148.12,0.476046,-0.0587634,-20,-0.304066,20,-0.159045,-1.16358,0.0182928,-0.00103575,0.0058554,-4.11599e-05,0.494496,0.00105289,0.0163484,0.0700131,0.0073564,0.0425414,1.47445,-0.00177304,0.005,42.1332,-0.273883,-1.12624,-0.109874,0.664674,-0.0283753,0.581832,10.2114,-0.728656,-7.79915,0.83436,-2.80022,0.0332634,0.58819,-1.40195,-0.0809682,1.17671,0.0684814,0.435077,-0.0443115,23.4364,23.2662,23.1243,23.252,23.1669,23.2378,23.0818,
109,6.27305,1.52607,3.15232,4.2413,6.27138,2.00106,1.55352,0.00450162,-0.125738,-0.0251191,0.130149,0.0150461,-0.0394342,0,0.0792481,-4.05717,1.62706,143.373,0.984148,-148.101,0.473074,-0.0586027,-20,-0.303676,20,-0.159246,-1.16503,0.0183096,-0.00103575,0.0058554,-4.11599e-05,0.494496,0.00105289,0.0163484,0.0707153,0.00741205,0.0427181,1.47445,-0.00177304,0.005,42.1332,-0.273883,-1.12624,-0.109874,0.664674,-0.0283753,0.532348,10.2582,-0.677395,-7.76555,0.781045,-2.97536,0.0336398,0.604302,-1.45075,-0.0569691,1.19249,0.0726216,0.443134,-0.036478,23.4222,23.2662,23.1101,23.2236,23.1527,23.2378,23.0676,
110,6.27305,1.52607,3.15232,4.2413,6.27138,2.00106,1.55352,0.00450162,-0.125738,-0.0251191,0.130149,0.0150461,-0.0394342,0,0.0782997,-4.0217,1.6465,143.219,0.987159,-147.921,0.453546,-0.0588634,-20,-0.301504,20,-0.160126,-1.16507,0.0184566,-0.00106977,0.00607821,-5.34406e-05,0.494496,0.00105289,0.0163484,0.0707153,0.00741205,0.0427181,1.47336,-0.00188574,0.005,42.0795,-0.278934,-1.13154,-0.110565,0.675081,-0.0243318,0.532348,10.2582,-0.677395,-7.76555,0.781045,-2.97536,0.0336398,0.604302,-1.45075,-0.0569691,1.19249,0.0726216,0.443134,-0.036478,23.4222,23.2662,23.1101,23.2236,23.1527,23.2378,23.0676,
111,6.27305,1.52607,3.15232,4.2413,6.27138,2.00106,1.55352,0.00450162,-0.125738,-0.0251191,0.130149,0.0150461,-0.0394342,0,0.0782997,-4.0217,1.6465,143.219,0.987159,-147.921,0.453546,-0.0588634,-20,-0.301504,20,-0.160126,-1.16507,0.0184566,-0.00106977,0.00607821,-5.34406e-05,0.494496,0.00105289,0.0163484,0.0707153,0.00741205,0.0427181,1.47336,-0.00188574,0.005,42.0795,-0.278934,-1.13154,-0.110565,0.675081,-0.0243318,0.532348,10.2582,-0.677395,-7.76555,0.781045,-2.97536,0.0336398,0.604302,-1.45075,-0.0569691,1.19249,0.0726216,0.443134,-0.036478,23.4222,23.2662,23.1101,23.2236,23.1527,23.2378,23.0676,
112,6.27306,1.52594,3.1523,4.24144,6.2714,2.00102,1.55352,0.00438742,-0.128393,-0.0250936,0.135049,0.0145853,-0.0434857,0,0.078966,-3.99924,1.64709,143.221,0.986132,-147.902,0.450316,-0.058694,-20,-0.301163,20,-0.160259,-1.16646,0.0184696,-0.00106977,0.00607821,-5.34406e-05,0.494496,0.00105289,0.0163484,0.0728233,0.00741832,0.0432439,1.47336,-0.00188574,0.005,42.0795,-0.278934,-1.13154,-0.110565,0.675081,-0.0243318,0.516082,10.3205,-0.693156,-7.64597,0.816439,-3.18934,0.0604649,0.58819,-1.44234,-0.0644531,1.2086,0.108765,0.443188,-0.0444942,23.4364,23.2662,23.1101,23.2236,23.1527,23.2094,23.0818,
113,6.27306,1.52594,3.1523,4.24144,6.2714,2.00102,1.55352,0.00438742,-0.128393,-0.0250936,0.135049,0.0145853,-0.0434857,0,0.0785496,-3.93462,1.65779,142.943,0.984065,-147.576,0.436135,-0.0588085,-20,-0.299234,20,-0.160719,-1.16619,0.0186275,-0.00110319,0.00630438,-6.36239e-05,0.494496,0.00105289,0.0163484,0.0728233,0.00741832,0.0432439,1.47225,-0.00199318,0.005,41.9827,-0.282345,-1.14732,-0.111616,0.691149,-0.0241111,0.516082,10.3205,-0.693156,-7.64597,0.816439,-3.18934,0.0604649,0.58819,-1.44234,-0.0644531,1.2086,0.108765,0.443188,-0.0444942,23.4364,23.2662,23.1101,23.2236,23.1527,23.2094,23.0818,
114,6.27306,1.52594,3.1523,4.24144,6.2714,2.00102,1.55352,0.00438742,-0.128393,-0.0250936,0.135049,0.0145853,-0.0434857,0,0.0785496,-3.93462,1.65779,142.943,0.984065,-147.576,0.436135,-0.0588085,-20,-0.299234,20,-0.160719,-1.16619,0.0186275,-0.00110319,0.00630438,-6.36239e-05,0.494496,0.00105289,0.0163484,0.0728233,0.00741832,0.0432439,1.47225,-0.00199318,0.005,41.9827,-0.282345,-1.14732,-0.111616,0.691149,-0.0241111,0.516082,10.3205,-0.693156,-7.64597,0.816439,-3.18934,0.0604649,0.58819,-1.44234,-0.0644531,1.2086,0.108765,0.443188,-0.0444942,23.4364,23.2662,23.1101,23.2236,23.1527,23.2094,23.0818,
115,6.27306,1.52581,3.15227,4.24157,6.27141,2.00097,1.55352,0.00438886,-0.132348,-0.0251446,0.138959,0.0145853,-0.044296,0,0.0791516,-3.91219,1.65844,142.946,0.982954,-147.556,0.43269,-0.058641,-20,-0.298886,20,-0.160858,-1.16755,0.0186409,-0.00110319,0.00630438,-6.36239e-05,0.494496,0.00105289,0.0163484,0.0749939,0.00745129,0.0446526,1.47225,-0.00199318,0.005,41.9827,-0.282345,-1.14732,-0.111616,0.691149,-0.0241111,0.402592,10.5097,-0.696395,-7.5058,0.861421,-3.3668,0.0317234,0.580078,-1.41799,-0.0563965,1.15235,0.108839,0.463257,-0.0523682,23.4364,23.252,23.0959,23.2236,23.1385,23.2236,23.0676,
116,6.27306,1.52581,3.15227,4.24157,6.27141,2.00097,1.55352,0.00438886,-0.132348,-0.0251446,0.138959,0.0145853,-0.044296,0,0.0785996,-3.84733,1.67216,142.663,0.980175,-147.231,0.415679,-0.0587927,-20,-0.296701,20,-0.161499,-1.16808,0.0188685,-0.00113659,0.00652761,-7.43696e-05,0.494496,0.00105289,0.0163484,0.0749939,0.00745129,0.0446526,1.47114,-0.00210367,0.005,41.8843,-0.286649,-1.18958,-0.113201,0.714187,-0.0246067,0.402592,10.5097,-0.696395,-7.5058,0.861421,-3.3668,0.0317234,0.580078,-1.41799,-0.0563965,1.15235,0.108839,0.463257,-0.0523682,23.4364,23.252,23.0959,23.2236,23.1385,23.2236,23.0676,
117,6.27307,1.52568,3.15224,4.24172,6.27143,2.00093,1.55352,0.00456291,-0.131267,-0.0243017,0.145853,0.0143079,-0.0445948,0,0.079324,-3.82495,1.67241,142.665,0.979529,-147.21,0.412986,-0.058616,-20,-0.296366,20,-0.161617,-1.16945,0.0188802,-0.00113659,0.00652761,-7.43696e-05,0.494496,0.00105289,0.0163484,0.0766759,0.00712948,0.0440422,1.47114,-0.00210367,0.005,41.8843,-0.286649,-1.18958,-0.113201,0.714187,-0.0246067,0.477239,10.6396,-0.673116,-7.42374,0.83942,-3.51195,0.0385689,0.596191,-1.33895,-0.0563965,1.1361,0.109063,0.459246,-0.0485074,23.408,23.2804,23.1101,23.2094,23.1385,23.2236,23.0676,
118,6.27307,1.52568,3.15224,4.24172,6.27143,2.00093,1.55352,0.00456291,-0.131267,-0.0243017,0.145853,0.0143079,-0.0445948,0,0.0808312,-3.76858,1.64671,142.423,0.978544,-146.932,0.434601,-0.0582017,-20,-0.297559,20,-0.16011,-1.16988,0.0187307,-0.00117088,0.00675298,-8.41597e-05,0.494496,0.00105289,0.0163484,0.0766759,0.00712948,0.0440422,1.47,-0.00221489,0.005,41.7999,-0.280331,-1.17127,-0.112761,0.734254,-0.0242119,0.477239,10.6396,-0.673116,-7.42374,0.83942,-3.51195,0.0385689,0.596191,-1.33895,-0.0563965,1.1361,0.109063,0.459246,-0.0485074,23.408,23.2804,23.1101,23.2094,23.1385,23.2236,23.0676,
119,6.27307,1.52568,3.15224,4.24172,6.27143,2.00093,1.55352,0.00456291,-0.131267,-0.0243017,0.145853,0.0143079,-0.0445948,0,0.0808312,-3.76858,1.64671,142.423,0.978544,-146.932,0.434601,-0.0582017,-20,-0.297559,20,-0.16011,-1.16988,0.0187307,-0.00117088,0.00675298,-8.41597e-05,0.494496,0.00105289,0.0163484,0.0766759,0.00712948,0.0440422,1.47,-0.00221489,0.005,41.7999,-0.280331,-1.17127,-0.112761,0.734254,-0.0242119,0.477239,10.6396,-0.673116,-7.42374,0.83942,-3.51195,0.0385689,0.596191,-1.33895,-0.0563965,1.1361,0.109063,0.459246,-0.0485074,23.408,23.2804,23.1101,23.2094,23.1385,23.2236,23.0676,
120,6.27307,1.52555,3.15222,4.24187,6.27144,2.00088,1.55352,0.00468169,-0.128566,-0.0232284,0.147452,0.0148554,-0.044296,0,0.0814283,-3.7474,1.6467,142.424,0.977505,-146.912,0.431706,-0.0580521,-20,-0.297232,20,-0.160221,-1.17147,0.0187425,-0.00117088,0.00675298,-8.41597e-05,0.494496,0.00105289,0.0163484,0.0764128,0.00682672,0.0429767,1.47,-0.00221489,0.005,41.7999,-0.280331,-1.17127,-0.112761,0.734254,-0.0242119,0.456724,10.7662,-0.643197,-7.39091,0.833581,-3.55922,0.0151551,0.572078,-1.38584,-0.0569691,1.03128,0.105046,0.447144,-0.041081,23.4222,23.2804,23.1243,23.2236,23.1527,23.2378,23.0818,
121,6.27307,1.52555,3.15222,4.24187,6.27144,2.00088,1.55352,0.00468169,-0.128566,-0.0232284,0.147452,0.0148554,-0.044296,0,0.0827491,-3.72896,1.62278,142.346,0.976008,-146.823,0.4535,-0.0576891,-20,-0.298897,20,-0.158922,-1.17176,0.0186002,-0.001203,0.0069922,-9.54868e-05,0.494496,0.00105289,0.0163484,0.0764128,0.00682672,0.0429767,1.46883,-0.00231638,0.005,41.7724,-0.274293,-1.1393,-0.112317,0.742225,-0.0253766,0.456724,10.7662,-0.643197,-7.39091,0.833581,-3.55922,0.0151551,0.572078,-1.38584,-0.0569691,1.03128,0.105046,0.447144,-0.041081,23.4222,23.2804,23.1243,23.2236,23.1527,23.2378,23.0818,
122,6.27307,1.52555,3.15222,4.24187,6.27144,2.00088,1.55352,0.00468169,-0.128566,-0.0232284,0.147452,0.0148554,-0.044296,0,0.0827491,-3.72896,1.62278,142.346,0.976008,-146.823,0.4535,-0.0576891,-20,-0.298897,20,-0.158922,-1.17176,0.0186002,-0.001203,0.0069922,-9.54868e-05,0.494496,0.00105289,0.0163484,0.0764128,0.00682672,0.0429767,1.46883,-0.00231638,0.005,41.7724,-0.274293,-1.1393,-0.112317,0.742225,-0.0253766,0.456724,10.7662,-0.643197,-7.39091,0.833581,-3.55922,0.0151551,0.572078,-1.38584,-0.0569691,1.03128,0.105046,0.447144,-0.041081,23.4222,23.2804,23.1243,23.2236,23.1527,23.2378,23.0818,
123,6.27308,1.52542,3.1522,4.24202,6.27146,2.00084,1.55352,0.00473841,-0.126519,-0.0218779,0.147473,0.0163847,-0.0426754,0,0.0832148,-3.7083,1.62257,142.348,0.97453,-146.804,0.450036,-0.0575453,-20,-0.298599,20,-0.159038,-1.17337,0.0186124,-0.001203,0.0069922,-9.54868e-05,0.494496,0.00105289,0.0163484,0.0758727,0.00656413,0.0423436,1.46883,-0.00231638,0.005,41.7724,-0.274293,-1.1393,-0.112317,0.742225,-0.0253766,0.453013,10.8838,-0.691462,-7.4021,0.865011,-3.61241,0.0338856,0.572021,-1.45834,-0.0970148,1.06424,0.0966797,0.427002,-0.0444942,23.4364,23.2662,23.1101,23.2236,23.1527,23.2094,23.0818,
124,6.27308,1.52542,3.1522,4.24202,6.27146,2.00084,1.55352,0.00473841,-0.126519,-0.0218779,0.147473,0.0163847,-0.0426754,0,0.0843358,-3.69609,1.60239,142.294,0.971052,-146.747,0.467845,-0.0572371,-20,-0.300057,20,-0.158006,-1.17395,0.0185138,-0.00123486,0.00722966,-0.00010909,0.494496,0.00105289,0.0163484,0.0758727,0.00656413,0.0423436,1.46766,-0.00241596,0.005,41.7538,-0.269403,-1.12031,-0.112098,0.750899,-0.0285278,0.453013,10.8838,-0.691462,-7.4021,0.865011,-3.61241,0.0338856,0.572021,-1.45834,-0.0970148,1.06424,0.0966797,0.427002,-0.0444942,23.4364,23.2662,23.1101,23.2236,23.1527,23.2094,23.0818,
125,6.27308,1.52542,3.1522,4.24202,6.27146,2.00084,1.55352,0.00473841,-0.126519,-0.0218779,0.147473,0.0163847,-0.0426754,0,0.0843358,-3.69609,1.60239,142.294,0.971052,-146.747,0.467845,-0.0572371,-20,-0.300057,20,-0.158006,-1.17395,0.0185138,-0.00123486,0.00722966,-0.00010909,0.494496,0.00105289,0.0163484,0.0758727,0.00656413,0.0423436,1.46766,-0.00241596,0.005,41.7538,-0.269403,-1.12031,-0.112098,0.750899,-0.0285278,0.453013,10.8838,-0.691462,-7.4021,0.865011,-3.61241,0.0338856,0.572021,-1.45834,-0.0970148,1.06424,0.0966797,0.427002,-0.0444942,23.4364,23.2662,23.1101,23.2236,23.1527,23.2094,23.0818,
126,6.27308,1.52529,3.15218,4.24217,6.27148,2.0008,1.55352,0.00473997,-0.123705,-0.0199872,0.148284,0.0181963,-0.0394342,0,0.0847104,-3.67629,1.60196,142.296,0.969471,-146.729,0.464376,-0.057105,-20,-0.299794,20,-0.158117,-1.1755,0.0185257,-0.00123486,0.00722966,-0.00010909,0.494496,0.00105289,0.0163484,0.0753547,0.00619939,0.0415529,1.46766,-0.00241596,0.005,41.7538,-0.269403,-1.12031,-0.112098,0.750899,-0.0285278,0.420915,11.1206,-0.706758,-7.28368,0.882791,-3.63134,0.0347343,0.563965,-1.52273,-0.112793,1.11193,0.0845947,0.390768,-0.0402832,23.4222,23.2662,23.1243,23.2378,23.1527,23.2236,23.0818,
127,6.27308,1.52529,3.15218,4.24217,6.27148,2.0008,1.55352,0.00473997,-0.123705,-0.0199872,0.148284,0.0181963,-0.0394342,0,0.0865088,-3.66467,1.56918,142.244,0.965501,-146.677,0.493695,-0.0566107,-20,-0.302296,20,-0.15642,-1.17644,0.018283,-0.00126517,0.00745848,-0.000123637,0.494496,0.00105289,0.0163484,0.0753547,0.00619939,0.0415529,1.46655,-0.00250872,0.005,41.7359,-0.261243,-1.09659,-0.110966,0.762515,-0.0323584,0.420915,11.1206,-0.706758,-7.28368,0.882791,-3.63134,0.0347343,0.563965,-1.52273,-0.112793,1.11193,0.0845947,0.390768,-0.0402832,23.4222,23.2662,23.1243,23.2378,23.1527,23.2236,23.0818,
128,6.27309,1.52517,3.15216,4.24231,6.2715,2.00076,1.55352,0.00491552,-0.124245,-0.0190584,0.147473,0.0189068,-0.0431322,1.059e-05,0.0870233,-3.64456,1.56904,142.246,0.963901,-146.659,0.490175,-0.0564806,-20,-0.301999,20,-0.156563,-1.17789,0.0182962,-0.00126517,0.00745848,-0.000123637,0.494496,0.00105289,0.0163484,0.0752701,0.00592695,0.0414061,1.46655,-0.00250872,0.005,41.7359,-0.261243,-1.09659,-0.110966,0.762515,-0.0323584,0.487335,11.2942,-0.696152,-7.21928,0.883993,-3.62704,0.0478052,0.556142,-1.61135,-0.153288,1.13624,0.0689537,0.350487,-0.041081,23.4364,23.2662,23.0959,23.2236,23.1527,23.2378,23.0818,
129,6.27309,1.52517,3.15216,4.24231,6.2715,2.00076,1.55352,0.00491552,-0.124245,-0.0190584,0.147473,0.0189068,-0.0431322,1.059e-05,0.0882112,-3.62303,1.54726,142.159,0.96203,-146.551,0.509873,-0.0561541,-20,-0.303441,20,-0.155379,-1.17726,0.0181957,-0.00129485,0.00768037,-0.000137074,0.494496,0.00105289,0.0163484,0.0752701,0.00592695,0.0414061,1.46544,-0.00259964,0.005,41.705,-0.255798,-1.09218,-0.110852,0.763456,-0.0336295,0.487335,11.2942,-0.696152,-7.21928,0.883993,-3.62704,0.0478052,0.556142,-1.61135,-0.153288,1.13624,0.0689537,0.350487,-0.041081,23.4364,23.2662,23.0959,23.2236,23.1527,23.2378,23.0818,
130,6.27309,1.52505,3.15214,4.24247,6.27152,2.00071,1.55352,0.00504012,-0.125865,-0.0186367,0.150963,0.0205274,-0.0480774,1.05898e-05,0.0885163,-3.60022,1.54713,142.161,0.95987,-146.53,0.505471,-0.0560402,-20,-0.303152,20,-0.155522,-1.17873,0.0182094,-0.00129485,0.00768037,-0.000137074,0.494496,0.00105289,0.0163484,0.076702,0.00591835,0.0414597,1.46544,-0.00259964,0.005,41.705,-0.255798,-1.09218,-0.110852,0.763456,-0.0336295,0.470764,11.4793,-0.674657,-7.12677,0.911437,-3.54376,0.0092065,0.555967,-1.60329,-0.185478,1.23277,0.0609595,0.374655,-0.045038,23.408,23.252,23.1101,23.2236,23.1385,23.2236,23.0676,
131,6.2731,1.52491,3.15212,4.24262,6.27154,2.00066,1.55352,0.00544039,-0.12714,-0.0180782,0.155419,0.020563,-0.0501872,1.0598e-05,0.0887843,-3.52431,1.55273,141.939,0.952718,-146.242,0.492296,-0.0559894,-20,-0.301498,20,-0.156014,-1.17957,0.018442,-0.00132443,0.00791664,-0.000152562,0.494496,0.00105289,0.0163484,0.0783168,0.00561469,0.0416556,1.46425,-0.00268864,0.005,41.6265,-0.25821,-1.09379,-0.112622,0.773202,-0.0368431,0.514014,11.6773,-0.744655,-7.03634,0.914974,-3.48809,0.0287334,0.555967,-1.57206,-0.169381,1.20044,0.0529843,0.398824,-0.0523682,23.4222,23.252,23.1101,23.2236,23.1527,23.2236,23.0676,
132,6.2731,1.52491,3.15212,4.24262,6.27154,2.00066,1.55352,0.00544039,-0.12714,-0.0180782,0.155419,0.020563,-0.0501872,1.0598e-05,0.0903621,-3.46785,1.52544,141.698,0.95145,-145.961,0.516066,-0.0555557,-20,-0.302823,20,-0.154425,-1.17959,0.0183502,-0.00135416,0.00815516,-0.000167786,0.494496,0.00105289,0.0163484,0.0783168,0.00561469,0.0416556,1.46306,-0.0027683,0.005,41.5422,-0.25149,-1.09967,-0.112825,0.789994,-0.0367017,0.514014,11.6773,-0.744655,-7.03634,0.914974,-3.48809,0.0287334,0.555967,-1.57206,-0.169381,1.20044,0.0529843,0.398824,-0.0523682,23.4222,23.252,23.1101,23.2236,23.1527,23.2236,23.0676,
133,6.27311,1.52479,3.15211,4.24278,6.27156,2.00061,1.55352,0.00561589,-0.127486,-0.0180965,0.158817,0.018348,-0.0483965,1.0598e-05,0.0910179,-3.44551,1.52565,141.7,0.950684,-145.94,0.51343,-0.0554598,-20,-0.302461,20,-0.15461,-1.18104,0.0183658,-0.00135416,0.00815516,-0.000167786,0.494496,0.00105289,0.0163484,0.0793782,0.00534893,0.0419294,1.46306,-0.0027683,0.005,41.5422,-0.25149,-1.09967,-0.112825,0.789994,-0.0367017,0.535228,11.924,-0.774144,-6.89344,0.952027,-3.40573,0.0169648,0.531799,-1.53882,-0.201577,1.12977,0.0485074,0.38674,-0.0402832,23.408,23.2662,23.1101,23.2236,23.1385,23.2094,23.0676,
134,6.27311,1.52479,3.15211,4.24278,6.27156,2.00061,1.55352,0.00561589,-0.127486,-0.0180965,0.158817,0.018348,-0.0483965,1.0598e-05,0.092273,-3.40149,1.50422,141.507,0.953828,-145.724,0.533019,-0.0551148,-20,-0.303506,20,-0.153259,-1.1819,0.0182077,-0.00138228,0.00838947,-0.000180212,0.494496,0.00105289,0.0163484,0.0793782,0.00534893,0.0419294,1.46188,-0.00284553,0.005,41.4751,-0.245834,-1.10788,-0.112219,0.810498,-0.0329438,0.535228,11.924,-0.774144,-6.89344,0.952027,-3.40573,0.0169648,0.531799,-1.53882,-0.201577,1.12977,0.0485074,0.38674,-0.0402832,23.408,23.2662,23.1101,23.2236,23.1385,23.2094,23.0676,
135,6.27311,1.52466,3.15209,4.24294,6.27158,2.00056,1.55352,0.0057933,-0.128566,-0.0183061,0.161518,0.0172862,-0.0455969,1.059e-05,0.0928517,-3.37889,1.5045,141.509,0.952867,-145.703,0.530036,-0.0550046,-20,-0.303145,20,-0.153423,-1.18338,0.0182226,-0.00138228,0.00838947,-0.000180212,0.494496,0.00105289,0.0163484,0.0804341,0.00524973,0.0426189,1.46188,-0.00284553,0.005,41.4751,-0.245834,-1.10788,-0.112219,0.810498,-0.0329438,0.561419,12.0514,-0.729865,-6.71355,0.931248,-3.31088,0.0353784,0.531982,-1.53078,-0.177246,1.10388,0.076644,0.346459,-0.0443115,23.408,23.2662,23.1101,23.2094,23.1527,23.2236,23.0534,
136,6.27311,1.52466,3.15209,4.24294,6.27158,2.00056,1.55352,0.0057933,-0.128566,-0.0183061,0.161518,0.0172862,-0.0455969,1.059e-05,0.0931142,-3.33534,1.50203,141.314,0.953469,-145.488,0.531007,-0.0549324,-20,-0.302636,20,-0.153161,-1.18452,0.0182911,-0.00141158,0.00862658,-0.000192289,0.494496,0.00105289,0.0163484,0.0804341,0.00524973,0.0426189,1.46069,-0.00293133,0.005,41.4077,-0.245432,-1.12857,-0.112992,0.833168,-0.0313028,0.561419,12.0514,-0.729865,-6.71355,0.931248,-3.31088,0.0353784,0.531982,-1.53078,-0.177246,1.10388,0.076644,0.346459,-0.0443115,23.408,23.2662,23.1101,23.2094,23.1527,23.2236,23.0534,
137,6.27312,1.52452,3.15207,4.2431,6.27159,2.00052,1.55352,0.00576208,-0.127308,-0.0191769,0.163139,0.0162058,-0.0453764,1.059e-05,0.0937096,-3.31228,1.5024,141.317,0.952574,-145.467,0.528211,-0.0548292,-20,-0.302264,20,-0.153304,-1.18624,0.0183052,-0.00141158,0.00862658,-0.000192289,0.494496,0.00105289,0.0163484,0.0805559,0.00540657,0.0421392,1.46069,-0.00293133,0.005,41.4077,-0.245432,-1.12857,-0.112992,0.833168,-0.0313028,0.532949,12.2785,-0.719065,-6.56574,0.969762,-3.15963,0.00948882,0.523744,-1.52273,-0.185303,1.11999,0.0726216,0.302151,-0.0402832,23.4364,23.252,23.0959,23.2094,23.1385,23.2236,23.0392,
138,6.27312,1.52452,3.15207,4.2431,6.27159,2.00052,1.55352,0.00576208,-0.127308,-0.0191769,0.163139,0.0162058,-0.0453764,1.059e-05,0.0923883,-3.2856,1.52873,141.195,0.952874,-145.331,0.502458,-0.0551924,-20,-0.299662,20,-0.154646,-1.1867,0.018618,-0.0014401,0.00888727,-0.000202933,0.494496,0.00105289,0.0163484,0.0805559,0.00540657,0.0421392,1.45942,-0.00301102,0.005,41.366,-0.252528,-1.11418,-0.114977,0.844773,-0.0299481,0.532949,12.2785,-0.719065,-6.56574,0.969762,-3.15963,0.00948882,0.523744,-1.52273,-0.185303,1.11999,0.0726216,0.302151,-0.0402832,23.4364,23.252,23.0959,23.2094,23.1385,23.2236,23.0392,
139,6.27312,1.52438,3.15205,4.24328,6.27161,2.00047,1.55352,0.00594214,-0.128895,-0.019447,0.1646,0.0155476,-0.0464568,1.0598e-05,0.0929389,-3.26139,1.52884,141.198,0.951658,-145.309,0.49947,-0.0550877,-20,-0.29929,20,-0.154787,-1.1884,0.018632,-0.0014401,0.00888727,-0.000202933,0.494496,0.00105289,0.0163484,0.0813945,0.00535423,0.0426508,1.45942,-0.00301102,0.005,41.366,-0.252528,-1.11418,-0.114977,0.844773,-0.0299481,0.577913,12.543,-0.744199,-6.43203,0.969326,-3.06118,0.0218057,0.523682,-1.58718,-0.185478,1.16821,0.088623,0.286011,-0.0402832,23.4364,23.252,23.0959,23.2094,23.1385,23.2094,23.0534,
140,6.27312,1.52438,3.15205,4.24328,6.27161,2.00047,1.55352,0.00594214,-0.128895,-0.019447,0.1646,0.0155476,-0.0464568,1.0598e-05,0.092941,-3.21931,1.53074,141.013,0.951524,-145.097,0.496328,-0.0550871,-20,-0.298448,20,-0.154781,-1.18866,0.0187634,-0.00146915,0.00915301,-0.000213681,0.494496,0.00105289,0.0163484,0.0813945,0.00535423,0.0426508,1.45812,-0.00308962,0.005,41.3019,-0.253316,-1.12953,-0.116187,0.859352,-0.0288459,0.577913,12.543,-0.744199,-6.43203,0.969326,-3.06118,0.0218057,0.523682,-1.58718,-0.185478,1.16821,0.088623,0.286011,-0.0402832,23.4364,23.252,23.0959,23.2094,23.1385,23.2094,23.0534,
141,6.27313,1.52425,3.15203,4.24344,6.27162,2.00042,1.55352,0.00649868,-0.128566,-0.0199872,0.16746,0.0151255,-0.0466429,1.05981e-05,0.0935459,-3.19674,1.5306,141.016,0.950569,-145.077,0.493783,-0.0549737,-20,-0.298107,20,-0.154907,-1.19018,0.0187759,-0.00146915,0.00915301,-0.000213681,0.494496,0.00105289,0.0163484,0.082122,0.00525169,0.0424647,1.45812,-0.00308962,0.005,41.3019,-0.253316,-1.12953,-0.116187,0.859352,-0.0288459,0.591638,12.8407,-0.772542,-6.15682,0.99896,-3.02517,0.0241174,0.523682,-1.5469,-0.153288,1.19459,0.0967636,0.286011,-0.0525229,23.408,23.252,23.1101,23.2094,23.1385,23.2094,23.0676,
142,6.27313,1.52425,3.15203,4.24344,6.27162,2.00042,1.55352,0.00649868,-0.128566,-0.0199872,0.16746,0.0151255,-0.0466429,1.05981e-05,0.093852,-3.15852,1.52662,140.848,0.951033,-144.885,0.497686,-0.0548895,-20,-0.29781,20,-0.15458,-1.19054,0.0189521,-0.00149786,0.00939508,-0.00022229,0.494496,0.00105289,0.0163484,0.082122,0.00525169,0.0424647,1.45691,-0.00316413,0.005,41.2436,-0.252475,-1.12394,-0.118104,0.873727,-0.0274161,0.591638,12.8407,-0.772542,-6.15682,0.99896,-3.02517,0.0241174,0.523682,-1.5469,-0.153288,1.19459,0.0967636,0.286011,-0.0525229,23.408,23.252,23.1101,23.2094,23.1385,23.2094,23.0676,
143,6.27314,1.52413,3.15201,4.24361,6.27164,2.00037,1.55352,0.00649868,-0.126008,-0.0212953,0.170972,0.0135049,-0.0491577,1.059e-05,0.0946118,-3.13639,1.52722,140.85,0.950573,-144.865,0.495363,-0.0547561,-20,-0.297442,20,-0.154714,-1.19209,0.0189649,-0.00149786,0.00939508,-0.00022229,0.494496,0.00105289,0.0163484,0.0824404,0.00546547,0.0411398,1.45691,-0.00316413,0.005,41.2436,-0.252475,-1.12394,-0.118104,0.873727,-0.0274161,0.602684,12.9732,-0.731614,-5.86314,0.951113,-2.98797,0.0359237,0.499512,-1.55512,-0.153288,1.14475,0.0970148,0.261872,-0.0444942,23.4222,23.2378,23.0959,23.1952,23.1385,23.2094,23.0534,
144,6.27314,1.52413,3.15201,4.24361,6.27164,2.00037,1.55352,0.00649868,-0.126008,-0.0212953,0.170972,0.0135049,-0.0491577,1.059e-05,0.0928637,-3.10635,1.5613,140.717,0.951814,-144.709,0.462631,-0.0552365,-20,-0.294148,20,-0.15644,-1.19186,0.0193624,-0.00152885,0.00963913,-0.000230155,0.494496,0.00105289,0.0163484,0.0824404,0.00546547,0.0411398,1.45569,-0.00325208,0.005,41.1975,-0.261526,-1.08419,-0.120637,0.880383,-0.0248971,0.602684,12.9732,-0.731614,-5.86314,0.951113,-2.98797,0.0359237,0.499512,-1.55512,-0.153288,1.14475,0.0970148,0.261872,-0.0444942,23.4222,23.2378,23.0959,23.1952,23.1385,23.2094,23.0534,
145,6.27314,1.52413,3.15201,4.24361,6.27164,2.00037,1.55352,0.00649868,-0.126008,-0.0212953,0.170972,0.0135049,-0.0491577,1.059e-05,0.0928637,-3.10635,1.5613,140.717,0.951814,-144.709,0.462631,-0.0552365,-20,-0.294148,20,-0.15644,-1.19186,0.0193624,-0.00152885,0.00963913,-0.000230155,0.494496,0.00105289,0.0163484,0.0824404,0.00546547,0.0411398,1.45569,-0.00325208,0.005,41.1975,-0.261526,-1.08419,-0.120637,0.880383,-0.0248971,0.602684,12.9732,-0.731614,-5.86314,0.951113,-2.98797,0.0359237,0.499512,-1.55512,-0.153288,1.14475,0.0970148,0.261872,-0.0444942,23.4222,23.2378,23.0959,23.1952,23.1385,23.2094,23.0534,
146,6.27314,1.524,3.15198,4.24378,6.27165,2.00032,1.55352,0.00648234,-0.125865,-0.022148,0.177454,0.0134912,-0.0512665,1.059e-05,0.0933823,-3.08218,1.56159,140.719,0.950784,-144.687,0.459763,-0.0551041,-20,-0.293815,20,-0.156535,-1.19335,0.0193733,-0.00152885,0.00963913,-0.000230155,0.494496,0.00105289,0.0163484,0.0842536,0.00572543,0.0407452,1.45569,-0.00325208,0.005,41.1975,-0.261526,-1.08419,-0.120637,0.880383,-0.0248971,0.557954,13.1776,-0.689806,-5.62608,0.960585,-2.87344,0.0238389,0.499772,-1.58716,-0.12085,1.12819,0.121118,0.2659,-0.041081,23.408,23.252,23.1101,23.2094,23.1385,23.2094,23.0392,
147,6.27314,1.524,3.15198,4.24378,6.27165,2.00032,1.55352,0.00648234,-0.125865,-0.022148,0.177454,0.0134912,-0.0512665,1.059e-05,0.0915824,-3.02246,1.59825,140.455,0.94779,-144.382,0.421516,-0.0555989,-20,-0.289824,20,-0.158428,-1.19347,0.0198423,-0.00155909,0.00988718,-0.000238027,0.494496,0.00105289,0.0163484,0.0842536,0.00572543,0.0407452,1.45444,-0.00333677,0.005,41.1057,-0.271866,-1.07236,-0.123653,0.898751,-0.0253744,0.557954,13.1776,-0.689806,-5.62608,0.960585,-2.87344,0.0238389,0.499772,-1.58716,-0.12085,1.12819,0.121118,0.2659,-0.041081,23.408,23.252,23.1101,23.2094,23.1385,23.2094,23.0392,
148,6.27315,1.52387,3.15196,4.24398,6.27166,2.00027,1.55352,0.00648234,-0.124883,-0.0229583,0.183813,0.0120369,-0.0513185,1.0598e-05,0.0922705,-2.99642,1.59877,140.457,0.947268,-144.358,0.419168,-0.0554737,-20,-0.289416,20,-0.158548,-1.19518,0.0198549,-0.00155909,0.00988718,-0.000238027,0.494496,0.00105289,0.0163484,0.0858066,0.00582881,0.0402423,1.45444,-0.00333677,0.005,41.1057,-0.271866,-1.07236,-0.123653,0.898751,-0.0253744,0.586883,13.3899,-0.724082,-5.41807,0.956791,-2.86662,0.0214579,0.499577,-1.59595,-0.104736,1.09597,0.116891,0.269897,-0.0404841,23.4222,23.252,23.0959,23.2094,23.1385,23.2094,23.0676,
149,6.27315,1.52387,3.15196,4.24398,6.27166,2.00027,1.55352,0.00648234,-0.124883,-0.0229583,0.183813,0.0120369,-0.0513185,1.0598e-05,0.0913272,-2.93965,1.61926,140.204,0.947553,-144.07,0.397319,-0.0557329,-20,-0.286801,20,-0.159495,-1.19577,0.0201206,-0.00159019,0.0101643,-0.000245681,0.494496,0.00105289,0.0163484,0.0858066,0.00582881,0.0402423,1.45308,-0.00342522,0.005,41.0181,-0.277621,-1.05727,-0.125415,0.920506,-0.0232374,0.586883,13.3899,-0.724082,-5.41807,0.956791,-2.86662,0.0214579,0.499577,-1.59595,-0.104736,1.09597,0.116891,0.269897,-0.0404841,23.4222,23.252,23.0959,23.2094,23.1385,23.2094,23.0676,
150,6.27315,1.52387,3.15196,4.24398,6.27166,2.00027,1.55352,0.00648234,-0.124883,-0.0229583,0.183813,0.0120369,-0.0513185,1.0598e-05,0.0913272,-2.93965,1.61926,140.204,0.947553,-144.07,0.397319,-0.0557329,-20,-0.286801,20,-0.159495,-1.19577,0.0201206,-0.00159019,0.0101643,-0.000245681,0.494496,0.00105289,0.0163484,0.0858066,0.00582881,0.0402423,1.45308,-0.00342522,0.005,41.0181,-0.277621,-1.05727,-0.125415,0.920506,-0.0232374,0.586883,13.3899,-0.724082,-5.41807,0.956791,-2.86662,0.0214579,0.499577,-1.59595,-0.104736,1.09597,0.116891,0.269897,-0.0404841,23.4222,23.252,23.0959,23.2094,23.1385,23.2094,23.0676,
151,6.27315,1.52387,3.15196,4.24398,6.27166,2.00027,1.55352,0.00648234,-0.124883,-0.0229583,0.183813,0.0120369,-0.0513185,1.0598e-05,0.0913272,-2.93965,1.61926,140.204,0.947553,-144.07,0.397319,-0.0557329,-20,-0.286801,20,-0.159495,-1.19577,0.0201206,-0.00159019,0.0101643,-0.000245681,0.494496,0.00105289,0.0163484,0.0858066,0.00582881,0.0402423,1.45308,-0.00342522,0.005,41.0181,-0.277621,-1.05727,-0.125415,0.920506,-0.0232374,0.586883,13.3899,-0.724082,-5.41807,0.956791,-2.86662,0.0214579,0.499577,-1.59595,-0.104736,1.09597,0.116891,0.269897,-0.0404841,23.4222,23.252,23.0959,23.2094,23.1385,23.2094,23.0676,
152,6.27316,1.52375,3.15194,4.24417,6.27167,2.00022,1.55352,0.00650186,-0.122624,-0.0232284,0.189879,0.0102637,-0.0519091,1.0598e-05,0.0920863,-2.91564,1.61962,140.207,0.9474,-144.049,0.395808,-0.0556033,-20,-0.286418,20,-0.159587,-1.1973,0.0201308,-0.00159019,0.0101643,-0.000245681,0.494496,0.00105289,0.0163484,0.0869389,0.00573493,0.0391764,1.45308,-0.00342522,0.005,41.0181,-0.277621,-1.05727,-0.125415,0.920506,-0.0232374,0.579431,13.6157,-0.745374,-5.12694,0.976428,-2.91062,0.0230761,0.507632,-1.6194,-0.0889885,1.00721,0.140991,0.253784,-0.0404841,23.408,23.252,23.1101,23.2236,23.1385,23.1952,23.0534,
153,6.27316,1.52375,3.15194,4.24417,6.27167,2.00022,1.55352,0.00650186,-0.122624,-0.0232284,0.189879,0.0102637,-0.0519091,1.0598e-05,0.092297,-2.86813,1.61771,139.998,0.94919,-143.809,0.396103,-0.0555454,-20,-0.285801,20,-0.159312,-1.19758,0.0201543,-0.00162025,0.0104167,-0.000250219,0.494496,0.00105289,0.0163484,0.0869389,0.00573493,0.0391764,1.45179,-0.00350688,0.005,40.9456,-0.277254,-1.02529,-0.125767,0.93708,-0.0202798,0.579431,13.6157,-0.745374,-5.12694,0.976428,-2.91062,0.0230761,0.507632,-1.6194,-0.0889885,1.00721,0.140991,0.253784,-0.0404841,23.408,23.252,23.1101,23.2236,23.1385,23.1952,23.0534,
154,6.27316,1.52375,3.15194,4.24417,6.27167,2.00022,1.55352,0.00650186,-0.122624,-0.0232284,0.189879,0.0102637,-0.0519091,1.0598e-05,0.092297,-2.86813,1.61771,139.998,0.94919,-143.809,0.396103,-0.0555454,-20,-0.285801,20,-0.159312,-1.19758,0.0201543,-0.00162025,0.0104167,-0.000250219,0.494496,0.00105289,0.0163484,0.0869389,0.00573493,0.0391764,1.45179,-0.00350688,0.005,40.9456,-0.277254,-1.02529,-0.125767,0.93708,-0.0202798,0.579431,13.6157,-0.745374,-5.12694,0.976428,-2.91062,0.0230761,0.507632,-1.6194,-0.0889885,1.00721,0.140991,0.253784,-0.0404841,23.408,23.252,23.1101,23.2236,23.1385,23.1952,23.0534,
155,6.27316,1.52363,3.15191,4.24436,6.27168,2.00017,1.55352,0.00676193,-0.122624,-0.0233215,0.195551,0.0108039,-0.0529391,1.059e-05,0.0928667,-2.84315,1.61771,140.001,0.948273,-143.787,0.3937,-0.0553931,-20,-0.285451,20,-0.159373,-1.19916,0.0201632,-0.00162025,0.0104167,-0.000250219,0.494496,0.00105289,0.0163484,0.0885612,0.00572211,0.0389677,1.45179,-0.00350688,0.005,40.9456,-0.277254,-1.02529,-0.125767,0.93708,-0.0202798,0.550651,13.6815,-0.660568,-4.89186,0.914065,-2.92505,0.0195667,0.515688,-1.67586,-0.072956,0.912679,0.157104,0.241699,-0.0362549,23.4222,23.252,23.1101,23.2236,23.1385,23.2236,23.0534,
156,6.27316,1.52363,3.15191,4.24436,6.27168,2.00017,1.55352,0.00676193,-0.122624,-0.0233215,0.195551,0.0108039,-0.0529391,1.059e-05,0.0926668,-2.78572,1.62413,139.747,0.945536,-143.496,0.384915,-0.0554481,-20,-0.283984,20,-0.159634,-1.19947,0.020402,-0.00165243,0.0106776,-0.000255428,0.494496,0.00105289,0.0163484,0.0885612,0.00572211,0.0389677,1.45048,-0.00359754,0.005,40.8576,-0.279589,-1.01903,-0.127782,0.956782,-0.0210509,0.550651,13.6815,-0.660568,-4.89186,0.914065,-2.92505,0.0195667,0.515688,-1.67586,-0.072956,0.912679,0.157104,0.241699,-0.0362549,23.4222,23.252,23.1101,23.2236,23.1385,23.2236,23.0534,
157,6.27317,1.52351,3.15189,4.24456,6.27169,2.00011,1.55352,0.00675244,-0.1225,-0.0237686,0.19832,0.0105338,-0.0550999,1.0598e-05,0.0932567,-2.76155,1.6245,139.75,0.944761,-143.474,0.38267,-0.0553137,-20,-0.283608,20,-0.159707,-1.2011,0.0204116,-0.00165243,0.0106776,-0.000255428,0.494496,0.00105289,0.0163484,0.0893204,0.00582993,0.0386605,1.45048,-0.00359754,0.005,40.8576,-0.279589,-1.01903,-0.127782,0.956782,-0.0210509,0.506635,13.8146,-0.600827,-4.69399,0.872516,-2.8939,0.032744,0.491455,-1.65975,-0.0889885,0.870266,0.149048,0.233677,-0.0362549,23.4222,23.252,23.1101,23.2236,23.1385,23.2236,23.0676,
158,6.27317,1.52351,3.15189,4.24456,6.27169,2.00011,1.55352,0.00675244,-0.1225,-0.0237686,0.19832,0.0105338,-0.0550999,1.0598e-05,0.0922481,-2.72085,1.64521,139.57,0.943367,-143.265,0.361029,-0.0555909,-20,-0.281238,20,-0.16075,-1.20104,0.0206997,-0.0016831,0.0109395,-0.000260633,0.494496,0.00105289,0.0163484,0.0893204,0.00582993,0.0386605,1.44916,-0.00368498,0.005,40.7952,-0.285447,-1.00982,-0.129725,0.968228,-0.0208221,0.506635,13.8146,-0.600827,-4.69399,0.872516,-2.8939,0.032744,0.491455,-1.65975,-0.0889885,0.870266,0.149048,0.233677,-0.0362549,23.4222,23.252,23.1101,23.2236,23.1385,23.2236,23.0676,
159,6.27317,1.52351,3.15189,4.24456,6.27169,2.00011,1.55352,0.00675244,-0.1225,-0.0237686,0.19832,0.0105338,-0.0550999,1.0598e-05,0.0922481,-2.72085,1.64521,139.57,0.943367,-143.265,0.361029,-0.0555909,-20,-0.281238,20,-0.16075,-1.20104,0.0206997,-0.0016831,0.0109395,-0.000260633,0.494496,0.00105289,0.0163484,0.0893204,0.00582993,0.0386605,1.44916,-0.00368498,0.005,40.7952,-0.285447,-1.00982,-0.129725,0.968228,-0.0208221,0.506635,13.8146,-0.600827,-4.69399,0.872516,-2.8939,0.032744,0.491455,-1.65975,-0.0889885,0.870266,0.149048,0.233677,-0.0362549,23.4222,23.252,23.1101,23.2236,23.1385,23.2236,23.0676,
160,6.27318,1.52338,3.15187,4.24477,6.2717,2.00006,1.55352,0.00648234,-0.122375,-0.0237686,0.202872,0.0101429,-0.0550999,1.0598e-05,0.0927967,-2.69399,1.64562,139.572,0.942564,-143.241,0.358717,-0.0554622,-20,-0.280834,20,-0.160817,-1.20284,0.0207095,-0.0016831,0.0109395,-0.000260633,0.494496,0.00105289,0.0163484,0.090588,0.00591038,0.0385413,1.44916,-0.00368498,0.005,40.7952,-0.285447,-1.00982,-0.129725,0.968228,-0.0208221,0.490034,13.8946,-0.56194,-4.51425,0.875964,-2.93211,0.0270305,0.507632,-1.65232,-0.072956,0.95082,0.157156,0.233643,-0.0404841,23.4222,23.252,23.1101,23.2094,23.1243,23.2094,23.0676,
161,6.27318,1.52338,3.15187,4.24477,6.2717,2.00006,1.55352,0.00648234,-0.122375,-0.0237686,0.202872,0.0101429,-0.0550999,1.0598e-05,0.0920192,-2.64147,1.66283,139.338,0.940504,-142.974,0.338674,-0.0556759,-20,-0.278557,20,-0.161657,-1.20341,0.0208906,-0.00171425,0.0112303,-0.000266549,0.494496,0.00105289,0.0163484,0.090588,0.00591038,0.0385413,1.44772,-0.0037743,0.005,40.7139,-0.29054,-1.00624,-0.130725,0.988723,-0.0209818,0.490034,13.8946,-0.56194,-4.51425,0.875964,-2.93211,0.0270305,0.507632,-1.65232,-0.072956,0.95082,0.157156,0.233643,-0.0404841,23.4222,23.252,23.1101,23.2094,23.1243,23.2094,23.0676,
