LWingKi/MAS_RnD/main/log/us2/contactless/42/grasp_log_12_08_2023_15_30_37.csv
Index,joint_angle_0,joint_angle_1,joint_angle_2,joint_angle_3,joint_angle_4,joint_angle_5,joint_angle_6,joint_velocity_0,joint_velocity_1,joint_velocity_2,joint_velocity_3,joint_velocity_4,joint_velocity_5,joint_velocity_6,joint_accel_0,joint_accel_1,joint_accel_2,joint_accel_3,joint_accel_4,joint_accel_5,joint_accel_6,constraint_tau_0,constraint_tau_1,constraint_tau_2,constraint_tau_3,constraint_tau_4,constraint_tau_5,constraint_tau_6,current_pos_x,current_pos_y,current_pos_z,target_pos_x,target_pos_y,target_pos_z,current_vel_x,current_vel_y,current_vel_z,target_vel_x,target_vel_y,target_vel_z,control_signal_linear_x,control_signal_linear_y,control_signal_linear_z,control_signal_angular_x,control_signal_angular_y,control_signal_angular_z,joint_torque_0,joint_torque_1,joint_torque_2,joint_torque_3,joint_torque_4,joint_torque_5,joint_torque_6,actuar_current_0,actuar_current_1,actuar_current_2,actuar_current_3,actuar_current_4,actuar_current_5,actuar_current_6,actuar_voltage_0,actuar_voltage_1,actuar_voltage_2,actuar_voltage_3,actuar_voltage_4,actuar_voltage_5,actuar_voltage_6
0,6.2729,1.3901,3.15336,4.11991,6.27413,1.9764,1.5557,0.00467905,0.0280901,1.32175e-05,0.102097,3.17939e-05,0.0320984,1.0598e-05,0.384431,-6.38244,-0.57968,1.52467,0.0754767,-23.4538,0.886651,0.0044953,-20,-0.440155,0.531216,-0.0436726,0.584436,0.0172834,-7.6184e-05,0.00575983,-0.000201617,0.494047,0.00122214,0.0715689,0.023515,-0.00163665,-0.00969953,1.98009,-0.00238221,0.005,1.78208,-0.00214399,0.0045,-0.205697,15.5515,-0.544366,1.82543,0.252564,-0.32159,5.17631,0.275372,6.35712,0.155213,0.410889,0.322366,0.0254773,-0.0180152,-0.0525229,-0.753296,-0.128906,23.4648,23.3229,23.1811,23.3087,23.2236,23.2946,23.1527,
1,6.27291,1.39012,3.15336,4.12001,6.27413,1.9764,1.5557,0.00441911,0.0264427,1.32274e-05,0.0998348,3.17699e-05,0.0320984,1.0606e-05,0.331189,-2.95847,-0.296979,4.00797,0.514595,-10.1395,0.577969,-0.00968548,-19.0542,-0.374545,0.961404,-0.0396881,1.90199,-0.00220775,0,0,0,0.494047,0.00122214,0.0715689,0.0232125,-0.00153562,-0.00900392,2,0,0.005,1.77884,0.00147298,0.0132296,-0.0159332,3.18277,0.089516,1.81661,0.264194,-0.320002,5.12406,0.259939,6.35712,0.213863,0.443188,0.322266,0.0241699,0.0180152,-0.0483398,-0.753296,-0.137022,23.4932,23.3371,23.1669,23.2946,23.2236,23.2946,23.1385,
2,6.27291,1.39015,3.15336,4.12011,6.27413,1.97643,1.5557,0.00459166,0.0255784,7.93647e-06,0.100746,3.17699e-05,0.0299504,1.0598e-05,0.331682,-3.00522,-0.295919,3.97264,0.522043,-10.3277,0.581469,-0.00955405,-19.0834,-0.375115,0.956014,-0.0396684,1.88294,-0.00205985,-5.35772e-07,7.22963e-05,3.65399e-06,0.494047,0.00122214,0.0715689,0.023658,-0.00160193,-0.00890735,1.99954,3.47291e-05,0.005,1.7787,0.00141331,0.0126035,-0.0173181,3.35953,0.0923696,1.79539,0.300782,-0.294276,5.09796,0.251653,6.34196,0.193165,0.459299,0.354858,0.0180152,0.0644531,-0.0404841,-0.757335,-0.145243,23.4648,23.3229,23.1811,23.3087,23.2094,23.2946,23.1243,
3,6.27291,1.39017,3.15336,4.12022,6.27413,1.97646,1.5557,0.00450162,0.0243088,7.93647e-06,0.102314,3.17939e-05,0.0289004,1.05981e-05,0.332224,-3.07697,-0.291299,3.91665,0.542789,-10.6071,0.589004,-0.00940899,-19.1277,-0.375772,0.946949,-0.0395557,1.85477,-0.00169718,-1.58976e-06,0.000174145,6.22151e-06,0.494047,0.00122214,0.0715689,0.0243798,-0.00156221,-0.00854747,1.99908,6.13251e-05,0.005,1.77788,0.00149693,0.0125166,-0.0208064,3.62337,0.105115,1.79175,0.328982,-0.251641,5.0982,0.242187,6.33703,0.187511,0.459299,0.362907,0,0.0332184,-0.0459299,-0.713024,-0.149048,23.4648,23.3371,23.1669,23.3087,23.2236,23.2946,23.1243,
4,6.27292,1.3902,3.15336,4.12032,6.27413,1.97648,1.5557,0.00438886,0.0232284,7.93655e-06,0.104798,3.17939e-05,0.027083,1.0598e-05,0.333249,-3.17433,-0.290191,3.84094,0.55596,-10.9881,0.596089,-0.00913424,-19.1875,-0.377019,0.934315,-0.0395063,1.81636,-0.00143137,-2.22855e-06,0.000287449,8.79317e-06,0.494047,0.00122214,0.0715689,0.0253256,-0.00151325,-0.00836156,1.99856,9.04108e-05,0.005,1.77676,0.00148736,0.0121927,-0.023298,3.98289,0.109292,1.76492,0.381522,-0.252379,5.135,0.235093,6.31459,0.167212,0.459299,0.379005,0,0.0332184,-0.0324774,-0.68889,-0.14502,23.479,23.3229,23.1811,23.2946,23.2236,23.2946,23.1385,
5,6.27292,1.39022,3.15336,4.12042,6.27413,1.97651,1.5557,0.00438886,0.0237445,5.29898e-06,0.105338,3.17699e-05,0.0289004,1.0598e-05,0.334223,-3.2686,-0.288638,3.76727,0.569938,-11.355,0.603102,-0.00887439,-19.2453,-0.378189,0.92199,-0.0394533,1.77935,-0.0011589,-2.83146e-06,0.00039636,1.1957e-05,0.494047,0.00122214,0.0715689,0.0253719,-0.00150975,-0.00838129,1.99806,0.000123887,0.005,1.77546,0.00147342,0.0120254,-0.0258598,4.32936,0.114419,1.75313,0.428042,-0.242625,5.17659,0.222737,6.29763,0.161484,0.459229,0.386803,0.0113938,0.0180152,-0.0322266,-0.656616,-0.141221,23.479,23.3229,23.1669,23.2946,23.2236,23.3229,23.1527,
6,6.27292,1.39022,3.15336,4.12042,6.27413,1.97651,1.5557,0.00438886,0.0237445,5.29898e-06,0.105338,3.17699e-05,0.0289004,1.0598e-05,0.335187,-3.36546,-0.286821,3.69476,0.584883,-11.7285,0.610112,-0.00861768,-19.3037,-0.37935,0.909312,-0.0393977,1.74223,-0.000906327,-3.69625e-06,0.000505268,1.45364e-05,0.494047,0.00122214,0.0715689,0.0253719,-0.00150975,-0.00838129,1.99756,0.000151672,0.005,1.77497,0.00149528,0.0120432,-0.0282247,4.67865,0.120356,1.75313,0.428042,-0.242625,5.17659,0.222737,6.29763,0.161484,0.459229,0.386803,0.0113938,0.0180152,-0.0322266,-0.656616,-0.141221,23.479,23.3229,23.1669,23.2946,23.2236,23.3229,23.1527,
7,6.27293,1.39024,3.15336,4.12053,6.27413,1.97654,1.5557,0.00403642,0.0227112,5.29103e-06,0.109119,4.23598e-05,0.0307911,0,0.335177,-3.36507,-0.286833,3.69459,0.584913,-11.728,0.6101,-0.00861792,-19.3047,-0.379382,0.910106,-0.0393914,1.74216,-0.000908018,-3.69625e-06,0.000505268,1.45364e-05,0.494047,0.00122214,0.0715689,0.026684,-0.00135662,-0.00784647,1.99756,0.000151672,0.005,1.77497,0.00149528,0.0120432,-0.0282247,4.67865,0.120356,1.72493,0.463273,-0.210796,5.27159,0.196211,6.3108,0.146043,0.467285,0.209473,0,-0.0180152,-0.0284845,-0.656616,-0.145075,23.479,23.3513,23.1952,23.3087,23.2378,23.2946,23.1527,
8,6.27293,1.39026,3.15336,4.12065,6.27413,1.97658,1.5557,0.00360008,0.0197921,5.29898e-06,0.111341,4.23598e-05,0.0345725,0,0.337041,-3.50429,-0.292381,3.58633,0.583535,-12.2721,0.622686,-0.0081205,-19.3899,-0.381667,0.891732,-0.0394492,1.68738,-0.000176559,-5.69687e-06,0.000620822,1.5054e-05,0.494047,0.00122214,0.0715689,0.0279489,-0.00116759,-0.0063366,1.99703,0.00017022,0.005,1.77331,0.00137415,0.0115618,-0.0352971,5.19178,0.108719,1.71034,0.530995,-0.184709,5.37829,0.192828,6.34464,0.146858,0.483466,-0.0161133,0.0113938,-0.0490066,-0.0362549,-0.656616,-0.14502,23.479,23.3513,23.1811,23.2946,23.2378,23.3087,23.1527,
9,6.27293,1.39028,3.15336,4.12076,6.27413,1.97662,1.5557,0.00315894,0.0121544,5.30299e-06,0.112786,4.23918e-05,0.0358599,0,0.339258,-3.67104,-0.298204,3.45669,0.58424,-12.9317,0.632848,-0.00753125,-19.492,-0.384341,0.869587,-0.0395077,1.62081,0.000192252,-6.44043e-06,0.000752234,1.63626e-05,0.494047,0.00122214,0.0715689,0.0299946,-0.000972018,-0.00321496,1.99644,0.000190208,0.005,1.77164,0.00122202,0.0102029,-0.0387181,5.81424,0.0966703,1.69874,0.643088,-0.178974,5.47513,0.194373,6.33806,0.142826,0.507568,-0.218125,-0.0180152,-0.0649547,-0.036478,-0.656629,-0.141049,23.4648,23.3513,23.1811,23.2946,23.2378,23.3087,23.1527,
10,6.27293,1.39028,3.15336,4.12076,6.27413,1.97662,1.5557,0.00315894,0.0121544,5.30299e-06,0.112786,4.23918e-05,0.0358599,0,0.341628,-3.85087,-0.303557,3.31707,0.587729,-13.6539,0.645113,-0.00689989,-19.6005,-0.387107,0.844668,-0.039558,1.54762,0.000703319,-7.21946e-06,0.000889638,1.76928e-05,0.494047,0.00122214,0.0715689,0.0299946,-0.000972018,-0.00321496,1.99585,0.000209974,0.005,1.76927,0.00106379,0.00739347,-0.0435061,6.49632,0.0859423,1.69874,0.643088,-0.178974,5.47513,0.194373,6.33806,0.142826,0.507568,-0.218125,-0.0180152,-0.0649547,-0.036478,-0.656629,-0.141049,23.4648,23.3513,23.1811,23.2946,23.2378,23.3087,23.1527,
11,6.27294,1.39028,3.15336,4.12087,6.27413,1.97665,1.5557,0.00298443,0.00216078,-5.29898e-06,0.115062,4.23918e-05,0.0393943,0,0.34167,-3.8498,-0.303662,3.31539,0.587801,-13.6512,0.645138,-0.00689736,-19.6015,-0.387142,0.845132,-0.0395527,1.54763,0.000701928,-7.21946e-06,0.000889638,1.76928e-05,0.494047,0.00122214,0.0715689,0.0327839,-0.000868055,0.00105825,1.99585,0.000209974,0.005,1.76927,0.00106379,0.00739347,-0.0435061,6.49632,0.0859423,1.71178,0.711689,-0.178916,5.54077,0.179636,6.31201,0.135772,0.507568,-0.322366,-0.0180152,-0.0889885,-0.0332184,-0.636487,-0.140991,23.479,23.3513,23.1952,23.2946,23.2378,23.3229,23.1669,
12,6.27294,1.39027,3.15336,4.12099,6.27413,1.9767,1.5557,0.00298443,-0.00810292,-5.29898e-06,0.116682,4.76548e-05,0.041595,0,0.344595,-4.07967,-0.307754,3.13386,0.601392,-14.5786,0.663253,-0.00613064,-19.7419,-0.390523,0.813538,-0.0395414,1.45324,0.0015179,-8.63933e-06,0.00103969,1.83584e-05,0.494047,0.00122214,0.0715689,0.0354412,-0.000838347,0.00531067,1.9952,0.000222013,0.005,1.76618,0.000981061,0.00354757,-0.051254,7.37551,0.0800547,1.67795,0.873116,-0.145174,5.67004,0.161902,6.28203,0.139465,0.499512,-0.34681,-0.0254773,-0.12085,-0.0322266,-0.652588,-0.137022,23.479,23.3371,23.2094,23.2946,23.2378,23.3087,23.1669,
13,6.27294,1.39025,3.15336,4.12111,6.27413,1.97674,1.5557,0.0030474,-0.0119634,-1.0598e-05,0.11736,4.76548e-05,0.0432156,0,0.347353,-4.30597,-0.309417,2.95624,0.621786,-15.4921,0.680863,-0.00540782,-19.8799,-0.393677,0.783098,-0.039477,1.36023,0.00224732,-9.86398e-06,0.00120358,1.91132e-05,0.494047,0.00122214,0.0715689,0.0364599,-0.00084942,0.00699657,1.9945,0.000239629,0.005,1.76316,0.000970179,-0.000279599,-0.0581487,8.24054,0.0803886,1.67908,1.07795,-0.0891832,5.78221,0.186225,6.24647,0.128296,0.515625,-0.362907,-0.0254773,-0.145243,-0.0270228,-0.644544,-0.145075,23.479,23.3229,23.1669,23.2946,23.2236,23.3087,23.1527,
14,6.27295,1.39023,3.15336,4.12123,6.27413,1.97679,1.5557,0.00314423,-0.0205066,-1.5909e-05,0.119923,4.76908e-05,0.0438845,0,0.349473,-4.48836,-0.309442,2.81438,0.641779,-16.2136,0.695665,-0.00485765,-19.9917,-0.396144,0.758991,-0.0394081,1.28743,0.00288653,-1.15658e-05,0.00138745,2.01239e-05,0.494047,0.00122214,0.0715689,0.0390212,-0.000861192,0.0103919,1.99371,0.000254457,0.005,1.76153,0.00099349,-0.00179691,-0.0642265,8.92172,0.0840105,1.60228,1.35635,-0.087949,5.92557,0.202426,6.17781,0.124537,0.531799,-0.499512,-0.0332184,-0.136963,-0.0245033,-0.640503,-0.137022,23.4648,23.3513,23.1669,23.3087,23.2378,23.3087,23.1527,
15,6.27295,1.39023,3.15336,4.12123,6.27413,1.97679,1.5557,0.00314423,-0.0205066,-1.5909e-05,0.119923,4.76908e-05,0.0438845,0,0.352024,-4.71437,-0.308707,2.63854,0.668203,-17.1161,0.714455,-0.00417811,-20,-0.399094,0.727658,-0.0393116,1.19608,0.00372071,-1.32507e-05,0.00157238,2.16826e-05,0.494047,0.00122214,0.0715689,0.0390212,-0.000861192,0.0103919,1.99294,0.000273481,0.005,1.75853,0.00102121,-0.00485269,-0.0721588,9.77429,0.0899078,1.60228,1.35635,-0.087949,5.92557,0.202426,6.17781,0.124537,0.531799,-0.499512,-0.0332184,-0.136963,-0.0245033,-0.640503,-0.137022,23.4648,23.3513,23.1669,23.3087,23.2378,23.3087,23.1527,
16,6.27295,1.39021,3.15336,4.12135,6.27413,1.97683,1.5557,0.0032977,-0.0253892,-1.5909e-05,0.123435,4.76548e-05,0.0464568,0,0.352068,-4.71329,-0.308868,2.63731,0.668281,-17.1138,0.714502,-0.00418371,-20,-0.399126,0.728529,-0.0393089,1.19601,0.00372028,-1.32507e-05,0.00157238,2.16826e-05,0.494047,0.00122214,0.0715689,0.0410762,-0.000899745,0.0125276,1.99294,0.000273481,0.005,1.75853,0.00102121,-0.00485269,-0.0721588,9.77429,0.0899078,1.63087,1.52256,-0.0843835,5.92606,0.200304,6.10964,0.134147,0.531799,-0.515688,-0.0254773,-0.14502,-0.0254773,-0.62439,-0.141049,23.479,23.3513,23.1811,23.3087,23.2378,23.3087,23.1385,
17,6.27295,1.39018,3.15335,4.12148,6.27413,1.97688,1.5557,0.00351046,-0.0297107,-2.11959e-05,0.124785,5.82447e-05,0.0472671,0,0.35465,-4.94012,-0.308068,2.46021,0.69555,-18.0113,0.731153,-0.0035145,-20,-0.402118,0.698366,-0.0392057,1.10527,0.00432298,-1.44884e-05,0.00176464,2.33109e-05,0.494047,0.00122214,0.0715689,0.0423866,-0.000967834,0.0142984,1.99213,0.000295173,0.005,1.75595,0.00107543,-0.00677483,-0.0778195,10.6224,0.096524,1.58103,1.75204,-0.0193563,5.92397,0.180284,6.04722,0.153783,0.531799,-0.596246,-0.041081,-0.193359,-0.0284845,-0.62847,-0.137022,23.4648,23.3229,23.1811,23.2946,23.2378,23.3087,23.1527,
18,6.27296,1.39014,3.15335,4.12161,6.27413,1.97693,1.5557,0.00357649,-0.034606,-2.11959e-05,0.125016,5.82888e-05,0.0529121,0,0.356858,-5.13644,-0.307036,2.30746,0.720332,-18.7862,0.748054,-0.00294656,-20,-0.404689,0.672649,-0.0391026,1.027,0.00508132,-1.64687e-05,0.00196354,2.38858e-05,0.494047,0.00122214,0.0715689,0.0434974,-0.000973922,0.0168306,1.9913,0.000313024,0.005,1.75402,0.00115277,-0.00836857,-0.0850777,11.3538,0.103307,1.5975,1.97005,0.0240161,5.91285,0.171473,6.00823,0.152724,0.515877,-0.676758,-0.0332184,-0.201416,-0.0293266,-0.620374,-0.132935,23.479,23.3371,23.1952,23.3229,23.2378,23.2946,23.1527,
19,6.27296,1.39014,3.15335,4.12161,6.27413,1.97693,1.5557,0.00357649,-0.034606,-2.11959e-05,0.125016,5.82888e-05,0.0529121,0,0.359762,-5.38805,-0.308274,2.11673,0.743677,-19.7796,0.765196,-0.00217284,-20,-0.408125,0.639141,-0.0390367,0.927308,0.00566441,-1.79162e-05,0.00218936,2.46928e-05,0.494047,0.00122214,0.0715689,0.0434974,-0.000973922,0.0168306,1.99037,0.000329196,0.005,1.75219,0.00117281,-0.0106476,-0.0904916,12.2866,0.104821,1.5975,1.97005,0.0240161,5.91285,0.171473,6.00823,0.152724,0.515877,-0.676758,-0.0332184,-0.201416,-0.0293266,-0.620374,-0.132935,23.479,23.3371,23.1952,23.3229,23.2378,23.2946,23.1527,
20,6.27296,1.3901,3.15335,4.12173,6.27413,1.97699,1.5557,0.00357649,-0.0405146,-2.11959e-05,0.125325,5.82888e-05,0.0550441,0,0.359797,-5.38661,-0.308401,2.11523,0.743754,-19.7767,0.76523,-0.00217953,-20,-0.408152,0.640074,-0.0390307,0.927172,0.00566365,-1.79162e-05,0.00218936,2.46928e-05,0.494047,0.00122214,0.0715689,0.0448451,-0.00095727,0.0193892,1.99037,0.000329196,0.005,1.75219,0.00117281,-0.0106476,-0.0904916,12.2866,0.104821,1.50296,2.27587,0.0615439,5.82668,0.173045,5.99097,0.151213,0.531738,-0.741255,-0.041081,-0.177429,-0.0161133,-0.660657,-0.137022,23.479,23.3371,23.1952,23.3229,23.2378,23.3087,23.1385,
21,6.27296,1.3901,3.15335,4.12173,6.27413,1.97699,1.5557,0.00357649,-0.0405146,-2.11959e-05,0.125325,5.82888e-05,0.0550441,0,0.362368,-5.61162,-0.308796,1.94332,0.766505,-20.6678,0.781391,-0.00149477,-20,-0.411174,0.609759,-0.0389631,0.837526,0.00626586,-1.93193e-05,0.00240705,2.61706e-05,0.494047,0.00122214,0.0715689,0.0448451,-0.00095727,0.0193892,1.98949,0.000349896,0.005,1.75018,0.00117645,-0.0129503,-0.0961286,13.1249,0.107738,1.50296,2.27587,0.0615439,5.82668,0.173045,5.99097,0.151213,0.531738,-0.741255,-0.041081,-0.177429,-0.0161133,-0.660657,-0.137022,23.479,23.3371,23.1952,23.3229,23.2378,23.3087,23.1385,
22,6.27296,1.39006,3.15335,4.12186,6.27413,1.97704,1.5557,0.00344489,-0.0461399,-2.65149e-05,0.124245,6.88867e-05,0.0578009,0,0.362388,-5.61021,-0.308877,1.94183,0.766568,-20.6649,0.78138,-0.0015016,-20,-0.4112,0.610754,-0.038955,0.837349,0.00626294,-1.93193e-05,0.00240705,2.61706e-05,0.494047,0.00122214,0.0715689,0.0457307,-0.000888715,0.0219298,1.98949,0.000349896,0.005,1.75018,0.00117645,-0.0129503,-0.0961286,13.1249,0.107738,1.52234,2.43733,0.0709441,5.75747,0.203144,5.9438,0.130076,0.531799,-0.773479,-0.0490066,-0.153076,-0.0166092,-0.668713,-0.141049,23.4648,23.3371,23.1811,23.3087,23.2378,23.2946,23.1527,
23,6.27297,1.39001,3.15335,4.12198,6.27413,1.9771,1.5557,0.00331239,-0.051641,-2.64946e-05,0.122354,6.88347e-05,0.0596915,0,0.365124,-5.83092,-0.312658,1.77192,0.779708,-21.5425,0.798091,-0.000784746,-20,-0.414442,0.582227,-0.0389398,0.748694,0.00697878,-2.11959e-05,0.00263218,2.61073e-05,0.494047,0.00122214,0.0715689,0.0463551,-0.000825721,0.0243458,1.98859,0.000364033,0.005,1.74857,0.00112747,-0.0152368,-0.102902,13.9518,0.102424,1.43894,2.66413,0.12622,5.63525,0.202697,5.87507,0.12602,0.547852,-0.805704,-0.0490066,-0.0966797,-0.0166092,-0.664722,-0.128969,23.479,23.3371,23.1952,23.2946,23.2378,23.2946,23.1527,
24,6.27297,1.39001,3.15335,4.12198,6.27413,1.9771,1.5557,0.00331239,-0.051641,-2.64946e-05,0.122354,6.88347e-05,0.0596915,0,0.367633,-6.04262,-0.314759,1.61184,0.795987,-22.3809,0.812875,-0.000116481,-20,-0.417409,0.55416,-0.0389137,0.664533,0.00753661,-2.26851e-05,0.00286253,2.70159e-05,0.494047,0.00122214,0.0715689,0.0463551,-0.000825721,0.0243458,1.98767,0.00038004,0.005,1.74719,0.00108519,-0.0174112,-0.10811,14.7387,0.100704,1.43894,2.66413,0.12622,5.63525,0.202697,5.87507,0.12602,0.547852,-0.805704,-0.0490066,-0.0966797,-0.0166092,-0.664722,-0.128969,23.479,23.3371,23.1952,23.2946,23.2378,23.2946,23.1527,
25,6.27297,1.38995,3.15335,4.12211,6.27413,1.97716,1.5557,0.00317989,-0.0571214,-3.17939e-05,0.122124,6.88867e-05,0.061042,0,0.36767,-6.0409,-0.31486,1.61037,0.796064,-22.3777,0.812894,-0.000119946,-20,-0.417437,0.555359,-0.0389045,0.664332,0.00753386,-2.26851e-05,0.00286253,2.70159e-05,0.494047,0.00122214,0.0715689,0.0474537,-0.000758603,0.0266658,1.98767,0.00038004,0.005,1.74719,0.00108519,-0.0174112,-0.10811,14.7387,0.100704,1.48365,2.89556,0.148792,5.52211,0.209763,5.80726,0.124395,0.556433,-0.821777,-0.0563965,-0.0332184,-0.0180152,-0.684814,-0.125138,23.479,23.3371,23.1811,23.3087,23.2236,23.3087,23.1527,
26,6.27297,1.38988,3.15335,4.12222,6.27413,1.97723,1.5557,0.00304664,-0.0632028,-3.17939e-05,0.120341,7.94847e-05,0.0591814,0,0.370516,-6.27436,-0.318183,1.42975,0.811668,-23.3046,0.831064,0.000628212,-20,-0.420823,0.525021,-0.0388812,0.57065,0.00833935,-2.48726e-05,0.00311297,2.71743e-05,0.494047,0.00122214,0.0715689,0.0482306,-0.00069881,0.0289126,1.98666,0.000388008,0.005,1.74529,0.00103195,-0.0194992,-0.115766,15.6129,0.0966003,1.37443,3.21668,0.175787,5.44329,0.22906,5.72811,0.13233,0.547911,-0.837929,-0.0490066,-0.0113938,-0.0127387,-0.680786,-0.128906,23.479,23.3513,23.1669,23.2946,23.2236,23.2804,23.1527,
27,6.27297,1.38981,3.15335,4.12234,6.27413,1.97728,1.5557,0.00291418,-0.0696851,-3.71209e-05,0.120193,7.94855e-05,0.0588813,0,0.372896,-6.46887,-0.320856,1.27865,0.825121,-24.0796,0.846877,0.00125,-20,-0.423647,0.499776,-0.0388575,0.492208,0.00907199,-2.68881e-05,0.00335688,2.70698e-05,0.494047,0.00122214,0.0715689,0.049565,-0.000632,0.0314525,1.98571,0.000401405,0.005,1.74373,0.000990193,-0.0215213,-0.122748,16.3446,0.0934994,1.38856,3.4248,0.198253,5.38888,0.238429,5.63449,0.120147,0.539795,-0.838046,-0.041081,0.0161133,-0.0166092,-0.644544,-0.128969,23.479,23.3371,23.1811,23.3087,23.2236,23.3087,23.1527,
28,6.27298,1.38974,3.15335,4.12246,6.27413,1.97734,1.5557,0.00291418,-0.0758974,-3.71209e-05,0.120734,8.45926e-05,0.0588813,0,0.375636,-6.6932,-0.323598,1.10372,0.84164,-24.9724,0.86364,0.00196178,-20,-0.426869,0.470278,-0.0388278,0.40182,0.00976581,-2.85421e-05,0.00360227,2.74831e-05,0.494047,0.00122214,0.0715689,0.0510402,-0.000617173,0.0339054,1.98473,0.000412558,0.005,1.74165,0.000940102,-0.0238073,-0.129297,17.1882,0.0908059,1.35461,3.7606,0.219797,5.29872,0.232775,5.50642,0.13687,0.564022,-0.821817,-0.0563965,0.0402832,-0.0127387,-0.632459,-0.128906,23.4648,23.3371,23.1811,23.2946,23.2236,23.3087,23.1385,
29,6.27298,1.38966,3.15335,4.12259,6.27414,1.97741,1.5557,0.00287219,-0.0792428,-3.70929e-05,0.120118,0.000100681,0.0591257,0,0.378423,-6.92851,-0.325046,0.920681,0.863171,-25.9072,0.8819,0.00268501,-20,-0.430143,0.43983,-0.0387628,0.307171,0.010531,-3.04724e-05,0.00385417,2.79348e-05,0.494047,0.00122214,0.0715689,0.0515702,-0.000592978,0.0352756,1.98373,0.000426603,0.005,1.73942,0.000939398,-0.0260149,-0.136574,18.0709,0.0917035,1.39369,4.06689,0.245486,5.25239,0.252638,5.40783,0.113966,0.564022,-0.806027,-0.0563965,0.0569691,-0.0113938,-0.636487,-0.124878,23.4648,23.3371,23.1952,23.2946,23.2236,23.3087,23.1385,
30,6.27298,1.38966,3.15335,4.12259,6.27414,1.97741,1.5557,0.00287219,-0.0792428,-3.70929e-05,0.120118,0.000100681,0.0591257,0,0.381118,-7.15436,-0.328137,0.749655,0.878318,-26.7916,0.89933,0.0034027,-20,-0.433373,0.409865,-0.0387432,0.218669,0.0112973,-3.27778e-05,0.00412844,2.71966e-05,0.494047,0.00122214,0.0715689,0.0515702,-0.000592978,0.0352756,1.98263,0.000434502,0.005,1.73796,0.000924731,-0.0272481,-0.143837,18.9006,0.0881161,1.39369,4.06689,0.245486,5.25239,0.252638,5.40783,0.113966,0.564022,-0.806027,-0.0563965,0.0569691,-0.0113938,-0.636487,-0.124878,23.4648,23.3371,23.1952,23.2946,23.2236,23.3087,23.1385,
31,6.27298,1.38958,3.15335,4.12271,6.27414,1.97747,1.5557,0.00303822,-0.0788685,-4.24235e-05,0.121544,0.000111112,0.0607719,0,0.381184,-7.15298,-0.328326,0.74893,0.878416,-26.7895,0.899401,0.0033916,-20,-0.433395,0.411691,-0.0387378,0.21839,0.0112958,-3.27778e-05,0.00412844,2.71966e-05,0.494047,0.00122214,0.0715689,0.0518979,-0.000651531,0.0352861,1.98263,0.000434502,0.005,1.73796,0.000924731,-0.0272481,-0.143837,18.9006,0.0881161,1.31823,4.45216,0.234717,5.21523,0.286151,5.29985,0.108645,0.555967,-0.829873,-0.0490066,0.0809682,-0.012085,-0.60829,-0.116891,23.4648,23.3371,23.1811,23.2946,23.2236,23.2946,23.1527,
32,6.27299,1.3895,3.15335,4.12283,6.27414,1.97752,1.5557,0.00308556,-0.0771696,-4.77269e-05,0.123975,0.000121601,0.0599616,1.0598e-05,0.383591,-7.36572,-0.328219,0.586773,0.901871,-27.6157,0.915883,0.00401146,-20,-0.436264,0.385513,-0.0386518,0.135608,0.0119606,-3.49521e-05,0.00438579,2.76554e-05,0.494047,0.00122214,0.0715689,0.0522332,-0.000667877,0.0344944,1.98161,0.000451515,0.005,1.73674,0.000992742,-0.0272575,-0.150176,19.6764,0.092781,1.39253,4.68677,0.212616,5.11893,0.283742,5.13725,0.0904948,0.556142,-0.958774,-0.0509547,0.0725098,-0.0090076,-0.616333,-0.120917,23.479,23.3229,23.1811,23.2946,23.2094,23.2804,23.1385,
33,6.27299,1.38942,3.15335,4.12295,6.27414,1.97758,1.5557,0.00319133,-0.0799489,-5.0417e-05,0.122894,0.000132175,0.0588813,1.05821e-05,0.385823,-7.55675,-0.329722,0.439718,0.918224,-28.352,0.929439,0.00458197,-20,-0.438953,0.361623,-0.0386105,0.0618282,0.0124677,-3.67231e-05,0.00464315,2.74696e-05,0.494047,0.00122214,0.0715689,0.0525083,-0.000706195,0.0355094,1.98058,0.000461331,0.005,1.73551,0.00101629,-0.0265449,-0.154967,20.3689,0.0929138,1.3514,5.00225,0.209305,5.04022,0.296809,4.99502,0.113718,0.555908,-1.08765,-0.0563965,0.0402832,-0.0127387,-0.592177,-0.120917,23.4648,23.3229,23.1811,23.2946,23.2094,23.2804,23.1243,
34,6.27299,1.38942,3.15335,4.12295,6.27414,1.97758,1.5557,0.00319133,-0.0799489,-5.0417e-05,0.122894,0.000132175,0.0588813,1.05821e-05,0.388,-7.752,-0.329745,0.29197,0.938918,-29.1149,0.945346,0.0051618,-20,-0.441559,0.335787,-0.0385428,-0.0144502,0.0131706,-3.89209e-05,0.0049013,2.74089e-05,0.494047,0.00122214,0.0715689,0.0525083,-0.000706195,0.0355094,1.97954,0.000474096,0.005,1.73433,0.00106226,-0.0274585,-0.161672,21.0845,0.0964878,1.3514,5.00225,0.209305,5.04022,0.296809,4.99502,0.113718,0.555908,-1.08765,-0.0563965,0.0402832,-0.0127387,-0.592177,-0.120917,23.4648,23.3229,23.1811,23.2946,23.2094,23.2804,23.1243,
35,6.27299,1.38933,3.15335,4.12308,6.27414,1.97764,1.5557,0.00319133,-0.0835059,-5.03784e-05,0.123011,0.000137462,0.0607719,1.0598e-05,0.388043,-7.75017,-0.329891,0.290479,0.939005,-29.1115,0.945372,0.00514944,-20,-0.441583,0.337335,-0.038535,-0.0147016,0.0131682,-3.89209e-05,0.0049013,2.74089e-05,0.494047,0.00122214,0.0715689,0.0532943,-0.000695052,0.0371253,1.97954,0.000474096,0.005,1.73433,0.00106226,-0.0274585,-0.161672,21.0845,0.0964878,1.40175,5.22665,0.221397,4.99882,0.308681,4.84208,0.107068,0.555908,-1.10379,-0.0483398,0.0483398,-0.012085,-0.57605,-0.108839,23.4648,23.3371,23.1669,23.2946,23.2094,23.2946,23.1243,
36,6.273,1.38925,3.15335,4.12321,6.27414,1.97771,1.5557,0.00335318,-0.0861611,-5.56814e-05,0.124515,0.000148149,0.0608794,1.0582e-05,0.391012,-7.99852,-0.331993,0.0989914,0.960168,-30.0893,0.963855,0.00591162,-20,-0.445079,0.305569,-0.0384825,-0.113208,0.0139056,-4.10819e-05,0.00518063,2.76977e-05,0.494047,0.00122214,0.0715689,0.0542883,-0.00074776,0.0381697,1.97841,0.000487018,0.005,1.73261,0.00106386,-0.0289127,-0.168639,22.0056,0.096228,1.32202,5.52712,0.193256,4.90248,0.32517,4.71205,0.108912,0.555908,-1.10423,-0.0483398,0.0569691,-0.00402832,-0.580078,-0.116891,23.479,23.3229,23.1811,23.3087,23.2094,23.2804,23.1243,
37,6.273,1.38916,3.15335,4.12333,6.27414,1.97777,1.5557,0.00329836,-0.0891322,-6.36359e-05,0.123705,0.000158611,0.0615822,1.059e-05,0.393666,-8.2321,-0.331914,-0.0820639,0.985896,-31.0051,0.982548,0.006599,-20,-0.448227,0.275619,-0.0383855,-0.205513,0.0146947,-4.33488e-05,0.00545304,2.80505e-05,0.494047,0.00122214,0.0715689,0.0546811,-0.000717356,0.0394457,1.97734,0.000503467,0.005,1.73075,0.0011261,-0.0298527,-0.176183,22.8691,0.101148,1.33496,5.71059,0.176351,4.77649,0.313614,4.54012,0.0959554,0.547852,-1.12793,-0.0563965,0.0332184,-0.00402832,-0.576064,-0.12085,23.479,23.3087,23.1669,23.2804,23.1952,23.2946,23.1243,
38,6.273,1.38916,3.15335,4.12333,6.27414,1.97777,1.5557,0.00329836,-0.0891322,-6.36359e-05,0.123705,0.000158611,0.0615822,1.059e-05,0.39629,-8.45447,-0.33447,-0.250409,1.00206,-31.8753,1.0005,0.00729771,-20,-0.451375,0.246188,-0.0383609,-0.292568,0.0155274,-4.59007e-05,0.00572357,2.78912e-05,0.494047,0.00122214,0.0715689,0.0546811,-0.000717356,0.0394457,1.97626,0.000514254,0.005,1.72942,0.00110845,-0.0310011,-0.184106,23.6854,0.0987109,1.33496,5.71059,0.176351,4.77649,0.313614,4.54012,0.0959554,0.547852,-1.12793,-0.0563965,0.0332184,-0.00402832,-0.576064,-0.12085,23.479,23.3087,23.1669,23.2804,23.1952,23.2946,23.1243,
39,6.273,1.38907,3.15335,4.12345,6.27414,1.97783,1.5557,0.0032977,-0.0929135,-6.89911e-05,0.123435,0.000169184,0.0599616,1.0606e-05,0.396342,-8.45217,-0.334617,-0.251532,1.00212,-31.8719,1.00052,0.00729105,-20,-0.451396,0.247843,-0.0383529,-0.292855,0.015524,-4.59007e-05,0.00572357,2.78912e-05,0.494047,0.00122214,0.0715689,0.0554019,-0.000709917,0.0407863,1.97626,0.000514254,0.005,1.72942,0.00110845,-0.0310011,-0.184106,23.6854,0.0987109,1.24318,5.95791,0.142432,4.61641,0.310571,4.36672,0.104571,0.556142,-1.13624,-0.0644531,0.0509547,-0.00569691,-0.568007,-0.12085,23.479,23.3087,23.1811,23.2804,23.2236,23.2946,23.1385,
40,6.27301,1.38897,3.15335,4.12358,6.27414,1.97789,1.5557,0.00340408,-0.0983012,-7.16446e-05,0.126387,0.000179758,0.0591814,1.05821e-05,0.398889,-8.66476,-0.336357,-0.417649,1.02059,-32.7104,1.01945,0.00794101,-20,-0.454404,0.220432,-0.0383051,-0.37753,0.0164655,-4.87523e-05,0.00599597,2.7716e-05,0.494047,0.00122214,0.0715689,0.0573939,-0.000733987,0.0427932,1.97517,0.000523453,0.005,1.72779,0.00111003,-0.0322077,-0.193158,24.4776,0.0987364,1.30861,6.10945,0.123847,4.47467,0.310717,4.18439,0.096486,0.572078,-1.12793,-0.0490066,0.0918598,0,-0.531799,-0.116891,23.479,23.3087,23.1527,23.2946,23.2094,23.2946,23.1101,
41,6.27301,1.38887,3.15335,4.12371,6.27414,1.97794,1.5557,0.00340408,-0.100914,-8.21963e-05,0.127357,0.000179893,0.0559102,1.0582e-05,0.402154,-8.94326,-0.337433,-0.635681,1.04806,-33.8108,1.04207,0.00878898,-20,-0.458239,0.184048,-0.0382126,-0.488858,0.0174547,-5.13052e-05,0.00629727,2.79653e-05,0.494047,0.00122214,0.0715689,0.0582233,-0.000728948,0.0434759,1.97395,0.000538666,0.005,1.7249,0.00114539,-0.0340139,-0.202581,25.5179,0.101632,1.24071,6.34885,0.120599,4.27712,0.322587,4.03879,0.0816469,0.563965,-1.07181,-0.0490066,0.0241699,0,-0.519716,-0.116891,23.4648,23.3371,23.1811,23.2946,23.2094,23.2804,23.1385,
42,6.27301,1.38887,3.15335,4.12371,6.27414,1.97794,1.5557,0.00340408,-0.100914,-8.21963e-05,0.127357,0.000179893,0.0559102,1.0582e-05,0.40449,-9.15262,-0.337519,-0.796224,1.06964,-34.6259,1.05992,0.00941114,-20,-0.46104,0.155829,-0.0381518,-0.570484,0.018309,-5.38428e-05,0.00657767,2.87797e-05,0.494047,0.00122214,0.0715689,0.0582233,-0.000728948,0.0434759,1.9728,0.000549567,0.005,1.72312,0.00115066,-0.0346283,-0.210766,26.2843,0.104927,1.24071,6.34885,0.120599,4.27712,0.322587,4.03879,0.0816469,0.563965,-1.07181,-0.0490066,0.0241699,0,-0.519716,-0.116891,23.4648,23.3371,23.1811,23.2946,23.2094,23.2804,23.1385,
43,6.27302,1.38876,3.15335,4.12384,6.27414,1.978,1.5557,0.00351046,-0.102907,-8.74993e-05,0.129377,0.000185045,0.0540195,1.0582e-05,0.404564,-9.15018,-0.33773,-0.797275,1.06971,-34.6224,1.06,0.0094027,-20,-0.461064,0.157763,-0.0381443,-0.570757,0.0183095,-5.38428e-05,0.00657767,2.87797e-05,0.494047,0.00122214,0.0715689,0.0592242,-0.000763943,0.0440411,1.9728,0.000549567,0.005,1.72312,0.00115066,-0.0346283,-0.210766,26.2843,0.104927,1.26694,6.54967,0.095345,4.11056,0.310727,3.83615,0.075147,0.555908,-1.07962,-0.0569691,0,-0.00402832,-0.483415,-0.116821,23.4648,23.3087,23.1669,23.2946,23.2236,23.2946,23.1385,
44,6.27302,1.38876,3.15335,4.12384,6.27414,1.978,1.5557,0.00351046,-0.102907,-8.74993e-05,0.129377,0.000185045,0.0540195,1.0582e-05,0.407009,-9.37612,-0.33652,-0.970708,1.09685,-35.5004,1.07946,0.0100537,-20,-0.463994,0.12728,-0.0380504,-0.658663,0.0192246,-5.66222e-05,0.00685993,3.01779e-05,0.494047,0.00122214,0.0715689,0.0592242,-0.000763943,0.0440411,1.97163,0.000567766,0.005,1.72117,0.00119854,-0.035137,-0.219555,27.1101,0.111888,1.26694,6.54967,0.095345,4.11056,0.310727,3.83615,0.075147,0.555908,-1.07962,-0.0569691,0,-0.00402832,-0.483415,-0.116821,23.4648,23.3087,23.1669,23.2946,23.2236,23.2946,23.1385,
45,6.27302,1.38876,3.15335,4.12384,6.27414,1.978,1.5557,0.00351046,-0.102907,-8.74993e-05,0.129377,0.000185045,0.0540195,1.0582e-05,0.407009,-9.37612,-0.33652,-0.970708,1.09685,-35.5004,1.07946,0.0100537,-20,-0.463994,0.12728,-0.0380504,-0.658663,0.0192246,-5.66222e-05,0.00685993,3.01779e-05,0.494047,0.00122214,0.0715689,0.0592242,-0.000763943,0.0440411,1.97163,0.000567766,0.005,1.72117,0.00119854,-0.035137,-0.219555,27.1101,0.111888,1.26694,6.54967,0.095345,4.11056,0.310727,3.83615,0.075147,0.555908,-1.07962,-0.0569691,0,-0.00402832,-0.483415,-0.116821,23.4648,23.3087,23.1669,23.2946,23.2236,23.2946,23.1385,
46,6.27302,1.38865,3.15335,4.12397,6.27414,1.97805,1.5557,0.00357649,-0.105072,-9.01508e-05,0.132888,0.000185045,0.0540195,1.05901e-05,0.407075,-9.37378,-0.336724,-0.972271,1.09694,-35.4965,1.07952,0.010041,-20,-0.464024,0.129087,-0.0380436,-0.658874,0.0192231,-5.66222e-05,0.00685993,3.01779e-05,0.494047,0.00122214,0.0715689,0.0606912,-0.000777647,0.0448485,1.97163,0.000567766,0.005,1.72117,0.00119854,-0.035137,-0.219555,27.1101,0.111888,1.17388,6.82751,0.0708158,3.92003,0.306113,3.66032,0.0728247,0.548088,-1.0957,-0.0569691,-0.0402832,0.00569691,-0.447162,-0.116891,23.4648,23.3087,23.1385,23.2946,23.2236,23.2804,23.1385,
47,6.27302,1.38865,3.15335,4.12397,6.27414,1.97805,1.5557,0.00357649,-0.105072,-9.01508e-05,0.132888,0.000185045,0.0540195,1.05901e-05,0.410061,-9.63836,-0.337408,-1.1759,1.12286,-36.5263,1.09989,0.010836,-20,-0.467604,0.0932447,-0.0379699,-0.762075,0.0200802,-5.90607e-05,0.00715578,3.1007e-05,0.494047,0.00122214,0.0715689,0.0606912,-0.000777647,0.0448485,1.9704,0.000579496,0.005,1.71874,0.00122143,-0.0358636,-0.227687,28.0791,0.114882,1.17388,6.82751,0.0708158,3.92003,0.306113,3.66032,0.0728247,0.548088,-1.0957,-0.0569691,-0.0402832,0.00569691,-0.447162,-0.116891,23.4648,23.3087,23.1385,23.2946,23.2236,23.2804,23.1385,
48,6.27302,1.38855,3.15335,4.12411,6.27414,1.9781,1.5557,0.00344489,-0.105338,-9.55261e-05,0.130901,0.00019562,0.0521288,1.0582e-05,0.410098,-9.63594,-0.337495,-1.17632,1.12291,-36.5234,1.09989,0.0108269,-20,-0.467621,0.0958379,-0.0379559,-0.762537,0.0200758,-5.90607e-05,0.00715578,3.1007e-05,0.494047,0.00122214,0.0715689,0.0601679,-0.000730112,0.0448055,1.9704,0.000579496,0.005,1.71874,0.00122143,-0.0358636,-0.227687,28.0791,0.114882,1.21621,6.99348,0.0468353,3.82097,0.299456,3.48387,0.0657557,0.547911,-1.11193,-0.0664368,-0.0966797,0,-0.439105,-0.116891,23.4648,23.3229,23.1669,23.2804,23.2094,23.2804,23.1527,
49,6.27302,1.38855,3.15335,4.12411,6.27414,1.9781,1.5557,0.00344489,-0.105338,-9.55261e-05,0.130901,0.00019562,0.0521288,1.0582e-05,0.412331,-9.82586,-0.340126,-1.31872,1.135,-37.2569,1.11649,0.0114216,-20,-0.470347,0.0711209,-0.0379525,-0.835471,0.0209384,-6.21708e-05,0.00745001,3.07476e-05,0.494047,0.00122214,0.0715689,0.0601679,-0.000730112,0.0448055,1.96916,0.000587723,0.005,1.71809,0.00118605,-0.035825,-0.23595,28.7652,0.111467,1.21621,6.99348,0.0468353,3.82097,0.299456,3.48387,0.0657557,0.547911,-1.11193,-0.0664368,-0.0966797,0,-0.439105,-0.116891,23.4648,23.3229,23.1669,23.2804,23.2094,23.2804,23.1527,
50,6.27303,1.38844,3.15335,4.12423,6.27414,1.97816,1.5557,0.00357738,-0.108579,-0.000108711,0.127216,0.000195768,0.0491044,1.05821e-05,0.412419,-9.82322,-0.34033,-1.31925,1.13507,-37.2538,1.1166,0.0114147,-20,-0.470353,0.0733287,-0.0379447,-0.835914,0.0209392,-6.21708e-05,0.00745001,3.07476e-05,0.494047,0.00122214,0.0715689,0.0597869,-0.000784885,0.0458496,1.96916,0.000587723,0.005,1.71809,0.00118605,-0.035825,-0.23595,28.7652,0.111467,1.13012,7.28989,0.0553171,3.70975,0.339229,3.33847,0.0714449,0.572078,-1.17671,-0.0649547,-0.0742786,0.0127387,-0.402832,-0.108839,23.4648,23.3087,23.1669,23.2946,23.2094,23.2946,23.1243,
51,6.27303,1.38844,3.15335,4.12423,6.27414,1.97816,1.5557,0.00357738,-0.108579,-0.000108711,0.127216,0.000195768,0.0491044,1.05821e-05,0.41428,-10.0046,-0.337459,-1.4557,1.16218,-37.963,1.13363,0.0119101,-20,-0.47257,0.0496403,-0.037838,-0.906755,0.0217875,-6.50364e-05,0.00773467,3.20937e-05,0.494047,0.00122214,0.0715689,0.0597869,-0.000784885,0.0458496,1.96798,0.00060116,0.005,1.71737,0.00124744,-0.0367646,-0.244162,29.4298,0.121659,1.13012,7.28989,0.0553171,3.70975,0.339229,3.33847,0.0714449,0.572078,-1.17671,-0.0649547,-0.0742786,0.0127387,-0.402832,-0.108839,23.4648,23.3087,23.1669,23.2946,23.2094,23.2946,23.1243,
52,6.27303,1.38844,3.15335,4.12423,6.27414,1.97816,1.5557,0.00357738,-0.108579,-0.000108711,0.127216,0.000195768,0.0491044,1.05821e-05,0.41428,-10.0046,-0.337459,-1.4557,1.16218,-37.963,1.13363,0.0119101,-20,-0.47257,0.0496403,-0.037838,-0.906755,0.0217875,-6.50364e-05,0.00773467,3.20937e-05,0.494047,0.00122214,0.0715689,0.0597869,-0.000784885,0.0458496,1.96798,0.00060116,0.005,1.71737,0.00124744,-0.0367646,-0.244162,29.4298,0.121659,1.13012,7.28989,0.0553171,3.70975,0.339229,3.33847,0.0714449,0.572078,-1.17671,-0.0649547,-0.0742786,0.0127387,-0.402832,-0.108839,23.4648,23.3087,23.1669,23.2946,23.2094,23.2946,23.1243,
53,6.27303,1.38833,3.15335,4.12436,6.27415,1.9782,1.5557,0.00344489,-0.110628,-0.000119317,0.125865,0.000206192,0.0480774,1.0582e-05,0.414338,-10.0023,-0.337586,-1.45656,1.16221,-37.9598,1.13366,0.011907,-20,-0.472591,0.0517585,-0.0378236,-0.907122,0.0217848,-6.50364e-05,0.00773467,3.20937e-05,0.494047,0.00122214,0.0715689,0.0598257,-0.000728988,0.0465909,1.96798,0.00060116,0.005,1.71737,0.00124744,-0.0367646,-0.244162,29.4298,0.121659,1.1431,7.52907,0.0105122,3.59444,0.306362,3.12515,0.0506323,0.547852,-1.16846,-0.0569691,-0.0161133,0.0090076,-0.366599,-0.112865,23.479,23.3229,23.1811,23.2946,23.2094,23.2804,23.1385,
54,6.27303,1.38833,3.15335,4.12436,6.27415,1.9782,1.5557,0.00344489,-0.110628,-0.000119317,0.125865,0.000206192,0.0480774,1.0582e-05,0.41674,-10.2072,-0.339835,-1.61167,1.17704,-38.758,1.15311,0.0125463,-20,-0.475488,0.0247128,-0.037808,-0.986863,0.0228583,-6.86014e-05,0.00801559,3.25036e-05,0.494047,0.00122214,0.0715689,0.0598257,-0.000728988,0.0465909,1.9668,0.000611146,0.005,1.71628,0.00120612,-0.0374318,-0.254492,30.1784,0.119389,1.1431,7.52907,0.0105122,3.59444,0.306362,3.12515,0.0506323,0.547852,-1.16846,-0.0569691,-0.0161133,0.0090076,-0.366599,-0.112865,23.479,23.3229,23.1811,23.2946,23.2094,23.2804,23.1385,
55,6.27303,1.38822,3.15335,4.12448,6.27415,1.97825,1.5557,0.00344489,-0.113981,-0.000127272,0.121004,0.000206192,0.0472671,1.059e-05,0.416812,-10.2049,-0.339991,-1.61234,1.17711,-38.7551,1.15319,0.012539,-20,-0.475494,0.0268253,-0.0377971,-0.987303,0.0228579,-6.86014e-05,0.00801559,3.25036e-05,0.494047,0.00122214,0.0715689,0.0591279,-0.00073149,0.0479348,1.9668,0.000611146,0.005,1.71628,0.00120612,-0.0374318,-0.254492,30.1784,0.119389,1.04058,7.85758,0.00951873,3.45002,0.306362,2.94819,0.063521,0.564022,-1.17638,-0.0563965,0.0113938,0.0090076,-0.346436,-0.108839,23.4648,23.3087,23.1811,23.2804,23.2094,23.2804,23.1385,
56,6.27303,1.38822,3.15335,4.12448,6.27415,1.97825,1.5557,0.00344489,-0.113981,-0.000127272,0.121004,0.000206192,0.0472671,1.059e-05,0.418849,-10.3908,-0.339342,-1.75111,1.19828,-39.4841,1.16969,0.0130813,-20,-0.477929,0.00283508,-0.0377329,-1.06008,0.0236706,-7.14749e-05,0.00829399,3.3475e-05,0.494047,0.00122214,0.0715689,0.0591279,-0.00073149,0.0479348,1.96563,0.000620587,0.005,1.71585,0.00121687,-0.0386413,-0.262307,30.8605,0.124029,1.04058,7.85758,0.00951873,3.45002,0.306362,2.94819,0.063521,0.564022,-1.17638,-0.0563965,0.0113938,0.0090076,-0.346436,-0.108839,23.4648,23.3087,23.1811,23.2804,23.2094,23.2804,23.1385,
57,6.27304,1.3881,3.15335,4.1246,6.27415,1.9783,1.5557,0.00351046,-0.116357,-0.000137878,0.119504,0.000216766,0.0472671,1.0582e-05,0.41895,-10.3884,-0.33957,-1.75216,1.19834,-39.4807,1.16976,0.0130755,-20,-0.477947,0.00500581,-0.0377227,-1.06045,0.0236679,-7.14749e-05,0.00829399,3.3475e-05,0.494047,0.00122214,0.0715689,0.059192,-0.000751948,0.0489179,1.96563,0.000620587,0.005,1.71585,0.00121687,-0.0386413,-0.262307,30.8605,0.124029,1.08381,8.17257,0.00976844,3.41542,0.304356,2.73511,0.0538604,0.547911,-1.13624,-0.072956,0.112793,0.012085,-0.330347,-0.108839,23.4648,23.3229,23.1669,23.2804,23.2094,23.2804,23.1385,
58,6.27304,1.3881,3.15335,4.1246,6.27415,1.9783,1.5557,0.00351046,-0.116357,-0.000137878,0.119504,0.000216766,0.0472671,1.0582e-05,0.421487,-10.6149,-0.339892,-1.92364,1.22126,-40.3641,1.19112,0.0137508,-20,-0.480994,-0.0248661,-0.0376562,-1.14874,0.0247913,-7.52059e-05,0.00859115,3.38658e-05,0.494047,0.00122214,0.0715689,0.059192,-0.000751948,0.0489179,1.96438,0.000629883,0.005,1.71466,0.00124365,-0.0395261,-0.273142,31.6891,0.127231,1.08381,8.17257,0.00976844,3.41542,0.304356,2.73511,0.0538604,0.547911,-1.13624,-0.072956,0.112793,0.012085,-0.330347,-0.108839,23.4648,23.3229,23.1669,23.2804,23.2094,23.2804,23.1385,
59,6.27304,1.3881,3.15335,4.1246,6.27415,1.9783,1.5557,0.00351046,-0.116357,-0.000137878,0.119504,0.000216766,0.0472671,1.0582e-05,0.421487,-10.6149,-0.339892,-1.92364,1.22126,-40.3641,1.19112,0.0137508,-20,-0.480994,-0.0248661,-0.0376562,-1.14874,0.0247913,-7.52059e-05,0.00859115,3.38658e-05,0.494047,0.00122214,0.0715689,0.059192,-0.000751948,0.0489179,1.96438,0.000629883,0.005,1.71466,0.00124365,-0.0395261,-0.273142,31.6891,0.127231,1.08381,8.17257,0.00976844,3.41542,0.304356,2.73511,0.0538604,0.547911,-1.13624,-0.072956,0.112793,0.012085,-0.330347,-0.108839,23.4648,23.3229,23.1669,23.2804,23.2094,23.2804,23.1385,
60,6.27304,1.38798,3.15335,4.12472,6.27415,1.97834,1.5557,0.00344403,-0.119113,-0.000145832,0.119923,0.000222053,0.0455969,1.0582e-05,0.421544,-10.6124,-0.34004,-1.92473,1.22131,-40.3605,1.19115,0.0137438,-20,-0.481016,-0.02292,-0.0376451,-1.14904,0.0247887,-7.52059e-05,0.00859115,3.38658e-05,0.494047,0.00122214,0.0715689,0.0598912,-0.000719184,0.0498398,1.96438,0.000629883,0.005,1.71466,0.00124365,-0.0395261,-0.273142,31.6891,0.127231,0.960662,8.65202,-0.0157882,3.40837,0.326501,2.55207,0.0497174,0.531799,-1.12793,-0.0805664,0.129909,0.0166092,-0.326294,-0.100708,23.479,23.3087,23.1669,23.2946,23.2236,23.2662,23.1243,
61,6.27304,1.38798,3.15335,4.12472,6.27415,1.97834,1.5557,0.00344403,-0.119113,-0.000145832,0.119923,0.000222053,0.0455969,1.0582e-05,0.424104,-10.8338,-0.341654,-2.09429,1.23984,-41.2244,1.21083,0.0144252,-20,-0.484088,-0.0526344,-0.0376086,-1.23559,0.0257952,-7.83299e-05,0.00887527,3.4333e-05,0.494047,0.00122214,0.0715689,0.0598912,-0.000719184,0.0498398,1.96319,0.000638077,0.005,1.71297,0.00122154,-0.0403558,-0.282793,32.5014,0.126931,0.960662,8.65202,-0.0157882,3.40837,0.326501,2.55207,0.0497174,0.531799,-1.12793,-0.0805664,0.129909,0.0166092,-0.326294,-0.100708,23.479,23.3087,23.1669,23.2946,23.2236,23.2662,23.1243,
62,6.27304,1.38786,3.15335,4.12484,6.27415,1.97839,1.5557,0.00357649,-0.120463,-0.00015909,0.120463,0.000243385,0.0434857,1.05901e-05,0.424219,-10.8313,-0.341916,-2.09506,1.23986,-41.2212,1.21088,0.0144234,-20,-0.484109,-0.0504166,-0.0376,-1.23593,0.0257915,-7.83299e-05,0.00887527,3.4333e-05,0.494047,0.00122214,0.0715689,0.0603273,-0.000765657,0.0501567,1.96319,0.000638077,0.005,1.71297,0.00122154,-0.0403558,-0.282793,32.5014,0.126931,1.03512,8.93624,-0.0546931,3.36118,0.379934,2.27508,0.0199903,0.547852,-1.10388,-0.072956,0.105046,0.0127387,-0.306152,-0.10103,23.4648,23.3229,23.1669,23.2804,23.2236,23.2804,23.1385,
63,6.27304,1.38786,3.15335,4.12484,6.27415,1.97839,1.5557,0.00357649,-0.120463,-0.00015909,0.120463,0.000243385,0.0434857,1.05901e-05,0.426493,-11.0373,-0.341742,-2.25251,1.26216,-42.0203,1.23332,0.0150285,-20,-0.48685,-0.0779604,-0.0375267,-1.31581,0.0271048,-8.26279e-05,0.00915577,3.43838e-05,0.494047,0.00122214,0.0715689,0.0603273,-0.000765657,0.0501567,1.962,0.000648711,0.005,1.71151,0.00127293,-0.040641,-0.295558,33.2521,0.131162,1.03512,8.93624,-0.0546931,3.36118,0.379934,2.27508,0.0199903,0.547852,-1.10388,-0.072956,0.105046,0.0127387,-0.306152,-0.10103,23.4648,23.3229,23.1669,23.2804,23.2236,23.2804,23.1385,
64,6.27305,1.38774,3.15334,4.12496,6.27415,1.97843,1.5557,0.00370895,-0.119923,-0.000169696,0.121004,0.000253778,0.041595,1.05901e-05,0.426603,-11.0349,-0.341986,-2.25303,1.26221,-42.0174,1.23341,0.0150232,-20,-0.486868,-0.0754586,-0.0375178,-1.31619,0.0271028,-8.26279e-05,0.00915577,3.43838e-05,0.494047,0.00122214,0.0715689,0.0603622,-0.000817628,0.0497484,1.962,0.000648711,0.005,1.71151,0.00127293,-0.040641,-0.295558,33.2521,0.131162,0.991505,9.39041,-0.00522457,3.31665,0.359193,2.05571,0.0517619,0.564022,-1.10449,-0.0805664,0.0980133,0.0166092,-0.273955,-0.104736,23.4506,23.3087,23.1669,23.2804,23.2094,23.2804,23.1385,
65,6.27305,1.38774,3.15334,4.12496,6.27415,1.97843,1.5557,0.00370895,-0.119923,-0.000169696,0.121004,0.000253778,0.041595,1.05901e-05,0.428663,-11.2275,-0.341018,-2.39931,1.28507,-42.758,1.25258,0.0155715,-20,-0.489374,-0.100953,-0.03744,-1.38994,0.0281463,-8.62375e-05,0.00943402,3.49506e-05,0.494047,0.00122214,0.0715689,0.0603622,-0.000817628,0.0497484,1.96081,0.000658779,0.005,1.71041,0.00132877,-0.0402736,-0.305683,33.9467,0.136999,0.991505,9.39041,-0.00522457,3.31665,0.359193,2.05571,0.0517619,0.564022,-1.10449,-0.0805664,0.0980133,0.0166092,-0.273955,-0.104736,23.4506,23.3087,23.1669,23.2804,23.2094,23.2804,23.1385,
66,6.27305,1.38762,3.15334,4.12509,6.27415,1.97847,1.5557,0.00370988,-0.115245,-0.00017765,0.122877,0.000269636,0.0394342,0,0.428747,-11.2252,-0.341198,-2.39935,1.28511,-42.7556,1.25263,0.0155624,-20,-0.489395,-0.097716,-0.0374261,-1.3904,0.028142,-8.62375e-05,0.00943402,3.49506e-05,0.494047,0.00122214,0.0715689,0.0599039,-0.000824246,0.0476501,1.96081,0.000658779,0.005,1.71041,0.00132877,-0.0402736,-0.305683,33.9467,0.136999,1.02606,9.75768,-0.0196456,3.33289,0.365487,1.85478,0.0301381,0.547852,-1.17638,-0.0809682,0.0809682,0.0241699,-0.245728,-0.108765,23.4648,23.3229,23.1669,23.2946,23.2094,23.2662,23.1385,
67,6.27305,1.38762,3.15334,4.12509,6.27415,1.97847,1.5557,0.00370988,-0.115245,-0.00017765,0.122877,0.000269636,0.0394342,0,0.430766,-11.4068,-0.342471,-2.53622,1.30002,-43.4395,1.27041,0.0160998,-20,-0.491919,-0.121474,-0.0374006,-1.45795,0.0291465,-8.99306e-05,0.00972598,3.49752e-05,0.494047,0.00122214,0.0715689,0.0599039,-0.000824246,0.0476501,1.95954,0.000668716,0.005,1.70967,0.00134367,-0.0383851,-0.315401,34.586,0.136947,1.02606,9.75768,-0.0196456,3.33289,0.365487,1.85478,0.0301381,0.547852,-1.17638,-0.0809682,0.0809682,0.0241699,-0.245728,-0.108765,23.4648,23.3229,23.1669,23.2946,23.2094,23.2662,23.1385,
68,6.27305,1.38751,3.15334,4.12521,6.27415,1.9785,1.5557,0.00384237,-0.114521,-0.000192026,0.121544,0.000291004,0.0351076,0,0.430887,-11.4041,-0.342711,-2.53614,1.30003,-43.437,1.27046,0.0161011,-20,-0.491932,-0.118697,-0.0373908,-1.45841,0.0291411,-8.99306e-05,0.00972598,3.49752e-05,0.494047,0.00122214,0.0715689,0.0593612,-0.000882342,0.0469437,1.95954,0.000668716,0.005,1.70967,0.00134367,-0.0383851,-0.315401,34.586,0.136947,0.906683,10.2331,-0.0270046,3.32989,0.394814,1.67133,0.0317791,0.523682,-1.33762,-0.088623,0.0490066,0.0166092,-0.217529,-0.104814,23.4648,23.2946,23.1669,23.2946,23.2094,23.2662,23.1101,
69,6.27305,1.38751,3.15334,4.12521,6.27415,1.9785,1.5557,0.00384237,-0.114521,-0.000192026,0.121544,0.000291004,0.0351076,0,0.432483,-11.5544,-0.342003,-2.6493,1.31774,-44.0113,1.28983,0.016526,-20,-0.493892,-0.138316,-0.0373298,-1.5154,0.030399,-9.44385e-05,0.00999596,3.45205e-05,0.494047,0.00122214,0.0715689,0.0593612,-0.000882342,0.0469437,1.95837,0.000674055,0.005,1.70911,0.00140076,-0.0377493,-0.327713,35.1234,0.141456,0.906683,10.2331,-0.0270046,3.32989,0.394814,1.67133,0.0317791,0.523682,-1.33762,-0.088623,0.0490066,0.0166092,-0.217529,-0.104814,23.4648,23.2946,23.1669,23.2946,23.2094,23.2662,23.1101,
70,6.27305,1.38751,3.15334,4.12521,6.27415,1.9785,1.5557,0.00384237,-0.114521,-0.000192026,0.121544,0.000291004,0.0351076,0,0.432483,-11.5544,-0.342003,-2.6493,1.31774,-44.0113,1.28983,0.016526,-20,-0.493892,-0.138316,-0.0373298,-1.5154,0.030399,-9.44385e-05,0.00999596,3.45205e-05,0.494047,0.00122214,0.0715689,0.0593612,-0.000882342,0.0469437,1.95837,0.000674055,0.005,1.70911,0.00140076,-0.0377493,-0.327713,35.1234,0.141456,0.906683,10.2331,-0.0270046,3.32989,0.394814,1.67133,0.0317791,0.523682,-1.33762,-0.088623,0.0490066,0.0166092,-0.217529,-0.104814,23.4648,23.2946,23.1669,23.2946,23.2094,23.2662,23.1101,
71,6.27306,1.3874,3.15334,4.12533,6.27416,1.97854,1.5557,0.00384142,-0.113171,-0.000209102,0.119262,0.000317459,0.0318715,0,0.432552,-11.5521,-0.342151,-2.64916,1.31774,-44.0092,1.28984,0.0165187,-20,-0.493904,-0.135496,-0.0373168,-1.51588,0.0303946,-9.44385e-05,0.00999596,3.45205e-05,0.494047,0.00122214,0.0715689,0.0584114,-0.00088795,0.0461207,1.95837,0.000674055,0.005,1.70911,0.00140076,-0.0377493,-0.327713,35.1234,0.141456,0.937461,10.5359,-0.0603323,3.20068,0.438057,1.43112,0.00825508,0.539795,-1.37771,-0.0889885,0.0569691,0.0281982,-0.177246,-0.108765,23.4648,23.3229,23.1952,23.2804,23.2094,23.2804,23.1243,
72,6.27306,1.3874,3.15334,4.12533,6.27416,1.97854,1.5557,0.00384142,-0.113171,-0.000209102,0.119262,0.000317459,0.0318715,0,0.434097,-11.6918,-0.342717,-2.75326,1.33051,-44.5421,1.30653,0.01693,-20,-0.495816,-0.153433,-0.0372883,-1.56858,0.0314589,-9.83367e-05,0.0102565,3.43647e-05,0.494047,0.00122214,0.0715689,0.0584114,-0.00088795,0.0461207,1.95722,0.000687412,0.005,1.70893,0.00141783,-0.0370086,-0.338086,35.6208,0.142445,0.937461,10.5359,-0.0603323,3.20068,0.438057,1.43112,0.00825508,0.539795,-1.37771,-0.0889885,0.0569691,0.0281982,-0.177246,-0.108765,23.4648,23.3229,23.1952,23.2804,23.2094,23.2804,23.1243,
73,6.27306,1.38729,3.15334,4.12544,6.27416,1.97857,1.5557,0.00384142,-0.1102,-0.000236382,0.117222,0.000348941,0.0299808,0,0.434171,-11.6898,-0.342864,-2.75314,1.33051,-44.5402,1.3065,0.0169229,-20,-0.495828,-0.150542,-0.0372754,-1.56907,0.031451,-9.83367e-05,0.0102565,3.43647e-05,0.494047,0.00122214,0.0715689,0.0571878,-0.00089135,0.0447932,1.95722,0.000687412,0.005,1.70893,0.00141783,-0.0370086,-0.338086,35.6208,0.142445,0.862178,10.9592,-0.0156727,3.02497,0.435032,1.22906,0.0421752,0.531799,-1.39389,-0.0970148,0.0889885,0.0205405,-0.145243,-0.104736,23.4506,23.3087,23.1669,23.2946,23.2094,23.2804,23.1243,
74,6.27306,1.38729,3.15334,4.12544,6.27416,1.97857,1.5557,0.00384142,-0.1102,-0.000236382,0.117222,0.000348941,0.0299808,0,0.435738,-11.8258,-0.344855,-2.85349,1.33888,-45.0541,1.32322,0.0173399,-20,-0.497793,-0.167747,-0.0372721,-1.61965,0.0325546,-0.000102402,0.0105103,3.32381e-05,0.494047,0.00122214,0.0715689,0.0571878,-0.00089135,0.0447932,1.95609,0.000695788,0.005,1.70901,0.00142842,-0.0358138,-0.348831,36.0992,0.139952,0.862178,10.9592,-0.0156727,3.02497,0.435032,1.22906,0.0421752,0.531799,-1.39389,-0.0970148,0.0889885,0.0205405,-0.145243,-0.104736,23.4506,23.3087,23.1669,23.2946,23.2094,23.2804,23.1243,
75,6.27306,1.38729,3.15334,4.12544,6.27416,1.97857,1.5557,0.00384142,-0.1102,-0.000236382,0.117222,0.000348941,0.0299808,0,0.435738,-11.8258,-0.344855,-2.85349,1.33888,-45.0541,1.32322,0.0173399,-20,-0.497793,-0.167747,-0.0372721,-1.61965,0.0325546,-0.000102402,0.0105103,3.32381e-05,0.494047,0.00122214,0.0715689,0.0571878,-0.00089135,0.0447932,1.95609,0.000695788,0.005,1.70901,0.00142842,-0.0358138,-0.348831,36.0992,0.139952,0.862178,10.9592,-0.0156727,3.02497,0.435032,1.22906,0.0421752,0.531799,-1.39389,-0.0970148,0.0889885,0.0205405,-0.145243,-0.104736,23.4506,23.3087,23.1669,23.2946,23.2094,23.2804,23.1243,
76,6.27306,1.38729,3.15334,4.12544,6.27416,1.97857,1.5557,0.00384142,-0.1102,-0.000236382,0.117222,0.000348941,0.0299808,0,0.435738,-11.8258,-0.344855,-2.85349,1.33888,-45.0541,1.32322,0.0173399,-20,-0.497793,-0.167747,-0.0372721,-1.61965,0.0325546,-0.000102402,0.0105103,3.32381e-05,0.494047,0.00122214,0.0715689,0.0571878,-0.00089135,0.0447932,1.95609,0.000695788,0.005,1.70901,0.00142842,-0.0358138,-0.348831,36.0992,0.139952,0.862178,10.9592,-0.0156727,3.02497,0.435032,1.22906,0.0421752,0.531799,-1.39389,-0.0970148,0.0889885,0.0205405,-0.145243,-0.104736,23.4506,23.3087,23.1669,23.2946,23.2094,23.2804,23.1243,
77,6.27307,1.38717,3.15334,4.12557,6.27416,1.97859,1.5557,0.00384142,-0.11109,-0.000294364,0.114601,0.00037538,0.026807,1.0582e-05,0.435838,-11.8233,-0.34504,-2.8537,1.33886,-45.0514,1.3232,0.0173409,-20,-0.497809,-0.16515,-0.0372598,-1.62009,0.0325477,-0.000102402,0.0105103,3.32381e-05,0.494047,0.00122214,0.0715689,0.0566153,-0.000881628,0.0448708,1.95609,0.000695788,0.005,1.70901,0.00142842,-0.0358138,-0.348831,36.0992,0.139952,0.877245,11.2949,-0.0220015,2.90891,0.429488,1.03846,0.020737,0.539795,-1.46633,-0.0966797,0.121118,0.036478,-0.121452,-0.104814,23.4648,23.3229,23.1527,23.2946,23.1952,23.2804,23.1243,
78,6.27307,1.38717,3.15334,4.12557,6.27416,1.97859,1.5557,0.00384142,-0.11109,-0.000294364,0.114601,0.00037538,0.026807,1.0582e-05,0.437674,-11.9824,-0.346518,-2.97358,1.35123,-45.6673,1.3421,0.0178296,-20,-0.500044,-0.185926,-0.0372397,-1.68142,0.0337546,-0.000106252,0.0107784,3.24035e-05,0.494047,0.00122214,0.0715689,0.0566153,-0.000881628,0.0448708,1.95489,0.000700105,0.005,1.70844,0.00142356,-0.0358837,-0.360566,36.6759,0.139005,0.877245,11.2949,-0.0220015,2.90891,0.429488,1.03846,0.020737,0.539795,-1.46633,-0.0966797,0.121118,0.036478,-0.121452,-0.104814,23.4648,23.3229,23.1527,23.2946,23.1952,23.2804,23.1243,
79,6.27307,1.38706,3.15334,4.12568,6.27417,1.97862,1.5557,0.00397388,-0.11047,-0.000373086,0.112631,0.000466161,0.0232284,1.0582e-05,0.437751,-11.9802,-0.346705,-2.9735,1.35123,-45.6651,1.34212,0.0178222,-20,-0.500054,-0.183317,-0.0372294,-1.68185,0.0337531,-0.000106252,0.0107784,3.24035e-05,0.494047,0.00122214,0.0715689,0.0559113,-0.000914849,0.044294,1.95489,0.000700105,0.005,1.70844,0.00142356,-0.0358837,-0.360566,36.6759,0.139005,0.819034,11.7754,-0.0197372,2.78327,0.443982,0.893755,0.020737,0.507632,-1.46666,-0.0970148,0.169189,0.0332184,-0.0805664,-0.104814,23.4506,23.3087,23.1527,23.2804,23.2094,23.2804,23.1243,
80,6.27307,1.38706,3.15334,4.12568,6.27417,1.97862,1.5557,0.00397388,-0.11047,-0.000373086,0.112631,0.000466161,0.0232284,1.0582e-05,0.439126,-12.1117,-0.345689,-3.07221,1.36772,-46.1682,1.36074,0.0181883,-20,-0.501743,-0.200374,-0.0371726,-1.73174,0.0350221,-0.000109854,0.0110213,3.294e-05,0.494047,0.00122214,0.0715689,0.0559113,-0.000914849,0.044294,1.95378,0.000715189,0.005,1.70809,0.00146703,-0.0353646,-0.373019,37.1464,0.143795,0.819034,11.7754,-0.0197372,2.78327,0.443982,0.893755,0.020737,0.507632,-1.46666,-0.0970148,0.169189,0.0332184,-0.0805664,-0.104814,23.4506,23.3087,23.1527,23.2804,23.2094,23.2804,23.1243,
81,6.27307,1.38706,3.15334,4.12568,6.27417,1.97862,1.5557,0.00397388,-0.11047,-0.000373086,0.112631,0.000466161,0.0232284,1.0582e-05,0.439126,-12.1117,-0.345689,-3.07221,1.36772,-46.1682,1.36074,0.0181883,-20,-0.501743,-0.200374,-0.0371726,-1.73174,0.0350221,-0.000109854,0.0110213,3.294e-05,0.494047,0.00122214,0.0715689,0.0559113,-0.000914849,0.044294,1.95378,0.000715189,0.005,1.70809,0.00146703,-0.0353646,-0.373019,37.1464,0.143795,0.819034,11.7754,-0.0197372,2.78327,0.443982,0.893755,0.020737,0.507632,-1.46666,-0.0970148,0.169189,0.0332184,-0.0805664,-0.104814,23.4506,23.3087,23.1527,23.2804,23.2094,23.2804,23.1243,
82,6.27307,1.38695,3.15334,4.12579,6.27417,1.97864,1.5557,0.00397487,-0.109119,-0.000432331,0.112361,0.000614265,0.0210676,1.05821e-05,0.439182,-12.1095,-0.345847,-3.07245,1.36766,-46.1659,1.36066,0.0181819,-20,-0.501763,-0.197879,-0.0371594,-1.73211,0.0350149,-0.000109854,0.0110213,3.294e-05,0.494047,0.00122214,0.0715689,0.0555429,-0.000891575,0.0435479,1.95378,0.000715189,0.005,1.70809,0.00146703,-0.0353646,-0.373019,37.1464,0.143795,0.81744,12.057,-0.00469454,2.68585,0.473908,0.701173,0.0228519,0.515625,-1.49908,-0.104736,0.201416,0.0281982,-0.0605589,-0.104736,23.4506,23.2946,23.1669,23.2804,23.1952,23.2946,23.1243,
83,6.27307,1.38695,3.15334,4.12579,6.27417,1.97864,1.5557,0.00397487,-0.109119,-0.000432331,0.112361,0.000614265,0.0210676,1.05821e-05,0.44099,-12.2581,-0.349264,-3.18477,1.37356,-46.734,1.38151,0.0186632,-20,-0.503996,-0.21739,-0.0371727,-1.78853,0.0364916,-0.000114073,0.0112603,3.20434e-05,0.494047,0.00122214,0.0715689,0.0555429,-0.000891575,0.0435479,1.95269,0.000727312,0.005,1.70743,0.001457,-0.0346931,-0.387408,37.6784,0.138066,0.81744,12.057,-0.00469454,2.68585,0.473908,0.701173,0.0228519,0.515625,-1.49908,-0.104736,0.201416,0.0281982,-0.0605589,-0.104736,23.4506,23.2946,23.1669,23.2804,23.1952,23.2946,23.1243,
84,6.27308,1.38685,3.15334,4.1259,6.27417,1.97865,1.5557,0.00397388,-0.106041,-0.000491077,0.113441,0.00079272,0.0172862,1.0582e-05,0.441028,-12.2558,-0.349399,-3.18469,1.37349,-46.7318,1.38138,0.0186539,-20,-0.504016,-0.214653,-0.0371597,-1.78892,0.0364828,-0.000114073,0.0112603,3.20434e-05,0.494047,0.00122214,0.0715689,0.0551997,-0.00086811,0.0419215,1.95269,0.000727312,0.005,1.70743,0.001457,-0.0346931,-0.387408,37.6784,0.138066,0.707537,12.4118,0.0346766,2.47659,0.476623,0.528825,0.00626236,0.523682,-1.5389,-0.113938,0.201577,0.0371393,-0.0322266,-0.104736,23.4506,23.3087,23.1527,23.2804,23.2094,23.2662,23.1243,
85,6.27308,1.38685,3.15334,4.1259,6.27417,1.97865,1.5557,0.00397388,-0.106041,-0.000491077,0.113441,0.00079272,0.0172862,1.0582e-05,0.442645,-12.3856,-0.353437,-3.28315,1.37558,-47.2201,1.40065,0.019084,-20,-0.506045,-0.23179,-0.0371902,-1.83718,0.0378979,-0.000118012,0.0114938,3.07072e-05,0.494047,0.00122214,0.0715689,0.0551997,-0.00086811,0.0419215,1.9516,0.000736915,0.005,1.70676,0.00144452,-0.0332293,-0.401201,38.1354,0.130517,0.707537,12.4118,0.0346766,2.47659,0.476623,0.528825,0.00626236,0.523682,-1.5389,-0.113938,0.201577,0.0371393,-0.0322266,-0.104736,23.4506,23.3087,23.1527,23.2804,23.2094,23.2662,23.1243,
86,6.27308,1.38685,3.15334,4.1259,6.27417,1.97865,1.5557,0.00397388,-0.106041,-0.000491077,0.113441,0.00079272,0.0172862,1.0582e-05,0.442645,-12.3856,-0.353437,-3.28315,1.37558,-47.2201,1.40065,0.019084,-20,-0.506045,-0.23179,-0.0371902,-1.83718,0.0378979,-0.000118012,0.0114938,3.07072e-05,0.494047,0.00122214,0.0715689,0.0551997,-0.00086811,0.0419215,1.9516,0.000736915,0.005,1.70676,0.00144452,-0.0332293,-0.401201,38.1354,0.130517,0.707537,12.4118,0.0346766,2.47659,0.476623,0.528825,0.00626236,0.523682,-1.5389,-0.113938,0.201577,0.0371393,-0.0322266,-0.104736,23.4506,23.3087,23.1527,23.2804,23.2094,23.2662,23.1243,
87,6.27308,1.38674,3.15334,4.12601,6.27418,1.97867,1.5557,0.00397388,-0.105072,-0.000553498,0.11182,0.00102016,0.0152969,1.059e-05,0.442705,-12.3835,-0.353605,-3.28331,1.37553,-47.2178,1.40059,0.0190799,-20,-0.506062,-0.22925,-0.0371752,-1.83758,0.0378927,-0.000118012,0.0114938,3.07072e-05,0.494047,0.00122214,0.0715689,0.0545227,-0.000837544,0.0413678,1.9516,0.000736915,0.005,1.70676,0.00144452,-0.0332293,-0.401201,38.1354,0.130517,0.717919,12.7076,0.0231858,2.39581,0.477228,0.3629,0.0165509,0.523682,-1.61946,-0.112793,0.169381,0.0362549,0.00805664,-0.100789,23.4648,23.2946,23.1527,23.2662,23.1952,23.2662,23.1243,
88,6.27308,1.38674,3.15334,4.12601,6.27418,1.97867,1.5557,0.00397388,-0.105072,-0.000553498,0.11182,0.00102016,0.0152969,1.059e-05,0.44444,-12.5244,-0.357171,-3.38912,1.38016,-47.7581,1.42154,0.0195416,-20,-0.508205,-0.247549,-0.0371953,-1.89118,0.0394183,-0.000122108,0.0117319,3.02847e-05,0.494047,0.00122214,0.0715689,0.0545227,-0.000837544,0.0413678,1.95049,0.000745404,0.005,1.70637,0.00142465,-0.032731,-0.416077,38.6405,0.124218,0.717919,12.7076,0.0231858,2.39581,0.477228,0.3629,0.0165509,0.523682,-1.61946,-0.112793,0.169381,0.0362549,0.00805664,-0.100789,23.4648,23.2946,23.1527,23.2662,23.1952,23.2662,23.1243,
89,6.27308,1.38674,3.15334,4.12601,6.27418,1.97867,1.5557,0.00397388,-0.105072,-0.000553498,0.11182,0.00102016,0.0152969,1.059e-05,0.44444,-12.5244,-0.357171,-3.38912,1.38016,-47.7581,1.42154,0.0195416,-20,-0.508205,-0.247549,-0.0371953,-1.89118,0.0394183,-0.000122108,0.0117319,3.02847e-05,0.494047,0.00122214,0.0715689,0.0545227,-0.000837544,0.0413678,1.95049,0.000745404,0.005,1.70637,0.00142465,-0.032731,-0.416077,38.6405,0.124218,0.717919,12.7076,0.0231858,2.39581,0.477228,0.3629,0.0165509,0.523682,-1.61946,-0.112793,0.169381,0.0362549,0.00805664,-0.100789,23.4648,23.2946,23.1527,23.2662,23.1952,23.2662,23.1243,
90,6.27309,1.38663,3.15334,4.12613,6.27418,1.97868,1.5557,0.00384142,-0.102907,-0.00061499,0.11274,0.00133294,0.0116142,1.0582e-05,0.444433,-12.522,-0.357252,-3.38923,1.38006,-47.7556,1.42137,0.0195297,-20,-0.508229,-0.244892,-0.0371781,-1.89155,0.0394117,-0.000122108,0.0117319,3.02847e-05,0.494047,0.00122214,0.0715689,0.0543273,-0.000746322,0.0401167,1.95049,0.000745404,0.005,1.70637,0.00142465,-0.032731,-0.416077,38.6405,0.124218,0.625938,13.1572,0.027088,2.2324,0.49553,0.232428,0.0211166,0.507568,-1.6679,-0.11308,0.169189,0.0362549,0.0241699,-0.104814,23.4506,23.2946,23.1385,23.2662,23.1952,23.252,23.1101,
91,6.27309,1.38663,3.15334,4.12613,6.27418,1.97868,1.5557,0.00384142,-0.102907,-0.00061499,0.11274,0.00133294,0.0116142,1.0582e-05,0.446259,-12.6571,-0.363787,-3.49224,1.37557,-48.2681,1.44124,0.0200155,-20,-0.510507,-0.26287,-0.0372548,-1.94238,0.040905,-0.000125604,0.0119645,2.94764e-05,0.494047,0.00122214,0.0715689,0.0543273,-0.000746322,0.0401167,1.94937,0.000757534,0.005,1.70554,0.00135347,-0.031605,-0.430564,39.1208,0.110433,0.625938,13.1572,0.027088,2.2324,0.49553,0.232428,0.0211166,0.507568,-1.6679,-0.11308,0.169189,0.0362549,0.0241699,-0.104814,23.4506,23.2946,23.1385,23.2662,23.1952,23.252,23.1101,
92,6.27309,1.38663,3.15334,4.12613,6.27418,1.97868,1.5557,0.00384142,-0.102907,-0.00061499,0.11274,0.00133294,0.0116142,1.0582e-05,0.446259,-12.6571,-0.363787,-3.49224,1.37557,-48.2681,1.44124,0.0200155,-20,-0.510507,-0.26287,-0.0372548,-1.94238,0.040905,-0.000125604,0.0119645,2.94764e-05,0.494047,0.00122214,0.0715689,0.0543273,-0.000746322,0.0401167,1.94937,0.000757534,0.005,1.70554,0.00135347,-0.031605,-0.430564,39.1208,0.110433,0.625938,13.1572,0.027088,2.2324,0.49553,0.232428,0.0211166,0.507568,-1.6679,-0.11308,0.169189,0.0362549,0.0241699,-0.104814,23.4506,23.2946,23.1385,23.2662,23.1952,23.252,23.1101,
93,6.27309,1.38654,3.15334,4.12624,6.27418,1.97869,1.5557,0.00378041,-0.0983155,-0.000662384,0.113711,0.00163284,0.00971366,1.0582e-05,0.446262,-12.6552,-0.363888,-3.49228,1.37552,-48.2661,1.44114,0.0200007,-20,-0.510528,-0.260146,-0.0372383,-1.94276,0.0409015,-0.000125604,0.0119645,2.94764e-05,0.494047,0.00122214,0.0715689,0.0536327,-0.000690843,0.0380899,1.94937,0.000757534,0.005,1.70554,0.00135347,-0.031605,-0.430564,39.1208,0.110433,0.644887,13.4362,0.017707,2.0903,0.501198,0.054297,0.00878492,0.515877,-1.69258,-0.121919,0.136963,0.0404841,0.0645789,-0.0967636,23.4506,23.3087,23.1527,23.2804,23.1952,23.2662,23.1385,
94,6.27309,1.38654,3.15334,4.12624,6.27418,1.97869,1.5557,0.00378041,-0.0983155,-0.000662384,0.113711,0.00163284,0.00971366,1.0582e-05,0.447833,-12.7771,-0.368928,-3.58371,1.37376,-48.7203,1.45766,0.0204188,-20,-0.512524,-0.275956,-0.0372936,-1.98741,0.0420976,-0.000128516,0.0121829,2.93234e-05,0.494047,0.00122214,0.0715689,0.0536327,-0.000690843,0.0380899,1.94831,0.00077279,0.005,1.70521,0.00131727,-0.029781,-0.442165,39.5446,0.100167,0.644887,13.4362,0.017707,2.0903,0.501198,0.054297,0.00878492,0.515877,-1.69258,-0.121919,0.136963,0.0404841,0.0645789,-0.0967636,23.4506,23.3087,23.1527,23.2804,23.1952,23.2662,23.1385,
95,6.27309,1.38654,3.15334,4.12624,6.27418,1.97869,1.5557,0.00378041,-0.0983155,-0.000662384,0.113711,0.00163284,0.00971366,1.0582e-05,0.447833,-12.7771,-0.368928,-3.58371,1.37376,-48.7203,1.45766,0.0204188,-20,-0.512524,-0.275956,-0.0372936,-1.98741,0.0420976,-0.000128516,0.0121829,2.93234e-05,0.494047,0.00122214,0.0715689,0.0536327,-0.000690843,0.0380899,1.94831,0.00077279,0.005,1.70521,0.00131727,-0.029781,-0.442165,39.5446,0.100167,0.644887,13.4362,0.017707,2.0903,0.501198,0.054297,0.00878492,0.515877,-1.69258,-0.121919,0.136963,0.0404841,0.0645789,-0.0967636,23.4506,23.3087,23.1527,23.2804,23.1952,23.2662,23.1385,
96,6.27309,1.38654,3.15334,4.12624,6.27418,1.97869,1.5557,0.00378041,-0.0983155,-0.000662384,0.113711,0.00163284,0.00971366,1.0582e-05,0.447833,-12.7771,-0.368928,-3.58371,1.37376,-48.7203,1.45766,0.0204188,-20,-0.512524,-0.275956,-0.0372936,-1.98741,0.0420976,-0.000128516,0.0121829,2.93234e-05,0.494047,0.00122214,0.0715689,0.0536327,-0.000690843,0.0380899,1.94831,0.00077279,0.005,1.70521,0.00131727,-0.029781,-0.442165,39.5446,0.100167,0.644887,13.4362,0.017707,2.0903,0.501198,0.054297,0.00878492,0.515877,-1.69258,-0.121919,0.136963,0.0404841,0.0645789,-0.0967636,23.4506,23.3087,23.1527,23.2804,23.1952,23.2662,23.1385,
97,6.27309,1.38644,3.15333,4.12635,6.27418,1.9787,1.5557,0.00384237,-0.0961547,-0.000734778,0.112361,0.00196293,0.00756273,1.05821e-05,0.44787,-12.7751,-0.369087,-3.58378,1.37367,-48.7183,1.45755,0.0204104,-20,-0.512542,-0.273443,-0.0372793,-1.9878,0.0420925,-0.000128516,0.0121829,2.93234e-05,0.494047,0.00122214,0.0715689,0.0527831,-0.000674285,0.03704,1.94831,0.00077279,0.005,1.70521,0.00131727,-0.029781,-0.442165,39.5446,0.100167,0.606088,13.8263,0.0865152,1.85672,0.50707,-0.123077,0.00650507,0.491521,-1.76442,-0.105046,0.088623,0.0404841,0.076644,-0.10103,23.4506,23.3087,23.1385,23.2662,23.2094,23.2804,23.1101,
98,6.27309,1.38644,3.15333,4.12635,6.27418,1.9787,1.5557,0.00384237,-0.0961547,-0.000734778,0.112361,0.00196293,0.00756273,1.05821e-05,0.449333,-12.8897,-0.373239,-3.6693,1.37408,-49.1523,1.47775,0.0207996,-20,-0.514375,-0.288182,-0.0373119,-2.03065,0.0436614,-0.000132338,0.0123959,2.86741e-05,0.494047,0.00122214,0.0715689,0.0527831,-0.000674285,0.03704,1.94727,0.000787423,0.005,1.70504,0.00131554,-0.028836,-0.457495,39.9496,0.0921967,0.606088,13.8263,0.0865152,1.85672,0.50707,-0.123077,0.00650507,0.491521,-1.76442,-0.105046,0.088623,0.0404841,0.076644,-0.10103,23.4506,23.3087,23.1385,23.2662,23.2094,23.2804,23.1101,
99,6.27309,1.38644,3.15333,4.12635,6.27418,1.9787,1.5557,0.00384237,-0.0961547,-0.000734778,0.112361,0.00196293,0.00756273,1.05821e-05,0.449333,-12.8897,-0.373239,-3.6693,1.37408,-49.1523,1.47775,0.0207996,-20,-0.514375,-0.288182,-0.0373119,-2.03065,0.0436614,-0.000132338,0.0123959,2.86741e-05,0.494047,0.00122214,0.0715689,0.0527831,-0.000674285,0.03704,1.94727,0.000787423,0.005,1.70504,0.00131554,-0.028836,-0.457495,39.9496,0.0921967,0.606088,13.8263,0.0865152,1.85672,0.50707,-0.123077,0.00650507,0.491521,-1.76442,-0.105046,0.088623,0.0404841,0.076644,-0.10103,23.4506,23.3087,23.1385,23.2662,23.2094,23.2804,23.1101,
100,6.2731,1.38634,3.15333,4.12646,6.27419,1.9787,1.5557,0.00410736,-0.0954529,-0.000773738,0.1102,0.00243396,0.00451383,1.05741e-05,0.449359,-12.8876,-0.373456,-3.66929,1.37401,-49.1502,1.47769,0.0207837,-20,-0.514387,-0.285713,-0.0372995,-2.03104,0.0436633,-0.000132338,0.0123959,2.86741e-05,0.494047,0.00122214,0.0715689,0.0520093,-0.000734013,0.0364868,1.94727,0.000787423,0.005,1.70504,0.00131554,-0.028836,-0.457495,39.9496,0.0921967,0.600589,14.1449,0.111416,1.78906,0.493101,-0.268102,0.0237417,0.507568,-1.79665,-0.112793,0.11308,0.0404841,0.093001,-0.100708,23.4222,23.2946,23.1527,23.2662,23.1952,23.2804,23.1243,
101,6.2731,1.38634,3.15333,4.12646,6.27419,1.9787,1.5557,0.00410736,-0.0954529,-0.000773738,0.1102,0.00243396,0.00451383,1.05741e-05,0.45065,-13.0002,-0.374662,-3.75376,1.38298,-49.5809,1.49682,0.021127,-20,-0.515983,-0.300284,-0.0372697,-2.07372,0.0450711,-0.00013526,0.0126107,2.96964e-05,0.494047,0.00122214,0.0715689,0.0520093,-0.000734013,0.0364868,1.94622,0.000811243,0.005,1.70479,0.00139073,-0.0283381,-0.471313,40.3522,0.0918038,0.600589,14.1449,0.111416,1.78906,0.493101,-0.268102,0.0237417,0.507568,-1.79665,-0.112793,0.11308,0.0404841,0.093001,-0.100708,23.4222,23.2946,23.1527,23.2662,23.1952,23.2804,23.1243,
102,6.2731,1.38625,3.15333,4.12658,6.27419,1.9787,1.5557,0.00410634,-0.0946301,-0.000769422,0.108583,0.00277037,0.00108039,1.05821e-05,0.450651,-12.998,-0.374775,-3.75381,1.38291,-49.5787,1.49672,0.0211119,-20,-0.515998,-0.29782,-0.0372553,-2.07409,0.0450706,-0.00013526,0.0126107,2.96964e-05,0.494047,0.00122214,0.0715689,0.0513678,-0.000713121,0.0358351,1.94622,0.000811243,0.005,1.70479,0.00139073,-0.0283381,-0.471313,40.3522,0.0918038,0.515954,14.5914,0.146429,1.72021,0.503376,-0.397351,0.0077756,0.491521,-1.81282,-0.112793,0.1372,0.036478,0.132996,-0.104814,23.4364,23.2946,23.1527,23.2804,23.1811,23.2804,23.1101,
103,6.2731,1.38625,3.15333,4.12658,6.27419,1.9787,1.5557,0.00410634,-0.0946301,-0.000769422,0.108583,0.00277037,0.00108039,1.05821e-05,0.452018,-13.1069,-0.378078,-3.83594,1.38511,-49.9946,1.51185,0.0214755,-20,-0.517694,-0.31204,-0.0372758,-2.11533,0.0461436,-0.000137948,0.0128201,3.01237e-05,0.494047,0.00122214,0.0715689,0.0513678,-0.000713121,0.0358351,1.94516,0.000827851,0.005,1.70441,0.00138687,-0.0277516,-0.481742,40.7413,0.0857623,0.515954,14.5914,0.146429,1.72021,0.503376,-0.397351,0.0077756,0.491521,-1.81282,-0.112793,0.1372,0.036478,0.132996,-0.104814,23.4364,23.2946,23.1527,23.2804,23.1811,23.2804,23.1101,
104,6.2731,1.38625,3.15333,4.12658,6.27419,1.9787,1.5557,0.00410634,-0.0946301,-0.000769422,0.108583,0.00277037,0.00108039,1.05821e-05,0.452018,-13.1069,-0.378078,-3.83594,1.38511,-49.9946,1.51185,0.0214755,-20,-0.517694,-0.31204,-0.0372758,-2.11533,0.0461436,-0.000137948,0.0128201,3.01237e-05,0.494047,0.00122214,0.0715689,0.0513678,-0.000713121,0.0358351,1.94516,0.000827851,0.005,1.70441,0.00138687,-0.0277516,-0.481742,40.7413,0.0857623,0.515954,14.5914,0.146429,1.72021,0.503376,-0.397351,0.0077756,0.491521,-1.81282,-0.112793,0.1372,0.036478,0.132996,-0.104814,23.4364,23.2946,23.1527,23.2804,23.1811,23.2804,23.1101,
105,6.2731,1.38625,3.15333,4.12658,6.27419,1.9787,1.5557,0.00410634,-0.0946301,-0.000769422,0.108583,0.00277037,0.00108039,1.05821e-05,0.452018,-13.1069,-0.378078,-3.83594,1.38511,-49.9946,1.51185,0.0214755,-20,-0.517694,-0.31204,-0.0372758,-2.11533,0.0461436,-0.000137948,0.0128201,3.01237e-05,0.494047,0.00122214,0.0715689,0.0513678,-0.000713121,0.0358351,1.94516,0.000827851,0.005,1.70441,0.00138687,-0.0277516,-0.481742,40.7413,0.0857623,0.515954,14.5914,0.146429,1.72021,0.503376,-0.397351,0.0077756,0.491521,-1.81282,-0.112793,0.1372,0.036478,0.132996,-0.104814,23.4364,23.2946,23.1527,23.2804,23.1811,23.2804,23.1101,
106,6.27311,1.38616,3.15333,4.12668,6.27419,1.9787,1.5557,0.00410634,-0.0922797,-0.000745377,0.106041,0.00278195,0,1.0582e-05,0.452058,-13.1053,-0.378174,-3.836,1.38516,-49.9929,1.51192,0.0214598,-20,-0.517702,-0.309619,-0.0372647,-2.11571,0.0461481,-0.000137948,0.0128201,3.01237e-05,0.494047,0.00122214,0.0715689,0.0501347,-0.000731178,0.0348413,1.94516,0.000827851,0.005,1.70441,0.00138687,-0.0277516,-0.481742,40.7413,0.0857623,0.536123,14.8445,0.140622,1.6502,0.515497,-0.58045,0.00582864,0.499577,-1.80485,-0.11308,0.169381,0.0404841,0.161183,-0.100708,23.4648,23.2946,23.1527,23.2804,23.1952,23.2662,23.1101,
107,6.27311,1.38616,3.15333,4.12668,6.27419,1.9787,1.5557,0.00410634,-0.0922797,-0.000745377,0.106041,0.00278195,0,1.0582e-05,0.453035,-13.2047,-0.376655,-3.90902,1.39943,-50.368,1.52046,0.0217199,-20,-0.518927,-0.322049,-0.0372152,-2.15258,0.0465488,-0.000140104,0.0130157,3.16658e-05,0.494047,0.00122214,0.0715689,0.0501347,-0.000731178,0.0348413,1.94417,0.00084711,0.005,1.70463,0.00142046,-0.0268571,-0.485644,41.0902,0.0910975,0.536123,14.8445,0.140622,1.6502,0.515497,-0.58045,0.00582864,0.499577,-1.80485,-0.11308,0.169381,0.0404841,0.161183,-0.100708,23.4648,23.2946,23.1527,23.2804,23.1952,23.2662,23.1101,
108,6.27311,1.38616,3.15333,4.12668,6.27419,1.9787,1.5557,0.00410634,-0.0922797,-0.000745377,0.106041,0.00278195,0,1.0582e-05,0.453035,-13.2047,-0.376655,-3.90902,1.39943,-50.368,1.52046,0.0217199,-20,-0.518927,-0.322049,-0.0372152,-2.15258,0.0465488,-0.000140104,0.0130157,3.16658e-05,0.494047,0.00122214,0.0715689,0.0501347,-0.000731178,0.0348413,1.94417,0.00084711,0.005,1.70463,0.00142046,-0.0268571,-0.485644,41.0902,0.0910975,0.536123,14.8445,0.140622,1.6502,0.515497,-0.58045,0.00582864,0.499577,-1.80485,-0.11308,0.169381,0.0404841,0.161183,-0.100708,23.4648,23.2946,23.1527,23.2804,23.1952,23.2662,23.1101,
109,6.27311,1.38607,3.15333,4.12678,6.27419,1.9787,1.5557,0.00410634,-0.0912929,-0.000711753,0.102907,0.00260531,-0.000540195,1.0582e-05,0.453089,-13.2031,-0.376743,-3.90922,1.3995,-50.3663,1.52058,0.021704,-20,-0.518932,-0.319832,-0.0372065,-2.15293,0.0465558,-0.000140104,0.0130157,3.16658e-05,0.494047,0.00122214,0.0715689,0.0490192,-0.000767717,0.0344551,1.94417,0.00084711,0.005,1.70463,0.00142046,-0.0268571,-0.485644,41.0902,0.0910975,0.495291,15.2518,0.237068,1.56105,0.49987,-0.724164,0.00989877,0.483466,-1.85304,-0.12085,0.209473,0.0245033,0.169237,-0.0967636,23.4364,23.2946,23.1527,23.2804,23.1952,23.2662,23.1243,
110,6.27311,1.38607,3.15333,4.12678,6.27419,1.9787,1.5557,0.00410634,-0.0912929,-0.000711753,0.102907,0.00260531,-0.000540195,1.0582e-05,0.453991,-13.3082,-0.372451,-3.98681,1.4221,-50.7682,1.52734,0.0219438,-20,-0.520034,-0.33306,-0.0371094,-2.19265,0.0467155,-0.00014222,0.0132062,3.37915e-05,0.494047,0.00122214,0.0715689,0.0490192,-0.000767717,0.0344551,1.9432,0.000870808,0.005,1.70476,0.00147467,-0.0265096,-0.487219,41.4649,0.103221,0.495291,15.2518,0.237068,1.56105,0.49987,-0.724164,0.00989877,0.483466,-1.85304,-0.12085,0.209473,0.0245033,0.169237,-0.0967636,23.4364,23.2946,23.1527,23.2804,23.1952,23.2662,23.1243,
111,6.27311,1.38607,3.15333,4.12678,6.27419,1.9787,1.5557,0.00410634,-0.0912929,-0.000711753,0.102907,0.00260531,-0.000540195,1.0582e-05,0.453991,-13.3082,-0.372451,-3.98681,1.4221,-50.7682,1.52734,0.0219438,-20,-0.520034,-0.33306,-0.0371094,-2.19265,0.0467155,-0.00014222,0.0132062,3.37915e-05,0.494047,0.00122214,0.0715689,0.0490192,-0.000767717,0.0344551,1.9432,0.000870808,0.005,1.70476,0.00147467,-0.0265096,-0.487219,41.4649,0.103221,0.495291,15.2518,0.237068,1.56105,0.49987,-0.724164,0.00989877,0.483466,-1.85304,-0.12085,0.209473,0.0245033,0.169237,-0.0967636,23.4364,23.2946,23.1527,23.2804,23.1952,23.2662,23.1243,
112,6.27311,1.38598,3.15333,4.12688,6.27419,1.9787,1.5557,0.00397388,-0.0912929,-0.000663528,0.101016,0.00238453,-0.000877772,1.0574e-05,0.454029,-13.3065,-0.372508,-3.98722,1.42218,-50.7661,1.5275,0.0219283,-20,-0.520044,-0.331044,-0.037099,-2.19295,0.0467265,-0.00014222,0.0132062,3.37915e-05,0.494047,0.00122214,0.0715689,0.048471,-0.000755038,0.0344608,1.9432,0.000870808,0.005,1.70476,0.00147467,-0.0265096,-0.487219,41.4649,0.103221,0.460473,15.5612,0.279679,1.60031,0.446748,-0.855093,0.0196154,0.47541,-1.86124,-0.112793,0.241833,0.036478,0.169189,-0.0967636,23.4364,23.2804,23.1385,23.2662,23.1952,23.2662,23.1243,
113,6.27311,1.38598,3.15333,4.12688,6.27419,1.9787,1.5557,0.00397388,-0.0912929,-0.000663528,0.101016,0.00238453,-0.000877772,1.0574e-05,0.455139,-13.4282,-0.368387,-4.07895,1.44575,-51.236,1.53335,0.0222236,-20,-0.521379,-0.346863,-0.0370078,-2.23972,0.0467354,-0.000143899,0.013394,3.69308e-05,0.494047,0.00122214,0.0715689,0.048471,-0.000755038,0.0344608,1.94224,0.000896692,0.005,1.7044,0.00148656,-0.0265147,-0.48726,41.9051,0.114887,0.460473,15.5612,0.279679,1.60031,0.446748,-0.855093,0.0196154,0.47541,-1.86124,-0.112793,0.241833,0.036478,0.169189,-0.0967636,23.4364,23.2804,23.1385,23.2662,23.1952,23.2662,23.1243,
114,6.27312,1.38588,3.15333,4.12699,6.27419,1.9787,1.5557,0.00384237,-0.0892736,-0.000625183,0.101812,0.00220789,-0.00145709,1.05821e-05,0.455176,-13.4264,-0.368458,-4.07944,1.44583,-51.2337,1.53345,0.0222072,-20,-0.521393,-0.344604,-0.0369973,-2.24,0.0467412,-0.000143899,0.013394,3.69308e-05,0.494047,0.00122214,0.0715689,0.0482713,-0.000734666,0.0335951,1.94224,0.000896692,0.005,1.7044,0.00148656,-0.0265147,-0.48726,41.9051,0.114887,0.381791,15.9648,0.318529,1.61473,0.455338,-0.998383,0.0115214,0.491455,-1.83693,-0.11308,0.241833,0.0459299,0.173265,-0.0927389,23.4364,23.2804,23.1385,23.2662,23.2094,23.2662,23.1101,
115,6.27312,1.38588,3.15333,4.12699,6.27419,1.9787,1.5557,0.00384237,-0.0892736,-0.000625183,0.101812,0.00220789,-0.00145709,1.05821e-05,0.456552,-13.5624,-0.366583,-4.18312,1.46458,-51.7522,1.54089,0.0225734,-20,-0.523084,-0.362607,-0.0369393,-2.29152,0.0468768,-0.000145702,0.0135941,3.89225e-05,0.494047,0.00122214,0.0715689,0.0482713,-0.000734666,0.0335951,1.94122,0.000913595,0.005,1.70365,0.00148344,-0.0257356,-0.488483,42.3914,0.121389,0.381791,15.9648,0.318529,1.61473,0.455338,-0.998383,0.0115214,0.491455,-1.83693,-0.11308,0.241833,0.0459299,0.173265,-0.0927389,23.4364,23.2804,23.1385,23.2662,23.2094,23.2662,23.1101,
116,6.27312,1.38588,3.15333,4.12699,6.27419,1.9787,1.5557,0.00384237,-0.0892736,-0.000625183,0.101812,0.00220789,-0.00145709,1.05821e-05,0.456552,-13.5624,-0.366583,-4.18312,1.46458,-51.7522,1.54089,0.0225734,-20,-0.523084,-0.362607,-0.0369393,-2.29152,0.0468768,-0.000145702,0.0135941,3.89225e-05,0.494047,0.00122214,0.0715689,0.0482713,-0.000734666,0.0335951,1.94122,0.000913595,0.005,1.70365,0.00148344,-0.0257356,-0.488483,42.3914,0.121389,0.381791,15.9648,0.318529,1.61473,0.455338,-0.998383,0.0115214,0.491455,-1.83693,-0.11308,0.241833,0.0459299,0.173265,-0.0927389,23.4364,23.2804,23.1385,23.2662,23.2094,23.2662,23.1101,
117,6.27312,1.3858,3.15333,4.12709,6.27419,1.97869,1.5557,0.00384237,-0.0861611,-0.000577092,0.0999361,0.00191083,-0.00207436,1.0582e-05,0.456615,-13.561,-0.366668,-4.18322,1.46469,-51.7506,1.54108,0.0225576,-20,-0.523088,-0.360301,-0.0369315,-2.29186,0.046886,-0.000145702,0.0135941,3.89225e-05,0.494047,0.00122214,0.0715689,0.0470701,-0.000788918,0.0323346,1.94122,0.000913595,0.005,1.70365,0.00148344,-0.0257356,-0.488483,42.3914,0.121389,0.37319,16.2052,0.333991,1.59451,0.476596,-1.18103,-0.0134507,0.483466,-1.84525,-0.129158,0.201416,0.0404841,0.161133,-0.0927389,23.4364,23.3087,23.1385,23.2662,23.1952,23.2662,23.1243,
118,6.27312,1.3858,3.15333,4.12709,6.27419,1.97869,1.5557,0.00384237,-0.0861611,-0.000577092,0.0999361,0.00191083,-0.00207436,1.0582e-05,0.457226,-13.6516,-0.3604,-4.24977,1.491,-52.0893,1.54375,0.0227201,-20,-0.523858,-0.371583,-0.0368109,-2.32504,0.0466845,-0.000147324,0.0137729,4.15837e-05,0.494047,0.00122214,0.0715689,0.0470701,-0.000788918,0.0323346,1.94029,0.000935615,0.005,1.7039,0.00155208,-0.0246011,-0.486558,42.7062,0.137967,0.37319,16.2052,0.333991,1.59451,0.476596,-1.18103,-0.0134507,0.483466,-1.84525,-0.129158,0.201416,0.0404841,0.161133,-0.0927389,23.4364,23.3087,23.1385,23.2662,23.1952,23.2662,23.1243,
119,6.27312,1.3858,3.15333,4.12709,6.27419,1.97869,1.5557,0.00384237,-0.0861611,-0.000577092,0.0999361,0.00191083,-0.00207436,1.0582e-05,0.457226,-13.6516,-0.3604,-4.24977,1.491,-52.0893,1.54375,0.0227201,-20,-0.523858,-0.371583,-0.0368109,-2.32504,0.0466845,-0.000147324,0.0137729,4.15837e-05,0.494047,0.00122214,0.0715689,0.0470701,-0.000788918,0.0323346,1.94029,0.000935615,0.005,1.7039,0.00155208,-0.0246011,-0.486558,42.7062,0.137967,0.37319,16.2052,0.333991,1.59451,0.476596,-1.18103,-0.0134507,0.483466,-1.84525,-0.129158,0.201416,0.0404841,0.161133,-0.0927389,23.4364,23.3087,23.1385,23.2662,23.1952,23.2662,23.1243,
120,6.27312,1.38571,3.15333,4.12719,6.27419,1.97869,1.5557,0.00357649,-0.0847247,-0.000542862,0.099666,0.00163371,-0.00253296,1.05821e-05,0.457251,-13.65,-0.36041,-4.25019,1.49106,-52.0872,1.54382,0.0227055,-20,-0.523871,-0.36956,-0.0368005,-2.3253,0.0466888,-0.000147324,0.0137729,4.15837e-05,0.494047,0.00122214,0.0715689,0.0466865,-0.000724557,0.0317294,1.94029,0.000935615,0.005,1.7039,0.00155208,-0.0246011,-0.486558,42.7062,0.137967,0.28073,16.444,0.402874,1.55721,0.453443,-1.34184,-0.0194304,0.467355,-1.88527,-0.121118,0.249886,0.0483398,0.169189,-0.0927389,23.4364,23.2946,23.1243,23.2662,23.1811,23.2804,23.1101,
121,6.27312,1.38571,3.15333,4.12719,6.27419,1.97869,1.5557,0.00357649,-0.0847247,-0.000542862,0.099666,0.00163371,-0.00253296,1.05821e-05,0.458434,-13.7655,-0.359054,-4.3377,1.50596,-52.5283,1.54907,0.0230202,-20,-0.525323,-0.384703,-0.036765,-2.36911,0.0467156,-0.000149144,0.01395,4.32283e-05,0.494047,0.00122214,0.0715689,0.0466865,-0.000724557,0.0317294,1.93937,0.000952447,0.005,1.70341,0.0015093,-0.0240564,-0.486703,43.1194,0.142571,0.28073,16.444,0.402874,1.55721,0.453443,-1.34184,-0.0194304,0.467355,-1.88527,-0.121118,0.249886,0.0483398,0.169189,-0.0927389,23.4364,23.2946,23.1243,23.2662,23.1811,23.2804,23.1101,
122,6.27312,1.38571,3.15333,4.12719,6.27419,1.97869,1.5557,0.00357649,-0.0847247,-0.000542862,0.099666,0.00163371,-0.00253296,1.05821e-05,0.458434,-13.7655,-0.359054,-4.3377,1.50596,-52.5283,1.54907,0.0230202,-20,-0.525323,-0.384703,-0.036765,-2.36911,0.0467156,-0.000149144,0.01395,4.32283e-05,0.494047,0.00122214,0.0715689,0.0466865,-0.000724557,0.0317294,1.93937,0.000952447,0.005,1.70341,0.0015093,-0.0240564,-0.486703,43.1194,0.142571,0.28073,16.444,0.402874,1.55721,0.453443,-1.34184,-0.0194304,0.467355,-1.88527,-0.121118,0.249886,0.0483398,0.169189,-0.0927389,23.4364,23.2946,23.1243,23.2662,23.1811,23.2804,23.1101,
123,6.27313,1.38563,3.15333,4.12729,6.27419,1.97868,1.5557,0.0031791,-0.0853508,-0.000482544,0.101557,0.00150137,-0.00324638,1.0582e-05,0.458425,-13.7636,-0.359045,-4.33844,1.50595,-52.5257,1.54901,0.0230064,-20,-0.525345,-0.382952,-0.0367527,-2.36929,0.0467153,-0.000149144,0.01395,4.32283e-05,0.494047,0.00122214,0.0715689,0.047363,-0.00059268,0.0318802,1.93937,0.000952447,0.005,1.70341,0.0015093,-0.0240564,-0.486703,43.1194,0.142571,0.279279,16.6652,0.446273,1.55542,0.406583,-1.49619,-0.0421454,0.459299,-1.86921,-0.121919,0.241833,0.0565402,0.161133,-0.093001,23.4506,23.2804,23.1385,23.2804,23.1952,23.252,23.1101,
124,6.27313,1.38563,3.15333,4.12729,6.27419,1.97868,1.5557,0.0031791,-0.0853508,-0.000482544,0.101557,0.00150137,-0.00324638,1.0582e-05,0.46023,-13.9086,-0.362464,-4.45129,1.51081,-53.0887,1.55788,0.0234864,-20,-0.527532,-0.402783,-0.036786,-2.42578,0.0470331,-0.000151198,0.0141265,4.38719e-05,0.494047,0.00122214,0.0715689,0.047363,-0.00059268,0.0318802,1.93843,0.000964013,0.005,1.70196,0.00140102,-0.0241922,-0.489543,43.6503,0.13604,0.279279,16.6652,0.446273,1.55542,0.406583,-1.49619,-0.0421454,0.459299,-1.86921,-0.121919,0.241833,0.0565402,0.161133,-0.093001,23.4506,23.2804,23.1385,23.2804,23.1952,23.252,23.1101,
125,6.27313,1.38563,3.15333,4.12729,6.27419,1.97868,1.5557,0.0031791,-0.0853508,-0.000482544,0.101557,0.00150137,-0.00324638,1.0582e-05,0.46023,-13.9086,-0.362464,-4.45129,1.51081,-53.0887,1.55788,0.0234864,-20,-0.527532,-0.402783,-0.036786,-2.42578,0.0470331,-0.000151198,0.0141265,4.38719e-05,0.494047,0.00122214,0.0715689,0.047363,-0.00059268,0.0318802,1.93843,0.000964013,0.005,1.70196,0.00140102,-0.0241922,-0.489543,43.6503,0.13604,0.279279,16.6652,0.446273,1.55542,0.406583,-1.49619,-0.0421454,0.459299,-1.86921,-0.121919,0.241833,0.0565402,0.161133,-0.093001,23.4506,23.2804,23.1385,23.2804,23.1952,23.252,23.1101,
126,6.27313,1.38554,3.15333,4.12739,6.27419,1.97867,1.5557,0.00291418,-0.0847597,-0.0004328,0.101466,0.00132474,-0.00377565,1.0582e-05,0.460247,-13.9068,-0.362484,-4.45185,1.51084,-53.0863,1.55783,0.0234706,-20,-0.527548,-0.400685,-0.036776,-2.42605,0.0470302,-0.000151198,0.0141265,4.38719e-05,0.494047,0.00122214,0.0715689,0.0472099,-0.000521133,0.0316008,1.93843,0.000964013,0.005,1.70196,0.00140102,-0.0241922,-0.489543,43.6503,0.13604,0.230716,16.9516,0.467362,1.51651,0.412986,-1.63456,-0.044521,0.47541,-1.83698,-0.11308,0.169189,0.0609595,0.149048,-0.104814,23.4506,23.2946,23.1527,23.2662,23.1952,23.252,23.1243,
127,6.27313,1.38554,3.15333,4.12739,6.27419,1.97867,1.5557,0.00291418,-0.0847597,-0.0004328,0.101466,0.00132474,-0.00377565,1.0582e-05,0.461796,-14.0389,-0.364237,-4.5527,1.51912,-53.5949,1.56564,0.0238827,-20,-0.529443,-0.418217,-0.0367807,-2.47675,0.0472692,-0.000153377,0.0143168,4.38936e-05,0.494047,0.00122214,0.0715689,0.0472099,-0.000521133,0.0316008,1.93743,0.000970775,0.005,1.7012,0.00134272,-0.0239407,-0.491681,44.1277,0.133572,0.230716,16.9516,0.467362,1.51651,0.412986,-1.63456,-0.044521,0.47541,-1.83698,-0.11308,0.169189,0.0609595,0.149048,-0.104814,23.4506,23.2946,23.1527,23.2662,23.1952,23.252,23.1243,
128,6.27313,1.38546,3.15333,4.12749,6.2742,1.97866,1.5557,0.00278172,-0.0829199,-0.000396733,0.099666,0.00119226,-0.00442533,1.0582e-05,0.461826,-14.0374,-0.364292,-4.55292,1.51915,-53.5931,1.56568,0.0238679,-20,-0.529453,-0.416083,-0.0367708,-2.47705,0.0472722,-0.000153377,0.0143168,4.38936e-05,0.494047,0.00122214,0.0715689,0.0463001,-0.000500491,0.0308396,1.93743,0.000970775,0.005,1.7012,0.00134272,-0.0239407,-0.491681,44.1277,0.133572,0.205836,17.0812,0.464258,1.46919,0.407616,-1.80177,-0.0445182,0.483398,-1.8295,-0.112793,0.161133,0.0604248,0.141049,-0.100708,23.4506,23.3087,23.1527,23.3087,23.1952,23.2804,23.0959,
129,6.27313,1.38546,3.15333,4.12749,6.2742,1.97866,1.5557,0.00278172,-0.0829199,-0.000396733,0.099666,0.00119226,-0.00442533,1.0582e-05,0.46277,-14.1311,-0.36313,-4.6226,1.5316,-53.9485,1.57173,0.0241191,-20,-0.530628,-0.428005,-0.0367356,-2.51213,0.0474642,-0.000155388,0.0144872,4.51213e-05,0.494047,0.00122214,0.0715689,0.0463001,-0.000500491,0.0308396,1.93652,0.000986819,0.005,1.7012,0.00133858,-0.0232557,-0.493501,44.4592,0.137685,0.205836,17.0812,0.464258,1.46919,0.407616,-1.80177,-0.0445182,0.483398,-1.8295,-0.112793,0.161133,0.0604248,0.141049,-0.100708,23.4506,23.3087,23.1527,23.3087,23.1952,23.2804,23.0959,
130,6.27313,1.38546,3.15333,4.12749,6.2742,1.97866,1.5557,0.00278172,-0.0829199,-0.000396733,0.099666,0.00119226,-0.00442533,1.0582e-05,0.46277,-14.1311,-0.36313,-4.6226,1.5316,-53.9485,1.57173,0.0241191,-20,-0.530628,-0.428005,-0.0367356,-2.51213,0.0474642,-0.000155388,0.0144872,4.51213e-05,0.494047,0.00122214,0.0715689,0.0463001,-0.000500491,0.0308396,1.93652,0.000986819,0.005,1.7012,0.00133858,-0.0232557,-0.493501,44.4592,0.137685,0.205836,17.0812,0.464258,1.46919,0.407616,-1.80177,-0.0445182,0.483398,-1.8295,-0.112793,0.161133,0.0604248,0.141049,-0.100708,23.4506,23.3087,23.1527,23.3087,23.1952,23.2804,23.0959,
131,6.27314,1.38538,3.15333,4.12759,6.2742,1.97865,1.5557,0.00251742,-0.0814868,-0.000325732,0.096965,0.00101563,-0.00694406,1.0582e-05,0.462785,-14.1294,-0.363131,-4.62254,1.5316,-53.947,1.57167,0.0241046,-20,-0.530635,-0.425828,-0.0367259,-2.51246,0.0474606,-0.000155388,0.0144872,4.51213e-05,0.494047,0.00122214,0.0715689,0.0452179,-0.00044551,0.030056,1.93652,0.000986819,0.005,1.7012,0.00133858,-0.0232557,-0.493501,44.4592,0.137685,0.121181,17.2331,0.507998,1.38777,0.389703,-1.93892,-0.0274605,0.47541,-1.82888,-0.112793,0.169189,0.0725098,0.140991,-0.0927389,23.4506,23.2804,23.1527,23.2662,23.1952,23.2662,23.1243,
132,6.27314,1.38538,3.15333,4.12759,6.2742,1.97865,1.5557,0.00251742,-0.0814868,-0.000325732,0.096965,0.00101563,-0.00694406,1.0582e-05,0.463576,-14.1992,-0.363977,-4.67381,1.53583,-54.2099,1.57525,0.0243151,-20,-0.531633,-0.434546,-0.0367353,-2.53828,0.0475439,-0.000157581,0.0146516,4.48534e-05,0.494047,0.00122214,0.0715689,0.0452179,-0.00044551,0.030056,1.93563,0.000993602,0.005,1.70137,0.0012952,-0.0225504,-0.494207,44.7037,0.136373,0.121181,17.2331,0.507998,1.38777,0.389703,-1.93892,-0.0274605,0.47541,-1.82888,-0.112793,0.169189,0.0725098,0.140991,-0.0927389,23.4506,23.2804,23.1527,23.2662,23.1952,23.2662,23.1243,
133,6.27314,1.38538,3.15333,4.12759,6.2742,1.97865,1.5557,0.00251742,-0.0814868,-0.000325732,0.096965,0.00101563,-0.00694406,1.0582e-05,0.463576,-14.1992,-0.363977,-4.67381,1.53583,-54.2099,1.57525,0.0243151,-20,-0.531633,-0.434546,-0.0367353,-2.53828,0.0475439,-0.000157581,0.0146516,4.48534e-05,0.494047,0.00122214,0.0715689,0.0452179,-0.00044551,0.030056,1.93563,0.000993602,0.005,1.70137,0.0012952,-0.0225504,-0.494207,44.7037,0.136373,0.121181,17.2331,0.507998,1.38777,0.389703,-1.93892,-0.00851087,0.47541,-1.82888,-0.112793,0.169189,0.0725098,0.140991,-0.093001,23.4506,23.2804,23.1527,23.2662,23.1952,23.2662,23.1101,
134,6.27314,1.3853,3.15334,4.12768,6.2742,1.97864,1.5557,0.00238492,-0.0805708,-0.000265411,0.0972351,0.000971554,-0.00953561,1.0582e-05,0.463567,-14.1973,-0.364005,-4.67402,1.5358,-54.2078,1.57511,0.0242944,-20,-0.531644,-0.432555,-0.036728,-2.53853,0.0475385,-0.000157581,0.0146516,4.48534e-05,0.494047,0.00122214,0.0715689,0.0451031,-0.000419793,0.0294212,1.93563,0.000993602,0.005,1.70137,0.0012952,-0.0225504,-0.494207,44.7037,0.136373,0.148843,17.3734,0.554433,1.34869,0.354473,-2.05818,-0.00851087,0.483466,-1.85304,-0.105046,0.193527,0.0684814,0.153129,-0.093001,23.4364,23.2946,23.1385,23.2662,23.1811,23.2662,23.1101,
135,6.27314,1.3853,3.15334,4.12768,6.2742,1.97864,1.5557,0.00238492,-0.0805708,-0.000265411,0.0972351,0.000971554,-0.00953561,1.0582e-05,0.464717,-14.293,-0.365942,-4.74759,1.54022,-54.5728,1.58182,0.0246004,-20,-0.533067,-0.445389,-0.0367347,-2.57486,0.0478151,-0.000159454,0.0148146,4.42016e-05,0.494047,0.00122214,0.0715689,0.0451031,-0.000419793,0.0294212,1.93474,0.0010024,0.005,1.70067,0.00127997,-0.0219791,-0.496771,45.0466,0.133261,0.148843,17.3734,0.554433,1.34869,0.354473,-2.05818,-0.00851087,0.483466,-1.85304,-0.105046,0.193527,0.0684814,0.153129,-0.093001,23.4364,23.2946,23.1385,23.2662,23.1811,23.2662,23.1101,
136,6.27314,1.38522,3.15334,4.12779,6.2742,1.97863,1.5557,0.00238492,-0.0776651,-0.000228422,0.0960443,0.000927392,-0.0122848,1.85186e-05,0.464753,-14.2913,-0.366035,-4.74757,1.54021,-54.5711,1.58177,0.0245849,-20,-0.533074,-0.44305,-0.0367274,-2.57519,0.0478114,-0.000159454,0.0148146,4.42016e-05,0.494047,0.00122214,0.0715689,0.0441466,-0.000447684,0.0280035,1.93474,0.0010024,0.005,1.70067,0.00127997,-0.0219791,-0.496771,45.0466,0.133261,0.114886,17.6244,0.56917,1.30391,0.374512,-2.1687,-0.0255264,0.467285,-1.83698,-0.112793,0.193527,0.076961,0.161133,-0.100708,23.4506,23.2946,23.1385,23.2662,23.1952,23.2378,23.1101,
137,6.27314,1.38522,3.15334,4.12779,6.2742,1.97863,1.5557,0.00238492,-0.0776651,-0.000228422,0.0960443,0.000927392,-0.0122848,1.85186e-05,0.465517,-14.3659,-0.365677,-4.80303,1.54877,-54.8475,1.58578,0.024788,-20,-0.534054,-0.452528,-0.0367015,-2.60224,0.0478806,-0.00016079,0.0149859,4.38892e-05,0.494047,0.00122214,0.0715689,0.0441466,-0.000447684,0.0280035,1.9338,0.00100888,0.005,1.70069,0.0013109,-0.0207031,-0.49739,45.3039,0.135492,0.114886,17.6244,0.56917,1.30391,0.374512,-2.1687,-0.0255264,0.467285,-1.83698,-0.112793,0.193527,0.076961,0.161133,-0.100708,23.4506,23.2946,23.1385,23.2662,23.1952,23.2378,23.1101,
138,6.27314,1.38522,3.15334,4.12779,6.2742,1.97863,1.5557,0.00238492,-0.0776651,-0.000228422,0.0960443,0.000927392,-0.0122848,1.85186e-05,0.465517,-14.3659,-0.365677,-4.80303,1.54877,-54.8475,1.58578,0.024788,-20,-0.534054,-0.452528,-0.0367015,-2.60224,0.0478806,-0.00016079,0.0149859,4.38892e-05,0.494047,0.00122214,0.0715689,0.0441466,-0.000447684,0.0280035,1.9338,0.00100888,0.005,1.70069,0.0013109,-0.0207031,-0.49739,45.3039,0.135492,0.114886,17.6244,0.56917,1.30391,0.374512,-2.1687,-0.0255264,0.467285,-1.83698,-0.112793,0.193527,0.076961,0.161133,-0.100708,23.4506,23.2946,23.1385,23.2662,23.1952,23.2378,23.1101,
139,6.27314,1.38514,3.15334,4.12788,6.2742,1.97862,1.5557,0.00212798,-0.0718459,-0.000156289,0.0925496,0.00110404,-0.0129647,1.85184e-05,0.465521,-14.3649,-0.365702,-4.80286,1.5487,-54.8467,1.58555,0.0247752,-20,-0.534063,-0.450177,-0.036689,-2.60261,0.0478657,-0.00016079,0.0149859,4.38892e-05,0.494047,0.00122214,0.0715689,0.0419079,-0.000369492,0.0256823,1.9338,0.00100888,0.005,1.70069,0.0013109,-0.0207031,-0.49739,45.3039,0.135492,0.10516,17.7989,0.580924,1.273,0.383659,-2.28253,-0.0364039,0.451244,-1.89333,-0.0980133,0.20206,0.0725098,0.169189,-0.088623,23.4364,23.3087,23.1527,23.2662,23.1811,23.252,23.1101,
140,6.27314,1.38514,3.15334,4.12788,6.2742,1.97862,1.5557,0.00212798,-0.0718459,-0.000156289,0.0925496,0.00110404,-0.0129647,1.85184e-05,0.466263,-14.4006,-0.373313,-4.82484,1.53062,-54.965,1.59088,0.0249726,-20,-0.535094,-0.453537,-0.0368181,-2.61326,0.0483609,-0.00016349,0.0151356,4.11493e-05,0.494047,0.00122214,0.0715689,0.0419079,-0.000369492,0.0256823,1.93297,0.00100471,0.005,1.70196,0.00123678,-0.0186141,-0.502027,45.4083,0.117413,0.10516,17.7989,0.580924,1.273,0.383659,-2.28253,-0.0364039,0.451244,-1.89333,-0.0980133,0.20206,0.0725098,0.169189,-0.088623,23.4364,23.3087,23.1527,23.2662,23.1811,23.252,23.1101,
141,6.27314,1.38514,3.15334,4.12788,6.2742,1.97862,1.5557,0.00212798,-0.0718459,-0.000156289,0.0925496,0.00110404,-0.0129647,1.85184e-05,0.466263,-14.4006,-0.373313,-4.82484,1.53062,-54.965,1.59088,0.0249726,-20,-0.535094,-0.453537,-0.0368181,-2.61326,0.0483609,-0.00016349,0.0151356,4.11493e-05,0.494047,0.00122214,0.0715689,0.0419079,-0.000369492,0.0256823,1.93297,0.00100471,0.005,1.70196,0.00123678,-0.0186141,-0.502027,45.4083,0.117413,0.10516,17.7989,0.580924,1.273,0.383659,-2.28253,-0.0364039,0.451244,-1.89333,-0.0980133,0.20206,0.0725098,0.169189,-0.088623,23.4364,23.3087,23.1527,23.2662,23.1811,23.252,23.1101,
142,6.27314,1.38508,3.15334,4.12797,6.27421,1.9786,1.5557,0.00178138,-0.0656337,-0.000120636,0.0931836,0.00113637,-0.0130037,1.85184e-05,0.466265,-14.3995,-0.373317,-4.82499,1.5306,-54.9637,1.59078,0.0249606,-20,-0.53511,-0.45142,-0.0368055,-2.61353,0.0483555,-0.00016349,0.0151356,4.11493e-05,0.494047,0.00122214,0.0715689,0.040778,-0.000250629,0.0232057,1.93297,0.00100471,0.005,1.70196,0.00123678,-0.0186141,-0.502027,45.4083,0.117413,0.0672863,17.939,0.603975,1.24527,0.384622,-2.39563,-0.0456061,0.459299,-1.9904,-0.104736,0.241699,0.0725098,0.16521,-0.0887145,23.4364,23.2946,23.1527,23.252,23.1811,23.2662,23.0959,
143,6.27314,1.38508,3.15334,4.12797,6.27421,1.9786,1.5557,0.00178138,-0.0656337,-0.000120636,0.0931836,0.00113637,-0.0130037,1.85184e-05,0.467237,-14.4652,-0.378958,-4.87276,1.52062,-55.1972,1.59584,0.0252191,-20,-0.536402,-0.459511,-0.0369049,-2.63594,0.048686,-0.000165498,0.0152778,4.04356e-05,0.494047,0.00122214,0.0715689,0.040778,-0.000250629,0.0232057,1.93217,0.00100818,0.005,1.70225,0.00113292,-0.0163851,-0.50504,45.6237,0.104185,0.0672863,17.939,0.603975,1.24527,0.384622,-2.39563,-0.0456061,0.459299,-1.9904,-0.104736,0.241699,0.0725098,0.16521,-0.0887145,23.4364,23.2946,23.1527,23.252,23.1811,23.2662,23.0959,
144,6.27314,1.38508,3.15334,4.12797,6.27421,1.9786,1.5557,0.00178138,-0.0656337,-0.000120636,0.0931836,0.00113637,-0.0130037,1.85184e-05,0.467237,-14.4652,-0.378958,-4.87276,1.52062,-55.1972,1.59584,0.0252191,-20,-0.536402,-0.459511,-0.0369049,-2.63594,0.048686,-0.000165498,0.0152778,4.04356e-05,0.494047,0.00122214,0.0715689,0.040778,-0.000250629,0.0232057,1.93217,0.00100818,0.005,1.70225,0.00113292,-0.0163851,-0.50504,45.6237,0.104185,0.0672863,17.939,0.603975,1.24527,0.384622,-2.39563,-0.0456061,0.459299,-1.9904,-0.104736,0.241699,0.0725098,0.16521,-0.0887145,23.4364,23.2946,23.1527,23.252,23.1811,23.2662,23.0959,
145,6.27314,1.38502,3.15334,4.12806,6.27421,1.97859,1.5557,0.00159566,-0.0621224,-7.23849e-05,0.093819,0.00128345,-0.0135239,1.85045e-05,0.467229,-14.4638,-0.378991,-4.87309,1.52054,-55.1955,1.59558,0.0252045,-20,-0.536419,-0.457648,-0.0368965,-2.63617,0.0486717,-0.000165498,0.0152778,4.04356e-05,0.494047,0.00122214,0.0715689,0.0402197,-0.000183085,0.0217509,1.93217,0.00100818,0.005,1.70225,0.00113292,-0.0163851,-0.50504,45.6237,0.104185,0.0826688,18.11,0.621268,1.27541,0.35803,-2.48309,-0.0409081,0.467355,-2.07863,-0.0970148,0.217678,0.0814677,0.153076,-0.093001,23.4364,23.2804,23.1385,23.2662,23.1811,23.2662,23.1101,
146,6.27314,1.38502,3.15334,4.12806,6.27421,1.97859,1.5557,0.00159566,-0.0621224,-7.23849e-05,0.093819,0.00128345,-0.0135239,1.85045e-05,0.468481,-14.5435,-0.386389,-4.93298,1.50805,-55.4919,1.60417,0.0255375,-20,-0.53802,-0.467994,-0.0369997,-2.6653,0.0492817,-0.000167847,0.015418,3.77462e-05,0.494047,0.00122214,0.0715689,0.0402197,-0.000183085,0.0217509,1.93138,0.0010059,0.005,1.70204,0.00107009,-0.0150758,-0.510758,45.9002,0.0875629,0.0826688,18.11,0.621268,1.27541,0.35803,-2.48309,-0.0409081,0.467355,-2.07863,-0.0970148,0.217678,0.0814677,0.153076,-0.093001,23.4364,23.2804,23.1385,23.2662,23.1811,23.2662,23.1101,
147,6.27314,1.38496,3.15334,4.12816,6.27421,1.97857,1.5557,0.00138291,-0.0596829,-4.8091e-05,0.0936992,0.00130547,-0.0144429,1.85184e-05,0.468489,-14.542,-0.386419,-4.93336,1.50802,-55.49,1.60402,0.0255251,-20,-0.538035,-0.466086,-0.0369914,-2.66554,0.0492739,-0.000167847,0.015418,3.77462e-05,0.494047,0.00122214,0.0715689,0.0396701,-0.000110152,0.0206925,1.93138,0.0010059,0.005,1.70204,0.00107009,-0.0150758,-0.510758,45.9002,0.0875629,0.065743,18.3292,0.620424,1.30745,0.368308,-2.58453,-0.0364459,0.451172,-2.11891,-0.0966797,0.20206,0.0845947,0.136963,-0.0970148,23.4506,23.2804,23.1385,23.2662,23.1811,23.2662,23.0959,
148,6.27314,1.38496,3.15334,4.12816,6.27421,1.97857,1.5557,0.00138291,-0.0596829,-4.8091e-05,0.0936992,0.00130547,-0.0144429,1.85184e-05,0.469638,-14.6256,-0.390989,-4.99646,1.50352,-55.8048,1.61156,0.0258307,-20,-0.539486,-0.476983,-0.037054,-2.69662,0.0497366,-0.000169906,0.0155656,3.64224e-05,0.494047,0.00122214,0.0715689,0.0396701,-0.000110152,0.0206925,1.93053,0.0010049,0.005,1.70178,0.00100355,-0.0141233,-0.515092,46.1945,0.0775833,0.065743,18.3292,0.620424,1.30745,0.368308,-2.58453,-0.0364459,0.451172,-2.11891,-0.0966797,0.20206,0.0845947,0.136963,-0.0970148,23.4506,23.2804,23.1385,23.2662,23.1811,23.2662,23.0959,
149,6.27314,1.38496,3.15334,4.12816,6.27421,1.97857,1.5557,0.00138291,-0.0596829,-4.8091e-05,0.0936992,0.00130547,-0.0144429,1.85184e-05,0.469638,-14.6256,-0.390989,-4.99646,1.50352,-55.8048,1.61156,0.0258307,-20,-0.539486,-0.476983,-0.037054,-2.69662,0.0497366,-0.000169906,0.0155656,3.64224e-05,0.494047,0.00122214,0.0715689,0.0396701,-0.000110152,0.0206925,1.93053,0.0010049,0.005,1.70178,0.00100355,-0.0141233,-0.515092,46.1945,0.0775833,0.065743,18.3292,0.620424,1.30745,0.368308,-2.58453,-0.0364459,0.451172,-2.11891,-0.0966797,0.20206,0.0845947,0.136963,-0.0970148,23.4506,23.2804,23.1385,23.2662,23.1811,23.2662,23.0959,
150,6.27315,1.3849,3.15334,4.12825,6.27421,1.97855,1.5557,0.00113568,-0.0591513,0,0.0934537,0.00135791,-0.0168725,1.85186e-05,0.469634,-14.6239,-0.391004,-4.99674,1.50345,-55.8029,1.61136,0.0258194,-20,-0.539501,-0.475286,-0.0370461,-2.69683,0.0497274,-0.000169906,0.0155656,3.64224e-05,0.494047,0.00122214,0.0715689,0.0394888,-2.58455e-05,0.0202337,1.93053,0.0010049,0.005,1.70178,0.00100355,-0.0141233,-0.515092,46.1945,0.0775833,0.102791,18.4553,0.629428,1.28891,0.370066,-2.7028,-0.0278538,0.451244,-2.14313,-0.088623,0.161936,0.0846906,0.132935,-0.0846906,23.4364,23.2946,23.1385,23.2662,23.1952,23.252,23.1101,
151,6.27315,1.3849,3.15334,4.12825,6.27421,1.97855,1.5557,0.00113568,-0.0591513,0,0.0934537,0.00135791,-0.0168725,1.85186e-05,0.470724,-14.6966,-0.396333,-5.05265,1.49589,-56.0808,1.61889,0.0261092,-20,-0.540858,-0.485054,-0.0371212,-2.72451,0.0502412,-0.000172066,0.015698,3.47395e-05,0.494047,0.00122214,0.0715689,0.0394888,-2.58455e-05,0.0202337,1.92975,0.00100349,0.005,1.70124,0.000926399,-0.0137103,-0.519915,46.4556,0.0656151,0.102791,18.4553,0.629428,1.28891,0.370066,-2.7028,-0.0278538,0.451244,-2.14313,-0.088623,0.161936,0.0846906,0.132935,-0.0846906,23.4364,23.2946,23.1385,23.2662,23.1952,23.252,23.1101,
152,6.27315,1.3849,3.15334,4.12825,6.27421,1.97855,1.5557,0.00113568,-0.0591513,0,0.0934537,0.00135791,-0.0168725,1.85186e-05,0.470724,-14.6966,-0.396333,-5.05265,1.49589,-56.0808,1.61889,0.0261092,-20,-0.540858,-0.485054,-0.0371212,-2.72451,0.0502412,-0.000172066,0.015698,3.47395e-05,0.494047,0.00122214,0.0715689,0.0394888,-2.58455e-05,0.0202337,1.92975,0.00100349,0.005,1.70124,0.000926399,-0.0137103,-0.519915,46.4556,0.0656151,0.102791,18.4553,0.629428,1.28891,0.370066,-2.7028,-0.0278538,0.451244,-2.14313,-0.088623,0.161936,0.0846906,0.132935,-0.0846906,23.4364,23.2946,23.1385,23.2662,23.1952,23.252,23.1101,
153,6.27315,1.38484,3.15334,4.12835,6.27422,1.97853,1.5557,0.00111919,-0.0582819,0,0.0945341,0.00142913,-0.0197171,1.85184e-05,0.470736,-14.6949,-0.396402,-5.05293,1.49581,-56.0788,1.61867,0.0260976,-20,-0.540872,-0.483352,-0.0371167,-2.7247,0.0502301,-0.000172066,0.015698,3.47395e-05,0.494047,0.00122214,0.0715689,0.0396197,-1.65274e-05,0.0195758,1.92975,0.00100349,0.005,1.70124,0.000926399,-0.0137103,-0.519915,46.4556,0.0656151,0.102998,18.6008,0.662754,1.30155,0.346787,-2.78493,-0.0297297,0.467285,-2.11914,-0.0889885,0.161133,0.0887145,0.128906,-0.0966797,23.4364,23.2804,23.1527,23.252,23.1952,23.252,23.0959,
154,6.27315,1.38484,3.15334,4.12835,6.27422,1.97853,1.5557,0.00111919,-0.0582819,0,0.0945341,0.00142913,-0.0197171,1.85184e-05,0.471761,-14.7705,-0.400023,-5.11204,1.49375,-56.3664,1.62908,0.0263701,-20,-0.542147,-0.493752,-0.0371498,-2.7534,0.0509807,-0.000174436,0.0158276,3.25971e-05,0.494047,0.00122214,0.0715689,0.0396197,-1.65274e-05,0.0195758,1.92897,0.00100112,0.005,1.70042,0.000915882,-0.0131183,-0.527156,46.7266,0.0582699,0.102998,18.6008,0.662754,1.30155,0.346787,-2.78493,-0.0297297,0.467285,-2.11914,-0.0889885,0.161133,0.0887145,0.128906,-0.0966797,23.4364,23.2804,23.1527,23.252,23.1952,23.252,23.0959,
155,6.27315,1.38484,3.15334,4.12835,6.27422,1.97853,1.5557,0.00111919,-0.0582819,0,0.0945341,0.00142913,-0.0197171,1.85184e-05,0.471761,-14.7705,-0.400023,-5.11204,1.49375,-56.3664,1.62908,0.0263701,-20,-0.542147,-0.493752,-0.0371498,-2.7534,0.0509807,-0.000174436,0.0158276,3.25971e-05,0.494047,0.00122214,0.0715689,0.0396197,-1.65274e-05,0.0195758,1.92897,0.00100112,0.005,1.70042,0.000915882,-0.0131183,-0.527156,46.7266,0.0582699,0.102998,18.6008,0.662754,1.30155,0.346787,-2.78493,-0.0297297,0.467285,-2.11914,-0.0889885,0.161133,0.0887145,0.128906,-0.0966797,23.4364,23.2804,23.1527,23.252,23.1952,23.252,23.0959,
156,6.27315,1.38478,3.15334,4.12844,6.27422,1.97851,1.5557,0.00092937,-0.0572607,0,0.0950743,0.00146884,-0.0240738,1.85184e-05,0.471761,-14.7687,-0.40004,-5.1121,1.49367,-56.3645,1.62885,0.0263584,-20,-0.54216,-0.491964,-0.0371439,-2.75361,0.0509697,-0.000174436,0.0158276,3.25971e-05,0.494047,0.00122214,0.0715689,0.0395642,5.48209e-05,0.0187061,1.92897,0.00100112,0.005,1.70042,0.000915882,-0.0131183,-0.527156,46.7266,0.0582699,0.125789,18.7555,0.691206,1.37435,0.327133,-2.85377,-0.0139735,0.451244,-2.1028,-0.0889885,0.129158,0.0927389,0.132996,-0.0966797,23.4506,23.3087,23.1669,23.252,23.1952,23.2662,23.1101,
157,6.27315,1.38478,3.15334,4.12844,6.27422,1.97851,1.5557,0.00092937,-0.0572607,0,0.0950743,0.00146884,-0.0240738,1.85184e-05,0.472604,-14.8229,-0.404731,-5.15466,1.48591,-56.5675,1.6369,0.0265827,-20,-0.543224,-0.499481,-0.0372139,-2.77379,0.0516134,-0.000176597,0.0159522,3.04773e-05,0.494047,0.00122214,0.0715689,0.0395642,5.48209e-05,0.0187061,1.92819,0.000995716,0.005,1.69977,0.000846806,-0.0123355,-0.533313,46.9179,0.0475244,0.125789,18.7555,0.691206,1.37435,0.327133,-2.85377,-0.0139735,0.451244,-2.1028,-0.0889885,0.129158,0.0927389,0.132996,-0.0966797,23.4506,23.3087,23.1669,23.252,23.1952,23.2662,23.1101,
