LWingKi/MAS_RnD/log/us2/contactless/4/grasp_log_12_08_2023_14_53_40.csv
Index,joint_angle_0,joint_angle_1,joint_angle_2,joint_angle_3,joint_angle_4,joint_angle_5,joint_angle_6,joint_velocity_0,joint_velocity_1,joint_velocity_2,joint_velocity_3,joint_velocity_4,joint_velocity_5,joint_velocity_6,joint_accel_0,joint_accel_1,joint_accel_2,joint_accel_3,joint_accel_4,joint_accel_5,joint_accel_6,constraint_tau_0,constraint_tau_1,constraint_tau_2,constraint_tau_3,constraint_tau_4,constraint_tau_5,constraint_tau_6,current_pos_x,current_pos_y,current_pos_z,target_pos_x,target_pos_y,target_pos_z,current_vel_x,current_vel_y,current_vel_z,target_vel_x,target_vel_y,target_vel_z,control_signal_linear_x,control_signal_linear_y,control_signal_linear_z,control_signal_angular_x,control_signal_angular_y,control_signal_angular_z,joint_torque_0,joint_torque_1,joint_torque_2,joint_torque_3,joint_torque_4,joint_torque_5,joint_torque_6,actuar_current_0,actuar_current_1,actuar_current_2,actuar_current_3,actuar_current_4,actuar_current_5,actuar_current_6,actuar_voltage_0,actuar_voltage_1,actuar_voltage_2,actuar_voltage_3,actuar_voltage_4,actuar_voltage_5,actuar_voltage_6
0,6.27246,1.38848,3.15228,4.10725,6.27311,1.98473,1.55621,0.0220469,0.0464097,-3.79119e-05,0.111487,5.83329e-05,0.0013197,0,0.471644,-8.53264,-1.03463,0.0146946,-0.812756,-31.5265,1.12457,0.0283426,-20,-0.496234,0.145081,-0.0479872,-0.203181,0.0309888,-0.000125046,0.00851003,-0.000546964,0.490745,0.00158367,0.0733707,0.0222882,-0.00844656,-0.0205654,1.96998,-0.00527008,0.005,1.77299,-0.00474308,0.0045,-0.337623,22.9771,-1.4768,1.20488,-1.0295,-0.126646,4.70369,0.293331,5.1089,0.179308,0.314209,0.378748,0.153288,-0.0161133,-0.0645789,-0.656616,-0.11308,23.4932,23.3371,23.1811,23.3087,23.2236,23.2946,23.1527,
1,6.27248,1.38852,3.15228,4.10736,6.27311,1.98474,1.55621,0.0217831,0.0475372,-5.16274e-05,0.11182,6.89389e-05,0.00180333,0,0.351019,-2.72876,-0.119711,4.22012,1.13358,-8.92436,0.667578,-0.0037636,-18.8115,-0.35612,0.896998,-0.0338589,2.03497,-0.00196788,0,0,0,0.490745,0.00158367,0.0733707,0.0221446,-0.0083405,-0.0209612,2,0,0.005,1.77994,0.00760191,0.0230088,-0.0162931,1.99163,0.623878,1.1908,-0.959988,-0.173159,4.5462,0.296386,5.16167,0.155251,0.298205,0.338379,0.161133,-0.00805664,-0.0565402,-0.628431,-0.11308,23.4932,23.3229,23.1669,23.3229,23.2236,23.2946,23.1527,
2,6.2725,1.38857,3.15228,4.10747,6.27311,1.98475,1.55621,0.0220676,0.047646,-5.73154e-05,0.11128,7.95448e-05,0.00229602,0,0.350943,-2.77954,-0.107435,4.18191,1.17198,-9.11628,0.675576,-0.00377683,-18.8428,-0.355967,0.890827,-0.0336446,2.0159,-0.00153085,-1.42416e-06,7.0013e-05,1.41876e-05,0.490745,0.00158367,0.0733707,0.0219659,-0.00845072,-0.0209382,1.99956,0.000120881,0.005,1.77968,0.00761524,0.0233651,-0.0203622,2.17134,0.653591,1.19787,-0.920942,-0.206302,4.44154,0.294219,5.20961,0.165363,0.338475,0.298205,0.153076,0.0113938,-0.0565402,-0.612358,-0.124943,23.479,23.2804,23.1811,23.3087,23.2236,23.2946,23.1385,
3,6.27252,1.38862,3.15228,4.10758,6.27311,1.98476,1.55621,0.0210676,0.0464568,-6.9793e-05,0.109389,8.48478e-05,0.00284071,0,0.350062,-2.82842,-0.0805276,4.14475,1.2513,-9.30297,0.68505,-0.00400304,-18.873,-0.354783,0.884989,-0.033162,1.99722,-0.00118028,-2.54127e-06,0.000136833,3.53396e-05,0.490745,0.00158367,0.0733707,0.0216715,-0.00805758,-0.0203712,1.99914,0.000297537,0.005,1.77946,0.00787344,0.0233444,-0.0234489,2.34706,0.718871,1.20889,-0.87776,-0.244542,4.31393,0.318897,5.23798,0.147797,0.322366,0.281982,0.14502,0.0161133,-0.0563965,-0.584162,-0.124943,23.5074,23.3371,23.1811,23.3229,23.2094,23.2804,23.1243,
4,6.27254,1.38866,3.15228,4.10769,6.27311,1.98477,1.55621,0.0215859,0.0456465,-8.84455e-05,0.108834,0.00010606,0.00423916,0,0.350217,-2.87936,-0.071127,4.10686,1.28022,-9.50407,0.691337,-0.00396458,-18.9045,-0.354824,0.87903,-0.0330478,1.97703,-0.000802934,-3.73175e-06,0.000208318,5.42564e-05,0.490745,0.00158367,0.0733707,0.0216839,-0.00825109,-0.0198923,1.99872,0.000452763,0.005,1.77934,0.00765931,0.0228341,-0.0269349,2.53536,0.740091,1.20483,-0.776162,-0.26875,4.28319,0.377062,5.29022,0.143871,0.354584,0.298096,0.169189,0.0644531,-0.0525229,-0.559937,-0.128969,23.479,23.3229,23.1527,23.3087,23.2094,23.2946,23.1243,
5,6.27254,1.38866,3.15228,4.10769,6.27311,1.98477,1.55621,0.0215859,0.0456465,-8.84455e-05,0.108834,0.00010606,0.00423916,0,0.349736,-2.95403,-0.0458027,4.051,1.35849,-9.79268,0.70573,-0.00409279,-18.949,-0.354038,0.869138,-0.0326017,1.94826,-7.55941e-05,-5.91471e-06,0.000290164,7.2094e-05,0.490745,0.00158367,0.0733707,0.0216839,-0.00825109,-0.0198923,1.99824,0.00060714,0.005,1.7789,0.00797241,0.0224031,-0.0336934,2.80591,0.802684,1.20483,-0.776162,-0.26875,4.28319,0.377062,5.29022,0.143871,0.354584,0.298096,0.169189,0.0644531,-0.0525229,-0.559937,-0.128969,23.479,23.3229,23.1527,23.3087,23.2094,23.2946,23.1243,
6,6.27254,1.38866,3.15228,4.10769,6.27311,1.98477,1.55621,0.0215859,0.0456465,-8.84455e-05,0.108834,0.00010606,0.00423916,0,0.349736,-2.95403,-0.0458027,4.051,1.35849,-9.79268,0.70573,-0.00409279,-18.949,-0.354038,0.869138,-0.0326017,1.94826,-7.55941e-05,-5.91471e-06,0.000290164,7.2094e-05,0.490745,0.00158367,0.0733707,0.0216839,-0.00825109,-0.0198923,1.99824,0.00060714,0.005,1.7789,0.00797241,0.0224031,-0.0336934,2.80591,0.802684,1.20483,-0.776162,-0.26875,4.28319,0.377062,5.29022,0.143871,0.354584,0.298096,0.169189,0.0644531,-0.0525229,-0.559937,-0.128969,23.479,23.3229,23.1527,23.3087,23.2094,23.2946,23.1243,
7,6.27256,1.38871,3.15228,4.1078,6.27311,1.98478,1.55621,0.0199872,0.0431718,-0.000109909,0.11182,0.000121968,0.00735259,0,0.34984,-2.95368,-0.0460476,4.05086,1.35856,-9.79219,0.705884,-0.00407942,-18.9501,-0.35409,0.869842,-0.0325745,1.94823,-7.84165e-05,-5.91471e-06,0.000290164,7.2094e-05,0.490745,0.00158367,0.0733707,0.0230656,-0.00760247,-0.0186627,1.99824,0.00060714,0.005,1.7789,0.00797241,0.0224031,-0.0336934,2.80591,0.802684,1.20103,-0.653349,-0.360003,4.30971,0.375733,5.36412,0.14866,0.346436,0.298096,0.14502,0.088623,-0.0565402,-0.552012,-0.120917,23.4932,23.3229,23.1811,23.3229,23.2236,23.2804,23.1527,
8,6.27258,1.38875,3.15228,4.10792,6.27311,1.9848,1.55621,0.0199872,0.0406245,-0.000126282,0.113596,0.000132573,0.0123221,0,0.351659,-3.08106,-0.0482088,3.95264,1.36299,-10.2945,0.718617,-0.00362004,-19.0274,-0.355931,0.852643,-0.0326602,1.89761,0.000794557,-8.1182e-06,0.00037015,8.88118e-05,0.490745,0.00158367,0.0733707,0.0241184,-0.00758036,-0.0171801,1.99779,0.000748694,0.005,1.77725,0.00751605,0.0212964,-0.041955,3.27909,0.797006,1.23029,-0.536437,-0.395166,4.34233,0.390229,5.4649,0.169793,0.394775,0.161133,0.129158,0.0241699,-0.0443115,-0.551895,-0.117099,23.479,23.3371,23.1952,23.3229,23.2378,23.2946,23.1527,
9,6.27261,1.38879,3.15228,4.10803,6.27311,1.98482,1.55621,0.0200615,0.0367333,-0.000160413,0.114521,0.000143181,0.0176851,0,0.352603,-3.21829,-0.0315198,3.84769,1.42451,-10.8346,0.734433,-0.00340078,-19.1107,-0.356584,0.834505,-0.0323369,1.84328,0.00150084,-9.8472e-06,0.000455206,0.000105987,0.490745,0.00158367,0.0733707,0.0252116,-0.00758073,-0.0151104,1.99733,0.000892609,0.005,1.77589,0.00762567,0.0199621,-0.0483892,3.78748,0.840265,1.20641,-0.444551,-0.403553,4.34247,0.389169,5.5511,0.180792,0.394775,-0.0332184,0.1372,0,-0.0565402,-0.572036,-0.124943,23.479,23.3229,23.1669,23.3229,23.2378,23.2946,23.1811,
10,6.27262,1.38882,3.15228,4.10815,6.27311,1.98484,1.55621,0.0189068,0.0297107,-0.00018699,0.117763,0.000153787,0.0232284,0,0.35363,-3.37013,-0.0124717,3.73135,1.49423,-11.4357,0.75442,-0.00316743,-19.203,-0.357273,0.814386,-0.0319698,1.78273,0.00251951,-1.24402e-05,0.000551838,0.000124554,0.490745,0.00158367,0.0733707,0.0276316,-0.00709036,-0.0118502,1.99683,0.00104411,0.005,1.77446,0.00776236,0.0180994,-0.0578648,4.35373,0.889509,1.16563,-0.295257,-0.407447,4.37268,0.425844,5.66969,0.194738,0.395104,-0.242236,0.11308,-0.0161133,-0.0485074,-0.580078,-0.12085,23.4932,23.3371,23.1952,23.3229,23.2378,23.2946,23.1527,
11,6.27264,1.38884,3.15228,4.10827,6.27312,1.98487,1.55621,0.019447,0.0199872,-0.000212406,0.119366,0.000169696,0.0280901,0,0.356428,-3.57373,-0.0119081,3.57257,1.51691,-12.2499,0.77432,-0.0024906,-19.3265,-0.359901,0.786363,-0.0319637,1.70023,0.00363525,-1.48688e-05,0.000661254,0.000140431,0.490745,0.00158367,0.0733707,0.030154,-0.00726126,-0.00756753,1.99628,0.00117577,0.005,1.77179,0.00743951,0.0151651,-0.068258,5.12332,0.893858,1.09819,-0.120356,-0.445805,4.4453,0.428889,5.81019,0.203318,0.410968,-0.370693,0.104736,-0.0649547,-0.0483398,-0.592177,-0.11308,23.4932,23.3229,23.1811,23.3087,23.2378,23.3087,23.1811,
12,6.27266,1.38884,3.15227,4.10839,6.27312,1.9849,1.55621,0.0199872,0.00852613,-0.000247875,0.116952,0.000180302,0.0323187,0,0.358426,-3.79699,0.00831642,3.398,1.60014,-13.1467,0.801432,-0.00202748,-19.4615,-0.361413,0.755497,-0.03152,1.60913,0.00492951,-1.77071e-05,0.000795828,0.000156173,0.490745,0.00158367,0.0733707,0.0318882,-0.00743608,-0.00258005,1.99564,0.00130951,0.005,1.76893,0.00771369,0.0113108,-0.0802112,5.97227,0.949367,1.10344,0.0579656,-0.507607,4.49321,0.420052,5.98881,0.174492,0.410968,-0.395104,0.0966797,-0.088623,-0.0362549,-0.60829,-0.108765,23.5074,23.3371,23.1811,23.3229,23.2378,23.2946,23.1669,
13,6.27269,1.38884,3.15227,4.1085,6.27312,1.98494,1.55621,0.0210447,-0.00270097,-0.000270916,0.115485,0.000190908,0.0367333,0,0.360114,-3.99947,0.03035,3.24095,1.68657,-13.9688,0.828445,-0.00166454,-19.5842,-0.362508,0.727957,-0.03106,1.52552,0.00627957,-2.08568e-05,0.000936263,0.000172859,0.490745,0.00158367,0.0733707,0.0338458,-0.00781503,0.00231488,1.99501,0.00144534,0.005,1.76681,0.00799328,0.00682204,-0.0927393,6.74969,1.00906,1.02293,0.147655,-0.492187,4.54693,0.409786,6.14653,0.180852,0.410968,-0.370693,0.0725098,-0.0180152,-0.036478,-0.608276,-0.112793,23.5074,23.3229,23.1669,23.3371,23.2236,23.2946,23.1527,
14,6.27269,1.38884,3.15227,4.10862,6.27312,1.98498,1.55621,0.0210447,-0.00270097,-0.000304071,0.113598,0.000201361,0.0394342,0,0.361241,-4.21955,0.0620537,3.07221,1.80028,-14.8568,0.856183,-0.00137211,-19.7167,-0.363205,0.698793,-0.0304152,1.43535,0.00748739,-2.35929e-05,0.00108909,0.000192293,0.490745,0.00158367,0.0733707,0.0333045,-0.00780548,0.00264832,1.99434,0.00160447,0.005,1.76445,0.00847755,0.00241661,-0.103921,7.58749,1.09138,1.02293,0.147655,-0.49381,4.64805,0.427189,6.28366,0.157202,0.410968,-0.370693,0.0889885,0.0180152,-0.0322266,-0.612318,-0.105046,23.5074,23.3229,23.1669,23.3087,23.2378,23.3087,23.1527,
15,6.27271,1.38883,3.15227,4.10862,6.27312,1.98498,1.55621,0.0216078,-0.00674901,-0.000304071,0.113598,0.000201361,0.0394342,0,0.363178,-4.34559,0.0564767,2.97961,1.79961,-15.3456,0.87167,-0.000888651,-19.7923,-0.365241,0.682292,-0.0304453,1.38691,0.00849534,-2.689e-05,0.00124869,0.000189148,0.490745,0.00158367,0.0733707,0.0341616,-0.00801747,0.00423169,1.99365,0.00158543,0.005,1.76431,0.00845182,0.00211652,-0.113397,8.04285,1.08184,1.01698,0.294123,-0.49381,4.64805,0.427189,6.28366,0.157202,0.378748,-0.338475,0.0889885,0.0180152,-0.0322266,-0.612318,-0.105046,23.479,23.3371,23.1669,23.3087,23.2378,23.3087,23.1527,
16,6.27273,1.38882,3.15227,4.10873,6.27312,1.98502,1.55621,0.0226882,-0.0132281,-0.000325053,0.11182,0.00021212,0.041595,0,0.362268,-4.38222,0.0863803,2.94783,1.88889,-15.4995,0.880068,-0.00119605,-19.8155,-0.36362,0.677563,-0.0299145,1.37063,0.00867429,-2.6988e-05,0.00125921,0.000210453,0.490745,0.00158367,0.0733707,0.0350231,-0.0084209,0.00703941,1.9936,0.0017516,0.005,1.7635,0.00879216,0.000691482,-0.114834,8.19269,1.15626,0.942299,0.494526,-0.504398,4.78787,0.38635,6.40552,0.201792,0.354584,-0.459299,0.0644531,0.072956,-0.0362549,-0.60829,-0.108839,23.479,23.3229,23.1952,23.3229,23.2236,23.3087,23.1527,
17,6.27275,1.38879,3.15227,4.10884,6.27312,1.98506,1.55621,0.0243088,-0.0208138,-0.0003553,0.113171,0.00021212,0.0464097,0,0.363098,-4.55714,0.118163,2.81345,2.0007,-16.1948,0.90487,-0.00108348,-19.9217,-0.363651,0.654393,-0.0292868,1.30042,0.00974592,-2.98174e-05,0.00142588,0.000229857,0.490745,0.00158367,0.0733707,0.0370209,-0.00902083,0.0104908,1.9929,0.00191023,0.005,1.76209,0.00929802,-0.00183547,-0.124652,8.84854,1.24027,0.92742,0.785197,-0.532849,4.91054,0.357906,6.48919,0.170571,0.322366,-0.523744,0.0664368,0.129158,-0.0281982,-0.588149,-0.112793,23.479,23.3371,23.1811,23.3087,23.252,23.3087,23.1385,
18,6.27275,1.38879,3.15227,4.10884,6.27312,1.98506,1.55621,0.0243088,-0.0208138,-0.0003553,0.113171,0.00021212,0.0464097,0,0.363868,-4.79785,0.158739,2.62983,2.14154,-17.1472,0.935638,-0.000878515,-20,-0.363977,0.621385,-0.0284752,1.20454,0.0110129,-3.28068e-05,0.00160521,0.00025165,0.490745,0.00158367,0.0733707,0.0370209,-0.00902083,0.0104908,1.99217,0.00208,0.005,1.75963,0.00999075,-0.0049417,-0.136116,9.74521,1.34505,0.92742,0.785197,-0.532849,4.91054,0.357906,6.48919,0.170571,0.322366,-0.523744,0.0664368,0.129158,-0.0281982,-0.588149,-0.112793,23.479,23.3371,23.1811,23.3087,23.252,23.3087,23.1385,
19,6.27278,1.38877,3.15227,4.10896,6.27312,1.98512,1.55621,0.0237686,-0.024849,-0.000362416,0.116952,0.00021212,0.0529121,0,0.364061,-4.79728,0.158194,2.62853,2.14168,-17.1453,0.935922,-0.000874219,-20,-0.364027,0.62215,-0.0284546,1.20449,0.0110065,-3.28068e-05,0.00160521,0.00025165,0.490745,0.00158367,0.0733707,0.0389643,-0.00878205,0.0126777,1.99217,0.00208,0.005,1.75963,0.00999075,-0.0049417,-0.136116,9.74521,1.34505,0.813676,0.975567,-0.453592,5.0023,0.318587,6.5712,0.18334,0.306152,-0.523744,0.0490066,0.121118,-0.0322266,-0.600233,-0.112865,23.479,23.3229,23.1669,23.3229,23.2236,23.2804,23.1385,
20,6.2728,1.38874,3.15227,4.10908,6.27312,1.98518,1.55621,0.0245522,-0.0283602,-0.000392528,0.119653,0.00021228,0.0567205,0,0.366792,-5.05677,0.171456,2.42982,2.20645,-18.1638,0.958218,-0.000218732,-20,-0.366501,0.587475,-0.0281897,1.1021,0.01187,-3.47949e-05,0.00180106,0.00027291,0.490745,0.00158367,0.0733707,0.0404855,-0.00906262,0.0143998,1.9914,0.00225099,0.005,1.75719,0.00992974,-0.00690992,-0.14365,10.7035,1.38217,0.788869,1.24857,-0.383898,5.08303,0.305183,6.65721,0.154469,0.322266,-0.628418,0.0469779,0.0725098,-0.0293266,-0.636526,-0.104736,23.479,23.3229,23.1811,23.3087,23.2236,23.2946,23.1527,
21,6.27283,1.38871,3.15226,4.10921,6.27312,1.98524,1.55621,0.0237686,-0.0324117,-0.000458427,0.121007,0.00021212,0.0599616,0,0.367915,-5.28643,0.204417,2.25334,2.32387,-19.0618,0.983887,5.97589e-05,-20,-0.367263,0.55711,-0.0275219,1.01179,0.0128367,-3.70985e-05,0.00200303,0.000296759,0.490745,0.00158367,0.0733707,0.0417304,-0.00872282,0.0163051,1.9906,0.0024411,0.005,1.7551,0.0103533,-0.00845982,-0.152301,11.5494,1.4674,0.660674,1.52626,-0.340608,5.17555,0.279637,6.73376,0.19229,0.306152,-0.717222,0.041081,0.0241699,-0.0293266,-0.644531,-0.105046,23.4932,23.3229,23.1669,23.3087,23.2378,23.2946,23.1527,
22,6.27285,1.38867,3.15226,4.10933,6.27312,1.9853,1.55621,0.0237686,-0.038582,-0.000571165,0.124245,0.00021742,0.0607719,0,0.370324,-5.51683,0.215793,2.07652,2.37909,-19.9673,1.00714,0.000648303,-20,-0.369511,0.526488,-0.0273142,0.920725,0.0139957,-3.9795e-05,0.00222271,0.000317743,0.490745,0.00158367,0.0733707,0.0439639,-0.00867108,0.0187405,1.98972,0.00260818,0.005,1.75319,0.0101979,-0.0101746,-0.162906,12.4019,1.49835,0.649948,1.90643,-0.34632,5.23405,0.279952,6.79471,0.151203,0.322266,-0.789551,0.0254773,0.0254773,-0.0127387,-0.648572,-0.108839,23.479,23.3087,23.1669,23.2946,23.2236,23.2946,23.1385,
23,6.27285,1.38867,3.15226,4.10933,6.27312,1.9853,1.55621,0.0237686,-0.038582,-0.000571165,0.124245,0.00021742,0.0607719,0,0.372241,-5.76255,0.236459,1.88806,2.46146,-20.9331,1.03215,0.00115854,-20,-0.371296,0.49243,-0.0269271,0.823615,0.0151088,-4.12877e-05,0.00244598,0.00033838,0.490745,0.00158367,0.0733707,0.0439639,-0.00867108,0.0187405,1.98884,0.0027771,0.005,1.75039,0.0103034,-0.0123665,-0.172886,13.3113,1.55195,0.649948,1.90643,-0.34632,5.23405,0.279952,6.79471,0.151203,0.322266,-0.789551,0.0254773,0.0254773,-0.0127387,-0.648572,-0.108839,23.479,23.3087,23.1669,23.2946,23.2236,23.2946,23.1385,
24,6.27287,1.38862,3.15226,4.10946,6.27312,1.98536,1.55621,0.0210676,-0.0448362,-0.000776226,0.12413,0.000217258,0.0636952,0,0.372084,-5.76101,0.236779,1.88628,2.46141,-20.9298,1.03208,0.00116434,-20,-0.371374,0.493428,-0.0268593,0.823454,0.0150927,-4.12877e-05,0.00244598,0.00033838,0.490745,0.00158367,0.0733707,0.0452477,-0.00754101,0.0215102,1.98884,0.0027771,0.005,1.75039,0.0103034,-0.0123665,-0.172886,13.3113,1.55195,0.498358,2.08394,-0.272673,5.26194,0.263129,6.8476,0.162068,0.322366,-0.773479,0.0254773,-0.0180152,-0.0205405,-0.636475,-0.100708,23.479,23.3229,23.1669,23.2946,23.2236,23.2804,23.1527,
25,6.27287,1.38862,3.15226,4.10946,6.27312,1.98536,1.55621,0.0210676,-0.0448362,-0.000776226,0.12413,0.000217258,0.0636952,0,0.375949,-6.01161,0.223337,1.69743,2.44366,-21.9207,1.05312,0.00219354,-20,-0.375609,0.459386,-0.0271929,0.724062,0.0165356,-4.33394e-05,0.00268937,0.000356687,0.490745,0.00158367,0.0733707,0.0452477,-0.00754101,0.0215102,1.9879,0.00292695,0.005,1.74838,0.00942117,-0.0148592,-0.186166,14.2402,1.51801,0.498358,2.08394,-0.272673,5.26194,0.263129,6.8476,0.162068,0.322366,-0.773479,0.0254773,-0.0180152,-0.0205405,-0.636475,-0.100708,23.479,23.3229,23.1669,23.2946,23.2236,23.2804,23.1527,
26,6.27289,1.38857,3.15226,4.10958,6.27312,1.98543,1.55621,0.0185569,-0.0488998,-0.000994432,0.124785,0.00020666,0.0636952,0,0.375729,-6.00991,0.223759,1.69622,2.44355,-21.9178,1.05304,0.00219897,-20,-0.375684,0.460674,-0.027123,0.723851,0.0165208,-4.33394e-05,0.00268937,0.000356687,0.490745,0.00158367,0.0733707,0.0462873,-0.0064901,0.0230964,1.9879,0.00292695,0.005,1.74838,0.00942117,-0.0148592,-0.186166,14.2402,1.51801,0.466158,2.30765,-0.239426,5.31088,0.236218,6.87363,0.165957,0.386803,-0.789921,0.0322266,-0.0113938,-0.0166092,-0.632459,-0.0966797,23.4648,23.3229,23.1811,23.3087,23.2094,23.2804,23.1385,
27,6.27291,1.38852,3.15226,4.10972,6.27312,1.9855,1.55621,0.0165507,-0.0536645,-0.00109316,0.126137,0.000206504,0.0606289,0,0.378841,-6.22428,0.212574,1.5316,2.42765,-22.7642,1.0725,0.00307955,-20,-0.379401,0.432654,-0.0273689,0.638567,0.0179195,-4.53945e-05,0.00293195,0.000374019,0.490745,0.00158367,0.0733707,0.0476748,-0.00567048,0.0246167,1.98697,0.00306854,0.005,1.74661,0.00860277,-0.0162867,-0.199299,15.0367,1.48839,0.337489,2.53396,-0.217233,5.34698,0.229355,6.87176,0.1608,0.451459,-0.854042,0.0322266,-0.0180152,-0.0254773,-0.616346,-0.0966797,23.4932,23.3229,23.1527,23.3087,23.2236,23.2946,23.1385,
28,6.27291,1.38852,3.15226,4.10972,6.27312,1.9855,1.55621,0.0165507,-0.0536645,-0.00109316,0.126137,0.000206504,0.0606289,0,0.381885,-6.43646,0.205081,1.36992,2.42408,-23.5961,1.08913,0.00388993,-20,-0.382717,0.403394,-0.0275677,0.55514,0.0189377,-4.70725e-05,0.00318746,0.000389247,0.490745,0.00158367,0.0733707,0.0476748,-0.00567048,0.0246167,1.98596,0.00319586,0.005,1.74445,0.0079797,-0.017655,-0.208493,15.818,1.4697,0.337489,2.53396,-0.217233,5.34698,0.229355,6.87176,0.1608,0.451459,-0.854042,0.0322266,-0.0180152,-0.0254773,-0.616346,-0.0966797,23.4932,23.3229,23.1527,23.3087,23.2236,23.2946,23.1385,
29,6.27292,1.38845,3.15226,4.10986,6.27312,1.98556,1.55621,0.0135288,-0.0581783,-0.00103766,0.126839,0.00021693,0.0601844,0,0.381544,-6.43439,0.205752,1.36858,2.42385,-23.5927,1.08877,0.00388897,-20,-0.382798,0.404923,-0.0274909,0.554904,0.0189121,-4.70725e-05,0.00318746,0.000389247,0.490745,0.00158367,0.0733707,0.0488233,-0.0044928,0.026331,1.98596,0.00319586,0.005,1.74445,0.0079797,-0.017655,-0.208493,15.818,1.4697,0.328525,2.84447,-0.201202,5.32934,0.222048,6.83496,0.156089,0.47541,-0.845986,0.0161133,-0.0254773,-0.00402832,-0.559951,-0.104736,23.479,23.3229,23.1527,23.2946,23.2236,23.2804,23.1527,
30,6.27294,1.38831,3.15226,4.11014,6.27312,1.98569,1.55621,0.00972351,-0.0692121,-0.000860417,0.131152,0.000216603,0.0609367,0,0.385453,-6.66717,0.181676,1.18611,2.37335,-24.5157,1.09983,0.00502307,-20,-0.387776,0.375078,-0.0279055,0.46139,0.0195704,-4.93283e-05,0.00345747,0.00040021,0.490745,0.00158367,0.0733707,0.0523832,-0.00302033,0.0306558,1.98486,0.00329549,0.005,1.74244,0.00700945,-0.0191979,-0.214543,16.6902,1.40864,0.248718,3.25033,-0.100074,5.24097,0.230038,6.65078,0.135812,0.58819,-0.894432,0.0254773,-0.0161133,-0.0090076,-0.523697,-0.0967636,23.479,23.3229,23.1669,23.2946,23.2236,23.2946,23.1243,
31,6.27295,1.38823,3.15226,4.11028,6.27312,1.98575,1.55621,0.00902766,-0.0769859,-0.000736342,0.134412,0.000227171,0.0599337,0,0.393622,-7.1939,0.151854,0.781009,2.33901,-26.592,1.12899,0.00719682,-20,-0.39687,0.303277,-0.0284295,0.252476,0.0207983,-5.34598e-05,0.00400242,0.000417364,0.490745,0.00158367,0.0733707,0.0549578,-0.00276017,0.0335336,1.98268,0.00345082,0.005,1.73727,0.00582403,-0.0230902,-0.224729,18.6446,1.34009,0.193896,3.42821,-0.0333844,5.16154,0.269354,6.51424,0.105336,0.612358,-0.862098,0.0180152,-0.0402832,-0.0161133,-0.50354,-0.100789,23.479,23.3371,23.1527,23.3087,23.2236,23.2804,23.1243,
32,6.27296,1.38814,3.15226,4.11043,6.27313,1.98581,1.55621,0.00796372,-0.0814394,-0.000647556,0.137923,0.000242837,0.0582331,0,0.39733,-7.48196,0.148165,0.556123,2.35831,-27.7339,1.14869,0.00820538,-20,-0.401016,0.264449,-0.0283977,0.136964,0.0215173,-5.59077e-05,0.00429054,0.000423553,0.490745,0.00158367,0.0733707,0.0569012,-0.00235314,0.0350338,1.98152,0.0035122,0.005,1.7339,0.00564513,-0.0256802,-0.230949,19.7234,1.33573,0.207547,3.67154,0.0214362,5.06661,0.305766,6.31651,0.146535,0.628624,-0.78166,0,-0.0966797,-0.0127387,-0.471331,-0.088623,23.479,23.3229,23.1527,23.2946,23.2236,23.2804,23.1527,
33,6.27297,1.38805,3.15226,4.11057,6.27313,1.98587,1.55621,0.00802459,-0.0862643,-0.00052827,0.138675,0.000253205,0.0571214,0,0.401253,-7.752,0.138763,0.346156,2.36001,-28.795,1.16759,0.00921967,-20,-0.405271,0.228419,-0.0285093,0.0299222,0.0223474,-5.87198e-05,0.0045917,0.000428709,0.490745,0.00158367,0.0733707,0.0581316,-0.00239992,0.0368033,1.98028,0.00356781,0.005,1.73104,0.00532885,-0.0270304,-0.238319,20.7245,1.31743,0.218229,3.78907,0.0639507,4.96283,0.34905,6.1205,0.109831,0.644582,-0.789592,-0.00805664,-0.169381,-0.0090076,-0.443134,-0.088623,23.479,23.3229,23.1669,23.3087,23.2236,23.2804,23.1669,
34,6.27297,1.38805,3.15226,4.11057,6.27313,1.98587,1.55621,0.00802459,-0.0862643,-0.00052827,0.138675,0.000253205,0.0571214,0,0.404174,-8.00893,0.143184,0.151111,2.40008,-29.8,1.18668,0.00999734,-20,-0.408346,0.193349,-0.0283479,-0.0707392,0.0229786,-6.13085e-05,0.00489153,0.000433825,0.490745,0.00158367,0.0733707,0.0581316,-0.00239992,0.0368033,1.97905,0.00362034,0.005,1.72882,0.00541824,-0.0286229,-0.243533,21.668,1.3337,0.218229,3.78907,0.0639507,4.96283,0.34905,6.1205,0.109831,0.644582,-0.789592,-0.00805664,-0.169381,-0.0090076,-0.443134,-0.088623,23.479,23.3229,23.1669,23.3087,23.2236,23.2804,23.1669,
35,6.27298,1.38796,3.15226,4.11071,6.27313,1.98593,1.55621,0.00779842,-0.0918331,-0.000440949,0.13937,0.000284855,0.0564229,0,0.404183,-8.0064,0.14301,0.149403,2.40004,-29.7958,1.18645,0.00998462,-20,-0.408378,0.194772,-0.0283323,-0.0709543,0.0229462,-6.13085e-05,0.00489153,0.000433825,0.490745,0.00158367,0.0733707,0.0595021,-0.00232108,0.0389095,1.97905,0.00362034,0.005,1.72882,0.00541824,-0.0286229,-0.243533,21.668,1.3337,0.243705,4.01249,0.0933859,4.83667,0.327626,5.90991,0.124369,0.62847,-0.773605,0,-0.161334,-0.0113938,-0.418965,-0.0887145,23.4932,23.3371,23.1527,23.2804,23.2236,23.2946,23.1385,
36,6.27299,1.38785,3.15226,4.11086,6.27313,1.98599,1.55621,0.00675863,-0.0967056,-0.000322232,0.138545,0.000310997,0.0564229,0,0.407299,-8.25993,0.141701,-0.0468208,2.42305,-30.797,1.20635,0.0108371,-20,-0.4119,0.1615,-0.028245,-0.17207,0.0237747,-6.42368e-05,0.00517937,0.000437022,0.490745,0.00158367,0.0733707,0.0602864,-0.00193633,0.0408519,1.97787,0.00366299,0.005,1.72653,0.00538567,-0.0305185,-0.251077,22.6121,1.33524,0.196675,4.09452,0.123643,4.65642,0.360609,5.68795,0.0678742,0.62847,-0.749441,0.0113938,-0.153922,-0.0090076,-0.390768,-0.0887145,23.479,23.3229,23.1811,23.3229,23.2236,23.2946,23.1243,
37,6.27299,1.38775,3.15226,4.11101,6.27313,1.98605,1.55621,0.00601844,-0.0993979,-0.000270046,0.135383,0.00034763,0.0546675,0,0.411114,-8.51789,0.129131,-0.243938,2.41383,-31.8162,1.22381,0.011865,-20,-0.416254,0.128686,-0.0283889,-0.274854,0.0245668,-6.75946e-05,0.0054893,0.000438563,0.490745,0.00158367,0.0733707,0.0599381,-0.00166174,0.0418064,1.97659,0.00369533,0.005,1.72467,0.00506849,-0.0322667,-0.258185,23.5704,1.30841,0.209633,4.2365,0.171863,4.45505,0.38731,5.44629,0.104328,0.652588,-0.717086,-0.00805664,-0.129158,0.0090076,-0.378662,-0.0887145,23.479,23.3229,23.1811,23.3087,23.2236,23.2946,23.1385,
38,6.273,1.38764,3.15226,4.11115,6.27314,1.98611,1.55621,0.00556843,-0.0987098,-0.000201564,0.133033,0.000394741,0.0511568,0,0.414179,-8.73269,0.120716,-0.405359,2.41202,-32.6602,1.24094,0.0126811,-20,-0.419735,0.1028,-0.0284739,-0.359648,0.0254511,-7.10367e-05,0.00580682,0.000440063,0.490745,0.00158367,0.0733707,0.0591095,-0.00151251,0.041231,1.97526,0.00372733,0.005,1.72379,0.00485016,-0.0331258,-0.266412,24.361,1.2913,0.197021,4.32826,0.206831,4.26425,0.422438,5.18197,0.0758266,0.668701,-0.773605,0.00805664,-0.0809682,-0.0127387,-0.342431,-0.080667,23.479,23.3229,23.1811,23.3087,23.2094,23.3087,23.1669,
39,6.273,1.38754,3.15226,4.11128,6.27314,1.98616,1.55621,0.00526614,-0.100307,-0.000116462,0.131808,0.000483603,0.0501537,0,0.416559,-8.90279,0.114572,-0.533179,2.41255,-33.3169,1.25611,0.0133061,-20,-0.422462,0.0824758,-0.0285229,-0.42525,0.0262889,-7.48008e-05,0.00610715,0.000440245,0.490745,0.00158367,0.0733707,0.0590879,-0.00141052,0.0417917,1.974,0.0037538,0.005,1.7234,0.00473968,-0.0326079,-0.274379,24.9754,1.27965,0.24382,4.45984,0.205777,4.04136,0.392219,4.93209,0.0891114,0.660694,-0.886267,0.00805664,-0.0180152,0.00569691,-0.306179,-0.0887145,23.479,23.3371,23.1669,23.2946,23.2094,23.2946,23.1527,
40,6.273,1.38754,3.15226,4.11128,6.27314,1.98616,1.55621,0.00526614,-0.100307,-0.000116462,0.131808,0.000483603,0.0501537,0,0.419434,-9.11323,0.108902,-0.690471,2.41894,-34.1332,1.27399,0.0140714,-20,-0.425637,0.0544048,-0.0285602,-0.506522,0.0271937,-7.82676e-05,0.00639684,0.000440514,0.490745,0.00158367,0.0733707,0.0590879,-0.00141052,0.0417917,1.97281,0.00377758,0.005,1.72235,0.00466929,-0.0331125,-0.282473,25.7386,1.27017,0.24382,4.45984,0.205777,4.04136,0.392219,4.93209,0.0891114,0.660694,-0.886267,0.00805664,-0.0180152,0.00569691,-0.306179,-0.0887145,23.479,23.3371,23.1669,23.2946,23.2094,23.2946,23.1527,
41,6.27301,1.38742,3.15226,4.11143,6.27315,1.98621,1.55621,0.00551691,-0.103763,-6.68674e-05,0.129414,0.00062571,0.0456399,0,0.419487,-9.11009,0.108606,-0.690905,2.41887,-34.1296,1.27368,0.0140528,-20,-0.425648,0.0569449,-0.0285511,-0.506972,0.0271553,-7.82676e-05,0.00639684,0.000440514,0.490745,0.00158367,0.0733707,0.0591215,-0.00151435,0.0427364,1.97281,0.00377758,0.005,1.72235,0.00466929,-0.0331125,-0.282473,25.7386,1.27017,0.235947,4.47318,0.220602,3.83847,0.423535,4.6745,0.0619733,0.660645,-0.918457,-0.00805664,-0.00805664,-0.00402832,-0.298123,-0.0887145,23.4648,23.3371,23.1669,23.3229,23.2236,23.2946,23.1669,
42,6.27302,1.38731,3.15226,4.11157,6.27315,1.98625,1.55621,0.00565172,-0.105771,-3.3275e-05,0.131152,0.000882391,0.0431322,0,0.421922,-9.31123,0.109791,-0.845091,2.44546,-34.9196,1.2957,0.014679,-20,-0.428264,0.0317155,-0.0284303,-0.58647,0.0283515,-8.22153e-05,0.00671049,0.00044125,0.490745,0.00158367,0.0733707,0.0600389,-0.00154826,0.043236,1.97146,0.00380762,0.005,1.72111,0.00478977,-0.0339627,-0.293927,26.4819,1.27878,0.228099,4.56012,0.235918,3.60123,0.456377,4.39373,0.0990227,0.66875,-0.910971,0.00805664,0.0649547,0.00569691,-0.241699,-0.0887145,23.4648,23.3229,23.1811,23.2946,23.2236,23.2804,23.1527,
43,6.27302,1.38731,3.15226,4.11157,6.27315,1.98625,1.55621,0.00565172,-0.105771,-3.3275e-05,0.131152,0.000882391,0.0431322,0,0.424882,-9.53598,0.105853,-1.01606,2.45932,-35.791,1.32135,0.0154669,-20,-0.431506,0.000969804,-0.0284053,-0.673528,0.0299012,-8.63886e-05,0.00699962,0.000440606,0.490745,0.00158367,0.0733707,0.0600389,-0.00154826,0.043236,1.97022,0.00383245,0.005,1.71916,0.00484264,-0.0344124,-0.308383,27.2996,1.27478,0.228099,4.56012,0.235918,3.60123,0.456377,4.39373,0.0990227,0.66875,-0.910971,0.00805664,0.0649547,0.00569691,-0.241699,-0.0887145,23.4648,23.3229,23.1811,23.2946,23.2236,23.2804,23.1527,
44,6.27302,1.38719,3.15226,4.11171,6.27316,1.9863,1.55621,0.00555165,-0.110087,0,0.130149,0.00132727,0.0403737,0,0.424845,-9.53303,0.105667,-1.01696,2.45911,-35.7871,1.32081,0.0154501,-20,-0.431535,0.0031578,-0.0283853,-0.673881,0.0298566,-8.63886e-05,0.00699962,0.000440606,0.490745,0.00158367,0.0733707,0.0606533,-0.00147309,0.0446745,1.97022,0.00383245,0.005,1.71916,0.00484264,-0.0344124,-0.308383,27.2996,1.27478,0.186511,4.64648,0.160175,3.44385,0.460957,4.13296,0.0852832,0.636475,-0.934605,0.00805664,0.0433863,0.00402832,-0.205484,-0.0809682,23.479,23.3229,23.1527,23.3087,23.2236,23.2946,23.1385,
45,6.27303,1.38708,3.15226,4.11185,6.27316,1.98634,1.55621,0.00548046,-0.113866,0,0.129146,0.00158854,0.0393706,0,0.428187,-9.76022,0.0959362,-1.19204,2.45762,-36.6827,1.34947,0.0163258,-20,-0.435264,-0.0260654,-0.028443,-0.764205,0.031783,-9.12053e-05,0.00730592,0.000439042,0.490745,0.00158367,0.0733707,0.0611551,-0.00141614,0.0460883,1.9689,0.00385445,0.005,1.71742,0.00479479,-0.035707,-0.326902,28.1431,1.25706,0.273544,4.75717,0.145446,3.26354,0.45975,3.91358,0.0841242,0.652638,-0.910436,0,0.0322266,-0.00402832,-0.169189,-0.080667,23.479,23.3087,23.1811,23.3087,23.2236,23.3087,23.1527,
46,6.27303,1.38708,3.15226,4.11185,6.27316,1.98634,1.55621,0.00548046,-0.113866,0,0.129146,0.00158854,0.0393706,0,0.431381,-9.98928,0.0890298,-1.365,2.46334,-37.5786,1.37583,0.017176,-20,-0.43877,-0.057052,-0.0284773,-0.853805,0.0334438,-9.5445e-05,0.00759732,0.000437943,0.490745,0.00158367,0.0733707,0.0611551,-0.00141614,0.0460883,1.96763,0.00387499,0.005,1.71583,0.00476201,-0.0369795,-0.342399,28.983,1.24555,0.273544,4.75717,0.145446,3.26354,0.45975,3.91358,0.0841242,0.652638,-0.910436,0,0.0322266,-0.00402832,-0.169189,-0.080667,23.479,23.3087,23.1811,23.3087,23.2236,23.3087,23.1527,
47,6.27303,1.38694,3.15226,4.11198,6.27316,1.98638,1.55621,0.00538837,-0.116543,-2.95005e-05,0.126387,0.00198886,0.0396214,0,0.431384,-9.98694,0.0888345,-1.36589,2.46321,-37.5754,1.37542,0.0171634,-20,-0.438796,-0.0546836,-0.0284543,-0.854219,0.0334053,-9.5445e-05,0.00759732,0.000437943,0.490745,0.00158367,0.0733707,0.0609185,-0.00133355,0.0472413,1.96763,0.00387499,0.005,1.71583,0.00476201,-0.0369795,-0.342399,28.983,1.24555,0.235034,4.81082,0.138379,3.12361,0.477958,3.72136,0.0347963,0.644531,-0.90238,0,0.0644531,0.00569691,-0.157156,-0.0927389,23.479,23.3087,23.1385,23.2946,23.2094,23.2804,23.1385,
48,6.27304,1.38682,3.15226,4.11211,6.27317,1.98642,1.55621,0.00568409,-0.116858,-2.78617e-05,0.123629,0.00274355,0.0386183,0,0.434588,-10.2147,0.0814316,-1.53786,2.46807,-38.4699,1.40427,0.0179977,-20,-0.44235,-0.0825306,-0.0284791,-0.944117,0.0353336,-0.000100169,0.00790616,0.00043833,0.490745,0.00158367,0.0733707,0.0601849,-0.00138447,0.0473331,1.9663,0.00390121,0.005,1.71484,0.00471129,-0.0380171,-0.360943,29.8217,1.23345,0.245955,5.03265,0.0921091,2.95351,0.512797,3.52086,0.0414452,0.644531,-0.934709,-0.0161133,0.105046,0.0113938,-0.169237,-0.0846906,23.5074,23.3087,23.1669,23.2946,23.2236,23.2946,23.1243,
49,6.27304,1.38682,3.15226,4.11211,6.27317,1.98642,1.55621,0.00568409,-0.116858,-2.78617e-05,0.123629,0.00274355,0.0386183,0,0.437341,-10.4079,0.0738206,-1.68084,2.46877,-39.2157,1.4348,0.0187302,-20,-0.445437,-0.107881,-0.028514,-1.01811,0.0375583,-0.000104903,0.0082022,0.000437398,0.490745,0.00158367,0.0733707,0.0601849,-0.00138447,0.0473331,1.96502,0.00392787,0.005,1.71435,0.0047811,-0.0380998,-0.382206,30.5174,1.22042,0.245955,5.03265,0.0921091,2.95351,0.512797,3.52086,0.0414452,0.644531,-0.934709,-0.0161133,0.105046,0.0113938,-0.169237,-0.0846906,23.5074,23.3087,23.1669,23.2946,23.2236,23.2946,23.1243,
50,6.27305,1.3867,3.15226,4.11224,6.27318,1.98646,1.55621,0.00585126,-0.119113,-4.17926e-05,0.122877,0.00380302,0.0375799,0,0.437286,-10.4054,0.073508,-1.68174,2.4685,-39.2123,1.43424,0.0187177,-20,-0.445472,-0.105675,-0.0284883,-1.01846,0.0375203,-0.000104903,0.0082022,0.000437398,0.490745,0.00158367,0.0733707,0.0604369,-0.00134268,0.048139,1.96502,0.00392787,0.005,1.71435,0.0047811,-0.0380998,-0.382206,30.5174,1.22042,0.165183,5.24974,0.0590246,2.87706,0.483673,3.34845,0.0411653,0.628418,-1.02319,-0.00805664,0.169189,-0.0090076,-0.141221,-0.076961,23.479,23.3087,23.1527,23.2946,23.2094,23.2946,23.1385,
51,6.27305,1.38657,3.15226,4.11237,6.27318,1.9865,1.55621,0.00601844,-0.118649,-6.57408e-05,0.121873,0.00451383,0.0366122,0,0.440643,-10.6199,0.0605638,-1.84542,2.45754,-40.0538,1.46936,0.0195949,-20,-0.44925,-0.132091,-0.0285791,-1.10316,0.0401831,-0.00010939,0.00849,0.000436881,0.490745,0.00158367,0.0733707,0.0600431,-0.00133821,0.0478918,1.96378,0.00395127,0.005,1.71301,0.00476455,-0.0388251,-0.408035,31.308,1.19558,0.245642,5.55284,0.0557276,2.87077,0.486442,3.1864,0.0430717,0.62847,-1.03981,-0.00805664,0.177977,-0.0145243,-0.136963,-0.076961,23.479,23.3371,23.1527,23.2804,23.1952,23.2804,23.1527,
52,6.27306,1.38645,3.15226,4.1125,6.27319,1.98654,1.55621,0.00605264,-0.119383,-0.00011284,0.123127,0.00487142,0.0358937,0,0.443654,-10.8249,0.0518664,-2.00116,2.45692,-40.8488,1.502,0.0203794,-20,-0.452619,-0.157326,-0.0286154,-1.18273,0.0425869,-0.00011474,0.00879336,0.000436433,0.490745,0.00158367,0.0733707,0.0605515,-0.00130151,0.0480939,1.96246,0.00397884,0.005,1.71218,0.00478534,-0.0386026,-0.431349,32.0537,1.18048,0.159819,5.84045,-0.0493854,2.96283,0.500525,3.02831,0.0337625,0.628418,-1.11185,-0.0241699,0.169381,-0.0216932,-0.121118,-0.0846906,23.479,23.3229,23.1527,23.3087,23.2378,23.2662,23.1243,
53,6.27306,1.38645,3.15226,4.1125,6.27319,1.98654,1.55621,0.00605264,-0.119383,-0.00011284,0.123127,0.00487142,0.0358937,0,0.446706,-11.0487,0.0458723,-2.17053,2.46444,-41.7142,1.53306,0.0211914,-20,-0.455997,-0.187649,-0.0286377,-1.26902,0.0447398,-0.000120009,0.00907969,0.00043633,0.490745,0.00158367,0.0733707,0.0605515,-0.00130151,0.0480939,1.96122,0.00400204,0.005,1.7106,0.00477319,-0.0387845,-0.451761,32.8647,1.17107,0.159819,5.84045,-0.0493854,2.96283,0.500525,3.02831,0.0337625,0.628418,-1.11185,-0.0241699,0.169381,-0.0216932,-0.121118,-0.0846906,23.479,23.3229,23.1527,23.3087,23.2378,23.2662,23.1243,
54,6.27307,1.38632,3.15226,4.11263,6.27319,1.98658,1.55621,0.00626921,-0.12062,-0.00014329,0.12413,0.00458486,0.0355756,0,0.446855,-11.0462,0.0455491,-2.17167,2.46452,-41.7105,1.53294,0.0211792,-20,-0.456015,-0.185341,-0.0286334,-1.26934,0.0447092,-0.000120009,0.00907969,0.00043633,0.490745,0.00158367,0.0733707,0.0610934,-0.0014024,0.0485424,1.96122,0.00400204,0.005,1.7106,0.00477319,-0.0387845,-0.451761,32.8647,1.17107,0.234992,6.25606,-0.127722,2.92775,0.561939,2.83287,0.0373995,0.612358,-1.15221,-0.0180152,0.129158,-0.0090076,-0.108765,-0.0725098,23.4648,23.3229,23.1527,23.3087,23.2378,23.2946,23.1385,
55,6.27307,1.38618,3.15226,4.11277,6.27319,1.98661,1.55621,0.00651998,-0.121925,-0.000170971,0.125384,0.00444218,0.0351076,0,0.449601,-11.281,0.0504037,-2.3527,2.50466,-42.6258,1.55626,0.0218588,-20,-0.458807,-0.215068,-0.0284589,-1.36136,0.0458345,-0.000124694,0.00937749,0.000437769,0.490745,0.00158367,0.0733707,0.0617213,-0.00150317,0.0489978,1.95992,0.00403251,0.005,1.70894,0.00489142,-0.0391882,-0.462377,33.7265,1.18897,0.121262,6.57093,-0.139485,2.99064,0.49841,2.68606,0.00983524,0.604302,-1.17671,-0.00805664,0.0809682,-0.0161133,-0.10103,-0.0689537,23.4932,23.3087,23.1669,23.3087,23.2094,23.2946,23.1527,
56,6.27307,1.38618,3.15226,4.11277,6.27319,1.98661,1.55621,0.00651998,-0.121925,-0.000170971,0.125384,0.00444218,0.0351076,0,0.452398,-11.5281,0.0542606,-2.5401,2.54218,-43.5822,1.58219,0.0226029,-20,-0.461802,-0.248566,-0.0283061,-1.4568,0.0472056,-0.000129498,0.00968647,0.000439206,0.490745,0.00158367,0.0733707,0.0617213,-0.00150317,0.0489978,1.95857,0.00406251,0.005,1.70716,0.00500911,-0.039598,-0.475059,34.6236,1.20394,0.121262,6.57093,-0.139485,2.99064,0.49841,2.68606,0.00983524,0.604302,-1.17671,-0.00805664,0.0809682,-0.0161133,-0.10103,-0.0689537,23.4932,23.3087,23.1669,23.3087,23.2094,23.2946,23.1527,
57,6.27308,1.38606,3.15226,4.1129,6.2732,1.98665,1.55621,0.00601561,-0.123435,-0.000228953,0.12413,0.00437054,0.0331014,0,0.452418,-11.5255,0.0542555,-2.5408,2.54211,-43.5788,1.58185,0.0226033,-20,-0.461832,-0.246088,-0.0282809,-1.4572,0.0471705,-0.000129498,0.00968647,0.000439206,0.490745,0.00158367,0.0733707,0.0616708,-0.00129912,0.0494219,1.95857,0.00406251,0.005,1.70716,0.00500911,-0.039598,-0.475059,34.6236,1.20394,0.176506,6.93258,-0.136496,3.11053,0.498022,2.54537,0.00537266,0.604248,-1.22464,-0.0161133,0.0509547,-0.0127387,-0.104736,-0.0725098,23.479,23.3229,23.1527,23.2946,23.2094,23.2946,23.1385,
58,6.27309,1.38592,3.15225,4.11303,6.2732,1.98669,1.55621,0.00576496,-0.125903,-0.000282103,0.123378,0.0040123,0.0341045,0,0.455307,-11.7233,0.0480553,-2.69278,2.54548,-44.3513,1.60607,0.0233373,-20,-0.464928,-0.270672,-0.0283361,-1.53492,0.0487969,-0.000134905,0.00997507,0.000439478,0.490745,0.00158367,0.0733707,0.0619652,-0.00121616,0.0505329,1.9573,0.00408054,0.005,1.70606,0.00484169,-0.0399797,-0.490628,35.3503,1.19245,0.0618447,7.3006,-0.225676,3.26071,0.504284,2.40128,-0.0105865,0.612358,-1.24072,-0.00805664,0.0742786,-0.00569691,-0.0887145,-0.076644,23.479,23.3087,23.1669,23.2946,23.2094,23.2946,23.1385,
59,6.27309,1.38579,3.15225,4.11316,6.2732,1.98672,1.55621,0.00572164,-0.127486,-0.000340059,0.121873,0.003869,0.0320984,0,0.4585,-11.9726,0.0481422,-2.88354,2.57241,-45.3292,1.63061,0.0241545,-20,-0.468256,-0.302052,-0.0282614,-1.6333,0.0500986,-0.000140303,0.0102854,0.000440762,0.490745,0.00158367,0.0733707,0.0618582,-0.0012005,0.0509911,1.95594,0.0041029,0.005,1.70458,0.00478716,-0.0409796,-0.502886,36.2698,1.19774,0.115797,7.79375,-0.316382,3.28248,0.54838,2.22379,0.0101136,0.612358,-1.21722,-0.0113938,0.0809682,-0.00569691,-0.0967636,-0.0765381,23.4648,23.3229,23.1385,23.3087,23.2094,23.2804,23.1101,
60,6.2731,1.38565,3.15225,4.11329,6.27321,1.98675,1.55621,0.00601844,-0.129275,-0.000395428,0.122375,0.00358241,0.0320984,0,0.461166,-12.1695,0.0472774,-3.03483,2.59227,-46.0981,1.65594,0.0248055,-20,-0.470943,-0.326454,-0.0282087,-1.71064,0.051705,-0.000145991,0.0105748,0.000440492,0.490745,0.00158367,0.0733707,0.0623709,-0.0013255,0.0517026,1.95467,0.00411525,0.005,1.70353,0.00478417,-0.041392,-0.518321,36.9934,1.20067,0.00850427,8.12893,-0.315774,3.37687,0.493283,2.07155,-0.00120477,0.604302,-1.2086,-0.0180152,0.0809682,-0.00402832,-0.080667,-0.0685998,23.479,23.3087,23.1669,23.2946,23.1952,23.2804,23.1243,
61,6.2731,1.38551,3.15225,4.11342,6.27321,1.98679,1.55621,0.00626921,-0.131636,-0.000444617,0.12413,0.00358241,0.0295907,1.04171e-05,0.463927,-12.4088,0.0534322,-3.21982,2.6367,-47.0346,1.68335,0.0254946,-20,-0.473713,-0.356815,-0.0280072,-1.8049,0.0532002,-0.000151789,0.0108762,0.000442346,0.490745,0.00158367,0.0733707,0.0633642,-0.00140631,0.0523486,1.95334,0.00414385,0.005,1.70188,0.00492242,-0.0420324,-0.532718,37.8759,1.22199,0.0856897,8.51022,-0.331104,3.44519,0.513568,1.95891,0.00346631,0.604302,-1.19263,-0.0360304,0.0725098,-0.00569691,-0.076644,-0.0726216,23.4648,23.3087,23.1669,23.2946,23.2094,23.252,23.1385,
62,6.27311,1.38537,3.15225,4.11356,6.27322,1.98681,1.55621,0.00626921,-0.131904,-0.000491309,0.126519,0.00366604,0.0260799,1.04171e-05,0.467023,-12.6506,0.0531879,-3.40789,2.66355,-47.9812,1.71237,0.0262908,-20,-0.47698,-0.387659,-0.0278948,-1.90035,0.0549385,-0.000157106,0.0111891,0.000441648,0.490745,0.00158367,0.0733707,0.0641005,-0.00138585,0.0520528,1.95196,0.00415732,0.005,1.69973,0.00500727,-0.0426137,-0.549351,38.7691,1.2279,-0.0405354,8.90419,-0.379772,3.51832,0.529665,1.81829,-0.0250642,0.580078,-1.19249,-0.0241699,0.0402832,0.00402832,-0.0604248,-0.076961,23.479,23.2946,23.1527,23.2946,23.2236,23.2662,23.1243,
63,6.27312,1.38522,3.15224,4.11369,6.27322,1.98684,1.55621,0.00629474,-0.133283,-0.00055204,0.125384,0.00378939,0.0233215,1.04094e-05,0.469892,-12.8662,0.0512852,-3.57549,2.68217,-48.8185,1.74289,0.0270253,-20,-0.480009,-0.414842,-0.0278371,-1.98466,0.0570102,-0.000163401,0.011491,0.000442578,0.490745,0.00158367,0.0733707,0.0640567,-0.00137157,0.0523454,1.95059,0.0041838,0.005,1.69784,0.00501268,-0.0423476,-0.569406,39.5586,1.22863,-0.0112956,9.46387,-0.429119,3.46478,0.567501,1.66086,0.0106865,0.580078,-1.24072,-0.0241699,-0.0161133,0,-0.0324774,-0.0685998,23.4648,23.3087,23.1243,23.2804,23.1952,23.2662,23.1385,
64,6.27312,1.38522,3.15224,4.11369,6.27322,1.98684,1.55621,0.00629474,-0.133283,-0.00055204,0.125384,0.00378939,0.0233215,1.04094e-05,0.472494,-13.0683,0.048715,-3.72807,2.69664,-49.6007,1.77467,0.0277172,-20,-0.482863,-0.442028,-0.0278159,-2.06263,0.0592972,-0.000170229,0.0117904,0.000442403,0.490745,0.00158367,0.0733707,0.0640567,-0.00137157,0.0523454,1.94923,0.00419902,0.005,1.69666,0.00501353,-0.0426109,-0.591258,40.2914,1.22675,-0.0112956,9.46387,-0.429119,3.46478,0.567501,1.66086,0.0106865,0.580078,-1.24072,-0.0241699,-0.0161133,0,-0.0324774,-0.0685998,23.4648,23.3087,23.1243,23.2804,23.1952,23.2662,23.1385,
65,6.27312,1.38508,3.15224,4.11382,6.27323,1.98686,1.55621,0.00626921,-0.1304,-0.000592055,0.126638,0.00406802,0.0215661,2.08033e-05,0.472583,-13.0656,0.0484322,-3.72853,2.69647,-49.5976,1.77425,0.0277179,-20,-0.482898,-0.438829,-0.0277925,-2.06307,0.0592556,-0.000170229,0.0117904,0.000442403,0.490745,0.00158367,0.0733707,0.0638045,-0.00133036,0.0510188,1.94923,0.00419902,0.005,1.69666,0.00501353,-0.0426109,-0.591258,40.2914,1.22675,-0.11848,9.84481,-0.376102,3.37529,0.553678,1.52738,0.0222573,0.580078,-1.2329,-0.041081,0.0254773,0.00569691,-0.0166092,-0.076644,23.479,23.2946,23.1527,23.2662,23.1952,23.2804,23.1385,
66,6.27313,1.38495,3.15224,4.11396,6.27324,1.98688,1.55621,0.00626921,-0.126638,-0.000655547,0.125384,0.00457599,0.0195599,2.85833e-05,0.475325,-13.2593,0.0418673,-3.87597,2.69949,-50.3406,1.80257,0.0284294,-20,-0.48597,-0.461597,-0.0278104,-2.13744,0.0612933,-0.000176227,0.0120861,0.000441408,0.490745,0.00158367,0.0733707,0.0626473,-0.00127793,0.04937,1.94788,0.00421845,0.005,1.69567,0.00499394,-0.0414169,-0.611072,40.9883,1.21578,-0.0668529,10.2546,-0.382029,3.32683,0.553722,1.37539,0.0395742,0.580134,-1.32131,-0.0586532,-0.00805664,-0.00402832,0,-0.0684814,23.4506,23.2946,23.1527,23.2946,23.2094,23.2804,23.1385,
67,6.27314,1.38482,3.15224,4.11409,6.27324,1.9869,1.55621,0.00626921,-0.12413,-0.000798304,0.123629,0.00537289,0.0180553,3.63791e-05,0.477803,-13.4187,0.0319827,-3.99549,2.68979,-50.9485,1.83102,0.029082,-20,-0.488828,-0.479423,-0.0278846,-2.19801,0.0635532,-0.000182081,0.0123745,0.000439043,0.490745,0.00158367,0.0733707,0.0616092,-0.00117303,0.0482772,1.94655,0.00423491,0.005,1.69551,0.00496155,-0.039933,-0.633163,41.5562,1.19635,-0.163151,10.6426,-0.360393,3.27877,0.570923,1.20271,0.062783,0.563965,-1.40206,-0.0490066,-0.00805664,0,0.012085,-0.0726216,23.4648,23.2946,23.1669,23.2946,23.2094,23.2804,23.1385,
68,6.27314,1.38469,3.15224,4.11422,6.27325,1.98692,1.55621,0.00626921,-0.12413,-0.00104722,0.123378,0.00619436,0.0145446,3.63522e-05,0.480499,-13.5816,0.0186225,-4.1185,2.6708,-51.5766,1.867,0.0297973,-20,-0.491988,-0.498215,-0.0280195,-2.26076,0.0666178,-0.000188627,0.0126566,0.000436676,0.490745,0.00158367,0.0733707,0.061531,-0.0010307,0.047929,1.94524,0.00425182,0.005,1.69527,0.00488237,-0.0389495,-0.663164,42.1443,1.16846,-0.151919,11.18,-0.378274,3.14055,0.59678,0.97171,0.114239,0.564195,-1.46686,-0.0644531,0.0290486,-0.00805664,0.0281982,-0.0616214,23.4648,23.2946,23.1385,23.3087,23.1952,23.2662,23.1101,
69,6.27315,1.38455,3.15224,4.11435,6.27326,1.98693,1.55621,0.00626921,-0.125886,-0.00140421,0.122626,0.00752164,0.0115353,3.63253e-05,0.483371,-13.7554,0.00387744,-4.25281,2.64906,-52.2538,1.90969,0.0305773,-20,-0.495397,-0.519485,-0.0281668,-2.32888,0.0703482,-0.000195797,0.0129346,0.000433443,0.490745,0.00158367,0.0733707,0.0616761,-0.000805838,0.0483352,1.94393,0.00426662,0.005,1.69416,0.00476759,-0.0386361,-0.699686,42.7817,1.13735,-0.217008,11.573,-0.296665,2.99073,0.572483,0.737607,0.0738508,0.572078,-1.4664,-0.0664368,0.0332184,-0.0127387,0.0523682,-0.0689537,23.4506,23.3087,23.1385,23.2804,23.1952,23.2662,23.1243,
70,6.27315,1.38455,3.15224,4.11435,6.27326,1.98693,1.55621,0.00626921,-0.125886,-0.00140421,0.122626,0.00752164,0.0115353,3.63253e-05,0.486829,-13.943,-0.0172212,-4.39515,2.61095,-52.9835,1.964,0.0314966,-20,-0.499364,-0.544985,-0.0284488,-2.40177,0.0752376,-0.000203406,0.0132105,0.000429821,0.490745,0.00158367,0.0733707,0.0616761,-0.000805838,0.0483352,1.94262,0.00428362,0.005,1.69285,0.00458051,-0.0390017,-0.747026,43.4658,1.09063,-0.217008,11.573,-0.296665,2.99073,0.572483,0.737607,0.0738508,0.572078,-1.4664,-0.0664368,0.0332184,-0.0127387,0.0523682,-0.0689537,23.4506,23.3087,23.1385,23.2804,23.1952,23.2662,23.1243,
71,6.27316,1.38442,3.15224,4.11448,6.27327,1.98694,1.55621,0.00651998,-0.126889,-0.00155801,0.121121,0.00840074,0.00902766,3.63253e-05,0.486843,-13.9403,-0.0175357,-4.39561,2.6106,-52.9803,1.96322,0.0314851,-20,-0.499394,-0.542238,-0.0284288,-2.40218,0.0751915,-0.000203406,0.0132105,0.000429821,0.490745,0.00158367,0.0733707,0.0614482,-0.000782216,0.0485121,1.94262,0.00428362,0.005,1.69285,0.00458051,-0.0390017,-0.747026,43.4658,1.09063,-0.217965,12.0598,-0.28409,2.93815,0.553136,0.603071,0.0300184,0.547911,-1.44214,-0.0569691,0.0509547,-0.0166092,0.088623,-0.0684814,23.4648,23.2946,23.1385,23.2804,23.1952,23.2804,23.1101,
72,6.27316,1.38429,3.15224,4.11461,6.27328,1.98695,1.55621,0.00626921,-0.121873,-0.0014133,0.122375,0.00890228,0.00802459,3.62987e-05,0.489663,-14.116,-0.0301561,-4.53019,2.59588,-53.6671,2.00453,0.0322239,-20,-0.502667,-0.562846,-0.0285213,-2.47133,0.0786726,-0.000210486,0.0134832,0.000426349,0.490745,0.00158367,0.0733707,0.0607518,-0.000685494,0.0464216,1.94132,0.00430372,0.005,1.69188,0.00457734,-0.0391609,-0.781126,44.1114,1.06529,-0.309768,12.6055,-0.283167,2.89152,0.557001,0.490698,0.0220129,0.531738,-1.40269,-0.0725098,0.0889885,-0.0245033,0.100789,-0.072956,23.4648,23.2946,23.1385,23.2804,23.1952,23.2662,23.1243,
73,6.27317,1.38417,3.15224,4.11474,6.27329,1.98695,1.55621,0.00626921,-0.116858,-0.00129104,0.122375,0.00919484,0.00801704,3.62719e-05,0.492507,-14.2795,-0.0454446,-4.65408,2.57188,-54.2868,2.02854,0.0329499,-20,-0.505953,-0.581496,-0.0286876,-2.53306,0.0805285,-0.000216955,0.0137509,0.000422001,0.490745,0.00158367,0.0733707,0.0596952,-0.000702606,0.044461,1.94003,0.00432326,0.005,1.69135,0.00450788,-0.0372795,-0.799051,44.6913,1.03305,-0.226122,13.2743,-0.265928,2.76972,0.574119,0.39229,-0.000841081,0.531738,-1.52271,-0.0644531,0.0490066,-0.036478,0.112793,-0.0604248,23.4648,23.3087,23.1385,23.2804,23.1811,23.2662,23.1243,
74,6.27317,1.38417,3.15224,4.11474,6.27329,1.98695,1.55621,0.00626921,-0.116858,-0.00129104,0.122375,0.00919484,0.00801704,3.62719e-05,0.494865,-14.4391,-0.0541035,-4.77211,2.56544,-54.8862,2.05214,0.0335766,-20,-0.508682,-0.60229,-0.0287628,-2.59199,0.0822571,-0.000223667,0.0140134,0.000418575,0.490745,0.00158367,0.0733707,0.0596952,-0.000702606,0.044461,1.93876,0.0043453,0.005,1.69116,0.00454311,-0.0355149,-0.815452,45.2491,1.0164,-0.226122,13.2743,-0.265928,2.76972,0.574119,0.39229,-0.000841081,0.531738,-1.52271,-0.0644531,0.0490066,-0.036478,0.112793,-0.0604248,23.4648,23.3087,23.1385,23.2804,23.1811,23.2662,23.1243,
75,6.27318,1.38405,3.15224,4.11487,6.2733,1.98696,1.55621,0.00626626,-0.112846,-0.00113986,0.122375,0.00919484,0.00702814,3.62448e-05,0.494925,-14.4368,-0.0542831,-4.77252,2.56535,-54.8836,2.05167,0.0335552,-20,-0.508704,-0.599173,-0.0287491,-2.59243,0.0822124,-0.000223667,0.0140134,0.000418575,0.490745,0.00158367,0.0733707,0.0588504,-0.000754315,0.0427907,1.93876,0.0043453,0.005,1.69116,0.00454311,-0.0355149,-0.815452,45.2491,1.0164,-0.25259,13.7047,-0.146094,2.62808,0.585144,0.291277,0.0124757,0.539855,-1.62752,-0.0805664,0.041081,-0.0284845,0.100789,-0.0605589,23.4506,23.2804,23.1385,23.2946,23.1952,23.2662,23.1101,
76,6.27318,1.38405,3.15224,4.11487,6.2733,1.98696,1.55621,0.00626626,-0.112846,-0.00113986,0.122375,0.00919484,0.00702814,3.62448e-05,0.497065,-14.5919,-0.0598405,-4.88791,2.56708,-55.4679,2.06989,0.0341242,-20,-0.511154,-0.619542,-0.0287736,-2.65,0.0833732,-0.000229813,0.0142706,0.000414725,0.490745,0.00158367,0.0733707,0.0588504,-0.000754315,0.0427907,1.93751,0.00436633,0.005,1.69079,0.00460858,-0.0340116,-0.826304,45.7937,1.00716,-0.25259,13.7047,-0.146094,2.62808,0.585144,0.291277,0.0124757,0.539855,-1.62752,-0.0805664,0.041081,-0.0284845,0.100789,-0.0605589,23.4506,23.2804,23.1385,23.2946,23.1952,23.2662,23.1101,
77,6.27318,1.38393,3.15224,4.115,6.27331,1.98697,1.55621,0.00626921,-0.106827,-0.000980277,0.121873,0.00902766,0.00626921,3.62183e-05,0.497151,-14.5899,-0.0599986,-4.88808,2.56705,-55.4657,2.06953,0.0341028,-20,-0.51117,-0.616223,-0.0287615,-2.65048,0.083332,-0.000229813,0.0142706,0.000414725,0.490745,0.00158367,0.0733707,0.0574415,-0.000831795,0.0403635,1.93751,0.00436633,0.005,1.69079,0.00460858,-0.0340116,-0.826304,45.7937,1.00716,-0.275136,14.1937,-0.102039,2.49505,0.5709,0.198699,0.0140625,0.523682,-1.69197,-0.0889885,0.0161133,-0.0245033,0.112865,-0.0649547,23.479,23.2946,23.1527,23.2662,23.1952,23.2662,23.1101,
78,6.27319,1.38382,3.15224,4.11512,6.27332,1.98697,1.55621,0.00626921,-0.105824,-0.000775036,0.119366,0.00869331,0.00350746,3.6218e-05,0.498921,-14.72,-0.0628055,-4.98537,2.57407,-55.9536,2.08332,0.0345287,-20,-0.513131,-0.63034,-0.0287439,-2.69881,0.0841172,-0.000235883,0.01452,0.000411427,0.490745,0.00158367,0.0733707,0.0565086,-0.000933786,0.039738,1.93629,0.0043919,0.005,1.69096,0.00470133,-0.0318271,-0.833969,46.2489,1.00429,-0.368439,14.605,0.00782996,2.37755,0.562037,0.094547,0.0117857,0.507568,-1.80476,-0.090076,0.0332184,-0.036478,0.117099,-0.0726216,23.4648,23.2804,23.1527,23.2662,23.1811,23.2662,23.1101,
79,6.27319,1.38382,3.15224,4.11512,6.27332,1.98697,1.55621,0.00626921,-0.105824,-0.000775036,0.119366,0.00869331,0.00350746,3.6218e-05,0.500466,-14.8515,-0.0623164,-5.08308,2.5901,-56.455,2.09444,0.0349393,-20,-0.51484,-0.647536,-0.0286762,-2.74841,0.0845818,-0.000241491,0.0147629,0.00040864,0.490745,0.00158367,0.0733707,0.0565086,-0.000933786,0.039738,1.93509,0.00441559,0.005,1.69072,0.00481444,-0.0312642,-0.838134,46.7167,1.00905,-0.368439,14.605,0.00782996,2.37755,0.562037,0.094547,0.0117857,0.507568,-1.80476,-0.090076,0.0332184,-0.036478,0.117099,-0.0726216,23.4648,23.2804,23.1527,23.2662,23.1811,23.2662,23.1101,
80,6.2732,1.38371,3.15224,4.11525,6.27333,1.98697,1.55621,0.00551691,-0.106827,-0.00061547,0.116357,0.00835895,0.00100307,3.61916e-05,0.500431,-14.849,-0.0621433,-5.08352,2.58998,-56.4521,2.09383,0.0349196,-20,-0.514861,-0.644963,-0.0286566,-2.74881,0.0845388,-0.000241491,0.0147629,0.00040864,0.490745,0.00158367,0.0733707,0.0558506,-0.000722984,0.0399397,1.93509,0.00441559,0.005,1.69072,0.00481444,-0.0312642,-0.838134,46.7167,1.00905,-0.371488,15.0907,0.0550427,2.20997,0.533675,-0.0640202,0.00552969,0.515688,-1.79692,-0.105046,0.0742786,-0.0205405,0.136963,-0.0609595,23.479,23.2804,23.1243,23.252,23.1952,23.2804,23.1243,
81,6.2732,1.38359,3.15224,4.11537,6.27334,1.98697,1.55621,0.00551691,-0.10457,-0.000501494,0.114852,0.00769023,-0.00175538,3.6165e-05,0.502769,-14.9866,-0.0716764,-5.18834,2.57776,-56.992,2.10476,0.0354872,-20,-0.517379,-0.660621,-0.0288,-2.8032,0.0851582,-0.000247089,0.0150007,0.00040486,0.490745,0.00158367,0.0733707,0.0549437,-0.000831973,0.038801,1.9339,0.00443109,0.005,1.69025,0.00463866,-0.0314457,-0.844104,47.2237,0.988367,-0.371488,15.3744,0.165189,1.99751,0.544607,-0.280794,0.00388409,0.515688,-1.71608,-0.104736,0.129909,-0.0245033,0.157156,-0.0645789,23.479,23.2946,23.1385,23.2804,23.2094,23.252,23.1101,
82,6.2732,1.38359,3.15224,4.11537,6.27334,1.98697,1.55621,0.00501537,-0.10457,-0.000501494,0.114852,0.00769023,-0.00175538,3.6165e-05,0.504243,-15.1083,-0.0733557,-5.27883,2.58609,-57.4516,2.11264,0.0358998,-20,-0.519138,-0.676552,-0.0287606,-2.84853,0.0853896,-0.000252256,0.0152318,0.000396785,0.490745,0.00158367,0.0733707,0.0549431,-0.000634605,0.038801,1.93274,0.00440693,0.005,1.69001,0.00471501,-0.0304209,-0.845694,47.6522,0.987236,-0.420237,15.3744,0.165189,1.99751,0.544607,-0.280794,0.00388409,0.523682,-1.71608,-0.104736,0.129909,-0.0245033,0.157156,-0.0645789,23.4648,23.2946,23.1385,23.2804,23.2094,23.252,23.1101,
83,6.27321,1.38349,3.15224,4.11549,6.27334,1.98697,1.55621,0.00451383,-0.102314,-0.000341928,0.111592,0.00751106,-0.00351076,4.64635e-05,0.504234,-15.1063,-0.0730059,-5.27893,2.5853,-57.4496,2.11136,0.0358765,-20,-0.519134,-0.673695,-0.0287776,-2.84897,0.0853328,-0.000252216,0.0152318,0.000402111,0.490745,0.00158367,0.0733707,0.0535305,-0.000513551,0.0378005,1.93274,0.00444891,0.005,1.69001,0.00457516,-0.0304209,-0.84555,47.6522,0.98657,-0.431125,15.7111,0.22786,1.81749,0.467572,-0.485605,-0.0140962,0.523929,-1.74053,-0.0970148,0.14702,-0.0180152,0.185347,-0.0605589,23.4648,23.3087,23.1385,23.2804,23.1952,23.252,23.1101,
84,6.27321,1.38349,3.15224,4.11549,6.27334,1.98697,1.55621,0.00451383,-0.102314,-0.000341928,0.111592,0.00751106,-0.00351076,4.64635e-05,0.506022,-15.2145,-0.0822237,-5.35771,2.57078,-57.859,2.11924,0.0363518,-20,-0.521221,-0.687456,-0.028907,-2.88918,0.085773,-0.000256798,0.0154532,0.000397414,0.490745,0.00158367,0.0733707,0.0535305,-0.000513551,0.0378005,1.9316,0.00445664,0.005,1.69026,0.00447317,-0.0295205,-0.849286,48.0321,0.966421,-0.431125,15.7111,0.22786,1.81749,0.467572,-0.485605,-0.0140962,0.523929,-1.74053,-0.0970148,0.14702,-0.0180152,0.185347,-0.0605589,23.4648,23.3087,23.1385,23.2804,23.1952,23.252,23.1101,
85,6.27321,1.38338,3.15224,4.1156,6.27335,1.98696,1.55621,0.0040123,-0.100307,-0.000182361,0.110338,0.00669464,-0.00501537,4.64293e-05,0.506052,-15.2124,-0.0821121,-5.35804,2.57086,-57.8566,2.11894,0.0363236,-20,-0.521228,-0.684792,-0.0288998,-2.88955,0.0857414,-0.000256798,0.0154532,0.000397414,0.490745,0.00158367,0.0733707,0.0527477,-0.000449049,0.0368869,1.9316,0.00445664,0.005,1.69026,0.00447317,-0.0295205,-0.849286,48.0321,0.966421,-0.485166,15.9847,0.348155,1.66036,0.468362,-0.715748,0.0375728,0.515688,-1.77263,-0.113938,0.193527,-0.0201416,0.185347,-0.0604248,23.4506,23.2804,23.1385,23.2662,23.1811,23.2662,23.1101,
86,6.27321,1.38328,3.15224,4.11572,6.27336,1.98695,1.55621,0.00375976,-0.0972982,-6.83914e-05,0.110986,0.00636807,-0.00601844,4.64293e-05,0.507533,-15.3342,-0.0814801,-5.45098,2.5849,-58.3239,2.11952,0.0366861,-20,-0.522843,-0.698446,-0.0288637,-2.93631,0.0852538,-0.000260677,0.0156684,0.000395301,0.490745,0.00158367,0.0733707,0.0523021,-0.000419771,0.0355938,1.93048,0.00447274,0.005,1.68996,0.00442961,-0.0286982,-0.844377,48.4707,0.970049,-0.507044,16.2709,0.431349,1.51047,0.474039,-1.03249,0.0500526,0.531799,-1.77263,-0.121118,0.177429,-0.00402832,0.197429,-0.0605589,23.4648,23.2804,23.1385,23.2804,23.1952,23.2378,23.0959,
87,6.27321,1.38328,3.15224,4.11572,6.27336,1.98695,1.55621,0.00375976,-0.0972982,-6.83914e-05,0.110986,0.00636807,-0.00601844,4.64293e-05,0.509329,-15.4674,-0.0853223,-5.55131,2.58816,-58.8274,2.13,0.0371635,-20,-0.524884,-0.716222,-0.0288902,-2.98609,0.0857511,-0.000265269,0.0158801,0.000392078,0.490745,0.00158367,0.0733707,0.0523021,-0.000419771,0.0355938,1.92937,0.00448079,0.005,1.68936,0.0044105,-0.0275344,-0.848738,48.9413,0.963607,-0.507044,16.2709,0.431349,1.51047,0.474039,-1.03249,0.0500526,0.531799,-1.77263,-0.121118,0.177429,-0.00402832,0.197429,-0.0605589,23.4648,23.2804,23.1385,23.2804,23.1952,23.2378,23.0959,
88,6.27322,1.38318,3.15224,4.11584,6.27336,1.98694,1.55621,0.00325999,-0.0936992,2.27952e-05,0.111697,0.00530749,-0.0068209,4.63952e-05,0.50939,-15.4654,-0.0852109,-5.55181,2.58831,-58.8249,2.12979,0.0371387,-20,-0.524892,-0.713578,-0.0288864,-2.98642,0.0857221,-0.000265269,0.0158801,0.000392078,0.490745,0.00158367,0.0733707,0.0517513,-0.000358485,0.0340889,1.92937,0.00448079,0.005,1.68936,0.0044105,-0.0275344,-0.848738,48.9413,0.963607,-0.544505,16.4712,0.549225,1.42545,0.462444,-1.31489,0.0378644,0.539855,-1.81282,-0.105046,0.1372,-0.00402832,0.197429,-0.0523682,23.479,23.2804,23.1243,23.2804,23.1952,23.2662,23.1101,
89,6.27322,1.38318,3.15224,4.11584,6.27336,1.98694,1.55621,0.00325999,-0.0936992,2.27952e-05,0.111697,0.00530749,-0.0068209,4.63952e-05,0.51072,-15.5938,-0.0817576,-5.6483,2.61009,-59.307,2.12907,0.037492,-20,-0.526355,-0.730608,-0.0288233,-3.03399,0.0850553,-0.000268708,0.0160877,0.000390328,0.490745,0.00158367,0.0733707,0.0517513,-0.000358485,0.0340889,1.92827,0.00449041,0.005,1.68886,0.004364,-0.02618,-0.841747,49.3917,0.973694,-0.544505,16.4712,0.549225,1.42545,0.462444,-1.31489,0.0378644,0.539855,-1.81282,-0.105046,0.1372,-0.00402832,0.197429,-0.0523682,23.479,23.2804,23.1243,23.2804,23.1952,23.2662,23.1101,
90,6.27322,1.38308,3.15224,4.11596,6.27337,1.98693,1.55621,0.00250768,-0.0912797,2.08957e-05,0.111988,0.00513793,-0.00862643,4.63611e-05,0.510676,-15.5916,-0.0816069,-5.64876,2.60999,-59.3044,2.12847,0.0374738,-20,-0.52638,-0.728051,-0.028805,-3.03431,0.0850152,-0.000268708,0.0160877,0.000390328,0.490745,0.00158367,0.0733707,0.0513266,-8.51238e-05,0.0329502,1.92827,0.00449041,0.005,1.68886,0.004364,-0.02618,-0.841747,49.3917,0.973694,-0.550316,16.6197,0.617807,1.36771,0.368298,-1.5281,0.0126026,0.531982,-1.86115,-0.104736,0.11308,0,0.205602,-0.0645789,23.4648,23.2804,23.1385,23.2946,23.1952,23.252,23.1243,
91,6.27322,1.38299,3.15224,4.11608,6.27337,1.98691,1.55621,0.00225692,-0.0888557,6.26921e-05,0.113097,0.00462414,-0.010783,4.63611e-05,0.512822,-15.7118,-0.0935624,-5.74152,2.58824,-59.7656,2.14064,0.038011,-20,-0.528861,-0.741931,-0.0289995,-3.08054,0.0859206,-0.000272823,0.016292,0.000386498,0.490745,0.00158367,0.0733707,0.0511378,-5.39077e-05,0.0317568,1.92718,0.00448821,0.005,1.68826,0.004116,-0.0251552,-0.850247,49.8254,0.946114,-0.605517,16.881,0.711455,1.26504,0.393501,-1.70623,-0.0231348,0.547852,-1.86914,-0.0970148,0.105046,0.0127387,0.209511,-0.0529843,23.4648,23.2946,23.1243,23.2662,23.1952,23.252,23.1101,
92,6.27322,1.38299,3.15224,4.11608,6.27337,1.98691,1.55621,0.00225692,-0.0888557,6.26921e-05,0.113097,0.00462414,-0.010783,4.63611e-05,0.514339,-15.8349,-0.0944553,-5.83521,2.5983,-60.2309,2.14773,0.0384141,-20,-0.53056,-0.758589,-0.0289882,-3.12664,0.0860939,-0.000276177,0.016492,0.000383813,0.490745,0.00158367,0.0733707,0.0511378,-5.39077e-05,0.0317568,1.92609,0.00449438,0.005,1.68746,0.00409346,-0.0240811,-0.851505,50.2613,0.946283,-0.605517,16.881,0.711455,1.26504,0.393501,-1.70623,-0.0231348,0.547852,-1.86914,-0.0970148,0.105046,0.0127387,0.209511,-0.0529843,23.4648,23.2946,23.1243,23.2662,23.1952,23.252,23.1101,
93,6.27322,1.38289,3.15224,4.1162,6.27338,1.9869,1.55621,0.00200615,-0.0856821,9.64494e-05,0.11109,0.00457335,-0.0128178,4.63275e-05,0.514334,-15.833,-0.0944458,-5.83537,2.59825,-60.2288,2.14721,0.0383879,-20,-0.530569,-0.755907,-0.0289795,-3.12702,0.0860565,-0.000276177,0.016492,0.000383813,0.490745,0.00158367,0.0733707,0.0498963,1.65889e-05,0.0303385,1.92609,0.00449438,0.005,1.68746,0.00409346,-0.0240811,-0.851505,50.2613,0.946283,-0.588402,17.1483,0.758275,1.19996,0.395629,-1.86557,-0.0420684,0.539795,-1.90137,-0.105046,0.0483398,0.012085,0.221594,-0.0523682,23.4648,23.2946,23.1243,23.2804,23.1952,23.2378,23.0959,
94,6.27323,1.38281,3.15224,4.11631,6.27338,1.98688,1.55622,0.00175538,-0.081249,0.000143296,0.107329,0.00440867,-0.0147684,4.62935e-05,0.515733,-15.9193,-0.101111,-5.89959,2.58861,-60.555,2.15616,0.0387292,-20,-0.532213,-0.764354,-0.0290645,-3.1595,0.0866719,-0.000279488,0.0166847,0.000380111,0.490745,0.00158367,0.0733707,0.0478868,6.62287e-05,0.0284642,1.92503,0.00449243,0.005,1.68762,0.00402825,-0.0228047,-0.857442,50.5653,0.931842,-0.581377,17.3204,0.855715,1.11362,0.384204,-2.0296,-0.0272125,0.539795,-1.93401,-0.088623,0.0809682,0.0180152,0.229756,-0.0565402,23.4506,23.2946,23.1527,23.2804,23.1952,23.252,23.1101,
95,6.27323,1.38281,3.15224,4.11631,6.27338,1.98688,1.55622,0.00175538,-0.081249,0.000143296,0.107329,0.00440867,-0.0147684,4.62935e-05,0.516618,-15.9782,-0.105294,-5.93989,2.58265,-60.7661,2.15833,0.0389643,-20,-0.533295,-0.771127,-0.0291276,-3.17957,0.086697,-0.00028152,0.0168687,0.000377032,0.490745,0.00158367,0.0733707,0.0478868,6.62287e-05,0.0284642,1.92401,0.00449653,0.005,1.68851,0.00398727,-0.0211178,-0.857381,50.7577,0.922807,-0.581377,17.3204,0.855715,1.11362,0.384204,-2.0296,-0.0272125,0.539795,-1.93401,-0.088623,0.0809682,0.0180152,0.229756,-0.0565402,23.4506,23.2946,23.1527,23.2804,23.1952,23.252,23.1101,
96,6.27323,1.38273,3.15224,4.11642,6.27338,1.98686,1.55622,0.00150461,-0.0769859,0.000200615,0.10457,0.00451242,-0.0175538,4.62595e-05,0.516585,-15.9765,-0.105267,-5.93979,2.58259,-60.7645,2.15777,0.0389327,-20,-0.5333,-0.768473,-0.0291196,-3.17996,0.0866604,-0.00028152,0.0168687,0.000377032,0.490745,0.00158367,0.0733707,0.0462025,0.000140227,0.0265481,1.92401,0.00449653,0.005,1.68851,0.00398727,-0.0211178,-0.857381,50.7577,0.922807,-0.561883,17.4747,0.939693,1.10637,0.309709,-2.18492,-0.00235689,0.531982,-1.99014,-0.0805664,0.128906,0.0245033,0.233643,-0.0569691,23.4506,23.2946,23.1527,23.2804,23.1811,23.2804,23.1101,
97,6.27323,1.38265,3.15224,4.11653,6.27339,1.98683,1.55622,0.00100307,-0.074729,0.000235095,0.101561,0.00443347,-0.0240738,5.39299e-05,0.517579,-16.0266,-0.113395,-5.97565,2.56483,-60.9487,2.16349,0.0391793,-20,-0.534584,-0.772084,-0.0292377,-3.19802,0.0871502,-0.000284162,0.0170405,0.000373034,0.490745,0.00158367,0.0733707,0.0448691,0.000299869,0.0250323,1.92303,0.00449417,0.005,1.68915,0.00391855,-0.0193933,-0.86218,50.9275,0.904003,-0.57672,17.6116,0.96628,1.11593,0.314545,-2.39332,0.0398988,0.539795,-2.03042,-0.072956,0.161334,0.0216932,0.253784,-0.0525229,23.4648,23.3087,23.1243,23.2804,23.1952,23.252,23.1243,
98,6.27323,1.38265,3.15224,4.11653,6.27339,1.98683,1.55622,0.00100307,-0.074729,0.000235095,0.101561,0.00443347,-0.0240738,5.39299e-05,0.518309,-16.0535,-0.121464,-5.99415,2.5443,-61.04,2.16527,0.0393735,-20,-0.535513,-0.775242,-0.029386,-3.20654,0.0873646,-0.000286088,0.0172021,0.000369092,0.490745,0.00158367,0.0733707,0.0448691,0.000299869,0.0250323,1.92208,0.0044907,0.005,1.68949,0.00377175,-0.0180291,-0.863967,51.0103,0.884414,-0.57672,17.6116,0.96628,1.11593,0.314545,-2.39332,0.0398988,0.539795,-2.03042,-0.072956,0.161334,0.0216932,0.253784,-0.0525229,23.4648,23.3087,23.1243,23.2804,23.1952,23.252,23.1243,
99,6.27323,1.38257,3.15224,4.11664,6.27339,1.9868,1.55622,0.00125384,-0.0734752,0.000295022,0.0985229,0.00451277,-0.0275845,6.41552e-05,0.518304,-16.0515,-0.121561,-5.99415,2.54423,-61.038,2.16478,0.0393376,-20,-0.535512,-0.772874,-0.0293872,-3.20686,0.0873337,-0.000286088,0.0172021,0.000369092,0.490745,0.00158367,0.0733707,0.0437357,0.000177431,0.0242309,1.92208,0.0044907,0.005,1.68949,0.00377175,-0.0180291,-0.863967,51.0103,0.884414,-0.565364,17.7706,1.01447,1.11174,0.309318,-2.64058,0.0587282,0.539855,-2.05459,-0.0644531,0.209473,0.0205405,0.310207,-0.0485074,23.4506,23.2804,23.1243,23.2804,23.2094,23.2378,23.1101,
100,6.27323,1.3825,3.15224,4.11674,6.2734,1.98677,1.55622,0.000835895,-0.0692121,0.00034829,0.0988557,0.00431241,-0.0331014,6.41559e-05,0.518999,-16.1072,-0.122736,-6.03579,2.54774,-61.2518,2.16868,0.0395006,-20,-0.536371,-0.777801,-0.0293596,-3.22821,0.0874545,-0.000287373,0.0173628,0.000365786,0.490745,0.00158367,0.0733707,0.0429444,0.000291548,0.0219654,1.92111,0.00449441,0.005,1.68963,0.00388528,-0.0173078,-0.865278,51.21,0.883613,-0.561753,17.8936,1.0628,1.16376,0.298397,-2.84275,0.0446753,0.523744,-2.03847,-0.0509547,0.233643,0.0245033,0.330322,-0.0525229,23.4506,23.2946,23.1243,23.2662,23.1811,23.252,23.1101,
101,6.27323,1.38243,3.15224,4.11685,6.2734,1.98673,1.55622,0.000835895,-0.0662029,0.000382752,0.0998058,0.00431241,-0.0366122,6.41083e-05,0.5196,-16.1335,-0.128781,-6.05678,2.533,-61.3402,2.16823,0.0396347,-20,-0.537183,-0.779296,-0.0294687,-3.23684,0.0874287,-0.000289143,0.0174984,0.000362095,0.490745,0.00158367,0.0733707,0.0425919,0.000272282,0.0203958,1.92024,0.00448855,0.005,1.68956,0.0037773,-0.0152689,-0.865056,51.2929,0.869181,-0.524034,17.9339,1.10565,1.24917,0.253707,-2.98391,0.00822454,0.523744,-2.1109,-0.0569691,0.233781,0.0362549,0.38269,-0.0609595,23.4648,23.2804,23.1243,23.2662,23.1811,23.252,23.1101,
102,6.27323,1.38243,3.15224,4.11685,6.2734,1.98673,1.55622,0.000835895,-0.0662029,0.000382752,0.0998058,0.00431241,-0.0366122,6.41083e-05,0.52052,-16.1931,-0.133024,-6.10242,2.5278,-61.5572,2.17591,0.0398792,-20,-0.538276,-0.787452,-0.0295113,-3.25813,0.0879759,-0.000291635,0.0176355,0.000358412,0.490745,0.00158367,0.0733707,0.0425919,0.000272282,0.0203958,1.91933,0.00448744,0.005,1.68907,0.00379364,-0.0138563,-0.870175,51.496,0.860626,-0.524034,17.9339,1.10565,1.24917,0.253707,-2.98391,0.00822454,0.523744,-2.1109,-0.0569691,0.233781,0.0362549,0.38269,-0.0609595,23.4648,23.2804,23.1243,23.2662,23.1811,23.252,23.1101,
103,6.27323,1.38236,3.15224,4.11696,6.27341,1.98669,1.55622,0.000752305,-0.0636952,0.000401211,0.099225,0.00417882,-0.0376153,6.40614e-05,0.520513,-16.1914,-0.133042,-6.10273,2.52774,-61.5553,2.17543,0.0398515,-20,-0.538286,-0.785277,-0.0295093,-3.25837,0.0879462,-0.000291635,0.0176355,0.000358412,0.490745,0.00158367,0.0733707,0.0419015,0.000279209,0.0193186,1.91933,0.00448744,0.005,1.68907,0.00379364,-0.0138563,-0.870175,51.496,0.860626,-0.48805,18.0098,1.08514,1.27481,0.268537,-3.11578,0.00568151,0.531982,-2.14308,-0.0490066,0.169955,0.0254773,0.402913,-0.0444942,23.4648,23.2804,23.1243,23.252,23.1952,23.252,23.1101,
104,6.27323,1.38229,3.15225,4.11706,6.27341,1.98665,1.55622,0.000492722,-0.0634197,0.00042841,0.098552,0.003965,-0.0375799,6.40146e-05,0.52154,-16.2634,-0.136657,-6.15821,2.52527,-61.8282,2.1815,0.0401038,-20,-0.539534,-0.793046,-0.0295436,-3.28562,0.0882911,-0.000293993,0.0177759,0.000355063,0.490745,0.00158367,0.0733707,0.04165,0.000351437,0.0192339,1.9184,0.00448255,0.005,1.68885,0.00378301,-0.0128867,-0.873527,51.7525,0.853461,-0.451891,18.0713,1.09662,1.26469,0.266612,-3.229,0.00958579,0.515625,-2.1673,-0.0161133,0.161334,0.0362549,0.398824,-0.0443115,23.4648,23.2662,23.1385,23.2804,23.1811,23.2662,23.1243,
105,6.27323,1.38222,3.15225,4.11717,6.27341,1.98661,1.55622,0.000615902,-0.061689,0.000421729,0.0990535,0.00376153,-0.0394078,6.39679e-05,0.522992,-16.3562,-0.141738,-6.23034,2.52115,-62.1911,2.18713,0.040461,-20,-0.54115,-0.803808,-0.0296044,-3.3222,0.0885159,-0.000296067,0.0179128,0.000351849,0.490745,0.00158367,0.0733707,0.0414346,0.000279619,0.0183556,1.9175,0.00447931,0.005,1.68826,0.00371508,-0.0128105,-0.875519,52.0946,0.84322,-0.446561,18.1318,1.07155,1.26654,0.215463,-3.28747,0.0271184,0.515625,-2.12697,-0.0254773,0.169189,0.036478,0.402852,-0.0404841,23.4364,23.2946,23.1385,23.2804,23.1952,23.2662,23.1101,
106,6.27323,1.38222,3.15225,4.11717,6.27341,1.98661,1.55622,0.000615902,-0.061689,0.000421729,0.0990535,0.00376153,-0.0394078,6.39679e-05,0.523849,-16.4289,-0.141639,-6.2862,2.52947,-62.4646,2.19528,0.0406885,-20,-0.542111,-0.813758,-0.0295704,-3.3493,0.0889815,-0.000298651,0.0180418,0.000349,0.490745,0.00158367,0.0733707,0.0414346,0.000279619,0.0183556,1.91661,0.00447294,0.005,1.68766,0.00377399,-0.01202,-0.879915,52.3513,0.845409,-0.446561,18.1318,1.07155,1.26654,0.215463,-3.28747,0.0271184,0.515625,-2.12697,-0.0254773,0.169189,0.036478,0.402852,-0.0404841,23.4364,23.2946,23.1385,23.2804,23.1952,23.2662,23.1101,
107,6.27323,1.38216,3.15225,4.11727,6.27342,1.98656,1.55622,0.000601731,-0.0591513,0.000467301,0.096965,0.00342717,-0.0403737,7.1644e-05,0.52387,-16.4277,-0.141663,-6.28625,2.52945,-62.4633,2.19496,0.0406654,-20,-0.542113,-0.811811,-0.0295716,-3.34953,0.0889607,-0.000298651,0.0180418,0.000349,0.490745,0.00158367,0.0733707,0.0403047,0.000228956,0.0172962,1.91661,0.00447294,0.005,1.68766,0.00377399,-0.01202,-0.879915,52.3513,0.845409,-0.357563,18.129,1.07903,1.24615,0.186405,-3.28367,0.0265904,0.507568,-2.14308,-0.0227876,0.145243,0.036478,0.402832,-0.0525229,23.4506,23.2946,23.1385,23.2804,23.1952,23.252,23.1101,
108,6.27323,1.3821,3.15225,4.11737,6.27342,1.98652,1.55622,0.000395568,-0.0561721,0.00046879,0.0926724,0.00325999,-0.0438432,8.17595e-05,0.524251,-16.466,-0.140337,-6.3143,2.53716,-62.6056,2.19261,0.0407411,-20,-0.542549,-0.814408,-0.029536,-3.36364,0.0885372,-0.000299673,0.0181528,0.000346802,0.490745,0.00158367,0.0733707,0.0384505,0.000273323,0.015838,1.91582,0.00446982,0.005,1.68796,0.00381678,-0.0110666,-0.875887,52.4834,0.849582,-0.33043,18.1788,1.0105,1.27037,0.162215,-3.23699,0.0428494,0.523744,-2.15919,0.0113938,0.185478,0.036478,0.410889,-0.036478,23.4506,23.2662,23.1385,23.2804,23.1952,23.2662,23.1101,
109,6.27323,1.3821,3.15225,4.11737,6.27342,1.98652,1.55622,0.000395568,-0.0561721,0.00046879,0.0926724,0.00325999,-0.0438432,8.17595e-05,0.524388,-16.4697,-0.142812,-6.31391,2.53004,-62.6075,2.19367,0.0407773,-20,-0.542779,-0.814054,-0.0295897,-3.3631,0.0886859,-0.000301729,0.0182713,0.000344022,0.490745,0.00158367,0.0733707,0.0384505,0.000273323,0.015838,1.91496,0.00446215,0.005,1.68886,0.00376994,-0.00975418,-0.87728,52.4811,0.843334,-0.33043,18.1788,1.0105,1.27037,0.162215,-3.23699,0.0428494,0.523744,-2.15919,0.0113938,0.185478,0.036478,0.410889,-0.036478,23.4506,23.2662,23.1385,23.2804,23.1952,23.2662,23.1101,
110,6.27323,1.38204,3.15225,4.11746,6.27342,1.98647,1.55622,0.000501442,-0.0546161,0.000449258,0.0912929,0.00309281,-0.0431322,8.18199e-05,0.524424,-16.4687,-0.142902,-6.3141,2.52994,-62.6063,2.19331,0.040762,-20,-0.542789,-0.812319,-0.0295895,-3.36327,0.0886632,-0.000301729,0.0182713,0.000344022,0.490745,0.00158367,0.0733707,0.0377281,0.000215688,0.0153303,1.91496,0.00446215,0.005,1.68886,0.00376994,-0.00975418,-0.87728,52.4811,0.843334,-0.258343,18.2311,1.00485,1.26644,0.157133,-3.13726,-0.00133258,0.507632,-2.18388,-0.0180152,0.257938,0.0444942,0.427021,-0.0322266,23.4648,23.2946,23.1385,23.2662,23.1952,23.252,23.1385,
111,6.27323,1.38204,3.15225,4.11746,6.27342,1.98647,1.55622,0.000501442,-0.0546161,0.000449258,0.0912929,0.00309281,-0.0431322,8.18199e-05,0.525147,-16.528,-0.14329,-6.3581,2.53547,-62.8309,2.2018,0.0409541,-20,-0.543606,-0.820011,-0.0295689,-3.38542,0.0892333,-0.000304583,0.0183735,0.000341386,0.490745,0.00158367,0.0733707,0.0377281,0.000215688,0.0153303,1.9142,0.00445854,0.005,1.68883,0.00381857,-0.00929727,-0.882741,52.6904,0.844009,-0.258343,18.2311,1.00485,1.26644,0.157133,-3.13726,-0.00133258,0.507632,-2.18388,-0.0180152,0.257938,0.0444942,0.427021,-0.0322266,23.4648,23.2946,23.1385,23.2662,23.1952,23.252,23.1385,
112,6.27323,1.38199,3.15225,4.11756,6.27343,1.98643,1.55622,0.000585035,-0.0551691,0.000449258,0.0894401,0.0031764,-0.0421291,8.17602e-05,0.525164,-16.5267,-0.143391,-6.35845,2.53531,-62.8293,2.20133,0.0409392,-20,-0.543621,-0.818342,-0.0295663,-3.38557,0.0892069,-0.000304583,0.0183735,0.000341386,0.490745,0.00158367,0.0733707,0.0373097,0.000189519,0.0156949,1.9142,0.00445854,0.005,1.68883,0.00381857,-0.00929727,-0.882741,52.6904,0.844009,-0.177082,18.3308,0.938958,1.25861,0.162064,-3.03796,-0.0153064,0.491455,-2.17535,-0.00805664,0.274044,0.0443115,0.414917,-0.0404841,23.4648,23.2804,23.1243,23.2662,23.1952,23.252,23.1243,
113,6.27324,1.38193,3.15225,4.11766,6.27343,1.98638,1.55622,0.000644746,-0.0549183,0.000431289,0.0875239,0.00322417,-0.0431322,9.18463e-05,0.526376,-16.6034,-0.147809,-6.41755,2.53213,-63.1325,2.21364,0.0412405,-20,-0.544975,-0.82693,-0.0295951,-3.41622,0.0901381,-0.0003077,0.0184826,0.000338194,0.490745,0.00158367,0.0733707,0.0367072,0.000169483,0.0155308,1.91341,0.00445362,0.005,1.68849,0.00383769,-0.0096254,-0.89182,52.9761,0.835736,-0.107645,18.3989,0.941794,1.25184,0.196853,-2.94628,-0.0201778,0.507568,-2.12697,0.00805664,0.306258,0.045038,0.39083,-0.045038,23.4648,23.2804,23.1385,23.252,23.1669,23.252,23.0959,
114,6.27324,1.38193,3.15225,4.11766,6.27343,1.98638,1.55622,0.000644746,-0.0549183,0.000431289,0.0875239,0.00322417,-0.0431322,9.18463e-05,0.527245,-16.6613,-0.150946,-6.46099,2.52995,-63.3548,2.222,0.0414713,-20,-0.545965,-0.83459,-0.0296193,-3.43828,0.0907395,-0.000309703,0.0185948,0.000335457,0.490745,0.00158367,0.0733707,0.0367072,0.000169483,0.0155308,1.91259,0.0044496,0.005,1.68829,0.0038521,-0.00947776,-0.897497,53.1839,0.829745,-0.107645,18.3989,0.941794,1.25184,0.196853,-2.94628,-0.0201778,0.507568,-2.12697,0.00805664,0.306258,0.045038,0.39083,-0.045038,23.4648,23.2804,23.1385,23.252,23.1669,23.252,23.0959,
115,6.27324,1.38187,3.15225,4.11775,6.27343,1.98634,1.55622,0.00062129,-0.054217,0.000431289,0.0870987,0.00325999,-0.0431322,9.17795e-05,0.527258,-16.6599,-0.151019,-6.46124,2.5298,-63.3532,2.22154,0.0414566,-20,-0.54598,-0.832891,-0.0296162,-3.43844,0.0907134,-0.000309703,0.0185948,0.000335457,0.490745,0.00158367,0.0733707,0.0364386,0.000179868,0.0152673,1.91259,0.0044496,0.005,1.68829,0.0038521,-0.00947776,-0.897497,53.1839,0.829745,-0.062489,18.5105,0.887238,1.27729,0.176878,-2.83027,-0.0015104,0.499577,-2.12697,0,0.330322,0.0525229,0.398804,-0.0362549,23.4648,23.2946,23.1385,23.2804,23.1811,23.252,23.0959,
116,6.27324,1.38182,3.15225,4.11784,6.27344,1.98629,1.55622,0.000752217,-0.0506552,0.000414702,0.087769,0.00328785,-0.0456399,0.000102051,0.528389,-16.7272,-0.156056,-6.51358,2.52357,-63.6154,2.23198,0.0417341,-20,-0.547252,-0.840315,-0.0296667,-3.46486,0.0915242,-0.000312573,0.0186989,0.000332262,0.490745,0.00158367,0.0733707,0.0358906,0.000125637,0.0135879,1.91182,0.0044417,0.005,1.68784,0.00383565,-0.00924059,-0.905344,53.4311,0.819553,0.0179049,18.576,0.864614,1.31462,0.145875,-2.72364,0.0131475,0.483398,-2.12697,0.00805664,0.314622,0.0485074,0.382712,-0.0322266,23.4648,23.2804,23.1527,23.2662,23.1811,23.252,23.1101,
117,6.27324,1.38177,3.15225,4.11793,6.27344,1.98624,1.55622,0.000835807,-0.046098,0.000414717,0.0882705,0.00341045,-0.0466429,0.000101903,0.528832,-16.7586,-0.157343,-6.53834,2.52379,-63.7256,2.23788,0.0418313,-20,-0.547786,-0.842837,-0.0296635,-3.47571,0.0919941,-0.000314473,0.0187972,0.000330167,0.490745,0.00158367,0.0733707,0.0350849,9.45186e-05,0.0116768,1.91106,0.00444244,0.005,1.68765,0.00388512,-0.0077291,-0.910135,53.5347,0.817822,0.0911642,18.6527,0.805498,1.31205,0.128562,-2.65607,0.0539616,0.491455,-2.17535,0.0161133,0.273926,0.0444942,0.398824,-0.036478,23.4648,23.2946,23.1385,23.2662,23.1952,23.252,23.1243,
118,6.27324,1.38177,3.15225,4.11793,6.27344,1.98624,1.55622,0.000835807,-0.046098,0.000414717,0.0882705,0.00341045,-0.0466429,0.000101903,0.529404,-16.791,-0.161488,-6.56202,2.51598,-63.8348,2.24803,0.0419832,-20,-0.548515,-0.846965,-0.0297121,-3.48601,0.0929137,-0.000317692,0.0188906,0.000327102,0.490745,0.00158367,0.0733707,0.0350849,9.45186e-05,0.0116768,1.91031,0.0044413,0.005,1.6877,0.0039121,-0.00600914,-0.919046,53.6351,0.808938,0.0911642,18.6527,0.805498,1.31205,0.128562,-2.65607,0.0539616,0.491455,-2.17535,0.0161133,0.273926,0.0444942,0.398824,-0.036478,23.4648,23.2946,23.1385,23.2662,23.1952,23.252,23.1243,
119,6.27324,1.38172,3.15225,4.11803,6.27345,1.98619,1.55622,0.000902681,-0.0436748,0.000399358,0.0885213,0.00341013,-0.0483983,0.000101903,0.529425,-16.7896,-0.161579,-6.5621,2.51582,-63.8333,2.24765,0.0419696,-20,-0.548528,-0.845235,-0.0297092,-3.48616,0.0928951,-0.000317692,0.0188906,0.000327102,0.490745,0.00158367,0.0733707,0.0346535,6.51455e-05,0.010534,1.91031,0.0044413,0.005,1.6877,0.0039121,-0.00600914,-0.919046,53.6351,0.808938,0.157644,18.6303,0.782314,1.31617,0.147929,-2.61979,0.0617088,0.491455,-2.25587,0.0161133,0.258316,0.0565402,0.402852,-0.041081,23.479,23.2946,23.1385,23.2662,23.1811,23.252,23.1101,
120,6.27324,1.38167,3.15225,4.11812,6.27345,1.98613,1.55622,0.00100299,-0.0430916,0.000417933,0.0894401,0.00346028,-0.0519091,0.000101756,0.529917,-16.8243,-0.163315,-6.58987,2.51505,-63.9624,2.25621,0.0420834,-20,-0.549144,-0.848491,-0.0297159,-3.49906,0.0936296,-0.000320456,0.0189795,0.000325038,0.490745,0.00158367,0.0733707,0.034801,2.04971e-05,0.0099201,1.90957,0.00444239,0.005,1.68743,0.00393952,-0.00498062,-0.926325,53.7573,0.805958,0.245192,18.6432,0.704173,1.30492,0.146241,-2.61334,0.0310422,0.499577,-2.28009,0.0241699,0.234198,0.0529843,0.414937,-0.036478,23.4506,23.2946,23.1385,23.2804,23.1952,23.2662,23.1243,
121,6.27325,1.38163,3.15225,4.11822,6.27346,1.98607,1.55622,0.00112837,-0.0441352,0.00040198,0.0902766,0.00366122,-0.0536645,0.00011702,0.530426,-16.8611,-0.164302,-6.62121,2.51696,-64.1044,2.26396,0.0422049,-20,-0.549737,-0.852612,-0.0297003,-3.51356,0.0942538,-0.000322697,0.0190654,0.000323644,0.490745,0.00158367,0.0733707,0.0352624,-3.96216e-06,0.010137,1.90883,0.00445076,0.005,1.68663,0.00398724,-0.00442809,-0.932553,53.8938,0.805133,0.297836,18.5743,0.704173,1.2832,0.182362,-2.65559,0.00405951,0.499577,-2.25587,0.0254773,0.209628,0.0490066,0.443134,-0.0281982,23.4506,23.2804,23.1385,23.2662,23.1952,23.252,23.0959,
122,6.27325,1.38163,3.15225,4.11822,6.27346,1.98607,1.55622,0.00112837,-0.0441352,0.00040198,0.0902766,0.00366122,-0.0536645,0.00011702,0.5314,-16.9244,-0.167804,-6.67182,2.51474,-64.3514,2.27606,0.0424638,-20,-0.550824,-0.861809,-0.0297196,-3.53854,0.0951993,-0.000324969,0.0191508,0.000321733,0.490745,0.00158367,0.0733707,0.0352624,-3.96216e-06,0.010137,1.90808,0.00445829,0.005,1.68554,0.00401603,-0.00462326,-0.941611,54.1281,0.798591,0.297836,18.5743,0.704173,1.2832,0.182362,-2.65559,0.00405951,0.499577,-2.25587,0.0254773,0.209628,0.0490066,0.443134,-0.0281982,23.4506,23.2804,23.1385,23.2662,23.1952,23.252,23.0959,
123,6.27325,1.38158,3.15225,4.11832,6.27346,1.98602,1.55622,0.00119589,-0.0451383,0.000403007,0.0930351,0.00390043,-0.0556706,0.000116935,0.531394,-16.9225,-0.167924,-6.67198,2.51446,-64.3493,2.27554,0.0424508,-20,-0.550848,-0.860206,-0.0297141,-3.53862,0.0951784,-0.000324969,0.0191508,0.000321733,0.490745,0.00158367,0.0733707,0.036269,-2.99836e-06,0.0102769,1.90808,0.00445829,0.005,1.68554,0.00401603,-0.00462326,-0.941611,54.1281,0.798591,0.398419,18.5638,0.657042,1.29238,0.176144,-2.70178,-0.0216706,0.491455,-2.21563,0.0254773,0.185478,0.0483398,0.447144,-0.038216,23.4648,23.2804,23.1385,23.2804,23.1952,23.2662,23.1101,
124,6.27325,1.38153,3.15225,4.11841,6.27346,1.98596,1.55622,0.0012962,-0.0441352,0.000389111,0.0912929,0.00401182,-0.0564229,0.000116935,0.532682,-16.9995,-0.173561,-6.73521,2.50794,-64.6521,2.29123,0.0427746,-20,-0.55229,-0.870121,-0.029759,-3.56954,0.0964719,-0.000328213,0.0192383,0.000319285,0.490745,0.00158367,0.0733707,0.0355597,-3.49457e-05,0.009837,1.90731,0.00446151,0.005,1.68394,0.00401805,-0.00474922,-0.954159,54.4171,0.7874,0.46176,18.4874,0.636831,1.28235,0.17717,-2.75403,-0.0148847,0.499772,-2.15931,0.0332184,0.11308,0.0444942,0.455218,-0.0402832,23.4648,23.2946,23.1385,23.252,23.1952,23.2662,23.1243,
125,6.27325,1.38153,3.15225,4.11841,6.27346,1.98596,1.55622,0.0012962,-0.0441352,0.000389111,0.0912929,0.00401182,-0.0564229,0.000116935,0.533145,-17.029,-0.175715,-6.75705,2.50555,-64.7624,2.30216,0.0428976,-20,-0.552836,-0.873936,-0.0297731,-3.58037,0.097448,-0.000331371,0.0193152,0.000317475,0.490745,0.00158367,0.0733707,0.0355597,-3.49457e-05,0.009837,1.9066,0.00446937,0.005,1.68394,0.00405388,-0.0043533,-0.963689,54.5197,0.78323,0.46176,18.4874,0.636831,1.28235,0.17717,-2.75403,-0.0148847,0.499772,-2.15931,0.0332184,0.11308,0.0444942,0.455218,-0.0402832,23.4648,23.2946,23.1385,23.252,23.1952,23.2662,23.1243,
126,6.27325,1.38149,3.15225,4.1185,6.27347,1.98589,1.55622,0.00154319,-0.0416276,0.000389111,0.0900259,0.00413719,-0.0601844,0.000116765,0.533174,-17.0276,-0.175853,-6.75681,2.50532,-64.7613,2.30181,0.0428837,-20,-0.552847,-0.872108,-0.0297699,-3.58054,0.0974348,-0.000331371,0.0193152,0.000317475,0.490745,0.00158367,0.0733707,0.0346769,-0.000134112,0.00847467,1.9066,0.00446937,0.005,1.68394,0.00405388,-0.0043533,-0.963689,54.5197,0.78323,0.513107,18.4005,0.603827,1.30246,0.18682,-2.83265,0.00194048,0.507568,-2.17531,0.0290486,0.128906,0.045038,0.467355,-0.0322266,23.4648,23.2804,23.1243,23.2804,23.1952,23.252,23.1243,
127,6.27326,1.38145,3.15225,4.11861,6.27348,1.98583,1.55622,0.00200615,-0.0393706,0.000376129,0.0898641,0.00438793,-0.061689,0.000126919,0.533091,-17.0238,-0.175272,-6.75447,2.50754,-64.7384,2.3107,0.042841,-20,-0.55278,-0.869855,-0.0297359,-3.57813,0.0983292,-0.000334542,0.0193911,0.000316194,0.490745,0.00158367,0.0733707,0.0341623,-0.000296705,0.00743075,1.90586,0.00448145,0.005,1.68407,0.004154,-0.0031272,-0.972771,54.4984,0.785721,0.566378,18.289,0.619458,1.26853,0.186613,-2.91163,0.0484661,0.515688,-2.20753,0.0332184,0.14502,0.0525229,0.487443,-0.036478,23.4648,23.2804,23.1243,23.2946,23.1811,23.252,23.1243,
128,6.27326,1.38141,3.15225,4.1187,6.27348,1.98576,1.55622,0.00269576,-0.0366122,0.000342695,0.0907527,0.00451383,-0.0636952,0.000126919,0.533414,-17.051,-0.174525,-6.7761,2.51432,-64.838,2.32208,0.0429042,-20,-0.553105,-0.872079,-0.0296741,-3.58803,0.0992908,-0.000337231,0.0194695,0.000314958,0.490745,0.00158367,0.0733707,0.0338463,-0.000554942,0.00611632,1.9051,0.00449976,0.005,1.68384,0.00431682,-0.00218768,-0.982369,54.5925,0.78997,0.653705,18.2472,0.595033,1.2514,0.20059,-2.97871,0.0311829,0.499577,-2.22363,0.0360304,0.129158,0.0525229,0.487443,-0.0324774,23.479,23.2946,23.1527,23.2804,23.1811,23.2662,23.1101,
129,6.27327,1.38137,3.15225,4.1188,6.27349,1.98569,1.55622,0.00325999,-0.0346351,0.000341891,0.08846,0.00465713,-0.0661406,0.000126736,0.533258,-17.0659,-0.168381,-6.78911,2.53485,-64.8876,2.33544,0.0428403,-20,-0.552887,-0.872654,-0.0295202,-3.59298,0.100425,-0.000340816,0.0195303,0.000314767,0.490745,0.00158367,0.0733707,0.0327782,-0.000776783,0.00512072,1.90442,0.00451787,0.005,1.68352,0.00456553,-0.00100468,-0.993936,54.6403,0.80705,0.635429,18.187,0.585559,1.20174,0.225256,-3.02848,0.0119976,0.491455,-2.27197,0.0254773,0.104736,0.036478,0.491521,-0.0254773,23.4648,23.2946,23.1101,23.2804,23.1811,23.252,23.1101,
130,6.27327,1.38133,3.15225,4.11889,6.27349,1.98562,1.55622,0.00395568,-0.0351076,0.000333541,0.0847597,0.00472814,-0.0682733,0.000136874,0.53295,-17.064,-0.163195,-6.78722,2.55072,-64.8741,2.34542,0.0427369,-20,-0.55251,-0.870658,-0.0293939,-3.59146,0.10132,-0.000343972,0.0196,0.000314591,0.490745,0.00158367,0.0733707,0.0318159,-0.001053,0.00515148,1.90367,0.00453857,0.005,1.68381,0.00478382,-0.000108645,-1.00308,54.627,0.821297,0.684404,18.126,0.605757,1.15686,0.255106,-3.02036,-0.0346587,0.491455,-2.28821,0.0402832,0.153922,0.0444942,0.507584,-0.0284845,23.4506,23.2804,23.1385,23.252,23.2094,23.2662,23.1101,
131,6.27327,1.38133,3.15225,4.11889,6.27349,1.98562,1.55622,0.00395568,-0.0351076,0.000333541,0.0847597,0.00472814,-0.0682733,0.000136874,0.532427,-17.0609,-0.154551,-6.78415,2.57614,-64.8613,2.35324,0.042598,-20,-0.551857,-0.869996,-0.029206,-3.59009,0.10192,-0.000346292,0.019655,0.000315135,0.490745,0.00158367,0.0733707,0.0318159,-0.001053,0.00515148,1.903,0.00456726,0.005,1.68406,0.00505823,-0.000136333,-1.00942,54.6144,0.843694,0.684404,18.126,0.605757,1.15686,0.255106,-3.02036,-0.0346587,0.491455,-2.28821,0.0402832,0.153922,0.0444942,0.507584,-0.0284845,23.4506,23.2804,23.1385,23.252,23.2094,23.2662,23.1101,
132,6.27328,1.38129,3.15225,4.11898,6.2735,1.98554,1.55622,0.00418813,-0.0366122,0.000333541,0.0847597,0.00487207,-0.0681449,0.000136775,0.532435,-17.0597,-0.154695,-6.78408,2.57582,-64.8602,2.35284,0.042586,-20,-0.55188,-0.868521,-0.029202,-3.59015,0.101909,-0.000346292,0.019655,0.000315135,0.490745,0.00158367,0.0733707,0.0321312,-0.00112792,0.00576453,1.903,0.00456726,0.005,1.68406,0.00505823,-0.000136333,-1.00942,54.6144,0.843694,0.706569,17.9912,0.620726,1.12197,0.267995,-3.00029,-0.0277239,0.47541,-2.24782,0.0332184,0.226161,0.045038,0.511597,-0.0254773,23.4506,23.2662,23.1243,23.2804,23.1952,23.2662,23.1101,
133,6.27328,1.38129,3.15225,4.11898,6.2735,1.98554,1.55622,0.00418813,-0.0366122,0.000333541,0.0847597,0.00487207,-0.0681449,0.000136775,0.533145,-17.1133,-0.15541,-6.82692,2.58063,-65.0728,2.36737,0.0427744,-20,-0.552641,-0.87628,-0.0291705,-3.61175,0.103091,-0.000349784,0.0197116,0.000314124,0.490745,0.00158367,0.0733707,0.0321312,-0.00112792,0.00576453,1.90231,0.00458642,0.005,1.68316,0.0051429,-0.000688073,-1.02096,54.8163,0.843899,0.706569,17.9912,0.620726,1.12197,0.267995,-3.00029,-0.0277239,0.47541,-2.24782,0.0332184,0.226161,0.045038,0.511597,-0.0254773,23.4506,23.2662,23.1243,23.2804,23.1952,23.2662,23.1101,
134,6.27329,1.38121,3.15225,4.11916,6.27351,1.9854,1.55622,0.00434665,-0.0405146,0.000323553,0.0842582,0.00508702,-0.068209,0.000136579,0.533153,-17.1108,-0.155649,-6.82675,2.58003,-65.0704,2.36664,0.0427504,-20,-0.552688,-0.873327,-0.029159,-3.61187,0.103078,-0.000349784,0.0197116,0.000314124,0.490745,0.00158367,0.0733707,0.0328036,-0.00116058,0.00731942,1.90231,0.00458642,0.005,1.68316,0.0051429,-0.000688073,-1.02096,54.8163,0.843899,0.75869,17.8583,0.620489,1.01149,0.304784,-2.90325,0.0187274,0.491719,-2.13503,0.0161133,0.209628,0.045038,0.455218,-0.0281982,23.4506,23.3087,23.1385,23.2662,23.2094,23.2662,23.1101,
135,6.27329,1.38121,3.15225,4.11916,6.27351,1.9854,1.55622,0.00434665,-0.0405146,0.000323553,0.0842582,0.00508702,-0.068209,0.000136579,0.534659,-17.2205,-0.157915,-6.9144,2.58676,-65.508,2.39446,0.0431502,-20,-0.554301,-0.889205,-0.0291306,-3.65639,0.105352,-0.000356569,0.0198285,0.000313651,0.490745,0.00158367,0.0733707,0.0328036,-0.00116058,0.00731942,1.90094,0.00463408,0.005,1.68132,0.0052152,-0.00208747,-1.04308,55.232,0.84155,0.75869,17.8583,0.620489,1.01149,0.304784,-2.90325,0.0187274,0.491719,-2.13503,0.0161133,0.209628,0.045038,0.455218,-0.0281982,23.4506,23.3087,23.1385,23.2662,23.2094,23.2662,23.1101,
136,6.27329,1.38117,3.15225,4.11924,6.27351,1.98533,1.55622,0.00428023,-0.0416276,0.000322066,0.0822521,0.00518255,-0.0689613,0.000146589,0.534636,-17.2194,-0.157953,-6.91417,2.58649,-65.5072,2.39399,0.0431306,-20,-0.554319,-0.887641,-0.0291256,-3.65648,0.105339,-0.000356569,0.0198285,0.000313651,0.490745,0.00158367,0.0733707,0.0324599,-0.00112787,0.00771977,1.90094,0.00463408,0.005,1.68132,0.0052152,-0.00208747,-1.04308,55.232,0.84155,0.758537,17.8201,0.606443,0.971617,0.288135,-2.81583,0.0279907,0.499577,-2.1109,0.0332184,0.185303,0.0371393,0.459246,-0.0284845,23.4648,23.2946,23.1527,23.2946,23.2094,23.2662,23.1101,
137,6.27329,1.38117,3.15225,4.11924,6.27351,1.98533,1.55622,0.00428023,-0.0416276,0.000322066,0.0822521,0.00518255,-0.0689613,0.000146589,0.535183,-17.2479,-0.161386,-6.93633,2.58033,-65.6211,2.4011,0.0432758,-20,-0.55494,-0.891618,-0.029166,-3.66801,0.105959,-0.000358504,0.0198866,0.000312243,0.490745,0.00158367,0.0733707,0.0324599,-0.00112787,0.00771977,1.90025,0.00465195,0.005,1.68101,0.00520184,-0.0024478,-1.04902,55.3395,0.834053,0.758537,17.8201,0.606443,0.971617,0.288135,-2.81583,0.0279907,0.499577,-2.1109,0.0332184,0.185303,0.0371393,0.459246,-0.0284845,23.4648,23.2946,23.1527,23.2946,23.2094,23.2662,23.1101,
138,6.27329,1.38112,3.15225,4.11933,6.27352,1.98526,1.55622,0.00434529,-0.0423799,0.000306667,0.0830044,0.00534973,-0.0654506,0.00014659,0.535189,-17.2469,-0.161524,-6.93651,2.58004,-65.62,2.40076,0.0432638,-20,-0.554969,-0.890167,-0.0291588,-3.66805,0.105954,-0.000358504,0.0198866,0.000312243,0.490745,0.00158367,0.0733707,0.0328303,-0.00112494,0.00838075,1.90025,0.00465195,0.005,1.68101,0.00520184,-0.0024478,-1.04902,55.3395,0.834053,0.731836,17.6924,0.655413,0.908417,0.274336,-2.70304,0.0136055,0.499577,-2.06256,0.0332184,0.225586,0.0402832,0.443188,-0.0245033,23.4648,23.2946,23.1101,23.2662,23.1811,23.2662,23.1243,
139,6.27329,1.38112,3.15225,4.11933,6.27352,1.98526,1.55622,0.00434529,-0.0423799,0.000306667,0.0830044,0.00534973,-0.0654506,0.00014659,0.536413,-17.3337,-0.164274,-7.0041,2.58226,-65.9611,2.41718,0.0435888,-20,-0.556315,-0.902258,-0.0291626,-3.70243,0.10722,-0.000362024,0.0199502,0.000312274,0.490745,0.00158367,0.0733707,0.0328303,-0.00112494,0.00838075,1.89955,0.00467931,0.005,1.68005,0.00522382,-0.00304267,-1.0612,55.6615,0.829638,0.731836,17.6924,0.655413,0.908417,0.274336,-2.70304,0.0136055,0.499577,-2.06256,0.0332184,0.225586,0.0402832,0.443188,-0.0245033,23.4648,23.2946,23.1101,23.2662,23.1811,23.2662,23.1243,
140,6.2733,1.38108,3.15225,4.11941,6.27352,1.9852,1.55622,0.00433968,-0.0416276,0.000282456,0.0842704,0.00532971,-0.0626626,0.00014659,0.536421,-17.3328,-0.16437,-7.00431,2.58204,-65.96,2.41688,0.0435769,-20,-0.556339,-0.900831,-0.0291565,-3.70249,0.107214,-0.000362024,0.0199502,0.000312274,0.490745,0.00158367,0.0733707,0.0330352,-0.00111282,0.0083609,1.89955,0.00467931,0.005,1.68005,0.00522382,-0.00304267,-1.0612,55.6615,0.829638,0.778692,17.5894,0.665932,0.841341,0.322947,-2.59952,0.00576384,0.507568,-2.0464,0.0161133,0.177246,0.0404841,0.38674,-0.0245033,23.4648,23.3087,23.1385,23.2804,23.1811,23.2662,23.1385,
141,6.2733,1.38108,3.15225,4.11941,6.27352,1.9852,1.55622,0.00433968,-0.0416276,0.000282456,0.0842704,0.00532971,-0.0626626,0.00014659,0.537418,-17.4084,-0.165771,-7.06304,2.58637,-66.2522,2.42919,0.0438417,-20,-0.557443,-0.911312,-0.0291516,-3.73177,0.108116,-0.000365069,0.0200155,0.000312157,0.490745,0.00158367,0.0733707,0.0330352,-0.00111282,0.0083609,1.89889,0.00470032,0.005,1.67927,0.00523183,-0.00302481,-1.06986,55.9369,0.827966,0.778692,17.5894,0.665932,0.841341,0.322947,-2.59952,0.00576384,0.507568,-2.0464,0.0161133,0.177246,0.0404841,0.38674,-0.0245033,23.4648,23.3087,23.1385,23.2804,23.1811,23.2662,23.1385,
142,6.2733,1.38104,3.15225,4.1195,6.27353,1.98513,1.55623,0.00416017,-0.0405146,0.000250753,0.0833756,0.0054143,-0.0615822,0.000154172,0.537419,-17.4076,-0.165816,-7.06309,2.5861,-66.2514,2.42873,0.0438307,-20,-0.557467,-0.909847,-0.0291447,-3.73186,0.108099,-0.000365069,0.0200155,0.000312157,0.490745,0.00158367,0.0733707,0.0325443,-0.00102743,0.00805486,1.89889,0.00470032,0.005,1.67927,0.00523183,-0.00302481,-1.06986,55.9369,0.827966,0.727362,17.4986,0.698834,0.741652,0.321916,-2.56624,-0.00517327,0.515688,-2.0547,0.0254773,0.14502,0.036478,0.342407,-0.0161133,23.4648,23.3087,23.1243,23.2946,23.2094,23.2662,23.1101,
143,6.2733,1.38104,3.15225,4.1195,6.27353,1.98513,1.55623,0.00416017,-0.0405146,0.000250753,0.0833756,0.0054143,-0.0615822,0.000154172,0.538212,-17.4462,-0.171823,-7.09214,2.57345,-66.3988,2.43838,0.0440414,-20,-0.558407,-0.914972,-0.0292343,-3.74645,0.108982,-0.00036778,0.0200768,0.00031004,0.490745,0.00158367,0.0733707,0.0325443,-0.00102743,0.00805486,1.89825,0.0047142,0.005,1.67913,0.00516746,-0.00274937,-1.07827,56.0746,0.814158,0.727362,17.4986,0.698834,0.741652,0.321916,-2.56624,-0.00517327,0.515688,-2.0547,0.0254773,0.14502,0.036478,0.342407,-0.0161133,23.4648,23.3087,23.1243,23.2946,23.2094,23.2662,23.1101,
144,6.27331,1.381,3.15225,4.11958,6.27354,1.98507,1.55623,0.00429123,-0.0399339,0.000235118,0.0804891,0.00537399,-0.0609367,0.000154172,0.538217,-17.4456,-0.171882,-7.09202,2.57325,-66.3982,2.43811,0.0440258,-20,-0.558422,-0.913508,-0.0292303,-3.74656,0.108978,-0.00036778,0.0200768,0.00031004,0.490745,0.00158367,0.0733707,0.031592,-0.0010853,0.00794779,1.89825,0.0047142,0.005,1.67913,0.00516746,-0.00274937,-1.07827,56.0746,0.814158,0.708519,17.3906,0.689653,0.621646,0.307678,-2.49252,0.00318115,0.539795,-2.07886,0.0180152,0.145243,0.041081,0.302151,-0.0241699,23.4648,23.3087,23.1669,23.2662,23.1811,23.2662,23.1101,
145,6.27331,1.381,3.15225,4.11958,6.27354,1.98507,1.55623,0.00429123,-0.0399339,0.000235118,0.0804891,0.00537399,-0.0609367,0.000154172,0.53831,-17.4632,-0.169864,-7.10406,2.58112,-66.4649,2.44575,0.0440504,-20,-0.558514,-0.915494,-0.0291808,-3.75303,0.109618,-0.000370486,0.0201308,0.000310051,0.490745,0.00158367,0.0733707,0.031592,-0.0010853,0.00794779,1.89762,0.00473715,0.005,1.67943,0.00524021,-0.00265301,-1.08466,56.1357,0.819762,0.708519,17.3906,0.689653,0.621646,0.307678,-2.49252,0.00318115,0.539795,-2.07886,0.0180152,0.145243,0.041081,0.302151,-0.0241699,23.4648,23.3087,23.1669,23.2662,23.1811,23.2662,23.1101,
146,6.27331,1.38096,3.15225,4.11966,6.27354,1.98501,1.55623,0.00405146,-0.0399744,0.000211285,0.0774875,0.00546067,-0.0625991,0.000161754,0.538284,-17.4622,-0.16985,-7.10389,2.58088,-66.4641,2.44529,0.0440321,-20,-0.55853,-0.913985,-0.0291744,-3.75315,0.109604,-0.000370486,0.0201308,0.000310051,0.490745,0.00158367,0.0733707,0.0307384,-0.000984204,0.00784399,1.89762,0.00473715,0.005,1.67943,0.00524021,-0.00265301,-1.08466,56.1357,0.819762,0.64866,17.2017,0.755414,0.59718,0.257588,-2.43822,-0.00382841,0.523744,-2.08673,0.0322266,0.218125,0.0402832,0.269928,-0.0245033,23.4506,23.3087,23.1527,23.2804,23.1811,23.2662,23.1101,
147,6.27331,1.38096,3.15225,4.11966,6.27354,1.98501,1.55623,0.00405146,-0.0399744,0.000211285,0.0774875,0.00546067,-0.0625991,0.000161754,0.538638,-17.469,-0.174841,-7.10819,2.56751,-66.4899,2.45113,0.0441262,-20,-0.558975,-0.914695,-0.0292613,-3.75561,0.110243,-0.000372453,0.0201908,0.00030853,0.490745,0.00158367,0.0733707,0.0307384,-0.000984204,0.00784399,1.89698,0.00475509,0.005,1.67962,0.00516536,-0.00255959,-1.09078,56.1589,0.807574,0.64866,17.2017,0.755414,0.59718,0.257588,-2.43822,-0.00382841,0.523744,-2.08673,0.0322266,0.218125,0.0402832,0.269928,-0.0245033,23.4506,23.3087,23.1527,23.2804,23.1811,23.2662,23.1101,
148,6.27332,1.38091,3.15225,4.11973,6.27355,1.98494,1.55623,0.00397487,-0.0423799,0.0001869,0.0758974,0.00535353,-0.0648234,0.000161753,0.538617,-17.4678,-0.17486,-7.10785,2.5673,-66.4891,2.45081,0.044107,-20,-0.558988,-0.913298,-0.0292571,-3.75569,0.110239,-0.000372453,0.0201908,0.00030853,0.490745,0.00158367,0.0733707,0.0307856,-0.000959386,0.00859256,1.89698,0.00475509,0.005,1.67962,0.00516536,-0.00255959,-1.09078,56.1589,0.807574,0.622591,17.0996,0.774211,0.55901,0.267307,-2.41719,0.0276323,0.531982,-2.08673,0.0322266,0.266357,0.0362549,0.269928,-0.0324774,23.4648,23.2804,23.1527,23.252,23.1952,23.2662,23.1101,
149,6.27332,1.38091,3.15225,4.11973,6.27355,1.98494,1.55623,0.00397487,-0.0423799,0.0001869,0.0758974,0.00535353,-0.0648234,0.000161753,0.538939,-17.4957,-0.174155,-7.1306,2.57231,-66.6031,2.45877,0.0441925,-20,-0.559306,-0.91745,-0.0292356,-3.76743,0.110899,-0.000374913,0.0202468,0.000308622,0.490745,0.00158367,0.0733707,0.0307856,-0.000959386,0.00859256,1.89636,0.00477946,0.005,1.67902,0.00516497,-0.0032333,-1.09725,56.2679,0.80978,0.622591,17.0996,0.774211,0.55901,0.267307,-2.41719,0.0276323,0.531982,-2.08673,0.0322266,0.266357,0.0362549,0.269928,-0.0324774,23.4648,23.2804,23.1527,23.252,23.1952,23.2662,23.1101,
150,6.27332,1.38087,3.15225,4.11981,6.27355,1.98488,1.55623,0.00397388,-0.0448362,0.000171044,0.0745469,0.00544129,-0.066444,0.000161754,0.538916,-17.4946,-0.174202,-7.13024,2.57202,-66.6024,2.45828,0.0441738,-20,-0.559322,-0.916087,-0.0292324,-3.7675,0.110884,-0.000374913,0.0202468,0.000308622,0.490745,0.00158367,0.0733707,0.0309118,-0.000946449,0.00942071,1.89636,0.00477946,0.005,1.67902,0.00516497,-0.0032333,-1.09725,56.2679,0.80978,0.562974,16.9882,0.823195,0.515867,0.235904,-2.42112,0.0348461,0.539855,-2.01416,0.0241699,0.290151,0.0443115,0.26212,-0.0241699,23.479,23.3087,23.1527,23.2804,23.1952,23.2662,23.0959,
151,6.27332,1.38087,3.15225,4.11981,6.27355,1.98488,1.55623,0.00397388,-0.0448362,0.000171044,0.0745469,0.00544129,-0.066444,0.000161754,0.539498,-17.5264,-0.177289,-7.15611,2.56745,-66.7329,2.47001,0.0443283,-20,-0.559961,-0.920819,-0.0292598,-3.78092,0.11194,-0.000378,0.0202986,0.000306759,0.490745,0.00158367,0.0733707,0.0309118,-0.000946449,0.00942071,1.89575,0.00479668,0.005,1.67836,0.00516881,-0.00397864,-1.10751,56.3924,0.803309,0.562974,16.9882,0.823195,0.515867,0.235904,-2.42112,0.0348461,0.539855,-2.01416,0.0241699,0.290151,0.0443115,0.26212,-0.0241699,23.479,23.3087,23.1527,23.2804,23.1952,23.2662,23.0959,
152,6.27332,1.38083,3.15225,4.11988,6.27356,1.9848,1.55623,0.00384142,-0.0448362,0.00015512,0.0726562,0.00544129,-0.0697136,0.00017174,0.53949,-17.5255,-0.177313,-7.15548,2.56719,-66.7326,2.46966,0.0443126,-20,-0.559974,-0.919319,-0.0292543,-3.78102,0.111935,-0.000378,0.0202986,0.000306759,0.490745,0.00158367,0.0733707,0.0303717,-0.000898594,0.00911097,1.89575,0.00479668,0.005,1.67836,0.00516881,-0.00397864,-1.10751,56.3924,0.803309,0.56399,16.8887,0.840976,0.469345,0.212392,-2.41903,0.0498872,0.555908,-1.98208,0.041081,0.298531,0.0404841,0.257812,-0.0166092,23.4506,23.2662,23.1527,23.2804,23.1952,23.2662,23.1101,
153,6.27332,1.38083,3.15225,4.11988,6.27356,1.9848,1.55623,0.00384142,-0.0448362,0.00015512,0.0726562,0.00544129,-0.0697136,0.00017174,0.539405,-17.5142,-0.178336,-7.14731,2.56298,-66.6868,2.47349,0.0442901,-20,-0.559898,-0.917921,-0.0292789,-3.77641,0.112395,-0.000379766,0.0203401,0.000306455,0.490745,0.00158367,0.0733707,0.0303717,-0.000898594,0.00911097,1.89515,0.00481584,0.005,1.6783,0.00514299,-0.00369987,-1.11207,56.3497,0.800404,0.56399,16.8887,0.840976,0.469345,0.212392,-2.41903,0.0498872,0.555908,-1.98208,0.041081,0.298531,0.0404841,0.257812,-0.0166092,23.4506,23.2662,23.1527,23.2804,23.1952,23.2662,23.1101,
154,6.27332,1.38083,3.15225,4.11988,6.27356,1.9848,1.55623,0.00384142,-0.0448362,0.00015512,0.0726562,0.00544129,-0.0697136,0.00017174,0.539405,-17.5142,-0.178336,-7.14731,2.56298,-66.6868,2.47349,0.0442901,-20,-0.559898,-0.917921,-0.0292789,-3.77641,0.112395,-0.000379766,0.0203401,0.000306455,0.490745,0.00158367,0.0733707,0.0303717,-0.000898594,0.00911097,1.89515,0.00481584,0.005,1.6783,0.00514299,-0.00369987,-1.11207,56.3497,0.800404,0.56399,16.8887,0.840976,0.469345,0.212392,-2.41903,0.0498872,0.555908,-1.98208,0.041081,0.298531,0.0404841,0.257812,-0.0166092,23.4506,23.2662,23.1527,23.2804,23.1952,23.2662,23.1101,
155,6.27333,1.38078,3.15225,4.11995,6.27356,1.98473,1.55623,0.00370895,-0.0448362,0.000155846,0.0693975,0.00542051,-0.0713057,0.000171864,0.539363,-17.5135,-0.178302,-7.14686,2.56275,-66.6865,2.47302,0.0442636,-20,-0.559909,-0.916423,-0.029276,-3.77652,0.112381,-0.000379766,0.0203401,0.000306455,0.490745,0.00158367,0.0733707,0.0294355,-0.00085771,0.00900223,1.89515,0.00481584,0.005,1.6783,0.00514299,-0.00369987,-1.11207,56.3497,0.800404,0.517057,16.7595,0.894298,0.470729,0.202733,-2.44624,0.0124769,0.555908,-1.99006,0.041081,0.33042,0.0444942,0.253912,-0.0090076,23.4648,23.2946,23.1527,23.2804,23.1952,23.2662,23.1243,
156,6.27333,1.38074,3.15225,4.12002,6.27357,1.98466,1.55623,0.00357649,-0.0418389,0.000159213,0.0680646,0.00542142,-0.0742768,0.000171864,0.539448,-17.5085,-0.180947,-7.14199,2.55483,-66.6687,2.47759,0.0442708,-20,-0.560049,-0.914072,-0.0293137,-3.77473,0.112923,-0.000382124,0.0203875,0.000304707,0.490745,0.00158367,0.0733707,0.0284303,-0.000819674,0.0075269,1.89454,0.00483299,0.005,1.6786,0.00512163,-0.00360201,-1.11741,56.332,0.793977,0.467223,16.6962,0.912621,0.532764,0.190451,-2.43278,0.00705954,0.564195,-2.00617,0.0490066,0.362549,0.0485074,0.237705,-0.0161133,23.4932,23.3087,23.1527,23.2804,23.1952,23.2804,23.1243,
157,6.27333,1.38074,3.15225,4.12002,6.27357,1.98466,1.55623,0.00357649,-0.0418389,0.000159213,0.0680646,0.00542142,-0.0742768,0.000171864,0.539119,-17.4802,-0.181862,-7.11967,2.5489,-66.5472,2.4819,0.0441834,-20,-0.559742,-0.910067,-0.0293447,-3.76214,0.113517,-0.000384787,0.0204258,0.000304435,0.490745,0.00158367,0.0733707,0.0284303,-0.000819674,0.0075269,1.89397,0.0048523,0.005,1.67899,0.00510478,-0.00227421,-1.12337,56.2163,0.790935,0.467223,16.6962,0.912621,0.532764,0.190451,-2.43278,0.00705954,0.564195,-2.00617,0.0490066,0.362549,0.0485074,0.237705,-0.0161133,23.4932,23.3087,23.1527,23.2804,23.1952,23.2804,23.1243,
158,6.27333,1.3807,3.15225,4.12009,6.27357,1.98458,1.55623,0.00344489,-0.0405146,0.000185178,0.0683347,0.00535353,-0.0762336,0.000181974,0.539073,-17.4795,-0.181854,-7.11909,2.54863,-66.547,2.48145,0.0441579,-20,-0.559755,-0.908666,-0.0293421,-3.76219,0.113506,-0.000384787,0.0204258,0.000304435,0.490745,0.00158367,0.0733707,0.0282348,-0.000786643,0.00679364,1.89397,0.0048523,0.005,1.67899,0.00510478,-0.00227421,-1.12337,56.2163,0.790935,0.398047,16.5963,0.92558,0.574703,0.152944,-2.44015,-0.0189875,0.563965,-2.08669,0.041081,0.370605,0.036478,0.22965,-0.0241699,23.4648,23.2946,23.1527,23.2946,23.1952,23.2662,23.1243,
