LWingKi/MAS_RnD/log/us2/contactless/5/grasp_log_12_08_2023_14_56_48.csv
Index,joint_angle_0,joint_angle_1,joint_angle_2,joint_angle_3,joint_angle_4,joint_angle_5,joint_angle_6,joint_velocity_0,joint_velocity_1,joint_velocity_2,joint_velocity_3,joint_velocity_4,joint_velocity_5,joint_velocity_6,joint_accel_0,joint_accel_1,joint_accel_2,joint_accel_3,joint_accel_4,joint_accel_5,joint_accel_6,constraint_tau_0,constraint_tau_1,constraint_tau_2,constraint_tau_3,constraint_tau_4,constraint_tau_5,constraint_tau_6,current_pos_x,current_pos_y,current_pos_z,target_pos_x,target_pos_y,target_pos_z,current_vel_x,current_vel_y,current_vel_z,target_vel_x,target_vel_y,target_vel_z,control_signal_linear_x,control_signal_linear_y,control_signal_linear_z,control_signal_angular_x,control_signal_angular_y,control_signal_angular_z,joint_torque_0,joint_torque_1,joint_torque_2,joint_torque_3,joint_torque_4,joint_torque_5,joint_torque_6,actuar_current_0,actuar_current_1,actuar_current_2,actuar_current_3,actuar_current_4,actuar_current_5,actuar_current_6,actuar_voltage_0,actuar_voltage_1,actuar_voltage_2,actuar_voltage_3,actuar_voltage_4,actuar_voltage_5,actuar_voltage_6
0,6.26995,1.3931,3.15049,4.12458,6.27059,1.98432,1.55762,0.00864312,0.0483474,0.00331157,0.10993,0.000211799,0.00179963,1.85464e-05,0.518522,-8.28023,-0.76926,-0.0134529,0.067162,-30.8807,2.46328,0.0413068,-20,-0.477026,0.286892,-0.0425997,-0.180182,0.155432,-0.000583067,0.00837858,-0.000279441,0.494734,0.00286158,0.0711604,0.0213633,-0.00410173,-0.0210587,1.96855,-0.00515773,0.005,1.77169,-0.00464196,0.0045,-1.57428,22.6222,-0.75449,1.17692,-0.954038,0.108808,5.71813,0.225599,5.4159,0.0267471,0.435133,0.298205,0.314209,-0.0332184,0.181274,-0.741255,0.0609595,23.4932,23.3513,23.1669,23.3087,23.2094,23.2946,23.1527,
1,6.26995,1.3931,3.15049,4.12458,6.27059,1.98432,1.55762,0.00864312,0.0483474,0.00331157,0.10993,0.000211799,0.00179963,1.85464e-05,0.413419,-2.61148,-0.308657,4.24639,0.747185,-8.74703,0.607527,0.0132713,-18.8923,-0.368851,1.02731,-0.0358651,2.02814,-0.0117815,0,0,-0,0.494734,0.00286158,0.0711604,0.0213633,-0.00410173,-0.0210587,2,0,0.005,1.78077,0.00369155,0.0234528,0.0765115,1.90244,0.241419,1.17692,-0.954038,0.108808,5.71813,0.225599,5.4159,0.0267471,0.435133,0.298205,0.314209,-0.0332184,0.181274,-0.741255,0.0609595,23.4932,23.3513,23.1669,23.3087,23.2094,23.2946,23.1527,
2,6.26996,1.39315,3.15049,4.1247,6.2706,1.98432,1.55762,0.00884253,0.0446368,0.00331239,0.110485,0.000217096,0.00226989,1.85464e-05,0.413341,-2.61074,-0.30872,4.24599,0.747134,-8.74589,0.60747,0.0132435,-18.8931,-0.36887,1.02799,-0.035861,2.02808,-0.0117815,0,0,-0,0.494734,0.00286158,0.0711604,0.0223154,-0.00416768,-0.0195538,2,0,0.005,1.78077,0.00369155,0.0234528,0.0765115,1.90244,0.241419,1.22818,-0.86499,0.0514512,5.57541,0.24084,5.36507,0.0299726,0.427078,0.338475,0.298205,-0.0113938,0.197429,-0.708984,0.0616214,23.4932,23.3371,23.1811,23.2946,23.2236,23.2946,23.1385,
3,6.26997,1.39319,3.1505,4.12481,6.2706,1.98433,1.55762,0.00972351,0.0399744,0.0032484,0.11182,0.000238096,0.00274107,1.85464e-05,0.414033,-2.70189,-0.298335,4.17218,0.787301,-9.11212,0.609169,0.0134127,-18.9495,-0.36935,1.01561,-0.0356459,1.99063,-0.0122305,2.1897e-06,7.67249e-05,8.54392e-06,0.494734,0.00286158,0.0711604,0.0236973,-0.00447788,-0.0176873,1.99953,8.75489e-05,0.005,1.77949,0.0038297,0.0220984,0.0807372,2.25166,0.269974,1.28802,-0.777669,0.0314077,5.45047,0.268711,5.33887,0.0643871,0.418945,0.387054,0.298096,-0.0161133,0.189502,-0.688855,0.0685998,23.479,23.3371,23.1669,23.3087,23.2378,23.3087,23.1385,
4,6.26997,1.39319,3.1505,4.12481,6.2706,1.98433,1.55762,0.00972351,0.0399744,0.0032484,0.11182,0.000238096,0.00274107,1.85464e-05,0.414672,-2.80833,-0.282095,4.08659,0.846572,-9.53827,0.617469,0.0135831,-19.0139,-0.369602,1.00037,-0.0352865,1.94716,-0.0122381,3.72147e-06,0.00015516,1.56721e-05,0.494734,0.00286158,0.0711604,0.0236973,-0.00447788,-0.0176873,1.99906,0.000171988,0.005,1.77782,0.00418488,0.0204186,0.0804378,2.65746,0.314174,1.28802,-0.777669,0.0314077,5.45047,0.268711,5.33887,0.0643871,0.418945,0.387054,0.298096,-0.0161133,0.189502,-0.688855,0.0685998,23.479,23.3371,23.1669,23.3087,23.2378,23.3087,23.1385,
5,6.26998,1.39323,3.1505,4.12492,6.2706,1.98434,1.55762,0.0102637,0.0378136,0.00308495,0.113171,0.000248864,0.00340016,1.85606e-05,0.414616,-2.80771,-0.282215,4.08638,0.846549,-9.53743,0.617452,0.0135592,-19.0146,-0.369621,1.00109,-0.0352835,1.94709,-0.0122383,3.72147e-06,0.00015516,1.56721e-05,0.494734,0.00286158,0.0711604,0.0245476,-0.00463349,-0.0167876,1.99906,0.000171988,0.005,1.77782,0.00418488,0.0204186,0.0804378,2.65746,0.314174,1.29637,-0.651033,-0.0079111,5.34245,0.26381,5.29979,0.0786712,0.403154,0.459299,0.314312,-0.0113938,0.189331,-0.660694,0.0685998,23.4648,23.3229,23.1811,23.2946,23.2236,23.2946,23.1385,
6,6.26999,1.39326,3.1505,4.12503,6.2706,1.98435,1.55762,0.010793,0.0367333,0.00292538,0.115062,0.000259454,0.00409594,1.85464e-05,0.415136,-2.90193,-0.268317,4.01106,0.896913,-9.90963,0.626567,0.0136903,-19.0728,-0.3699,0.988544,-0.0349949,1.90927,-0.0120166,5.11056e-06,0.00023986,2.41652e-05,0.494734,0.00286158,0.0711604,0.0253225,-0.0047872,-0.0163209,1.99857,0.000259439,0.005,1.77662,0.00440363,0.0196089,0.0779294,3.01118,0.35151,1.26628,-0.507103,-0.0359926,5.14685,0.277965,5.24256,0.0742113,0.410968,0.475342,0.298096,-0.0254773,0.197429,-0.640503,0.0685998,23.479,23.3371,23.1669,23.3087,23.2094,23.2946,23.1527,
7,6.26999,1.39326,3.1505,4.12503,6.2706,1.98435,1.55762,0.010793,0.0367333,0.00292538,0.115062,0.000259454,0.00409594,1.85464e-05,0.415677,-2.99658,-0.253952,3.93608,0.948107,-10.2783,0.636119,0.0138346,-19.13,-0.370132,0.975303,-0.0347073,1.87208,-0.0117508,6.20271e-06,0.000328551,3.31125e-05,0.494734,0.00286158,0.0711604,0.0253225,-0.0047872,-0.0163209,1.99807,0.000349405,0.005,1.77548,0.00462295,0.0191888,0.0749779,3.36057,0.389613,1.26628,-0.507103,-0.0359926,5.14685,0.277965,5.24256,0.0742113,0.410968,0.475342,0.298096,-0.0254773,0.197429,-0.640503,0.0685998,23.479,23.3371,23.1669,23.3087,23.2094,23.2946,23.1527,
8,6.27001,1.3933,3.1505,4.12515,6.2706,1.98437,1.55762,0.0115462,0.0358599,0.00271317,0.115855,0.000275339,0.00695515,1.85464e-05,0.415647,-2.99616,-0.25412,3.936,0.948107,-10.2778,0.636125,0.0138152,-19.131,-0.370157,0.976143,-0.0347023,1.87198,-0.0117512,6.20271e-06,0.000328551,3.31125e-05,0.494734,0.00286158,0.0711604,0.0257368,-0.00501514,-0.0156847,1.99807,0.000349405,0.005,1.77548,0.00462295,0.0191888,0.0749779,3.36057,0.389613,1.31796,-0.418292,-0.0963146,5.00661,0.296954,5.24107,0.056208,0.403154,0.322266,0.298096,-0.0290486,0.185478,-0.620374,0.0765381,23.4932,23.3513,23.1669,23.3087,23.2236,23.2804,23.1527,
9,6.27002,1.39334,3.15051,4.12527,6.2706,1.98438,1.55762,0.0118722,0.0334582,0.0024101,0.113866,0.000296519,0.012127,1.85605e-05,0.416215,-3.10541,-0.236797,3.8504,1.00995,-10.7044,0.649601,0.013953,-19.1981,-0.370397,0.961982,-0.0343395,1.82892,-0.0112253,6.73467e-06,0.00042775,4.29993e-05,0.494734,0.00286158,0.0711604,0.0256738,-0.00504956,-0.0141457,1.99753,0.000448891,0.005,1.77461,0.00491762,0.0186163,0.0693624,3.76409,0.435943,1.33791,-0.338076,-0.145544,4.83571,0.354055,5.28207,0.0608365,0.386719,0.0644531,0.290039,-0.0490066,0.193359,-0.612318,0.0684814,23.479,23.3513,23.1811,23.3229,23.2236,23.2804,23.1669,
10,6.27002,1.39334,3.15051,4.12527,6.2706,1.98438,1.55762,0.0118722,0.0334582,0.0024101,0.113866,0.000296519,0.012127,1.85605e-05,0.417235,-3.22006,-0.225754,3.76306,1.05355,-11.1594,0.665685,0.0142252,-19.2675,-0.371131,0.946846,-0.0341181,1.78316,-0.0103289,6.85037e-06,0.000524276,5.18707e-05,0.494734,0.00286158,0.0711604,0.0256738,-0.00504956,-0.0141457,1.99702,0.000541964,0.005,1.77421,0.00503237,0.0172311,0.0602396,4.1921,0.465866,1.33791,-0.338076,-0.145544,4.83571,0.354055,5.28207,0.0608365,0.386719,0.0644531,0.290039,-0.0490066,0.193359,-0.612318,0.0684814,23.479,23.3513,23.1811,23.3229,23.2236,23.2804,23.1669,
11,6.27003,1.39336,3.15051,4.12538,6.27061,1.9844,1.55762,0.0124245,0.0264696,0.00212755,0.113171,0.000312404,0.0171565,1.85464e-05,0.417303,-3.21936,-0.226067,3.76217,1.05365,-11.1578,0.665777,0.0142101,-19.2684,-0.371157,0.947482,-0.0341149,1.78312,-0.0103296,6.85037e-06,0.000524276,5.18707e-05,0.494734,0.00286158,0.0711604,0.0269647,-0.00516284,-0.0108352,1.99702,0.000541964,0.005,1.77421,0.00503237,0.0172311,0.0602396,4.1921,0.465866,1.3322,-0.197046,-0.197413,4.70977,0.351771,5.33984,0.0608791,0.386719,-0.131153,0.274044,0.0113938,0.189331,-0.620414,0.0685998,23.5074,23.3229,23.1811,23.3229,23.2378,23.2946,23.1669,
12,6.27004,1.39338,3.15051,4.12549,6.27061,1.98442,1.55762,0.0135049,0.0172862,0.00164885,0.112631,0.000333583,0.0197171,1.85464e-05,0.41902,-3.38018,-0.212439,3.6338,1.1122,-11.8086,0.687017,0.0146227,-19.3672,-0.372319,0.925671,-0.0338071,1.71666,-0.00924605,6.83724e-06,0.000627729,6.17103e-05,0.494734,0.00286158,0.0711604,0.0287709,-0.00542632,-0.00692001,1.99649,0.00063844,0.005,1.77257,0.00522116,0.0142517,0.0491824,4.81097,0.505166,1.32274,-0.0626649,-0.245172,4.47781,0.351628,5.38098,0.0554931,0.403154,-0.266357,0.290039,0.0332184,0.197429,-0.636487,0.0726216,23.479,23.3229,23.1669,23.3087,23.2378,23.2946,23.1669,
13,6.27004,1.39338,3.15051,4.12549,6.27061,1.98442,1.55762,0.0135049,0.0172862,0.00164885,0.112631,0.000333583,0.0197171,1.85464e-05,0.420323,-3.5478,-0.191845,3.50056,1.19003,-12.4884,0.720596,0.0149702,-19.4686,-0.373068,0.902092,-0.0333692,1.64725,-0.00704983,5.18795e-06,0.000742609,7.18582e-05,0.494734,0.00286158,0.0711604,0.0287709,-0.00542632,-0.00692001,1.99592,0.000734287,0.005,1.77044,0.00554455,0.010728,0.0269476,5.45703,0.560945,1.32274,-0.0626649,-0.245172,4.47781,0.351628,5.38098,0.0554931,0.403154,-0.266357,0.290039,0.0332184,0.197429,-0.636487,0.0726216,23.479,23.3229,23.1669,23.3087,23.2378,23.2946,23.1669,
14,6.27006,1.39338,3.15051,4.12561,6.27061,1.98445,1.55762,0.0145446,0.0047646,0.00127653,0.11084,0.000360062,0.0223184,1.85466e-05,0.420517,-3.54631,-0.192446,3.49887,1.19021,-12.4852,0.720834,0.0149615,-19.4694,-0.373091,0.902628,-0.0333712,1.64722,-0.00705088,5.18795e-06,0.000742609,7.18582e-05,0.494734,0.00286158,0.0711604,0.030931,-0.00569779,-0.0016579,1.99592,0.000734287,0.005,1.77044,0.00554455,0.010728,0.0269476,5.45703,0.560945,1.35749,0.0469787,-0.252294,4.3511,0.362179,5.4196,0.0703322,0.370693,-0.307105,0.290039,0.0644531,0.197429,-0.620361,0.0725098,23.4932,23.3371,23.1952,23.3087,23.2378,23.2804,23.1385,
15,6.27007,1.39338,3.15051,4.12572,6.27061,1.98447,1.55762,0.0156657,-0.00756273,0.000733509,0.11128,0.000408782,0.0243088,1.85603e-05,0.42247,-3.74252,-0.171433,3.33997,1.27519,-13.2896,0.754747,0.0154133,-19.5899,-0.374178,0.875224,-0.0329035,1.5646,-0.00503182,3.35595e-06,0.000878921,8.35982e-05,0.494734,0.00286158,0.0711604,0.0336916,-0.00594596,0.00342239,1.99527,0.000846264,0.005,1.7679,0.00588965,0.00599211,0.00643367,6.22485,0.620533,1.33203,0.156075,-0.279603,4.29985,0.409737,5.50612,0.0697363,0.346529,-0.281982,0.274399,0.121118,0.197429,-0.604261,0.0689537,23.5074,23.3371,23.1811,23.3087,23.2236,23.2804,23.1527,
16,6.27007,1.39338,3.15051,4.12572,6.27061,1.98447,1.55762,0.0156657,-0.00756273,0.000733509,0.11128,0.000408782,0.0243088,1.85603e-05,0.424406,-3.95529,-0.150219,3.16953,1.36003,-14.1543,0.798523,0.0159298,-19.7187,-0.37548,0.844928,-0.0324373,1.47613,-0.00204373,1.93554e-07,0.00101987,9.47306e-05,0.494734,0.00286158,0.0711604,0.0336916,-0.00594596,0.00342239,1.9946,0.00095106,0.005,1.76482,0.00620732,0.00141985,-0.0236623,7.0479,0.679077,1.33203,0.156075,-0.279603,4.29985,0.409737,5.50612,0.0697363,0.346529,-0.281982,0.274399,0.121118,0.197429,-0.604261,0.0689537,23.5074,23.3371,23.1811,23.3087,23.2236,23.2804,23.1527,
17,6.27009,1.39336,3.15051,4.12583,6.27061,1.9845,1.55762,0.0167291,-0.011074,0.000319133,0.113171,0.000468075,0.0289004,1.85605e-05,0.424597,-3.95463,-0.150792,3.16883,1.3602,-14.153,0.798763,0.015927,-19.7196,-0.375507,0.845824,-0.0324363,1.47605,-0.00204448,1.93554e-07,0.00101987,9.47306e-05,0.494734,0.00286158,0.0711604,0.0349843,-0.00622286,0.00526771,1.9946,0.00095106,0.005,1.76482,0.00620732,0.00141985,-0.0236623,7.0479,0.679077,1.31415,0.302629,-0.300974,4.30478,0.397248,5.59865,0.0728693,0.314209,-0.210091,0.282097,0.121118,0.201416,-0.588135,0.0685998,23.4932,23.3513,23.1811,23.3087,23.2236,23.2804,23.1527,
18,6.27009,1.39336,3.15051,4.12583,6.27061,1.9845,1.55762,0.0167291,-0.011074,0.000319133,0.113171,0.000468075,0.0289004,1.85605e-05,0.426046,-4.14693,-0.127654,3.01818,1.44731,-14.9101,0.832729,0.0163136,-19.836,-0.376409,0.819383,-0.0319571,1.39961,5.1971e-05,-2.17846e-06,0.00117416,0.00010836,0.494734,0.00286158,0.0711604,0.0349843,-0.00622286,0.00526771,1.9939,0.00106825,0.005,1.76302,0.006562,-0.000240942,-0.0449696,7.76408,0.741564,1.31415,0.302629,-0.300974,4.30478,0.397248,5.59865,0.0728693,0.314209,-0.210091,0.282097,0.121118,0.201416,-0.588135,0.0685998,23.4932,23.3513,23.1811,23.3087,23.2236,23.2804,23.1527,
19,6.27011,1.39334,3.15051,4.12594,6.27062,1.98453,1.55762,0.0178264,-0.018348,0,0.115602,0.000573741,0.0318392,1.85464e-05,0.426279,-4.14581,-0.128382,3.01692,1.44748,-14.9077,0.833004,0.0163074,-19.837,-0.376433,0.82006,-0.0319626,1.39958,5.08441e-05,-2.17846e-06,0.00117416,0.00010836,0.494734,0.00286158,0.0711604,0.0372379,-0.00652574,0.00841392,1.9939,0.00106825,0.005,1.76302,0.006562,-0.000240942,-0.0449696,7.76408,0.741564,1.25864,0.53315,-0.316971,4.25564,0.400095,5.66949,0.0641228,0.306576,-0.378662,0.281982,0.072956,0.201456,-0.592218,0.0726216,23.479,23.3371,23.1811,23.3087,23.2236,23.2946,23.1527,
20,6.27013,1.39332,3.15051,4.12607,6.27062,1.98456,1.55762,0.0185569,-0.0210646,-8.88906e-05,0.116106,0.000742801,0.0345725,1.85464e-05,0.428275,-4.36201,-0.10585,2.84385,1.53799,-15.7709,0.868686,0.0167982,-19.9692,-0.3777,0.790732,-0.0314474,1.31159,0.00214921,-4.78945e-06,0.00133777,0.000122064,0.494734,0.00286158,0.0711604,0.0379626,-0.00676134,0.00977339,1.99316,0.00119285,0.005,1.76033,0.00694673,-0.00307253,-0.0663122,8.58491,0.805037,1.28787,0.83143,-0.30936,4.30668,0.407435,5.74613,0.0747296,0.290486,-0.419023,0.281982,0.0569691,0.205484,-0.596205,0.0684814,23.4932,23.3371,23.1669,23.2946,23.2378,23.3087,23.1385,
21,6.27015,1.3933,3.15051,4.12618,6.27062,1.98461,1.55762,0.0183666,-0.024849,-7.54971e-05,0.120072,0.000897792,0.041126,1.85605e-05,0.429797,-4.54098,-0.0855718,2.70301,1.61706,-16.4728,0.895818,0.0171644,-20,-0.378651,0.767147,-0.0309991,1.24072,0.00363549,-8.29585e-06,0.00151773,0.000137195,0.494734,0.00286158,0.0711604,0.0399078,-0.00664377,0.0118929,1.99236,0.00132938,0.005,1.75895,0.00728166,-0.00429605,-0.0815558,9.24932,0.861426,1.24814,1.06705,-0.275851,4.38371,0.415152,5.83934,0.0514668,0.290151,-0.564022,0.257938,0.0332184,0.205484,-0.588135,0.072956,23.4932,23.3371,23.1669,23.3087,23.2236,23.3087,23.1527,
22,6.27017,1.39327,3.15051,4.1263,6.27063,1.98465,1.55762,0.0199872,-0.0280901,-0.000113246,0.121544,0.00104689,0.0453764,1.85606e-05,0.433227,-4.7906,-0.0791226,2.50557,1.66528,-17.4575,0.920705,0.0179988,-20,-0.381476,0.733521,-0.0308128,1.141,0.00479402,-1.10327e-05,0.00170436,0.000151221,0.494734,0.00286158,0.0711604,0.0410246,-0.00724089,0.0136023,1.99157,0.00145726,0.005,1.7565,0.00729093,-0.0062036,-0.0931356,10.1823,0.885649,1.19688,1.50893,-0.283215,4.4211,0.3794,5.91993,0.0621433,0.298205,-0.652638,0.265991,-0.0254773,0.209628,-0.616386,0.0684814,23.4932,23.3371,23.1669,23.3229,23.2378,23.3229,23.1527,
23,6.27017,1.39327,3.15051,4.1263,6.27063,1.98465,1.55762,0.0199872,-0.0280901,-0.000113246,0.121544,0.00104689,0.0453764,1.85606e-05,0.434479,-5.00313,-0.0475348,2.33967,1.78025,-18.2906,0.947706,0.0183328,-20,-0.382044,0.704535,-0.0301316,1.05706,0.00587631,-1.36097e-05,0.00189647,0.000167309,0.494734,0.00286158,0.0711604,0.0410246,-0.00724089,0.0136023,1.99076,0.00159854,0.005,1.75476,0.00795548,-0.00774209,-0.104633,10.9697,0.971261,1.19688,1.50893,-0.283215,4.4211,0.3794,5.91993,0.0621433,0.298205,-0.652638,0.265991,-0.0254773,0.209628,-0.616386,0.0684814,23.4932,23.3371,23.1669,23.3229,23.2378,23.3229,23.1527,
24,6.27018,1.39324,3.15051,4.12642,6.27063,1.9847,1.55762,0.019447,-0.0326818,-0.000165599,0.121544,0.00117288,0.0491577,1.85464e-05,0.434556,-5.00208,-0.0478274,2.33846,1.7803,-18.2884,0.947859,0.0183343,-20,-0.382092,0.705507,-0.0301017,1.05691,0.0058732,-1.36097e-05,0.00189647,0.000167309,0.494734,0.00286158,0.0711604,0.0419998,-0.00698386,0.0158245,1.99076,0.00159854,0.005,1.75476,0.00795548,-0.00774209,-0.104633,10.9697,0.971261,1.06078,1.93253,-0.329466,4.41356,0.357826,6.00493,0.0469521,0.257812,-0.741255,0.249886,-0.0490066,0.205444,-0.620374,0.0805664,23.4932,23.3371,23.1669,23.3087,23.2378,23.3087,23.1385,
25,6.27018,1.39324,3.15051,4.12642,6.27063,1.9847,1.55762,0.019447,-0.0326818,-0.000165599,0.121544,0.00117288,0.0491577,1.85464e-05,0.437191,-5.21433,-0.0407604,2.17344,1.82217,-19.1277,0.971145,0.0190372,-20,-0.384406,0.676588,-0.0299575,0.972242,0.00714568,-1.65565e-05,0.00209695,0.000183208,0.494734,0.00286158,0.0711604,0.0419998,-0.00698386,0.0158245,1.98993,0.00173332,0.005,1.75314,0.00784546,-0.00974201,-0.1173,11.7622,0.992683,1.06078,1.93253,-0.329466,4.41356,0.357826,6.00493,0.0469521,0.257812,-0.741255,0.249886,-0.0490066,0.205444,-0.620374,0.0805664,23.4932,23.3371,23.1669,23.3087,23.2378,23.3087,23.1385,
26,6.2702,1.3932,3.15051,4.12655,6.27063,1.98475,1.55762,0.0175373,-0.0380837,-0.000147511,0.122375,0.00140792,0.0521288,1.85186e-05,0.437084,-5.21304,-0.0406804,2.17201,1.82208,-19.1249,0.971107,0.0190364,-20,-0.384476,0.677614,-0.0299048,0.972106,0.00713928,-1.65565e-05,0.00209695,0.000183208,0.494734,0.00286158,0.0711604,0.0433841,-0.00619102,0.0182657,1.98993,0.00173332,0.005,1.75314,0.00784546,-0.00974201,-0.1173,11.7622,0.992683,1.08898,2.41759,-0.255972,4.47184,0.318714,6.13136,0.0975286,0.290039,-0.789921,0.241833,-0.041081,0.209628,-0.624403,0.072956,23.4932,23.3513,23.1669,23.3087,23.2378,23.2946,23.1669,
27,6.2702,1.3932,3.15051,4.12655,6.27063,1.98475,1.55762,0.0175373,-0.0380837,-0.000147511,0.122375,0.00140792,0.0521288,1.85186e-05,0.441022,-5.44446,-0.0519126,1.99127,1.81254,-20.0426,0.99155,0.0200868,-20,-0.388353,0.645752,-0.0301299,0.87939,0.00841221,-1.93738e-05,0.00231582,0.000198051,0.494734,0.00286158,0.0711604,0.0433841,-0.00619102,0.0182657,1.98902,0.00186486,0.005,1.75108,0.00725029,-0.0119391,-0.129431,12.6291,0.967651,1.08898,2.41759,-0.255972,4.47184,0.318714,6.13136,0.0975286,0.290039,-0.789921,0.241833,-0.041081,0.209628,-0.624403,0.072956,23.4932,23.3513,23.1669,23.3087,23.2378,23.2946,23.1669,
28,6.2702,1.3932,3.15051,4.12655,6.27063,1.98475,1.55762,0.0175373,-0.0380837,-0.000147511,0.122375,0.00140792,0.0521288,1.85186e-05,0.441022,-5.44446,-0.0519126,1.99127,1.81254,-20.0426,0.99155,0.0200868,-20,-0.388353,0.645752,-0.0301299,0.87939,0.00841221,-1.93738e-05,0.00231582,0.000198051,0.494734,0.00286158,0.0711604,0.0433841,-0.00619102,0.0182657,1.98902,0.00186486,0.005,1.75108,0.00725029,-0.0119391,-0.129431,12.6291,0.967651,1.08898,2.41759,-0.255972,4.47184,0.318714,6.13136,0.0975286,0.290039,-0.789921,0.241833,-0.041081,0.209628,-0.624403,0.072956,23.4932,23.3513,23.1669,23.3087,23.2378,23.2946,23.1669,
29,6.27022,1.39315,3.15051,4.12667,6.27063,1.98481,1.55762,0.0172862,-0.0440937,-0.000263303,0.121421,0.00165592,0.0546161,1.85605e-05,0.4411,-5.44303,-0.0522457,1.98982,1.81259,-20.0398,0.991688,0.0200863,-20,-0.388394,0.64673,-0.0301035,0.879215,0.00840744,-1.93738e-05,0.00231582,0.000198051,0.494734,0.00286158,0.0711604,0.0443878,-0.00601953,0.0209313,1.98902,0.00186486,0.005,1.75108,0.00725029,-0.0119391,-0.129431,12.6291,0.967651,0.924617,2.66801,-0.217399,4.5852,0.313403,6.21968,0.0597067,0.339241,-0.82999,0.233781,-0.0322266,0.205444,-0.628431,0.0685998,23.4932,23.3371,23.1811,23.3087,23.2236,23.2946,23.1385,
30,6.27022,1.39315,3.15051,4.12667,6.27063,1.98481,1.55762,0.0172862,-0.0440937,-0.000263303,0.121421,0.00165592,0.0546161,1.85605e-05,0.443883,-5.66529,-0.0451357,1.81688,1.85643,-20.9216,1.01925,0.0208285,-20,-0.390838,0.616428,-0.0299376,0.790152,0.0100303,-2.22945e-05,0.00254055,0.000212177,0.494734,0.00286158,0.0711604,0.0443878,-0.00601953,0.0209313,1.98813,0.0019828,0.005,1.74937,0.0072021,-0.0143382,-0.145571,13.462,0.990047,0.924617,2.66801,-0.217399,4.5852,0.313403,6.21968,0.0597067,0.339241,-0.82999,0.233781,-0.0322266,0.205444,-0.628431,0.0685998,23.4932,23.3371,23.1811,23.3087,23.2236,23.2946,23.1385,
31,6.27024,1.3931,3.15051,4.12679,6.27063,1.98487,1.55762,0.0151255,-0.0507783,-0.00023757,0.119383,0.0017932,0.0559102,1.85324e-05,0.443697,-5.66367,-0.0448183,1.81542,1.85631,-20.9185,1.01913,0.0208269,-20,-0.3909,0.617416,-0.0298787,0.789956,0.010023,-2.22945e-05,0.00254055,0.000212177,0.494734,0.00286158,0.0711604,0.0452196,-0.00514654,0.023757,1.98813,0.0019828,0.005,1.74937,0.0072021,-0.0143382,-0.145571,13.462,0.990047,0.907899,2.97449,-0.179718,4.66156,0.288709,6.29986,0.0709247,0.33042,-0.81408,0.241699,-0.0161133,0.209511,-0.620361,0.076961,23.479,23.3371,23.1811,23.3087,23.2378,23.2804,23.1669,
32,6.27024,1.3931,3.15051,4.12679,6.27063,1.98487,1.55762,0.0151255,-0.0507783,-0.00023757,0.119383,0.0017932,0.0559102,1.85324e-05,0.447484,-5.87059,-0.05938,1.65479,1.83423,-21.7449,1.03428,0.021837,-20,-0.394688,0.589176,-0.0301822,0.706404,0.010953,-2.44951e-05,0.00276342,0.000224813,0.494734,0.00286158,0.0711604,0.0452196,-0.00514654,0.023757,1.98724,0.00208799,0.005,1.74782,0.00651107,-0.0168813,-0.154174,14.242,0.955703,0.907899,2.97449,-0.179718,4.66156,0.288709,6.29986,0.0709247,0.33042,-0.81408,0.241699,-0.0161133,0.209511,-0.620361,0.076961,23.479,23.3371,23.1811,23.3087,23.2378,23.2804,23.1669,
33,6.27025,1.39305,3.15051,4.12691,6.27063,1.98492,1.55762,0.0140451,-0.0545597,-0.000212755,0.118573,0.0018946,0.0588813,1.85184e-05,0.447426,-5.86934,-0.0593536,1.65358,1.8342,-21.7425,1.03427,0.0218349,-20,-0.394737,0.590351,-0.0301423,0.706192,0.0109453,-2.44951e-05,0.00276342,0.000224813,0.494734,0.00286158,0.0711604,0.045786,-0.00470553,0.0255899,1.98724,0.00208799,0.005,1.74782,0.00651107,-0.0168813,-0.154174,14.242,0.955703,0.71893,3.25998,-0.19098,4.63165,0.267921,6.35768,0.045579,0.378662,-0.81408,0.242236,0.0113938,0.197388,-0.60833,0.076644,23.479,23.3513,23.1952,23.3087,23.2236,23.3087,23.1527,
34,6.27026,1.39299,3.15051,4.12704,6.27063,1.98499,1.55762,0.01304,-0.0567205,-0.000186179,0.120369,0.00182913,0.0615822,1.85462e-05,0.450643,-6.0821,-0.0634388,1.4871,1.84438,-22.5841,1.05225,0.0227011,-20,-0.397926,0.562811,-0.0301696,0.621043,0.0118617,-2.72056e-05,0.00299202,0.000235816,0.494734,0.00286158,0.0711604,0.0467567,-0.00430769,0.0267057,1.98634,0.00218201,0.005,1.7465,0.00619879,-0.0185309,-0.163038,15.0374,0.94933,0.665153,3.5889,-0.0888155,4.67153,0.277282,6.38848,0.0670526,0.410968,-0.862098,0.225586,0.041081,0.201456,-0.608276,0.0685998,23.4932,23.3229,23.1811,23.3087,23.2236,23.2804,23.1385,
35,6.27026,1.39299,3.15051,4.12704,6.27063,1.98499,1.55762,0.01304,-0.0567205,-0.000186179,0.120369,0.00182913,0.0615822,1.85462e-05,0.453983,-6.31535,-0.0641932,1.30572,1.8659,-23.4962,1.06828,0.023592,-20,-0.401083,0.531015,-0.0301719,0.529327,0.0124527,-2.93834e-05,0.00323674,0.000247709,0.494734,0.00286158,0.0711604,0.0467567,-0.00430769,0.0267057,1.98536,0.00227873,0.005,1.74475,0.00592778,-0.0195351,-0.16868,15.8979,0.951646,0.665153,3.5889,-0.0888155,4.67153,0.277282,6.38848,0.0670526,0.410968,-0.862098,0.225586,0.041081,0.201456,-0.608276,0.0685998,23.4932,23.3229,23.1811,23.3087,23.2236,23.2804,23.1385,
36,6.27028,1.39293,3.15051,4.12715,6.27063,1.98505,1.55762,0.0124245,-0.0588813,-0.000184758,0.119653,0.00176261,0.0644475,1.0582e-05,0.453969,-6.31411,-0.0642339,1.30467,1.86594,-23.4939,1.06833,0.0235848,-20,-0.40112,0.532392,-0.0301421,0.529065,0.0124447,-2.93834e-05,0.00323674,0.000247709,0.494734,0.00286158,0.0711604,0.0470045,-0.0040644,0.0278859,1.98536,0.00227873,0.005,1.74475,0.00592778,-0.0195351,-0.16868,15.8979,0.951646,0.495429,3.72707,-0.0359929,4.64907,0.244132,6.42819,0.0326435,0.443188,-0.91934,0.217529,0.0290486,0.209473,-0.616333,0.0725098,23.5074,23.3513,23.1811,23.2946,23.2094,23.3229,23.1385,
37,6.27029,1.39287,3.15051,4.12727,6.27063,1.98512,1.55762,0.0102533,-0.0608794,-0.00013197,0.122084,0.00167448,0.066444,1.05901e-05,0.456632,-6.52694,-0.0614425,1.13875,1.89471,-24.3296,1.08386,0.0243526,-20,-0.403869,0.505098,-0.0300205,0.444763,0.0129992,-3.14714e-05,0.00348106,0.000257986,0.494734,0.00286158,0.0711604,0.0481198,-0.00321406,0.0288515,1.98444,0.00236313,0.005,1.74369,0.00578477,-0.0205973,-0.1742,16.6869,0.961776,0.513457,3.84337,0.0384686,4.63519,0.241872,6.40924,0.0290663,0.427078,-0.98291,0.209628,0.041081,0.209511,-0.608276,0.0765381,23.4932,23.3371,23.1669,23.2946,23.2236,23.2662,23.1527,
38,6.27029,1.39287,3.15051,4.12727,6.27063,1.98512,1.55762,0.0102533,-0.0608794,-0.00013197,0.122084,0.00167448,0.066444,1.05901e-05,0.460971,-6.76252,-0.0794875,0.955305,1.86603,-25.2517,1.09626,0.02551,-20,-0.408295,0.472825,-0.0303724,0.352028,0.0135674,-3.36763e-05,0.00373177,0.00026615,0.494734,0.00286158,0.0711604,0.0481198,-0.00321406,0.0288515,1.98347,0.00243025,0.005,1.74181,0.00507987,-0.0214663,-0.179048,17.5566,0.919931,0.513457,3.84337,0.0384686,4.63519,0.241872,6.40924,0.0290663,0.427078,-0.98291,0.209628,0.041081,0.209511,-0.608276,0.0765381,23.4932,23.3371,23.1669,23.2946,23.2236,23.2662,23.1527,
39,6.2703,1.3928,3.15051,4.1274,6.27063,1.98519,1.55762,0.00973338,-0.066444,-0.000132985,0.124245,0.00156353,0.0675244,1.0582e-05,0.460977,-6.76077,-0.0796118,0.953466,1.86607,-25.2481,1.09627,0.0255013,-20,-0.408334,0.473812,-0.0303528,0.35189,0.0135564,-3.36763e-05,0.00373177,0.00026615,0.494734,0.00286158,0.0711604,0.0499234,-0.00299627,0.031137,1.98347,0.00243025,0.005,1.74181,0.00507987,-0.0214663,-0.179048,17.5566,0.919931,0.404967,3.92741,0.0670924,4.57977,0.213119,6.38256,0.0383841,0.491719,-1.04739,0.209628,0.0254773,0.209511,-0.60833,0.0685998,23.479,23.3229,23.1811,23.3229,23.2094,23.2946,23.1385,
40,6.27031,1.39273,3.15051,4.12753,6.27063,1.98526,1.55762,0.00952024,-0.0729263,-0.000121064,0.124264,0.00147503,0.0661406,1.0582e-05,0.46462,-7.0133,-0.0794151,0.7513,1.89483,-26.2501,1.11606,0.0264539,-20,-0.411723,0.439713,-0.0302746,0.249994,0.0143264,-3.59161e-05,0.00398648,0.00027375,0.494734,0.00286158,0.0711604,0.0513085,-0.00290905,0.0335658,1.98248,0.00249296,0.005,1.7393,0.00494031,-0.0235233,-0.186601,18.5085,0.926895,0.359114,4.08152,0.131744,4.59257,0.220048,6.3151,0.0167483,0.475342,-1.00711,0.193527,0,0.217529,-0.596191,0.0726216,23.479,23.3371,23.1527,23.3087,23.2094,23.2804,23.1527,
41,6.27031,1.39265,3.15051,4.12765,6.27063,1.98532,1.55762,0.00810292,-0.0788685,-0.000120233,0.125325,0.00141009,0.0648234,1.05821e-05,0.467594,-7.25024,-0.0741811,0.561894,1.9351,-27.1921,1.13567,0.0272833,-20,-0.414599,0.407895,-0.0300843,0.154191,0.0150777,-3.83451e-05,0.00426102,0.000281746,0.494734,0.00286158,0.0711604,0.0528746,-0.00233799,0.0357692,1.98142,0.00255886,0.005,1.7371,0.00492112,-0.0257092,-0.194185,19.4033,0.94516,0.247667,4.14186,0.19136,4.57368,0.170702,6.22228,0.0296237,0.491455,-0.95082,0.201577,-0.00805664,0.205484,-0.563979,0.076644,23.4648,23.3229,23.1811,23.2946,23.2378,23.2946,23.1243,
42,6.27031,1.39265,3.15051,4.12765,6.27063,1.98532,1.55762,0.00810292,-0.0788685,-0.000120233,0.125325,0.00141009,0.0648234,1.05821e-05,0.471677,-7.4869,-0.0867535,0.3757,1.92386,-28.1286,1.15419,0.0283722,-20,-0.418645,0.375028,-0.0302933,0.0594987,0.0160926,-4.11749e-05,0.00452597,0.000286801,0.494734,0.00286158,0.0711604,0.0528746,-0.00233799,0.0357692,1.98037,0.00260626,0.005,1.73475,0.00444983,-0.0276923,-0.203619,20.2893,0.91835,0.247667,4.14186,0.19136,4.57368,0.170702,6.22228,0.0296237,0.491455,-0.95082,0.201577,-0.00805664,0.205484,-0.563979,0.076644,23.4648,23.3229,23.1811,23.2946,23.2378,23.2946,23.1243,
43,6.27032,1.39257,3.15051,4.12778,6.27063,1.98538,1.55762,0.00702253,-0.0837567,-7.21333e-05,0.127216,0.00126321,0.0626626,1.0582e-05,0.471563,-7.48454,-0.0865837,0.374313,1.92381,-28.1248,1.15403,0.0283617,-20,-0.418689,0.376474,-0.030261,0.0592855,0.0160758,-4.11749e-05,0.00452597,0.000286801,0.494734,0.00286158,0.0711604,0.0544557,-0.00192286,0.0374521,1.98037,0.00260626,0.005,1.73475,0.00444983,-0.0276923,-0.203619,20.2893,0.91835,0.256534,4.17741,0.22099,4.57798,0.194222,6.09835,0.00468138,0.523682,-0.918492,0.193359,-0.0241699,0.209473,-0.52771,0.0805664,23.4648,23.3087,23.1669,23.2946,23.2236,23.2804,23.1385,
44,6.27033,1.39248,3.15051,4.1279,6.27063,1.98544,1.55762,0.00648234,-0.0891322,-4.80889e-05,0.125325,0.00115052,0.0588813,1.06061e-05,0.475315,-7.71943,-0.0942646,0.186231,1.92679,-29.0562,1.1701,0.0293628,-20,-0.422424,0.345089,-0.0303486,-0.0354604,0.0167378,-4.37519e-05,0.00480225,0.000291779,0.494734,0.00286158,0.0711604,0.055055,-0.00172407,0.0392261,1.97927,0.00264663,0.005,1.73233,0.00411254,-0.0292069,-0.209887,21.1738,0.904079,0.231126,4.20797,0.262734,4.60571,0.227377,5.93933,0.017736,0.531799,-0.88623,0.193527,-0.0402832,0.213539,-0.503556,0.080667,23.479,23.3087,23.1669,23.3087,23.2094,23.2946,23.1243,
45,6.27033,1.39238,3.15051,4.12803,6.27063,1.9855,1.55762,0.00601278,-0.0945341,0,0.126136,0.00112102,0.0546675,1.05821e-05,0.478138,-7.90918,-0.0966055,0.034862,1.941,-29.8128,1.18546,0.0301158,-20,-0.42518,0.320299,-0.0303294,-0.112459,0.0174135,-4.64507e-05,0.00507159,0.000295361,0.494734,0.00286158,0.0711604,0.0564378,-0.00154409,0.0409159,1.97819,0.00268252,0.005,1.73082,0.00396593,-0.0308035,-0.216525,21.8922,0.902835,0.197896,4.38093,0.340809,4.66576,0.239292,5.78777,-0.0319223,0.515688,-0.862098,0.209628,-0.00805664,0.213539,-0.443115,0.076961,23.479,23.3371,23.1385,23.2804,23.1952,23.2804,23.1385,
46,6.27034,1.39229,3.15051,4.12816,6.27064,1.98555,1.55762,0.00540195,-0.099565,0,0.127641,0.000998814,0.0501872,1.05821e-05,0.481308,-8.12177,-0.0995367,-0.136369,1.95625,-30.6581,1.20405,0.0309645,-20,-0.428294,0.292029,-0.0303051,-0.198562,0.0183048,-4.94898e-05,0.00534719,0.00029889,0.494734,0.00286158,0.0711604,0.057941,-0.00130288,0.0424203,1.97707,0.00271658,0.005,1.72857,0.00383461,-0.0323243,-0.225287,22.6963,0.900872,0.140531,4.50544,0.398844,4.61225,0.205081,5.57647,0.0180987,0.531738,-0.838046,0.193359,0,0.217529,-0.382712,0.076644,23.479,23.3229,23.1669,23.2804,23.1952,23.2662,23.1385,
47,6.27034,1.39229,3.15051,4.12816,6.27064,1.98555,1.55762,0.00540195,-0.099565,0,0.127641,0.000998814,0.0501872,1.05821e-05,0.484705,-8.3436,-0.10386,-0.312032,1.96804,-31.5305,1.2232,0.0318706,-20,-0.431556,0.261004,-0.0303348,-0.286746,0.0192606,-5.25127e-05,0.00563038,0.000301864,0.494734,0.00286158,0.0711604,0.057941,-0.00130288,0.0424203,1.97587,0.00274255,0.005,1.72614,0.00364088,-0.0336783,-0.234428,23.5227,0.895396,0.140531,4.50544,0.398844,4.61225,0.205081,5.57647,0.0180987,0.531738,-0.838046,0.193359,0,0.217529,-0.382712,0.076644,23.479,23.3229,23.1669,23.2804,23.1952,23.2662,23.1385,
48,6.27034,1.39218,3.15051,4.12829,6.27064,1.98559,1.55762,0.00486175,-0.10131,4.0821e-05,0.128436,0.00094006,0.0472671,1.059e-05,0.484632,-8.34116,-0.103802,-0.312536,1.96798,-31.5275,1.22293,0.0318496,-20,-0.431583,0.263189,-0.0303132,-0.287082,0.0192372,-5.25127e-05,0.00563038,0.000301864,0.494734,0.00286158,0.0711604,0.0585376,-0.00110375,0.042802,1.97587,0.00274255,0.005,1.72614,0.00364088,-0.0336783,-0.234428,23.5227,0.895396,0.201911,4.64563,0.431978,4.59755,0.257473,5.34593,-0.00952333,0.555967,-0.821817,0.209473,-0.0332184,0.221594,-0.326294,0.080667,23.479,23.3229,23.1669,23.2804,23.2094,23.2804,23.1527,
49,6.27035,1.39206,3.15051,4.12842,6.27064,1.98564,1.55762,0.00432156,-0.101655,3.79503e-05,0.131267,0.000944017,0.0472671,1.059e-05,0.487793,-8.54245,-0.109992,-0.47232,1.97263,-32.3158,1.23916,0.0326886,-20,-0.434775,0.237508,-0.0303494,-0.366858,0.0200061,-5.56644e-05,0.00591117,0.000303048,0.494734,0.00286158,0.0711604,0.059418,-0.000879534,0.0429026,1.97469,0.00276431,0.005,1.72453,0.00348125,-0.0340218,-0.241951,24.2694,0.885216,0.172387,4.7392,0.464871,4.58698,0.312339,5.10939,0.000357702,0.555967,-0.886267,0.209473,-0.0322266,0.225622,-0.286039,0.076644,23.4932,23.3229,23.1669,23.2946,23.2236,23.2662,23.1385,
50,6.27035,1.39206,3.15051,4.12842,6.27064,1.98564,1.55762,0.00432156,-0.101655,3.79503e-05,0.131267,0.000944017,0.0472671,1.059e-05,0.491702,-8.78361,-0.119418,-0.66073,1.97261,-33.2513,1.2617,0.033731,-20,-0.438665,0.204457,-0.0304496,-0.460768,0.0212712,-5.96893e-05,0.00620285,0.000303093,0.494734,0.00286158,0.0711604,0.059418,-0.000879534,0.0429026,1.97345,0.00277723,0.005,1.72263,0.00329109,-0.0341124,-0.253994,25.1522,0.868269,0.172387,4.7392,0.464871,4.58698,0.312339,5.10939,0.000357702,0.555967,-0.886267,0.209473,-0.0322266,0.225622,-0.286039,0.076644,23.4932,23.3229,23.1669,23.2946,23.2236,23.2662,23.1385,
51,6.27035,1.39198,3.15051,4.12855,6.27064,1.98568,1.55762,0.00432156,-0.103337,7.5906e-05,0.133158,0.00100697,0.044296,1.0582e-05,0.491695,-8.78112,-0.11957,-0.661465,1.97257,-33.2481,1.26148,0.0337106,-20,-0.438688,0.20642,-0.0304401,-0.461046,0.0212496,-5.96893e-05,0.00620285,0.000303093,0.494734,0.00286158,0.0711604,0.0603191,-0.000878477,0.043234,1.97345,0.00277723,0.005,1.72263,0.00329109,-0.0341124,-0.253994,25.1522,0.868269,0.175416,4.90066,0.47524,4.63323,0.315088,4.89224,-0.0478379,0.547911,-0.982943,0.201577,-0.0809682,0.22573,-0.273926,0.0765381,23.479,23.3087,23.1527,23.3229,23.2094,23.2804,23.1527,
52,6.27036,1.39187,3.15051,4.12869,6.27064,1.98573,1.55762,0.00390111,-0.103717,7.05613e-05,0.131403,0.00103723,0.0431322,1.0582e-05,0.49454,-8.97583,-0.12161,-0.816796,1.98939,-34.011,1.27967,0.034463,-20,-0.441481,0.181699,-0.0303756,-0.538498,0.0221303,-6.26159e-05,0.0064642,0.000303742,0.494734,0.00286158,0.0711604,0.059889,-0.000714058,0.0433085,1.97233,0.00279576,0.005,1.72081,0.00330681,-0.0344106,-0.262785,25.8759,0.869214,0.0774629,5.02303,0.497367,4.54184,0.296856,4.65001,-0.00221817,0.531738,-1.01542,0.201577,-0.121118,0.225622,-0.22965,0.076961,23.479,23.3087,23.1669,23.2946,23.2094,23.2804,23.1527,
53,6.27036,1.39175,3.15051,4.12882,6.27065,1.98577,1.55762,0.00312089,-0.103324,0.000123491,0.130457,0.00113648,0.041595,1.05821e-05,0.497477,-9.16579,-0.12808,-0.964484,1.99161,-34.7535,1.2973,0.0352542,-20,-0.444547,0.158813,-0.0304133,-0.613423,0.023105,-6.61591e-05,0.00675177,0.000304157,0.494734,0.00286158,0.0711604,0.0595261,-0.000416785,0.0430221,1.97109,0.00280668,0.005,1.72008,0.00316867,-0.0344776,-0.272388,26.5762,0.8578,0.135004,5.13065,0.508062,4.44214,0.338274,4.38128,-0.0279665,0.555967,-1.07165,0.209628,-0.0809682,0.229614,-0.201416,0.0805664,23.479,23.3229,23.1669,23.2946,23.2094,23.2804,23.1385,
54,6.27036,1.39164,3.15051,4.12894,6.27065,1.98581,1.55762,0.00243088,-0.106148,0.000132479,0.128566,0.00125461,0.0394342,1.05901e-05,0.500876,-9.35876,-0.142079,-1.11527,1.97279,-35.5057,1.31389,0.0361725,-20,-0.448195,0.134797,-0.0305922,-0.68925,0.0240943,-6.99885e-05,0.00704666,0.000302295,0.494734,0.00286158,0.0711604,0.0595784,-0.000136003,0.0439607,1.96981,0.00280861,0.005,1.71926,0.00290286,-0.0342199,-0.281846,27.2861,0.827792,0.0590389,5.20499,0.532267,4.36202,0.390456,4.15068,-0.02609,0.580134,-1.14404,0.225586,-0.0509547,0.217567,-0.169189,0.076961,23.479,23.3229,23.1669,23.2946,23.1952,23.2662,23.1385,
55,6.27036,1.39164,3.15051,4.12894,6.27065,1.98581,1.55762,0.00243088,-0.106148,0.000132479,0.128566,0.00125461,0.0394342,1.05901e-05,0.504319,-9.5463,-0.156339,-1.26059,1.95337,-36.2412,1.33366,0.0370905,-20,-0.451717,0.109406,-0.0307915,-0.763181,0.0254128,-7.4001e-05,0.00731703,0.000299406,0.494734,0.00286158,0.0711604,0.0595784,-0.000136003,0.0439607,1.96864,0.00280511,0.005,1.71815,0.002647,-0.0350646,-0.294248,27.9793,0.797468,0.0590389,5.20499,0.532267,4.36202,0.390456,4.15068,-0.02609,0.580134,-1.14404,0.225586,-0.0509547,0.217567,-0.169189,0.076961,23.479,23.3229,23.1669,23.2946,23.1952,23.2662,23.1385,
56,6.27036,1.39154,3.15051,4.12907,6.27065,1.98585,1.55762,0.00215968,-0.10993,0.000124826,0.128566,0.00136264,0.0385848,1.0582e-05,0.504284,-9.5439,-0.156389,-1.26176,1.95327,-36.2376,1.33326,0.0370739,-20,-0.451744,0.111197,-0.0307769,-0.763454,0.0253818,-7.4001e-05,0.00731703,0.000299406,0.494734,0.00286158,0.0711604,0.0603779,-7.1325e-06,0.0453845,1.96864,0.00280511,0.005,1.71815,0.002647,-0.0350646,-0.294248,27.9793,0.797468,0.0530682,5.43541,0.512591,4.36126,0.386736,3.94385,-0.0532985,0.580134,-1.12819,0.201577,-0.0113938,0.22965,-0.145075,0.076961,23.479,23.3371,23.1527,23.2946,23.2236,23.2946,23.1385,
57,6.27036,1.39154,3.15051,4.12907,6.27065,1.98585,1.55762,0.00215968,-0.10993,0.000124826,0.128566,0.00136264,0.0385848,1.0582e-05,0.508005,-9.76611,-0.166641,-1.43578,1.94996,-37.1113,1.35779,0.0380658,-20,-0.45544,0.0806715,-0.0308712,-0.851536,0.026907,-7.83227e-05,0.0075902,0.000296483,0.494734,0.00286158,0.0711604,0.0603779,-7.1325e-06,0.0453845,1.96745,0.00279994,0.005,1.71636,0.00252636,-0.036346,-0.30885,28.8047,0.778773,0.0530682,5.43541,0.512591,4.36126,0.386736,3.94385,-0.0532985,0.580134,-1.12819,0.201577,-0.0113938,0.22965,-0.145075,0.076961,23.479,23.3371,23.1527,23.2946,23.2236,23.2946,23.1385,
58,6.27036,1.39142,3.15051,4.12921,6.27066,1.98589,1.55762,0.00233953,-0.113056,0.000124265,0.129525,0.00146181,0.0393706,1.0582e-05,0.508054,-9.76378,-0.166905,-1.43733,1.94993,-37.1074,1.35748,0.038047,-20,-0.455465,0.0825117,-0.030866,-0.851795,0.0268764,-7.83227e-05,0.0075902,0.000296483,0.494734,0.00286158,0.0711604,0.0613128,-5.63827e-05,0.0467063,1.96745,0.00279994,0.005,1.71636,0.00252636,-0.036346,-0.30885,28.8047,0.778773,-0.028197,5.62037,0.50428,4.28768,0.366474,3.73539,-0.0532985,0.564022,-1.12839,0.225586,-0.0180152,0.225586,-0.120917,0.076961,23.4648,23.3371,23.1385,23.2804,23.2094,23.2946,23.1385,
59,6.27037,1.3913,3.15051,4.12934,6.27066,1.98593,1.55762,0.00228146,-0.115353,0.000124819,0.129107,0.00152431,0.0367333,1.0582e-05,0.511917,-10.0128,-0.172319,-1.635,1.96474,-38.0904,1.38423,0.0390534,-20,-0.459214,0.0503022,-0.0308306,-0.951507,0.0283673,-8.28066e-05,0.00788121,0.000293946,0.494734,0.00286158,0.0711604,0.0616775,-2.66391e-05,0.0473615,1.96618,0.00279805,0.005,1.71438,0.00256899,-0.0375357,-0.323627,29.7365,0.774008,0.0596861,5.8318,0.439089,4.21825,0.376682,3.51369,-0.0215643,0.547852,-1.1361,0.209473,-0.00805664,0.225586,-0.116821,0.0685998,23.4932,23.3229,23.1527,23.2946,23.1952,23.2804,23.1385,
60,6.27037,1.3913,3.15051,4.12934,6.27066,1.98593,1.55762,0.00228146,-0.115353,0.000124819,0.129107,0.00152431,0.0367333,1.0582e-05,0.515152,-10.2162,-0.178976,-1.79377,1.9696,-38.8843,1.40736,0.0399156,-20,-0.462404,0.0225352,-0.0308621,-1.03132,0.0297776,-8.73145e-05,0.00816716,0.000291044,0.494734,0.00286158,0.0711604,0.0616775,-2.66391e-05,0.0473615,1.96493,0.00279214,0.005,1.71292,0.0025369,-0.0381254,-0.337252,30.4858,0.763905,0.0596861,5.8318,0.439089,4.21825,0.376682,3.51369,-0.0215643,0.547852,-1.1361,0.209473,-0.00805664,0.225586,-0.116821,0.0685998,23.4932,23.3229,23.1527,23.2946,23.1952,23.2804,23.1385,
61,6.27037,1.39118,3.15051,4.12946,6.27067,1.98596,1.55762,0.00210665,-0.120193,0.000118002,0.128296,0.00171311,0.0367333,1.059e-05,0.51512,-10.2138,-0.17907,-1.79521,1.96946,-38.8804,1.40683,0.0398976,-20,-0.462432,0.0242228,-0.0308498,-1.03159,0.0297386,-8.73145e-05,0.00816716,0.000291044,0.494734,0.00286158,0.0711604,0.0624669,7.32782e-05,0.0493109,1.96493,0.00279214,0.005,1.71292,0.0025369,-0.0381254,-0.337252,30.4858,0.763905,-0.0150425,6.05114,0.388857,4.1384,0.400065,3.31663,-0.0340537,0.564022,-1.16027,0.225586,0.0180152,0.22965,-0.0889885,0.080667,23.479,23.3371,23.1811,23.2804,23.2094,23.2804,23.1385,
62,6.27037,1.39106,3.15051,4.12959,6.27067,1.98599,1.55762,0.00180065,-0.122084,0.000118002,0.129647,0.00209312,0.0329519,1.05901e-05,0.519122,-10.4466,-0.192214,-1.98025,1.96013,-39.8078,1.43503,0.0409675,-20,-0.466546,-0.00578896,-0.0309528,-1.12585,0.0316069,-9.26063e-05,0.00844815,0.000285662,0.494734,0.00286158,0.0711604,0.063255,0.000235017,0.049653,1.96369,0.00277816,0.005,1.71111,0.0024344,-0.0398798,-0.355527,31.3653,0.739101,0.0346009,6.35876,0.326514,4.10453,0.382779,3.14295,-0.0247657,0.547852,-1.11287,0.22573,0.0322266,0.229614,-0.080667,0.0725098,23.479,23.3087,23.1669,23.2946,23.2094,23.2662,23.1385,
63,6.27037,1.39094,3.15051,4.12973,6.27068,1.98603,1.55762,0.00150461,-0.122084,0.000111447,0.128393,0.00296147,0.0307911,1.05821e-05,0.52272,-10.6453,-0.20818,-2.13887,1.93855,-40.5889,1.46268,0.0419406,-20,-0.470404,-0.0308795,-0.0311148,-1.2052,0.0336618,-9.79361e-05,0.00872862,0.000280319,0.494734,0.00286158,0.0711604,0.0628892,0.000431189,0.0494624,1.96245,0.00276411,0.005,1.70927,0.00227619,-0.0401877,-0.375575,32.1062,0.706207,-0.0545903,6.61331,0.329982,4.03891,0.403041,2.94904,-0.0583456,0.547911,-1.11999,0.217678,0.0254773,0.217567,-0.0402832,0.0684814,23.479,23.3229,23.1527,23.2804,23.2094,23.2804,23.1527,
64,6.27037,1.39094,3.15051,4.12973,6.27068,1.98603,1.55762,0.00150461,-0.122084,0.000111447,0.128393,0.00296147,0.0307911,1.05821e-05,0.526505,-10.8298,-0.229949,-2.28102,1.89915,-41.3035,1.49481,0.0429497,-20,-0.474429,-0.0556447,-0.0314061,-1.27668,0.0362978,-0.00010357,0.0090156,0.000274438,0.494734,0.00286158,0.0711604,0.0628892,0.000431189,0.0494624,1.96115,0.00274857,0.005,1.70844,0.00208564,-0.0400161,-0.400758,32.7783,0.658662,-0.0545903,6.61331,0.329982,4.03891,0.403041,2.94904,-0.0583456,0.547911,-1.11999,0.217678,0.0254773,0.217567,-0.0402832,0.0684814,23.479,23.3229,23.1527,23.2804,23.2094,23.2804,23.1527,
65,6.27037,1.39094,3.15051,4.12985,6.27069,1.98606,1.55762,0.00167179,-0.122084,9.7516e-05,0.126676,0.0043579,0.0285607,1.0582e-05,0.526375,-10.8279,-0.230156,-2.28156,1.89873,-41.3012,1.49407,0.0429512,-20,-0.474468,-0.0541449,-0.0313831,-1.27697,0.0362643,-0.00010357,0.0090156,0.000274438,0.494734,0.00286158,0.0711604,0.0623969,0.000495426,0.0492633,1.96115,0.00274857,0.005,1.70844,0.00208564,-0.0400161,-0.400758,32.7783,0.658662,0.027335,6.61331,0.253725,3.90103,0.406034,2.73825,-0.0566086,0.555967,-1.11999,0.22573,0.0322266,0.225622,-0.0090076,0.080667,23.479,23.3229,23.1669,23.2946,23.2236,23.2804,23.1527,
66,6.27037,1.39094,3.15051,4.12985,6.27069,1.98606,1.55762,0.00167179,-0.122084,9.7516e-05,0.126676,0.0043579,0.0285607,1.0582e-05,0.52876,-10.9104,-0.252423,-2.34436,1.84789,-41.6212,1.52581,0.0435868,-20,-0.477168,-0.0650919,-0.0316811,-1.30889,0.0393093,-0.000108408,0.00917074,0.000267675,0.494734,0.00286158,0.0711604,0.0623969,0.000495426,0.0492633,1.96043,0.00273992,0.005,1.70823,0.00202005,-0.039837,-0.430062,33.0783,0.60817,0.027335,6.61331,0.253725,3.90103,0.406034,2.73825,-0.0566086,0.555967,-1.11999,0.22573,0.0322266,0.225622,-0.0090076,0.080667,23.479,23.3229,23.1669,23.2946,23.2236,23.2804,23.1527,
67,6.27038,1.39082,3.15051,4.12998,6.2707,1.98608,1.55762,0.00165929,-0.124245,9.67467e-05,0.125595,0.0056966,0.0270097,1.0582e-05,0.528625,-10.908,-0.252632,-2.34501,1.84746,-41.6181,1.52493,0.0435703,-20,-0.477208,-0.062823,-0.0316527,-1.30925,0.0392656,-0.000108408,0.00917074,0.000267675,0.494734,0.00286158,0.0711604,0.0625404,0.00063039,0.0499899,1.96043,0.00273992,0.005,1.70823,0.00202005,-0.039837,-0.430062,33.0783,0.60817,-0.00931048,6.95313,0.195816,3.69152,0.460429,2.53163,-0.0626799,0.555908,-1.17652,0.209628,0.0569691,0.205484,0.0127387,0.0685998,23.4932,23.3229,23.1527,23.2946,23.2094,23.2946,23.1527,
68,6.27038,1.39069,3.15051,4.1301,6.27071,1.98611,1.55762,0.00158955,-0.126387,6.99286e-05,0.123849,0.00728431,0.0251191,0,0.532693,-11.101,-0.279073,-2.49748,1.7977,-42.3815,1.56482,0.0446823,-20,-0.481743,-0.0869956,-0.0319496,-1.38668,0.0426953,-0.000114771,0.00944372,0.000259999,0.494734,0.00286158,0.0711604,0.0624878,0.000816931,0.0506853,1.9592,0.00272101,0.005,1.70699,0.00188156,-0.0404909,-0.463426,33.8007,0.551029,0.0855122,7.26016,0.15428,3.58294,0.418005,2.36856,-0.0768881,0.555967,-1.17696,0.225586,0.090076,0.185347,0.0281982,0.0685998,23.4932,23.3087,23.1669,23.2946,23.2094,23.2804,23.1527,
69,6.27038,1.39069,3.15051,4.1301,6.27071,1.98611,1.55762,0.00158955,-0.126387,6.99286e-05,0.123849,0.00728431,0.0251191,0,0.537158,-11.2941,-0.310435,-2.64712,1.73395,-43.1385,1.61428,0.0458724,-20,-0.486571,-0.113174,-0.0323663,-1.46274,0.0471229,-0.000123143,0.00972466,0.000250751,0.494734,0.00286158,0.0711604,0.0624878,0.000816931,0.0506853,1.95793,0.00269236,0.005,1.70589,0.00168789,-0.0411168,-0.505979,34.5138,0.481214,0.0855122,7.26016,0.15428,3.58294,0.418005,2.36856,-0.0768881,0.555967,-1.17696,0.225586,0.090076,0.185347,0.0281982,0.0685998,23.4932,23.3087,23.1669,23.2946,23.2094,23.2804,23.1527,
70,6.27038,1.39055,3.15051,4.13023,6.27072,1.98613,1.55762,0.00172201,-0.128273,1.38217e-05,0.122877,0.0090097,0.0243088,0,0.53705,-11.2917,-0.310773,-2.64788,1.73341,-43.1353,1.6133,0.0458664,-20,-0.48662,-0.110719,-0.0323327,-1.46312,0.0470766,-0.000123143,0.00972466,0.000250751,0.494734,0.00286158,0.0711604,0.0626019,0.000947952,0.0513808,1.95793,0.00269236,0.005,1.70589,0.00168789,-0.0411168,-0.505979,34.5138,0.481214,0.0721394,7.73105,0.0892956,3.52142,0.4314,2.22601,-0.0839909,0.547911,-1.19241,0.209473,0.121118,0.181677,0.0523682,0.0685998,23.479,23.2946,23.1527,23.2804,23.2236,23.2946,23.1385,
71,6.27038,1.39055,3.15051,4.13023,6.27072,1.98613,1.55762,0.00172201,-0.128273,1.38217e-05,0.122877,0.0090097,0.0243088,0,0.541759,-11.5048,-0.341457,-2.81348,1.67426,-43.9701,1.66606,0.0471214,-20,-0.491669,-0.139694,-0.0327194,-1.54701,0.0517096,-0.000131432,0.0100152,0.000241933,0.494734,0.00286158,0.0711604,0.0626019,0.000947952,0.0513808,1.9566,0.00266755,0.005,1.70459,0.00154764,-0.0417427,-0.550593,35.3006,0.41402,0.0721394,7.73105,0.0892956,3.52142,0.4314,2.22601,-0.0839909,0.547911,-1.19241,0.209473,0.121118,0.181677,0.0523682,0.0685998,23.479,23.2946,23.1527,23.2804,23.2236,23.2946,23.1385,
72,6.27038,1.39042,3.15051,4.13035,6.27073,1.98615,1.55762,0.00180842,-0.130727,-1.3821e-05,0.123435,0.0108808,0.0215661,0,0.54158,-11.5021,-0.341743,-2.81414,1.67359,-43.9667,1.66482,0.0471091,-20,-0.491725,-0.137452,-0.0326851,-1.54733,0.0516554,-0.000131432,0.0100152,0.000241933,0.494734,0.00286158,0.0711604,0.0632805,0.00110685,0.0520701,1.9566,0.00266755,0.005,1.70459,0.00154764,-0.0417427,-0.550593,35.3006,0.41402,0.139825,8.08614,0.0583333,3.37069,0.432585,2.06473,-0.0803913,0.523682,-1.2086,0.209628,0.128906,0.16521,0.0645789,0.0725098,23.479,23.3229,23.1669,23.2946,23.2236,23.2804,23.1243,
73,6.27038,1.39042,3.15051,4.13035,6.27073,1.98615,1.55762,0.00180842,-0.130727,-1.3821e-05,0.123435,0.0108808,0.0215661,0,0.546405,-11.7032,-0.377412,-2.97211,1.59965,-44.7558,1.71899,0.0483951,-20,-0.496971,-0.165288,-0.0331488,-1.62683,0.0565474,-0.000140002,0.0102885,0.000230411,0.494734,0.00286158,0.0711604,0.0632805,0.00110685,0.0520701,1.95535,0.00264199,0.005,1.70286,0.00138163,-0.0423631,-0.59756,36.0459,0.334646,0.139825,8.08614,0.0583333,3.37069,0.432585,2.06473,-0.0803913,0.523682,-1.2086,0.209628,0.128906,0.16521,0.0645789,0.0725098,23.479,23.3229,23.1669,23.2946,23.2236,23.2804,23.1243,
74,6.27038,1.39029,3.1505,4.13047,6.27074,1.98617,1.55762,0.00177751,-0.130727,-6.57441e-05,0.122894,0.0121093,0.019447,0,0.546347,-11.7008,-0.377643,-2.97238,1.59917,-44.7531,1.71797,0.0483891,-20,-0.497013,-0.162626,-0.0331231,-1.62723,0.0564928,-0.000140002,0.0102885,0.000230411,0.494734,0.00286158,0.0711604,0.0631204,0.00124773,0.0518709,1.95535,0.00264199,0.005,1.70286,0.00138163,-0.0423631,-0.59756,36.0459,0.334646,0.0468572,8.54968,-0.00967605,3.17111,0.462947,1.90548,-0.0896169,0.531738,-1.17696,0.201416,0.12085,0.149265,0.100708,0.072956,23.479,23.3087,23.1385,23.2946,23.2094,23.2804,23.1385,
75,6.27038,1.39016,3.1505,4.1306,6.27076,1.98619,1.55762,0.00177722,-0.129917,-0.000100303,0.12226,0.0140451,0.0194273,0,0.550344,-11.8755,-0.407952,-3.11,1.53668,-45.4368,1.76398,0.0494857,-20,-0.501591,-0.183861,-0.0334825,-1.69639,0.0606959,-0.000149352,0.0105575,0.000218271,0.494734,0.00286158,0.0711604,0.062758,0.00144064,0.0515733,1.9541,0.00260788,0.005,1.70188,0.00122414,-0.0421838,-0.63848,36.6921,0.267724,0.146678,8.94685,0.00475083,3.03922,0.438195,1.77046,-0.103229,0.539795,-1.21655,0.201577,0.128906,0.128969,0.116891,0.0805664,23.479,23.3229,23.1527,23.2946,23.2094,23.2804,23.1243,
76,6.27038,1.39016,3.1505,4.1306,6.27076,1.98619,1.55762,0.00177722,-0.129917,-0.000100303,0.12226,0.0140451,0.0194273,0,0.555195,-12.0682,-0.446807,-3.25843,1.45257,-46.1846,1.81931,0.0507782,-20,-0.506957,-0.209759,-0.0340089,-1.77119,0.0658054,-0.000158942,0.0108344,0.000205654,0.494734,0.00286158,0.0711604,0.062758,0.00144064,0.0515733,1.95281,0.00257694,0.005,1.70105,0.00102267,-0.041916,-0.687438,37.395,0.180147,0.146678,8.94685,0.00475083,3.03922,0.438195,1.77046,-0.103229,0.539795,-1.21655,0.201577,0.128906,0.128969,0.116891,0.0805664,23.479,23.3229,23.1527,23.2946,23.2094,23.2804,23.1243,
77,6.27039,1.39004,3.1505,4.13072,6.27077,1.98621,1.55762,0.00184302,-0.129647,-0.000155231,0.122894,0.0145853,0.0162058,0,0.555252,-12.0655,-0.447066,-3.25863,1.45224,-46.1818,1.81846,0.0507732,-20,-0.506991,-0.207065,-0.033997,-1.77157,0.0657521,-0.000158942,0.0108344,0.000205654,0.494734,0.00286158,0.0711604,0.0628812,0.00147853,0.0511309,1.95281,0.00257694,0.005,1.70105,0.00102267,-0.041916,-0.687438,37.395,0.180147,0.143598,9.47488,-0.0251994,2.9306,0.465861,1.66716,-0.0915515,0.523744,-1.27305,0.193359,0.11308,0.104736,0.12085,0.0774863,23.479,23.3087,23.1527,23.2804,23.2094,23.2662,23.1243,
78,6.27039,1.3899,3.1505,4.13084,6.27079,1.98622,1.55762,0.00188743,-0.129397,-0.0001944,0.119653,0.0140451,0.0152969,0,0.559046,-12.236,-0.468659,-3.39355,1.41372,-46.8466,1.85991,0.0517185,-20,-0.510838,-0.227825,-0.0342625,-1.83889,0.0693266,-0.000168948,0.0110992,0.000193059,0.494734,0.00286158,0.0711604,0.0618893,0.00140723,0.0510075,1.95157,0.00254366,0.005,1.69982,0.000958622,-0.0415178,-0.722418,38.0239,0.134017,0.201111,9.84281,-0.0594513,2.74386,0.444633,1.50853,-0.0630563,0.499577,-1.30518,0.193527,0.0966797,0.093001,0.149265,0.0726216,23.479,23.2946,23.1527,23.2946,23.1952,23.2804,23.1385,
79,6.27039,1.38977,3.1505,4.13096,6.2708,1.98624,1.55762,0.00198719,-0.129377,-0.000241358,0.118303,0.0130037,0.0135049,0,0.562047,-12.3992,-0.476833,-3.51998,1.41119,-47.4841,1.88622,0.0524396,-20,-0.513624,-0.246913,-0.0343295,-1.90315,0.0712246,-0.000178355,0.0113705,0.000181515,0.494734,0.00286158,0.0711604,0.061493,0.00127272,0.0508502,1.95031,0.00251363,0.005,1.69958,0.000995756,-0.0414068,-0.741354,38.6247,0.120077,0.1442,10.4015,-0.111691,2.49194,0.454232,1.33346,-0.0517379,0.523929,-1.3375,0.169381,0.153922,0.100789,0.157104,0.0765381,23.479,23.2946,23.1385,23.2662,23.1952,23.2804,23.1243,
80,6.27039,1.38964,3.1505,4.13107,6.27081,1.98625,1.55762,0.00208034,-0.130055,-0.000263565,0.116952,0.0114433,0.0124245,0,0.564684,-12.5619,-0.478027,-3.64813,1.42792,-48.1188,1.90878,0.0530495,-20,-0.515895,-0.26655,-0.0342917,-1.9673,0.0726377,-0.000187876,0.0116278,0.000170507,0.494734,0.00286158,0.0711604,0.0612439,0.00108652,0.0510459,1.9491,0.00248703,0.005,1.69884,0.00109288,-0.0412652,-0.755711,39.2249,0.122917,0.229971,10.8917,-0.111874,2.31129,0.419851,1.20967,-0.0420844,0.507568,-1.36965,0.185478,0.186002,0.108765,0.185478,0.076644,23.4648,23.2804,23.1669,23.2804,23.1952,23.2662,23.1101,
81,6.2704,1.38952,3.1505,4.13119,6.27082,1.98626,1.55762,0.00225214,-0.125865,-0.000323739,0.115103,0.00971858,0.00972351,0,0.567114,-12.7345,-0.470799,-3.78341,1.46913,-48.7944,1.92143,0.0535824,-20,-0.517676,-0.286647,-0.0341202,-2.03573,0.072872,-0.000195604,0.0118836,0.000162019,0.494734,0.00286158,0.0711604,0.0598217,0.000846687,0.0491442,1.94789,0.00246546,0.005,1.69798,0.00124104,-0.0414413,-0.758709,39.8635,0.14655,0.254913,11.5006,-0.130337,2.20091,0.429362,1.08648,-0.0209902,0.515625,-1.35361,0.185303,0.209628,0.116821,0.193401,0.0726216,23.4648,23.2946,23.1385,23.2804,23.2094,23.2946,23.1385,
82,6.2704,1.38952,3.1505,4.13119,6.27082,1.98626,1.55762,0.00225214,-0.125865,-0.000323739,0.115103,0.00971858,0.00972351,0,0.568033,-12.8575,-0.457514,-3.87626,1.51969,-49.2524,1.93059,0.0538272,-20,-0.518371,-0.302402,-0.0338568,-2.08081,0.0729977,-0.000203975,0.0121391,0.000155367,0.494734,0.00286158,0.0711604,0.0598217,0.000846687,0.0491442,1.94666,0.00244835,0.005,1.69815,0.00144149,-0.0397298,-0.760632,40.2918,0.182635,0.254913,11.5006,-0.130337,2.20091,0.429362,1.08648,-0.0209902,0.515625,-1.35361,0.185303,0.209628,0.116821,0.193401,0.0726216,23.4648,23.2946,23.1385,23.2804,23.2094,23.2946,23.1385,
83,6.2704,1.38939,3.1505,4.13131,6.27082,1.98627,1.55762,0.00225214,-0.121372,-0.000370561,0.113441,0.00782886,0.00802459,0,0.568397,-12.8557,-0.457603,-3.87593,1.52016,-49.2509,1.93078,0.0538154,-20,-0.518345,-0.299137,-0.0338816,-2.08132,0.0729645,-0.000203975,0.0121391,0.000155367,0.494734,0.00286158,0.0711604,0.0583872,0.000656777,0.0472237,1.94666,0.00244835,0.005,1.69815,0.00144149,-0.0397298,-0.760632,40.2918,0.182635,0.254913,11.8709,-0.14957,2.0411,0.430685,0.921036,-0.0202713,0.515625,-1.45827,0.177246,0.217529,0.132996,0.213501,0.0726216,23.4648,23.2946,23.1385,23.2662,23.1952,23.2662,23.1243,
84,6.2704,1.38939,3.1505,4.13131,6.27082,1.98627,1.55762,0.00225214,-0.121372,-0.000370561,0.113441,0.00782886,0.00802459,0,0.569407,-12.9814,-0.445256,-3.97073,1.56789,-49.7196,1.93379,0.0540845,-20,-0.519145,-0.315212,-0.0336465,-2.12745,0.0724932,-0.000210997,0.0123884,0.000148116,0.494734,0.00286158,0.0711604,0.0583872,0.000656777,0.0472237,1.94547,0.00241288,0.005,1.69837,0.00158049,-0.0380013,-0.756582,40.73,0.21613,0.254913,11.8709,-0.14957,2.0411,0.430685,0.921036,-0.0202713,0.515625,-1.45827,0.177246,0.217529,0.132996,0.213501,0.0726216,23.4648,23.2946,23.1385,23.2662,23.1952,23.2662,23.1243,
85,6.2704,1.38939,3.1505,4.13131,6.27082,1.98627,1.55762,0.00225214,-0.121372,-0.000370561,0.113441,0.00782886,0.00802459,0,0.569407,-12.9814,-0.445256,-3.97073,1.56789,-49.7196,1.93379,0.0540845,-20,-0.519145,-0.315212,-0.0336465,-2.12745,0.0724932,-0.000210997,0.0123884,0.000148116,0.494734,0.00286158,0.0711604,0.0583872,0.000656777,0.0472237,1.94547,0.00241288,0.005,1.69837,0.00158049,-0.0380013,-0.756582,40.73,0.21613,0.254913,11.8709,-0.14957,2.0411,0.430685,0.921036,-0.0202713,0.515625,-1.45827,0.177246,0.217529,0.132996,0.213501,0.0726216,23.4648,23.2946,23.1385,23.2662,23.1952,23.2662,23.1243,
86,6.2704,1.38927,3.15049,4.13142,6.27083,1.98627,1.55762,0.00234041,-0.116682,-0.000404707,0.113596,0.00650186,0.00485683,0,0.569691,-12.9794,-0.445412,-3.97038,1.56817,-49.7178,1.93386,0.0540738,-20,-0.519135,-0.31209,-0.0336609,-2.1279,0.072466,-0.000210997,0.0123884,0.000148116,0.494734,0.00286158,0.0711604,0.0574381,0.000485615,0.0450375,1.94547,0.00241288,0.005,1.69837,0.00158049,-0.0380013,-0.756582,40.73,0.21613,0.270501,12.3902,-0.144243,1.84562,0.453113,0.742149,-0.0435346,0.499512,-1.57138,0.161334,0.217529,0.14502,0.233677,0.076644,23.4648,23.2946,23.1243,23.2804,23.1952,23.2662,23.1101,
87,6.2704,1.38927,3.15049,4.13142,6.27083,1.98627,1.55762,0.00234041,-0.116682,-0.000404707,0.113596,0.00650186,0.00485683,0,0.570721,-13.0935,-0.436338,-4.05771,1.6059,-50.1401,1.94221,0.0543483,-20,-0.520015,-0.327029,-0.0334737,-2.16949,0.0726229,-0.000217777,0.0126203,0.0001426,0.494734,0.00286158,0.0711604,0.0574381,0.000485615,0.0450375,1.94433,0.00239566,0.005,1.69821,0.00171904,-0.0360338,-0.758623,41.1257,0.241606,0.270501,12.3902,-0.144243,1.84562,0.453113,0.742149,-0.0435346,0.499512,-1.57138,0.161334,0.217529,0.14502,0.233677,0.076644,23.4648,23.2946,23.1243,23.2804,23.1952,23.2662,23.1101,
88,6.2704,1.38916,3.15049,4.13153,6.27084,1.98628,1.55762,0.00249141,-0.113866,-0.000436554,0.113711,0.00650186,0.00378136,0,0.570857,-13.0916,-0.436595,-4.05794,1.60588,-50.138,1.94202,0.0543422,-20,-0.520031,-0.324342,-0.0334665,-2.16987,0.0726006,-0.000217777,0.0126203,0.0001426,0.494734,0.00286158,0.0711604,0.0568715,0.000425367,0.0438162,1.94433,0.00239566,0.005,1.69821,0.00171904,-0.0360338,-0.758623,41.1257,0.241606,0.21773,12.7875,-0.0993262,1.75128,0.453964,0.580953,-0.0834811,0.491455,-1.65967,0.169381,0.193359,0.149102,0.274044,0.0726216,23.4648,23.3087,23.1243,23.2804,23.1811,23.252,23.1101,
89,6.27041,1.38905,3.15049,4.13165,6.27084,1.98628,1.55762,0.0026424,-0.114521,-0.000465158,0.1141,0.00631996,0.00108039,0,0.573162,-13.2299,-0.441123,-4.16702,1.6103,-50.6705,1.9659,0.0549151,-20,-0.522243,-0.340706,-0.0334701,-2.22345,0.0743568,-0.000224304,0.0128487,0.000138652,0.494734,0.00286158,0.0711604,0.0571229,0.000354472,0.0437994,1.94321,0.00238811,0.005,1.69771,0.00176647,-0.0349346,-0.776085,41.629,0.235696,0.273659,13.3299,-0.0846203,1.67224,0.440242,0.427297,-0.0918203,0.499577,-1.70808,0.153288,0.161334,0.161133,0.277954,0.072956,23.4506,23.2804,23.1385,23.2804,23.1952,23.252,23.1101,
90,6.27041,1.38905,3.15049,4.13165,6.27084,1.98628,1.55762,0.0026424,-0.114521,-0.000465158,0.1141,0.00631996,0.00108039,0,0.575494,-13.3896,-0.442824,-4.29275,1.62423,-51.2889,1.99014,0.0555362,-20,-0.5245,-0.362653,-0.033426,-2.28561,0.0760132,-0.000230726,0.0130836,0.000135152,0.494734,0.00286158,0.0711604,0.0571229,0.000354472,0.0437994,1.94204,0.00238111,0.005,1.69642,0.00182398,-0.0349195,-0.79248,42.2136,0.236632,0.273659,13.3299,-0.0846203,1.67224,0.440242,0.427297,-0.0918203,0.499577,-1.70808,0.153288,0.161334,0.161133,0.277954,0.072956,23.4506,23.2804,23.1385,23.2804,23.1952,23.252,23.1101,
91,6.27041,1.38893,3.15049,4.13177,6.27085,1.98628,1.55762,0.00263288,-0.114601,-0.000465158,0.115332,0.00594214,0,0,0.575564,-13.3873,-0.44293,-4.2934,1.62429,-51.2859,1.9899,0.0555126,-20,-0.524512,-0.360314,-0.0334241,-2.28589,0.0759913,-0.000230726,0.0130836,0.000135152,0.494734,0.00286158,0.0711604,0.0574916,0.000323795,0.0437117,1.94204,0.00238111,0.005,1.69642,0.00182398,-0.0349195,-0.79248,42.2136,0.236632,0.224967,13.6322,-0.0846203,1.54855,0.439416,0.236469,-0.0864061,0.499512,-1.67586,0.153288,0.14502,0.165358,0.314235,0.0765381,23.4648,23.2946,23.1385,23.2804,23.1811,23.252,23.1101,
92,6.27041,1.38882,3.15049,4.13188,6.27086,1.98628,1.55762,0.00280841,-0.112901,-0.000484505,0.115602,0.00596688,-0.00091026,0,0.578259,-13.5608,-0.445347,-4.43204,1.63832,-51.9632,2.00737,0.0561907,-20,-0.527033,-0.381904,-0.0333846,-2.35452,0.0769125,-0.000235661,0.013319,0.000131387,0.494734,0.00286158,0.0711604,0.0572067,0.00025639,0.0429487,1.94087,0.00237415,0.005,1.69504,0.00184532,-0.0348406,-0.801795,42.8561,0.236722,0.250901,14.0703,-0.0410375,1.39657,0.43768,0.0387143,-0.0813568,0.491521,-1.6521,0.153076,0.105046,0.173405,0.322291,0.076644,23.4648,23.2804,23.1243,23.2804,23.1811,23.2236,23.1101,
93,6.27041,1.38882,3.15049,4.13188,6.27086,1.98628,1.55762,0.00280841,-0.112901,-0.000484505,0.115602,0.00596688,-0.00091026,0,0.580573,-13.7083,-0.450211,-4.54667,1.6422,-52.5284,2.03209,0.0568071,-20,-0.529357,-0.40178,-0.0333931,-2.41098,0.0787172,-0.000242133,0.0135421,0.000127056,0.494734,0.00286158,0.0711604,0.0572067,0.00025639,0.0429487,1.93974,0.00236721,0.005,1.69428,0.00189974,-0.0341539,-0.819511,43.3885,0.229789,0.250901,14.0703,-0.0410375,1.39657,0.43768,0.0387143,-0.0813568,0.491521,-1.6521,0.153076,0.105046,0.173405,0.322291,0.076644,23.4648,23.2804,23.1243,23.2804,23.1811,23.2236,23.1101,
94,6.27041,1.38871,3.15049,4.13199,6.27086,1.98627,1.55762,0.00272065,-0.1102,-0.000494445,0.112631,0.00609328,-0.00157999,0,0.580643,-13.7067,-0.450332,-4.54667,1.64215,-52.5268,2.03179,0.056795,-20,-0.529369,-0.399003,-0.0333808,-2.41141,0.078693,-0.000242133,0.0135421,0.000127056,0.494734,0.00286158,0.0711604,0.0557759,0.000288628,0.0418644,1.93974,0.00236721,0.005,1.69428,0.00189974,-0.0341539,-0.819511,43.3885,0.229789,0.18785,14.3897,-0.0311295,1.35184,0.431783,-0.104864,-0.0793746,0.491455,-1.6678,0.153076,0.0725098,0.161334,0.322291,0.0726216,23.4506,23.2946,23.1385,23.2804,23.1811,23.252,23.1101,
95,6.27042,1.3886,3.15049,4.13211,6.27087,1.98627,1.55762,0.00272065,-0.106689,-0.000502649,0.109837,0.00627627,-0.00185448,0,0.582705,-13.8166,-0.458709,-4.63032,1.63187,-52.9481,2.05185,0.0573105,-20,-0.531468,-0.410371,-0.0334647,-2.45365,0.0802874,-0.000248071,0.0137589,0.000122767,0.494734,0.00286158,0.0711604,0.0542244,0.000289919,0.0404961,1.93864,0.00235891,0.005,1.69457,0.00186325,-0.033178,-0.835223,43.7836,0.213065,0.197129,14.8957,0.0791256,1.29722,0.397131,-0.260281,-0.0848433,0.491455,-1.69997,0.145243,0.112793,0.165161,0.330347,0.0765381,23.4648,23.3087,23.1243,23.2662,23.1811,23.2804,23.1243,
96,6.27042,1.3886,3.15049,4.13211,6.27087,1.98627,1.55762,0.00272065,-0.106689,-0.000502649,0.109837,0.00627627,-0.00185448,0,0.584735,-13.9284,-0.467877,-4.71382,1.61931,-53.3702,2.07326,0.0578511,-20,-0.533628,-0.424547,-0.0335674,-2.49524,0.0820126,-0.000254238,0.0139779,0.000117405,0.494734,0.00286158,0.0711604,0.0542244,0.000289919,0.0404961,1.93752,0.00234518,0.005,1.69497,0.00184974,-0.0319465,-0.851908,44.1773,0.194311,0.197129,14.8957,0.0791256,1.29722,0.397131,-0.260281,-0.0848433,0.491455,-1.69997,0.145243,0.112793,0.165161,0.330347,0.0765381,23.4648,23.3087,23.1243,23.2662,23.1811,23.2804,23.1243,
97,6.27042,1.38849,3.15049,4.13221,6.27087,1.98626,1.55762,0.00263288,-0.10432,-0.000503726,0.10766,0.00627627,-0.00244668,0,0.584802,-13.9267,-0.467983,-4.71393,1.6193,-53.3685,2.07301,0.0578356,-20,-0.533639,-0.421916,-0.0335574,-2.49564,0.0819916,-0.000254238,0.0139779,0.000117405,0.494734,0.00286158,0.0711604,0.0530929,0.000310904,0.0395381,1.93752,0.00234518,0.005,1.69497,0.00184974,-0.0319465,-0.851908,44.1773,0.194311,0.12109,15.1524,0.148785,1.23587,0.427817,-0.446721,-0.072946,0.491455,-1.77263,0.136963,0.1372,0.169237,0.330347,0.072956,23.4648,23.2946,23.1385,23.2662,23.1811,23.2662,23.1243,
98,6.27042,1.38839,3.15049,4.13232,6.27088,1.98626,1.55762,0.00248852,-0.102637,-0.000503726,0.103717,0.00660158,-0.00298393,0,0.586768,-14.0426,-0.474297,-4.80291,1.61502,-53.8137,2.09068,0.0583376,-20,-0.535673,-0.434633,-0.0336064,-2.54033,0.0833029,-0.00025967,0.0141899,0.000113719,0.494734,0.00286158,0.0711604,0.0515986,0.000382193,0.0388852,1.93644,0.00233966,0.005,1.69501,0.00182588,-0.0310842,-0.864915,44.5956,0.182515,0.116275,15.5139,0.21018,1.2137,0.456962,-0.621846,-0.0960632,0.491521,-1.78054,0.145243,0.170907,0.16521,0.326319,0.0725098,23.4648,23.2946,23.1385,23.2662,23.1952,23.2378,23.1243,
99,6.27042,1.38839,3.15049,4.13232,6.27088,1.98626,1.55762,0.00248852,-0.102637,-0.000503726,0.103717,0.00660158,-0.00298393,0,0.588795,-14.1402,-0.486646,-4.87547,1.59198,-54.1872,2.11068,0.0588774,-20,-0.537871,-0.446943,-0.0337699,-2.57725,0.0850052,-0.000265041,0.0143874,0.000108172,0.494734,0.00286158,0.0711604,0.0515986,0.000382193,0.0388852,1.93542,0.00233058,0.005,1.69544,0.00175355,-0.0304966,-0.881181,44.9439,0.155444,0.116275,15.5139,0.21018,1.2137,0.456962,-0.621846,-0.0960632,0.491521,-1.78054,0.145243,0.170907,0.16521,0.326319,0.0725098,23.4648,23.2946,23.1385,23.2662,23.1952,23.2378,23.1243,
100,6.27042,1.38829,3.15049,4.13242,6.27089,1.98625,1.55762,0.00239964,-0.101993,-0.000503726,0.103447,0.00680952,-0.00351062,0,0.5888,-14.1384,-0.486728,-4.87594,1.59186,-54.185,2.11017,0.0588584,-20,-0.53789,-0.444778,-0.0337607,-2.57754,0.084974,-0.000265041,0.0143874,0.000108172,0.494734,0.00286158,0.0711604,0.0513819,0.00043418,0.0385885,1.93542,0.00233058,0.005,1.69544,0.00175355,-0.0304966,-0.881181,44.9439,0.155444,0.0299783,15.7807,0.241658,1.27553,0.458366,-0.761266,-0.0905093,0.483667,-1.80476,0.128906,0.218125,0.161183,0.338379,0.0726216,23.4648,23.2662,23.1669,23.2662,23.1811,23.252,23.1243,
101,6.27042,1.38819,3.15049,4.13252,6.2709,1.98624,1.55762,0.00228183,-0.101557,-0.000519225,0.103717,0.00691454,-0.00413997,-1.0582e-05,0.591324,-14.2698,-0.498604,-4.98016,1.57451,-54.6975,2.13185,0.0595093,-20,-0.540543,-0.460676,-0.0338866,-2.62937,0.0866729,-0.000270403,0.0145832,0.000102107,0.494734,0.00286158,0.0711604,0.0513648,0.000494086,0.0383549,1.93441,0.00231734,0.005,1.69472,0.00169485,-0.0302296,-0.897691,45.4291,0.130917,0.000614643,16.2115,0.375132,1.31408,0.379036,-0.936503,-0.104443,0.499577,-1.7967,0.1372,0.218125,0.161183,0.330347,0.0726216,23.4648,23.2946,23.1243,23.252,23.1952,23.2378,23.1101,
102,6.27042,1.38819,3.15049,4.13252,6.2709,1.98624,1.55762,0.00228183,-0.101557,-0.000519225,0.103717,0.00691454,-0.00413997,-1.0582e-05,0.593751,-14.4065,-0.507875,-5.08717,1.56446,-55.2262,2.15346,0.0601556,-20,-0.543041,-0.479304,-0.0339855,-2.68239,0.088305,-0.000275543,0.0147768,9.76193e-05,0.494734,0.00286158,0.0711604,0.0513648,0.000494086,0.0383549,1.9334,0.00231369,0.005,1.69383,0.00163764,-0.0300194,-0.913431,45.928,0.112437,0.000614643,16.2115,0.375132,1.31408,0.379036,-0.936503,-0.104443,0.499577,-1.7967,0.1372,0.218125,0.161183,0.330347,0.0726216,23.4648,23.2946,23.1243,23.252,23.1952,23.2378,23.1101,
103,6.27043,1.38808,3.15049,4.13263,6.2709,1.98623,1.55762,0.00213302,-0.0990535,-0.000534547,0.104821,0.00680816,-0.00548347,-1.05821e-05,0.593761,-14.4045,-0.507905,-5.08755,1.56444,-55.2238,2.15307,0.0601277,-20,-0.543055,-0.476798,-0.0339787,-2.6827,0.0882789,-0.000275543,0.0147768,9.76193e-05,0.494734,0.00286158,0.0711604,0.0511518,0.000541829,0.0372111,1.9334,0.00231369,0.005,1.69383,0.00163764,-0.0300194,-0.913431,45.928,0.112437,-0.0909947,16.4201,0.452665,1.33864,0.427142,-1.12689,-0.074539,0.491455,-1.75651,0.121118,0.201577,0.161133,0.326319,0.0765381,23.4648,23.2804,23.1243,23.2662,23.1669,23.252,23.1243,
104,6.27043,1.38808,3.15049,4.13263,6.2709,1.98623,1.55762,0.00213302,-0.0990535,-0.000534547,0.104821,0.00680816,-0.00548347,-1.05821e-05,0.596013,-14.5365,-0.515629,-5.19063,1.55783,-55.7265,2.16968,0.0607274,-20,-0.545382,-0.494702,-0.03406,-2.73285,0.0894197,-0.000280124,0.0149827,9.25955e-05,0.494734,0.00286158,0.0711604,0.0511518,0.000541829,0.0372111,1.93231,0.00230479,0.005,1.69304,0.00158667,-0.02899,-0.924379,46.4017,0.0975002,-0.0909947,16.4201,0.452665,1.33864,0.427142,-1.12689,-0.074539,0.491455,-1.75651,0.121118,0.201577,0.161133,0.326319,0.0765381,23.4648,23.2804,23.1243,23.2662,23.1669,23.252,23.1243,
105,6.27043,1.38799,3.15049,4.13273,6.27091,1.98622,1.55762,0.00213302,-0.0977753,-0.000560371,0.104798,0.00712551,-0.00816328,-1.059e-05,0.596012,-14.5345,-0.51573,-5.19074,1.55767,-55.7244,2.16914,0.0607051,-20,-0.545398,-0.492371,-0.0340516,-2.73316,0.0893898,-0.000280124,0.0149827,9.25955e-05,0.494734,0.00286158,0.0711604,0.0508768,0.000572263,0.0364296,1.93231,0.00230479,0.005,1.69304,0.00158667,-0.02899,-0.924379,46.4017,0.0975002,-0.095118,16.6931,0.536328,1.41956,0.445082,-1.30325,-0.0985962,0.499577,-1.78886,0.121118,0.136963,0.161133,0.342431,0.0684814,23.4506,23.3087,23.1385,23.2662,23.1811,23.252,23.1243,
106,6.27043,1.38789,3.15049,4.13284,6.27092,1.98621,1.55762,0.00198402,-0.0964248,-0.000569506,0.104692,0.00688806,-0.0115905,-1.059e-05,0.598125,-14.6389,-0.526944,-5.27385,1.53912,-56.1292,2.19122,0.0612365,-20,-0.547639,-0.504468,-0.0341809,-2.77412,0.0912445,-0.000285387,0.015169,8.66972e-05,0.494734,0.00286158,0.0711604,0.0505643,0.000602126,0.0355417,1.93131,0.0022966,0.005,1.69239,0.0015519,-0.0282866,-0.942493,46.7852,0.0737243,-0.163373,16.9186,0.581409,1.51455,0.452447,-1.45061,-0.111767,0.491521,-1.77253,0.129158,0.128906,0.161133,0.346459,0.0805664,23.4648,23.2804,23.1385,23.2662,23.1811,23.252,23.1243,
107,6.27043,1.38789,3.15049,4.13284,6.27092,1.98621,1.55762,0.00198402,-0.0964248,-0.000569506,0.104692,0.00688806,-0.0115905,-1.059e-05,0.599796,-14.7366,-0.532733,-5.35031,1.53404,-56.5011,2.20412,0.0616814,-20,-0.549367,-0.517756,-0.034242,-2.81122,0.0921504,-0.000289748,0.0153531,8.1261e-05,0.494734,0.00286158,0.0711604,0.0505643,0.000602126,0.0355417,1.93031,0.00228461,0.005,1.69177,0.00151423,-0.0274876,-0.951203,47.1358,0.0624902,-0.163373,16.9186,0.581409,1.51455,0.452447,-1.45061,-0.111767,0.491521,-1.77253,0.129158,0.128906,0.161133,0.346459,0.0805664,23.4648,23.2804,23.1385,23.2662,23.1811,23.252,23.1243,
108,6.27043,1.3878,3.15049,4.13294,6.27092,1.98619,1.55762,0.00181193,-0.0939939,-0.0005617,0.105608,0.00688977,-0.0143907,-1.059e-05,0.599781,-14.7346,-0.532739,-5.35042,1.53396,-56.499,2.20365,0.0616523,-20,-0.549381,-0.515369,-0.0342351,-2.81152,0.0921234,-0.000289748,0.0153531,8.1261e-05,0.494734,0.00286158,0.0711604,0.0503168,0.000660735,0.0342735,1.93031,0.00228461,0.005,1.69177,0.00151423,-0.0274876,-0.951203,47.1358,0.0624902,-0.194916,17.2851,0.687384,1.55762,0.378163,-1.61903,-0.12657,0.483466,-1.77253,0.129158,0.105046,0.16521,0.374634,0.0684814,23.4648,23.2946,23.1243,23.252,23.1952,23.252,23.1243,
109,6.27043,1.38771,3.15049,4.13305,6.27093,1.98617,1.55762,0.00166094,-0.0881875,-0.000526594,0.102815,0.00659672,-0.0172862,-1.0582e-05,0.601694,-14.8338,-0.541625,-5.42885,1.5207,-56.8784,2.21818,0.0621166,-20,-0.551367,-0.526124,-0.0343433,-2.84986,0.0932248,-0.000294031,0.0155338,7.59321e-05,0.494734,0.00286158,0.0711604,0.0482882,0.000654143,0.0317081,1.92931,0.00227746,0.005,1.6911,0.00145505,-0.0263462,-0.961896,47.4943,0.0438048,-0.295386,17.4228,0.776685,1.5771,0.391932,-1.82006,-0.115998,0.475342,-1.79663,0.136963,0.072956,0.16521,0.382775,0.080667,23.4648,23.2946,23.1527,23.2662,23.1952,23.252,23.0959,
110,6.27043,1.38762,3.15049,4.13315,6.27093,1.98615,1.55762,0.00143445,-0.0834601,-0.000482711,0.099666,0.00618243,-0.0189854,-1.0582e-05,0.60249,-14.8818,-0.544638,-5.46279,1.51728,-57.0463,2.22159,0.0622886,-20,-0.55225,-0.5291,-0.0343852,-2.86607,0.09339,-0.000297494,0.0157184,7.15682e-05,0.494734,0.00286158,0.0711604,0.0463834,0.000667012,0.0297028,1.92829,0.00227036,0.005,1.692,0.00145459,-0.0240373,-0.963627,47.6481,0.0376726,-0.288258,17.5828,0.84968,1.63326,0.386346,-1.9584,-0.116621,0.491455,-1.90144,0.136963,0.12085,0.169621,0.418945,0.0765381,23.4648,23.2804,23.1385,23.2662,23.2094,23.252,23.1101,
111,6.27043,1.38754,3.15049,4.13325,6.27094,1.98613,1.55762,0.00113246,-0.0815694,-0.000439916,0.0975052,0.00563801,-0.0202573,-1.05901e-05,0.603224,-14.9256,-0.547662,-5.49406,1.51317,-57.2027,2.22142,0.0624511,-20,-0.553086,-0.53197,-0.0344322,-2.88125,0.0932229,-0.000300224,0.015878,6.68094e-05,0.494734,0.00286158,0.0711604,0.0453621,0.000708935,0.028857,1.92737,0.00225866,0.005,1.69289,0.00143248,-0.0222325,-0.962022,47.792,0.0312257,-0.318569,17.6713,0.892108,1.75956,0.364436,-2.06766,-0.0944438,0.483667,-1.96589,0.145243,0.193527,0.173218,0.414917,0.0725098,23.4506,23.2946,23.1243,23.252,23.1952,23.2662,23.1101,
112,6.27043,1.38746,3.1505,4.13334,6.27094,1.98611,1.55762,0.000905965,-0.0787413,-0.000368604,0.0958846,0.00531888,-0.0242841,-1.05901e-05,0.604338,-14.9983,-0.550031,-5.54995,1.51422,-57.4823,2.22241,0.0627147,-20,-0.554256,-0.539174,-0.0344598,-2.90935,0.0930291,-0.0003029,0.0160344,6.25889e-05,0.494734,0.00286158,0.0711604,0.0443044,0.000729869,0.0273368,1.92648,0.00225141,0.005,1.69301,0.00138823,-0.0214713,-0.960212,48.0548,0.0271346,-0.364194,17.9445,1.0244,1.80764,0.285691,-2.21207,-0.086986,0.483466,-1.96597,0.161334,0.218125,0.165161,0.414937,0.076961,23.4506,23.2946,23.1385,23.2804,23.1952,23.2378,23.1101,
113,6.27043,1.38746,3.1505,4.13334,6.27094,1.98611,1.55762,0.000905965,-0.0787413,-0.000368604,0.0958846,0.00531888,-0.0242841,-1.05901e-05,0.605187,-15.0466,-0.553883,-5.58615,1.50866,-57.6569,2.22276,0.0629408,-20,-0.555186,-0.545311,-0.0345113,-2.92632,0.0928928,-0.00030508,0.0161887,5.79948e-05,0.494734,0.00286158,0.0711604,0.0443044,0.000729869,0.0273368,1.92558,0.00224295,0.005,1.69315,0.00136177,-0.0201031,-0.958667,48.2172,0.0191912,-0.364194,17.9445,1.0244,1.80764,0.285691,-2.21207,-0.086986,0.483466,-1.96597,0.161334,0.218125,0.165161,0.414937,0.076961,23.4506,23.2946,23.1385,23.2804,23.1952,23.2378,23.1101,
114,6.27043,1.38739,3.1505,4.13343,6.27095,1.98608,1.55762,0.000603977,-0.0745469,-0.000291075,0.0950743,0.00468061,-0.0251446,-1.0582e-05,0.605138,-15.0454,-0.553723,-5.58622,1.50882,-57.6556,2.22251,0.0628924,-20,-0.555179,-0.543135,-0.0345141,-2.9266,0.0928756,-0.00030508,0.0161887,5.79948e-05,0.494734,0.00286158,0.0711604,0.0431851,0.000751565,0.0255946,1.92558,0.00224295,0.005,1.69315,0.00136177,-0.0201031,-0.958667,48.2172,0.0191912,-0.451014,18.047,1.10835,1.86698,0.307992,-2.36172,-0.0895835,0.475342,-2.00617,0.153076,0.241833,0.185347,0.443188,0.0689537,23.479,23.2946,23.1385,23.2804,23.1952,23.2378,23.1101,
115,6.27043,1.38732,3.1505,4.13353,6.27095,1.98605,1.55762,0.000528555,-0.0701542,-0.000210638,0.0944508,0.00457423,-0.0295628,-1.0582e-05,0.60595,-15.1055,-0.554315,-5.63203,1.51333,-57.8784,2.2162,0.0630771,-20,-0.556053,-0.548559,-0.0345171,-2.94872,0.0919891,-0.000306176,0.016331,5.44929e-05,0.494734,0.00286158,0.0711604,0.0420862,0.000728683,0.0233927,1.92473,0.00224016,0.005,1.69339,0.00133973,-0.0185351,-0.950063,48.4258,0.0193098,-0.424883,18.1406,1.14068,1.96884,0.317075,-2.47874,-0.0988335,0.467563,-2.05451,0.153076,0.241833,0.189374,0.447144,0.072956,23.4506,23.2946,23.1527,23.2662,23.1952,23.252,23.1101,
116,6.27043,1.38732,3.1505,4.13353,6.27095,1.98605,1.55762,0.000528555,-0.0701542,-0.000210638,0.0944508,0.00457423,-0.0295628,-1.0582e-05,0.606522,-15.1358,-0.558016,-5.65425,1.50647,-57.9774,2.21741,0.0632292,-20,-0.556732,-0.552283,-0.0345633,-2.95794,0.0920126,-0.000308233,0.0164695,5.04811e-05,0.494734,0.00286158,0.0711604,0.0420862,0.000728683,0.0233927,1.92386,0.00223655,0.005,1.69359,0.00135708,-0.0165535,-0.95012,48.5166,0.0115305,-0.424883,18.1406,1.14068,1.96884,0.317075,-2.47874,-0.0988335,0.467563,-2.05451,0.153076,0.241833,0.189374,0.447144,0.072956,23.4506,23.2946,23.1527,23.2662,23.1952,23.252,23.1101,
117,6.27043,1.38725,3.1505,4.13363,6.27096,1.98602,1.55762,0.000305277,-0.0688749,-0.000106113,0.0956145,0.00457515,-0.0318715,-1.059e-05,0.606429,-15.1341,-0.557929,-5.65442,1.50642,-57.9755,2.21693,0.0631868,-20,-0.55674,-0.550422,-0.0345605,-2.95814,0.0919904,-0.000308233,0.0164695,5.04811e-05,0.494734,0.00286158,0.0711604,0.0421553,0.000785282,0.0226271,1.92386,0.00223655,0.005,1.69359,0.00135708,-0.0165535,-0.95012,48.5166,0.0115305,-0.454771,18.2307,1.19312,2.07113,0.301494,-2.58921,-0.12998,0.483398,-2.10292,0.169381,0.257812,0.193401,0.475359,0.0649547,23.4506,23.2946,23.1385,23.2804,23.1811,23.2378,23.0959,
118,6.27043,1.38718,3.15051,4.13372,6.27096,1.98599,1.55762,0.000150994,-0.069145,-1.76409e-05,0.0964248,0.00444379,-0.0345725,-1.05901e-05,0.607864,-15.2101,-0.56607,-5.71658,1.49245,-58.2698,2.22103,0.063549,-20,-0.558382,-0.559522,-0.0346648,-2.98798,0.0921616,-0.000309944,0.0166002,4.60385e-05,0.494734,0.00286158,0.0711604,0.0424511,0.000808598,0.0224433,1.92302,0.00223066,0.005,1.69278,0.00130084,-0.0158644,-0.951552,48.7969,-0.00600569,-0.453197,18.4395,1.24129,2.11911,0.249356,-2.7045,-0.109727,0.459299,-2.07868,0.177977,0.209473,0.197429,0.487443,0.0685998,23.4648,23.2946,23.1385,23.2804,23.1952,23.252,23.1101,
119,6.27043,1.38711,3.15051,4.13382,6.27096,1.98595,1.55762,0.000150994,-0.0677075,9.7025e-05,0.0966949,0.00426604,-0.0348426,-1.0582e-05,0.609197,-15.2903,-0.570736,-5.78254,1.48883,-58.5834,2.22333,0.0638755,-20,-0.559816,-0.569204,-0.0347099,-3.01999,0.0920711,-0.000310985,0.016729,4.26528e-05,0.494734,0.00286158,0.0711604,0.0422259,0.000755786,0.0218443,1.92219,0.00222834,0.005,1.69176,0.00127777,-0.0156989,-0.950597,49.0963,-0.0147926,-0.482933,18.5264,1.30091,2.14087,0.229114,-2.81369,-0.108789,0.459864,-2.05459,0.193359,0.177246,0.193401,0.503556,0.076644,23.4648,23.2804,23.1385,23.2662,23.1811,23.252,23.1101,
120,6.27043,1.38705,3.15051,4.13392,6.27097,1.98591,1.55762,0.000132479,-0.0648234,0.000179366,0.0977997,0.00408828,-0.0375799,-1.05821e-05,0.61048,-15.3762,-0.573477,-5.85136,1.49148,-58.9166,2.22417,0.0641886,-20,-0.561195,-0.579052,-0.0347129,-3.0537,0.0917648,-0.000312079,0.016862,3.92659e-05,0.494734,0.00286158,0.0711604,0.0419411,0.000714583,0.020395,1.92133,0.0022258,0.005,1.6912,0.00132302,-0.0151599,-0.947634,49.4124,-0.0183654,-0.451453,18.6314,1.3131,2.1447,0.212357,-2.87733,-0.0934038,0.451172,-2.05484,0.177977,0.185478,0.197388,0.4955,0.0684814,23.4648,23.2804,23.1243,23.2946,23.1952,23.2662,23.0959,
121,6.27043,1.38705,3.15051,4.13392,6.27097,1.98591,1.55762,0.000132479,-0.0648234,0.000179366,0.0977997,0.00408828,-0.0375799,-1.05821e-05,0.611422,-15.4367,-0.575825,-5.89918,1.49204,-59.1389,2.22397,0.0644393,-20,-0.562178,-0.587385,-0.0347209,-3.07571,0.0914698,-0.000312902,0.0169898,3.59265e-05,0.494734,0.00286158,0.0711604,0.0419411,0.000714583,0.020395,1.92046,0.00222483,0.005,1.69067,0.00135922,-0.0138555,-0.944631,49.6221,-0.0217662,-0.451453,18.6314,1.3131,2.1447,0.212357,-2.87733,-0.0934038,0.451172,-2.05484,0.177977,0.185478,0.197388,0.4955,0.0684814,23.4648,23.2804,23.1243,23.2946,23.1952,23.2662,23.0959,
122,6.27043,1.38699,3.15051,4.13402,6.27097,1.98587,1.55762,0.000133743,-0.0615822,0.000248383,0.099666,0.00412485,-0.0383538,-1.059e-05,0.611337,-15.4353,-0.57579,-5.89945,1.49201,-59.1372,2.22358,0.0643935,-20,-0.562184,-0.585481,-0.0347201,-3.07589,0.0914533,-0.000312902,0.0169898,3.59265e-05,0.494734,0.00286158,0.0711604,0.041796,0.000694166,0.0189992,1.92046,0.00222483,0.005,1.69067,0.00135922,-0.0138555,-0.944631,49.6221,-0.0217662,-0.434906,18.7526,1.3175,2.13418,0.170971,-2.92562,-0.103426,0.451244,-2.07875,0.201416,0.161334,0.205484,0.503556,0.0684814,23.4648,23.2946,23.1385,23.2662,23.1952,23.2378,23.1101,
123,6.27043,1.38692,3.15052,4.13412,6.27097,1.98583,1.55762,0.000117996,-0.0579275,0.000320592,0.100206,0.00377486,-0.0394342,-1.059e-05,0.612561,-15.5085,-0.580848,-5.95842,1.48665,-59.4134,2.22763,0.0646875,-20,-0.563553,-0.593734,-0.0347694,-3.10368,0.0915657,-0.000314085,0.0171107,3.26052e-05,0.494734,0.00286158,0.0711604,0.0411826,0.000636558,0.0174262,1.91964,0.00222604,0.005,1.69006,0.00137869,-0.0125993,-0.945574,49.884,-0.0315242,-0.378797,18.894,1.32671,2.11116,0.15827,-2.92653,-0.0809176,0.435133,-2.12701,0.193527,0.121118,0.205799,0.495483,0.0765381,23.4648,23.2662,23.1243,23.2662,23.1811,23.2662,23.1243,
124,6.27043,1.38687,3.15052,4.13422,6.27098,1.98579,1.55762,0.000117996,-0.0545597,0.000404759,0.0984857,0.00354836,-0.041126,-1.0582e-05,0.613147,-15.5663,-0.579022,-6.00403,1.49804,-59.6274,2.22259,0.0648137,-20,-0.564216,-0.599592,-0.0347237,-3.12505,0.0907636,-0.000313984,0.017232,3.12569e-05,0.494734,0.00286158,0.0711604,0.0399804,0.000574236,0.0159355,1.91881,0.00222961,0.005,1.68986,0.00143375,-0.0111836,-0.937904,50.0858,-0.0252695,-0.378797,18.9759,1.34008,2.02806,0.139092,-2.94689,-0.11793,0.435133,-2.18341,0.217529,0.105046,0.201456,0.507568,0.0684814,23.4648,23.2946,23.1385,23.2662,23.1669,23.2662,23.1101,
125,6.27043,1.38687,3.15052,4.13422,6.27098,1.98579,1.55762,0.000117996,-0.0545597,0.000404759,0.0984857,0.00354836,-0.041126,-1.0582e-05,0.613502,-15.5938,-0.579297,-6.02362,1.50056,-59.721,2.21668,0.0649082,-20,-0.564609,-0.602793,-0.0347105,-3.13386,0.0900265,-0.000313867,0.0173391,2.8611e-05,0.494734,0.00286158,0.0711604,0.0399804,0.000574236,0.0159355,1.91802,0.00223373,0.005,1.69023,0.00149355,-0.00984199,-0.93062,50.1716,-0.0245594,-0.300899,18.9759,1.34008,2.02806,0.139092,-2.94689,-0.11793,0.443408,-2.18341,0.217529,0.105046,0.201456,0.507568,0.0684814,23.4648,23.2946,23.1385,23.2662,23.1669,23.2662,23.1101,
126,6.27043,1.38682,3.15052,4.13432,6.27098,1.98575,1.55762,0.000106378,-0.0534251,0.000499328,0.0972982,0.00312909,-0.0424053,-1.059e-05,0.61337,-15.5924,-0.579126,-6.02386,1.5007,-59.7193,2.21644,0.0648443,-20,-0.5646,-0.600959,-0.0347166,-3.13406,0.0900212,-0.000313867,0.0173391,2.8611e-05,0.494734,0.00286158,0.0711604,0.0394026,0.000503163,0.0153714,1.91802,0.00223373,0.005,1.69023,0.00149355,-0.00984199,-0.93062,50.1716,-0.0245594,-0.252585,19.1425,1.31861,1.86045,0.119782,-2.97249,-0.108056,0.427306,-2.21563,0.217529,0.129158,0.209511,0.499528,0.0725098,23.4648,23.2804,23.1385,23.2662,23.1669,23.2662,23.1101,
127,6.27043,1.38677,3.15053,4.13442,6.27098,1.9857,1.55762,0.000106378,-0.0521288,0.000686522,0.0983155,0.00286889,-0.0442511,-1.059e-05,0.613829,-15.6473,-0.576007,-6.06787,1.51559,-59.9311,2.20744,0.0649427,-20,-0.565138,-0.606756,-0.0346457,-3.15546,0.0888073,-0.000312656,0.0174535,2.74463e-05,0.494734,0.00286158,0.0711604,0.0394274,0.000422425,0.0146486,1.9172,0.00224355,0.005,1.69002,0.00156635,-0.00933426,-0.918892,50.3726,-0.0151063,-0.229769,19.2383,1.32836,1.65155,0.100689,-2.97852,-0.122792,0.427002,-2.19952,0.22573,0.139079,0.205484,0.511597,0.0685998,23.4648,23.2946,23.1527,23.2804,23.1811,23.2662,23.1101,
128,6.27043,1.38672,3.15053,4.13451,6.27098,1.98566,1.55762,9.61777e-05,-0.0496979,0.00163903,0.0963271,0.00241591,-0.0472671,-1.05901e-05,0.61443,-15.7071,-0.575117,-6.11684,1.52526,-60.1606,2.19888,0.0650707,-20,-0.565882,-0.613486,-0.0346039,-3.17878,0.0876248,-0.000311564,0.017558,2.58751e-05,0.494734,0.00286158,0.0711604,0.0383539,9.83687e-05,0.0133865,1.91642,0.00225286,0.005,1.68929,0.00164739,-0.00868377,-0.907262,50.5913,-0.0106498,-0.139435,19.3555,1.29289,1.53532,0.12014,-2.94159,-0.0905407,0.435059,-2.20758,0.233781,0.121118,0.213501,0.507584,0.076644,23.4506,23.2946,23.1385,23.2662,23.1811,23.252,23.0959,
129,6.27043,1.38672,3.15053,4.13451,6.27098,1.98566,1.55762,9.61777e-05,-0.0496979,0.00163903,0.0963271,0.00241591,-0.0472671,-1.05901e-05,0.614219,-15.7218,-0.568399,-6.12711,1.54763,-60.206,2.15701,0.0650146,-20,-0.565599,-0.615097,-0.0344315,-3.18286,0.0831443,-0.000308222,0.0176557,2.6107e-05,0.494734,0.00286158,0.0711604,0.0383539,9.83687e-05,0.0133865,1.91566,0.00227456,0.005,1.68958,0.00195857,-0.00754785,-0.863343,50.6325,0.00917558,-0.139435,19.3555,1.29289,1.53532,0.12014,-2.94159,-0.0905407,0.435059,-2.20758,0.233781,0.121118,0.213501,0.507584,0.076644,23.4506,23.2946,23.1385,23.2662,23.1811,23.252,23.0959,
130,6.27043,1.38667,3.15054,4.1346,6.27098,1.98561,1.55762,9.61777e-05,-0.0453891,0.00337844,0.0927375,0.00218942,-0.0491577,-1.05821e-05,0.614013,-15.721,-0.568325,-6.12694,1.54776,-60.2053,2.15689,0.0649275,-20,-0.565575,-0.613185,-0.0344375,-3.18311,0.0831415,-0.000308222,0.0176557,2.6107e-05,0.494734,0.00286158,0.0711604,0.0364243,-0.000436989,0.0115097,1.91566,0.00227456,0.005,1.68958,0.00195857,-0.00754785,-0.863343,50.6325,0.00917558,-0.0206194,19.4234,1.25486,1.39297,0.0729792,-2.90417,-0.105789,0.419023,-2.21559,0.217529,0.169189,0.209511,0.519653,0.0685998,23.4506,23.2946,23.1527,23.2662,23.1669,23.2662,23.1101,
131,6.27043,1.38663,3.15054,4.1347,6.27099,1.98556,1.55762,8.83084e-05,-0.0399744,0.00468061,0.0906928,0.00190798,-0.0491506,-1.0582e-05,0.613408,-15.713,-0.563817,-6.11768,1.5633,-60.1596,2.09331,0.0647379,-20,-0.565152,-0.609369,-0.0342661,-3.17791,0.0765419,-0.000305185,0.0177468,2.5506e-05,0.494734,0.00286158,0.0711604,0.0346999,-0.000847382,0.00937332,1.91493,0.00229923,0.005,1.69065,0.0024626,-0.00585869,-0.798391,50.5856,0.0250768,0.0151664,19.5649,1.20871,1.18151,0.058991,-2.88031,-0.0748576,0.419023,-2.2881,0.185478,0.217529,0.221594,0.515641,0.0685998,23.4648,23.2804,23.1385,23.252,23.1811,23.2378,23.1101,
132,6.27043,1.38659,3.15055,4.13479,6.27099,1.98551,1.55762,0.000132474,-0.0361564,0.00549013,0.0899425,0.00203842,-0.0483474,-1.059e-05,0.61302,-15.7192,-0.560532,-6.11989,1.5757,-60.1663,2.04336,0.0646144,-20,-0.565015,-0.607815,-0.0341371,-3.1779,0.0713283,-0.000302624,0.0178304,2.42874e-05,0.494734,0.00286158,0.0711604,0.033681,-0.00109102,0.00794267,1.9142,0.00231693,0.005,1.69155,0.00284788,-0.00393599,-0.747073,50.5885,0.0370269,0.0475229,19.6433,1.19912,0.994716,0.0865656,-2.86205,-0.0830678,0.403154,-2.36072,0.177246,0.257938,0.221558,0.499528,0.0645789,23.4648,23.2804,23.1669,23.2662,23.1811,23.252,23.1101,
133,6.27044,1.38656,3.15055,4.13488,6.27099,1.98546,1.55762,0.000163284,-0.0345725,0.00531192,0.0888621,0.00211967,-0.0491577,-1.059e-05,0.613273,-15.7479,-0.562244,-6.14149,1.57591,-60.2682,2.01282,0.0646655,-20,-0.565551,-0.609894,-0.0341036,-3.18783,0.0680713,-0.000299607,0.0179073,2.32088e-05,0.494734,0.00286158,0.0711604,0.0330371,-0.00105427,0.00724637,1.91354,0.00234139,0.005,1.69187,0.00308917,-0.0026484,-0.714829,50.6833,0.0361379,0.145961,19.6401,1.1245,0.872919,0.129911,-2.79926,-0.0744686,0.418945,-2.40915,0.161133,0.265991,0.233643,0.475359,0.0765381,23.4648,23.2804,23.1385,23.252,23.1811,23.252,23.1243,
134,6.27044,1.38652,3.15056,4.13496,6.27099,1.98541,1.55762,0.000188743,-0.033603,0.00482775,0.0872415,0.00224192,-0.0519091,-1.059e-05,0.613584,-15.7739,-0.564366,-6.16209,1.5724,-60.3668,2.01183,0.0647331,-20,-0.566082,-0.61192,-0.0341373,-3.19773,0.0679124,-0.000297078,0.0179804,2.20575e-05,0.494734,0.00286158,0.0711604,0.0323702,-0.00092831,0.00660021,1.91289,0.00236304,0.005,1.69187,0.00307558,-0.00202174,-0.713217,50.7764,0.0313282,0.288662,19.6738,1.06426,0.733913,0.123511,-2.74907,-0.0985492,0.410968,-2.40093,0.153288,0.257812,0.225622,0.471331,0.0684814,23.4648,23.2804,23.1385,23.2662,23.1811,23.2662,23.1101,
135,6.27044,1.38652,3.15056,4.13496,6.27099,1.98541,1.55762,0.000188743,-0.033603,0.00482775,0.0872415,0.00224192,-0.0519091,-1.059e-05,0.613842,-15.7808,-0.567524,-6.1672,1.56357,-60.3883,2.02294,0.0648017,-20,-0.566403,-0.612796,-0.0342073,-3.1997,0.0690793,-0.000295813,0.0180471,2.03349e-05,0.494734,0.00286158,0.0711604,0.0323702,-0.00092831,0.00660021,1.91224,0.00237787,0.005,1.69188,0.00297557,-0.00144019,-0.724571,50.7961,0.0229255,0.288662,19.6738,1.06426,0.733913,0.123511,-2.74907,-0.0985492,0.410968,-2.40093,0.153288,0.257812,0.225622,0.471331,0.0684814,23.4648,23.2804,23.1385,23.2662,23.1811,23.2662,23.1101,
136,6.27044,1.38649,3.15056,4.13505,6.271,1.98535,1.55762,0.000246981,-0.0340323,0.00421192,0.0862643,0.00239349,-0.0521288,-1.05821e-05,0.613672,-15.7797,-0.567338,-6.16743,1.56353,-60.387,2.02247,0.0647431,-20,-0.566407,-0.611383,-0.0342094,-3.19981,0.0690698,-0.000295813,0.0180471,2.03349e-05,0.494734,0.00286158,0.0711604,0.0321774,-0.0007663,0.00677227,1.91224,0.00237787,0.005,1.69188,0.00297557,-0.00144019,-0.724571,50.7961,0.0229255,0.332307,19.7014,1.03435,0.536404,0.109927,-2.7446,-0.0940687,0.410889,-2.38477,0.169955,0.273926,0.225622,0.479387,0.0685998,23.479,23.2804,23.1243,23.2662,23.2236,23.252,23.1101,
137,6.27044,1.38646,3.15056,4.13514,6.271,1.9853,1.55762,0.000298078,-0.0348426,0.00377318,0.0867013,0.00250062,-0.0512665,-1.059e-05,0.614411,-15.8259,-0.571545,-6.20532,1.55582,-60.5712,2.04125,0.0649278,-20,-0.567363,-0.616658,-0.0342897,-3.21863,0.0708685,-0.000295046,0.0181209,1.85077e-05,0.494734,0.00286158,0.0711604,0.0324709,-0.000648521,0.00718875,1.91157,0.00239411,0.005,1.69145,0.00284437,-0.00159505,-0.742227,50.972,0.0124936,0.395506,19.69,1.03509,0.348818,0.11163,-2.74585,-0.0904564,0.419023,-2.33643,0.193527,0.281982,0.221558,0.459246,0.0725098,23.4648,23.2946,23.1101,23.2804,23.1811,23.2662,23.1101,
138,6.27044,1.38646,3.15056,4.13514,6.271,1.9853,1.55762,0.000298078,-0.0348426,0.00377318,0.0867013,0.00250062,-0.0512665,-1.059e-05,0.615599,-15.8928,-0.575842,-6.25925,1.55107,-60.8346,2.05633,0.0652438,-20,-0.568568,-0.626143,-0.0343478,-3.24535,0.0721406,-0.00029422,0.0181903,1.67218e-05,0.494734,0.00286158,0.0711604,0.0324709,-0.000648521,0.00718875,1.91093,0.00241065,0.005,1.69061,0.00275325,-0.00196988,-0.754603,51.2223,0.00335211,0.395506,19.69,1.03509,0.348818,0.11163,-2.74585,-0.0904564,0.419023,-2.33643,0.193527,0.281982,0.221558,0.459246,0.0725098,23.4648,23.2946,23.1101,23.2804,23.1811,23.2662,23.1101,
139,6.27044,1.38642,3.15057,4.13522,6.27101,1.98525,1.55762,0.000374478,-0.0345725,0.00360008,0.084185,0.00269363,-0.0502381,-1.059e-05,0.61546,-15.892,-0.575729,-6.25943,1.55098,-60.8336,2.05589,0.0651922,-20,-0.568572,-0.624787,-0.0343493,-3.24546,0.0721287,-0.00029422,0.0181903,1.67218e-05,0.494734,0.00286158,0.0711604,0.0316865,-0.000618813,0.00723152,1.91093,0.00241065,0.005,1.69061,0.00275325,-0.00196988,-0.754603,51.2223,0.00335211,0.488391,19.6147,0.955785,0.236804,0.142991,-2.73092,-0.100032,0.419023,-2.28003,0.201416,0.22573,0.225622,0.443134,0.076961,23.479,23.2946,23.1243,23.2804,23.1527,23.2662,23.1243,
140,6.27044,1.38639,3.15057,4.1353,6.27101,1.9852,1.55762,0.000499407,-0.0330703,0.00342331,0.0823797,0.00273779,-0.0513185,-1.059e-05,0.616068,-15.9268,-0.580216,-6.28615,1.54246,-60.9718,2.06363,0.0653365,-20,-0.569383,-0.627876,-0.0344076,-3.25944,0.0728159,-0.0002943,0.018258,1.44016e-05,0.494734,0.00286158,0.0711604,0.0308519,-0.000626051,0.00654884,1.9103,0.00242652,0.005,1.69075,0.0027408,-0.00200837,-0.761173,51.3524,-0.00667967,0.639516,19.5811,0.915195,0.13268,0.156738,-2.74102,-0.0757509,0.443188,-2.24782,0.209473,0.282097,0.225622,0.398804,0.0684814,23.4648,23.2946,23.1385,23.2804,23.1952,23.2662,23.1243,
141,6.27044,1.38635,3.15057,4.13539,6.27102,1.98515,1.55762,0.000612958,-0.0324117,0.00342331,0.0787413,0.00300274,-0.0519091,-1.0582e-05,0.616058,-15.9406,-0.579521,-6.29662,1.54568,-61.0217,2.06688,0.0653181,-20,-0.56954,-0.628166,-0.0343915,-3.26438,0.0730937,-0.000293684,0.0183241,1.42041e-05,0.494734,0.00286158,0.0711604,0.029667,-0.000659619,0.00627905,1.90968,0.00245454,0.005,1.69095,0.00277253,-0.00139396,-0.764041,51.399,-0.00475493,0.660758,19.6083,0.868809,0.0507042,0.17732,-2.75848,-0.0921367,0.435357,-2.27199,0.209628,0.281982,0.22965,0.390747,0.0684814,23.4506,23.2946,23.1385,23.2804,23.1952,23.252,23.0959,
142,6.27044,1.38635,3.15057,4.13539,6.27102,1.98515,1.55762,0.000612958,-0.0324117,0.00342331,0.0787413,0.00300274,-0.0519091,-1.0582e-05,0.616274,-15.9464,-0.582214,-6.29919,1.53956,-61.0418,2.0675,0.0653755,-20,-0.569813,-0.62844,-0.0344154,-3.26612,0.073135,-0.000293208,0.0183846,1.31147e-05,0.494734,0.00286158,0.0711604,0.029667,-0.000659619,0.00627905,1.90906,0.00248215,0.005,1.69145,0.00282759,-0.00115114,-0.764315,51.4158,-0.0104408,0.660758,19.6083,0.868809,0.0507042,0.17732,-2.75848,-0.0921367,0.435357,-2.27199,0.209628,0.281982,0.22965,0.390747,0.0684814,23.4506,23.2946,23.1385,23.2804,23.1952,23.252,23.0959,
143,6.27045,1.38632,3.15058,4.13546,6.27102,1.9851,1.55762,0.000741864,-0.0307911,0.00364363,0.0769778,0.00355858,-0.0521288,-1.059e-05,0.616082,-15.9456,-0.582113,-6.2992,1.53943,-61.0411,2.06705,0.0653118,-20,-0.569815,-0.627136,-0.0344156,-3.26623,0.0731277,-0.000293208,0.0183846,1.31147e-05,0.494734,0.00286158,0.0711604,0.0288194,-0.000729263,0.00563458,1.90906,0.00248215,0.005,1.69145,0.00282759,-0.00115114,-0.764315,51.4158,-0.0104408,0.721335,19.5948,0.852393,-0.0125935,0.217617,-2.79437,-0.0918903,0.435357,-2.24786,0.209473,0.346529,0.213653,0.382712,0.0685998,23.4648,23.2946,23.1243,23.252,23.1952,23.2662,23.1243,
144,6.27045,1.3863,3.15058,4.13555,6.27103,1.98504,1.55762,0.000883974,-0.0289004,0.00397388,0.0748868,0.00418884,-0.0540195,-1.059e-05,0.616389,-15.9573,-0.588376,-6.30783,1.52452,-61.084,2.06408,0.0653797,-20,-0.570447,-0.627122,-0.0344781,-3.27047,0.0728333,-0.00029251,0.0184395,1.16876e-05,0.494734,0.00286158,0.0711604,0.027825,-0.00083196,0.00470892,1.90849,0.0025154,0.005,1.69171,0.0029202,-0.000571126,-0.761081,51.4556,-0.0240754,0.779823,19.4889,0.787193,-0.0342003,0.257565,-2.80674,-0.12648,0.427002,-2.27197,0.209473,0.346529,0.221594,0.362571,0.0689537,23.4648,23.3087,23.1243,23.2804,23.1952,23.252,23.1243,
145,6.27046,1.38627,3.15059,4.13563,6.27103,1.98499,1.55762,0.00125378,-0.0275845,0.00437127,0.0722213,0.00457053,-0.0550999,-1.05901e-05,0.616426,-15.9554,-0.593583,-6.30556,1.51122,-61.0714,2.05713,0.0653722,-20,-0.570814,-0.625335,-0.0345246,-3.26902,0.0721747,-0.000291416,0.0184999,1.12722e-05,0.494734,0.00286158,0.0711604,0.0267855,-0.00106766,0.004106,1.90788,0.00255503,0.005,1.69205,0.00304829,0.000261971,-0.754182,51.4426,-0.0352795,0.86138,19.4393,0.747843,-0.0473348,0.285788,-2.82959,-0.102851,0.443188,-2.28814,0.210091,0.402913,0.205484,0.354515,0.0644531,23.479,23.2946,23.1527,23.2662,23.2094,23.252,23.1101,
146,6.27046,1.38624,3.15059,4.13569,6.27104,1.98493,1.55762,0.00212253,-0.0264696,0.00465066,0.0686048,0.00503707,-0.0571214,-1.059e-05,0.616056,-15.9536,-0.590886,-6.30283,1.52052,-61.0606,2.04389,0.0652539,-20,-0.570601,-0.623543,-0.0344293,-3.26774,0.0707441,-0.000289491,0.0185518,1.31256e-05,0.494734,0.00286158,0.0711604,0.0255172,-0.00146499,0.00349762,1.90731,0.00261194,0.005,1.69247,0.00331164,0.000804596,-0.740229,51.4309,-0.0264411,0.852745,19.3465,0.729692,-0.0281863,0.307407,-2.81728,-0.116271,0.451172,-2.2962,0.185478,0.427306,0.197429,0.342431,0.0684814,23.479,23.2946,23.1243,23.2662,23.1811,23.2662,23.1101,
147,6.27046,1.38624,3.15059,4.13569,6.27104,1.98493,1.55762,0.00212253,-0.0264696,0.00465066,0.0686048,0.00503707,-0.0571214,-1.059e-05,0.615276,-15.9246,-0.584648,-6.27833,1.53778,-60.9421,2.03666,0.0650463,-20,-0.569764,-0.619109,-0.034252,-3.25548,0.0699287,-0.000288366,0.0185847,1.35438e-05,0.494734,0.00286158,0.0711604,0.0255172,-0.00146499,0.00349762,1.9068,0.00266047,0.005,1.69316,0.00371292,0.00135214,-0.732656,51.317,-0.00887796,0.852745,19.3465,0.729692,-0.0281863,0.307407,-2.81728,-0.116271,0.451172,-2.2962,0.185478,0.427306,0.197429,0.342431,0.0684814,23.479,23.2946,23.1243,23.2662,23.1811,23.2662,23.1101,
148,6.27047,1.38621,3.1506,4.13576,6.27104,1.98487,1.55762,0.00384142,-0.0264696,0.00473997,0.0669842,0.005178,-0.0588813,-1.059e-05,0.615097,-15.9239,-0.584669,-6.2781,1.53774,-60.9416,2.03664,0.0649748,-20,-0.569751,-0.617977,-0.0342613,-3.25554,0.0699479,-0.000288366,0.0185847,1.35438e-05,0.494734,0.00286158,0.0711604,0.02506,-0.00217072,0.00333579,1.9068,0.00266047,0.005,1.69316,0.00371292,0.00135214,-0.732656,51.317,-0.00887796,0.904337,19.231,0.716746,-0.0239221,0.308429,-2.79438,-0.100344,0.435133,-2.29616,0.177246,0.475615,0.201456,0.342502,0.0649547,23.4648,23.3087,23.1385,23.2662,23.1952,23.252,23.1101,
149,6.27048,1.38619,3.1506,4.13583,6.27105,1.98481,1.55762,0.00582836,-0.0265815,0.00477172,0.067456,0.00500248,-0.0615822,-1.059e-05,0.613629,-15.9213,-0.562333,-6.27695,1.60423,-60.9305,2.03356,0.0645587,-20,-0.568095,-0.616584,-0.0337842,-3.25452,0.0691458,-0.000286526,0.0186189,1.70953e-05,0.494734,0.00286158,0.0711604,0.0252322,-0.00299275,0.00309021,1.90631,0.0027296,0.005,1.69312,0.00441029,0.00149779,-0.726113,51.308,0.0499957,0.870665,19.0148,0.702635,-0.00559505,0.336937,-2.77681,-0.12197,0.402913,-2.26393,0.169381,0.467285,0.201456,0.326319,0.0726216,23.4648,23.2804,23.1385,23.2662,23.1952,23.2662,23.1385,
150,6.27048,1.38616,3.15061,4.13588,6.27105,1.98475,1.55762,0.00648234,-0.0286303,0.00473997,0.0676967,0.00462231,-0.0626626,-1.059e-05,0.611893,-15.9289,-0.532871,-6.28554,1.69156,-60.9575,2.02933,0.0640793,-20,-0.566079,-0.617179,-0.0331721,-3.25742,0.068076,-0.000284308,0.018653,2.11278e-05,0.494734,0.00286158,0.0711604,0.0257387,-0.00327762,0.00379385,1.9058,0.00279648,0.005,1.69251,0.00521031,0.00171881,-0.717362,51.3366,0.126493,0.877037,18.8795,0.693989,0.0513196,0.34724,-2.72054,-0.102449,0.362638,-2.2398,0.177429,0.427002,0.205484,0.318263,0.0685998,23.4506,23.2946,23.1527,23.2662,23.1811,23.2804,23.1243,
151,6.27048,1.38616,3.15061,4.13588,6.27105,1.98475,1.55762,0.00648234,-0.0286303,0.00473997,0.0676967,0.00462231,-0.0626626,-1.059e-05,0.611325,-15.9535,-0.516243,-6.30759,1.74212,-61.0572,2.02293,0.0639283,-20,-0.565205,-0.621142,-0.0328467,-3.26788,0.0670082,-0.000281764,0.0186757,2.5755e-05,0.494734,0.00286158,0.0711604,0.0257387,-0.00327762,0.00379385,1.90535,0.00286507,0.005,1.69165,0.00552842,0.00108553,-0.707921,51.4342,0.169339,0.877037,18.8795,0.693989,0.0513196,0.34724,-2.72054,-0.102449,0.362638,-2.2398,0.177429,0.427002,0.205484,0.318263,0.0685998,23.4506,23.2946,23.1527,23.2662,23.1811,23.2804,23.1243,
152,6.27049,1.38613,3.15061,4.13596,6.27105,1.98469,1.55762,0.00572164,-0.029141,0.00482616,0.0682243,0.00435491,-0.063743,-1.0582e-05,0.611078,-15.9524,-0.515945,-6.30755,1.7421,-61.0562,2.02267,0.0638545,-20,-0.565209,-0.619836,-0.032843,-3.26795,0.0670222,-0.000281764,0.0186757,2.5755e-05,0.494734,0.00286158,0.0711604,0.0260003,-0.00302281,0.00387858,1.90535,0.00286507,0.005,1.69165,0.00552842,0.00108553,-0.707921,51.4342,0.169339,0.844398,18.6835,0.682078,0.12925,0.347817,-2.64623,-0.109357,0.362907,-2.17531,0.153076,0.410889,0.209628,0.306152,0.0645789,23.4506,23.2946,23.1243,23.2662,23.1811,23.252,23.1101,
153,6.27049,1.3861,3.15062,4.13603,6.27106,1.98462,1.55762,0.00494141,-0.0313313,0.00473841,0.066444,0.00412485,-0.0626921,-1.05901e-05,0.611515,-15.9868,-0.518432,-6.33668,1.73687,-61.1926,2.01187,0.063962,-20,-0.565883,-0.62399,-0.0329095,-3.28196,0.0659045,-0.00027948,0.0187247,2.86494e-05,0.494734,0.00286158,0.0711604,0.0259451,-0.00270718,0.00489379,1.90475,0.00292398,0.005,1.69088,0.00535212,0.00100928,-0.6965,51.5654,0.162511,0.840842,18.4989,0.686024,0.185231,0.364944,-2.61637,-0.101065,0.394858,-2.15114,0.169189,0.386719,0.217567,0.286039,0.0644531,23.4648,23.2946,23.1669,23.2662,23.1952,23.252,23.1101,
154,6.27049,1.3861,3.15062,4.13603,6.27106,1.98462,1.55762,0.00494141,-0.0313313,0.00473841,0.066444,0.00412485,-0.0626921,-1.05901e-05,0.61221,-16.0179,-0.522573,-6.36194,1.72716,-61.3227,2.00735,0.0641471,-20,-0.566598,-0.628447,-0.0330138,-3.29538,0.0654308,-0.000277555,0.0187544,3.11246e-05,0.494734,0.00286158,0.0711604,0.0259451,-0.00270718,0.00489379,1.90424,0.00297673,0.005,1.69047,0.00511552,9.55906e-05,-0.691474,51.6895,0.151726,0.840842,18.4989,0.686024,0.185231,0.364944,-2.61637,-0.101065,0.394858,-2.15114,0.169189,0.386719,0.217567,0.286039,0.0644531,23.4648,23.2946,23.1669,23.2662,23.1952,23.252,23.1101,
155,6.2705,1.38607,3.15062,4.1361,6.27106,1.98456,1.55762,0.00432156,-0.0321416,0.00477011,0.0667141,0.0037738,-0.0625991,-1.059e-05,0.611994,-16.0172,-0.522297,-6.36175,1.72713,-61.3221,2.00705,0.0640801,-20,-0.566599,-0.627311,-0.0330131,-3.29541,0.0654371,-0.000277555,0.0187544,3.11246e-05,0.494734,0.00286158,0.0711604,0.0261928,-0.00249963,0.0052264,1.90424,0.00297673,0.005,1.69047,0.00511552,9.55906e-05,-0.691474,51.6895,0.151726,0.767711,18.2861,0.696991,0.208333,0.356837,-2.55418,-0.116691,0.410968,-2.08669,0.161334,0.386803,0.217567,0.249756,0.0685998,23.4648,23.2946,23.1527,23.2804,23.1952,23.252,23.1243,
156,6.2705,1.38607,3.15062,4.1361,6.27106,1.98456,1.55762,0.00432156,-0.0321416,0.00477011,0.0667141,0.0037738,-0.0625991,-1.059e-05,0.612611,-16.0517,-0.524471,-6.39051,1.72384,-61.4593,1.99837,0.0642443,-20,-0.567218,-0.632443,-0.0330673,-3.30946,0.0644753,-0.000275655,0.01879,3.24685e-05,0.494734,0.00286158,0.0711604,0.0261928,-0.00249963,0.0052264,1.90372,0.00302076,0.005,1.68978,0.00496835,-0.000203764,-0.681767,51.8208,0.146553,0.767711,18.2861,0.696991,0.208333,0.356837,-2.55418,-0.116691,0.410968,-2.08669,0.161334,0.386803,0.217567,0.249756,0.0685998,23.4648,23.2946,23.1527,23.2804,23.1952,23.252,23.1243,
157,6.2705,1.38603,3.15063,4.13617,6.27106,1.9845,1.55762,0.00404941,-0.0325999,0.00465219,0.0677075,0.00372713,-0.0607719,-1.059e-05,0.612377,-16.0509,-0.524237,-6.39052,1.72377,-61.4584,1.99799,0.0641701,-20,-0.56722,-0.631249,-0.0330676,-3.3095,0.0644793,-0.000275655,0.01879,3.24685e-05,0.494734,0.00286158,0.0711604,0.0265708,-0.00235572,0.00559319,1.90372,0.00302076,0.005,1.68978,0.00496835,-0.000203764,-0.681767,51.8208,0.146553,0.714971,18.1481,0.687576,0.268638,0.34969,-2.46584,-0.118681,0.427078,-2.06264,0.169381,0.362638,0.229614,0.221558,0.0689537,23.4648,23.2946,23.1243,23.2662,23.1952,23.252,23.1101,
158,6.2705,1.38603,3.15063,4.13617,6.27106,1.9845,1.55762,0.00404941,-0.0325999,0.00465219,0.0677075,0.00372713,-0.0607719,-1.059e-05,0.61339,-16.1105,-0.527281,-6.43903,1.72159,-61.6934,1.99867,0.0644396,-20,-0.56824,-0.639792,-0.0331095,-3.33338,0.0643212,-0.000273743,0.0188364,3.33752e-05,0.494734,0.00286158,0.0711604,0.0265708,-0.00235572,0.00559319,1.90316,0.00306941,0.005,1.68893,0.00488262,-0.000533873,-0.680021,52.0446,0.140471,0.714971,18.1481,0.687576,0.268638,0.34969,-2.46584,-0.118681,0.427078,-2.06264,0.169381,0.362638,0.229614,0.221558,0.0689537,23.4648,23.2946,23.1243,23.2662,23.1952,23.252,23.1101,
