LWingKi/MAS_RnD/main/log/us2/contactless/20/grasp_log_12_08_2023_15_09_24.csv
Index,joint_angle_0,joint_angle_1,joint_angle_2,joint_angle_3,joint_angle_4,joint_angle_5,joint_angle_6,joint_velocity_0,joint_velocity_1,joint_velocity_2,joint_velocity_3,joint_velocity_4,joint_velocity_5,joint_velocity_6,joint_accel_0,joint_accel_1,joint_accel_2,joint_accel_3,joint_accel_4,joint_accel_5,joint_accel_6,constraint_tau_0,constraint_tau_1,constraint_tau_2,constraint_tau_3,constraint_tau_4,constraint_tau_5,constraint_tau_6,current_pos_x,current_pos_y,current_pos_z,target_pos_x,target_pos_y,target_pos_z,current_vel_x,current_vel_y,current_vel_z,target_vel_x,target_vel_y,target_vel_z,control_signal_linear_x,control_signal_linear_y,control_signal_linear_z,control_signal_angular_x,control_signal_angular_y,control_signal_angular_z,joint_torque_0,joint_torque_1,joint_torque_2,joint_torque_3,joint_torque_4,joint_torque_5,joint_torque_6,actuar_current_0,actuar_current_1,actuar_current_2,actuar_current_3,actuar_current_4,actuar_current_5,actuar_current_6,actuar_voltage_0,actuar_voltage_1,actuar_voltage_2,actuar_voltage_3,actuar_voltage_4,actuar_voltage_5,actuar_voltage_6
0,6.27275,1.3851,3.15336,4.11422,6.27428,1.97442,1.55578,0.00522012,0.038894,-3.08486e-05,0.0966949,0,0.00143624,0,0.399767,-8.47081,-0.424326,0.0461217,0.707806,-31.4399,1.12203,0.00777081,-20,-0.455086,0.256824,-0.0409486,-0.196692,0.0303222,-0.000124491,0.0084941,-5.12164e-05,0.493463,0.00128941,0.0734409,0.019725,-0.00192008,-0.0170932,1.96819,-0.00125338,0.005,1.77137,-0.00112804,0.0045,-0.336126,22.9341,-0.138284,1.68821,-0.976213,-0.232869,5.04283,0.146994,5.04437,0.235976,0.20206,0.346529,0.169381,-0.0644531,-0.120917,-0.596205,-0.141221,23.479,23.3513,23.1811,23.3087,23.2378,23.3087,23.1385,
1,6.27275,1.3851,3.15336,4.11422,6.27428,1.97442,1.55578,0.00522012,0.038894,-3.08486e-05,0.0966949,0,0.00143624,0,0.327829,-2.60057,-0.28275,4.30301,0.517897,-8.67075,0.559687,-0.0113586,-18.7844,-0.367337,1.00204,-0.0397179,2.05626,-0.00257549,0,0,0,0.493463,0.00128941,0.0734409,0.019725,-0.00192008,-0.0170932,2,0,0.005,1.78225,0.00172807,0.0198839,-0.0127186,1.77687,0.122251,1.68821,-0.976213,-0.232869,5.04283,0.146994,5.04437,0.235976,0.20206,0.346529,0.169381,-0.0644531,-0.120917,-0.596205,-0.141221,23.479,23.3513,23.1811,23.3087,23.2378,23.3087,23.1385,
2,6.27276,1.38514,3.15336,4.11432,6.27428,1.97442,1.55578,0.00558013,0.038894,-4.31881e-05,0.0972982,0,0.00206782,0,0.327841,-2.60014,-0.28283,4.30302,0.517923,-8.67033,0.559725,-0.0113538,-18.785,-0.367358,1.00271,-0.0397125,2.05617,-0.0025758,0,0,0,0.493463,0.00128941,0.0734409,0.0198996,-0.00205615,-0.0170373,2,0,0.005,1.78225,0.00172807,0.0198839,-0.0127186,1.77687,0.122251,1.71961,-0.95999,-0.253927,4.88645,0.189156,5.11146,0.255939,0.217678,0.298096,0.177429,-0.0569691,-0.116891,-0.568007,-0.129158,23.479,23.3513,23.1952,23.2946,23.2378,23.2946,23.1527,
3,6.27276,1.38514,3.15336,4.11432,6.27428,1.97442,1.55578,0.00558013,0.038894,-4.31881e-05,0.0972982,0,0.00206782,0,0.328117,-2.66539,-0.274896,4.25409,0.547201,-8.92145,0.567055,-0.0112804,-18.8242,-0.367664,0.994051,-0.0395464,2.0312,-0.00224648,-9.76796e-07,7.33553e-05,3.90478e-06,0.493463,0.00128941,0.0734409,0.0198996,-0.00205615,-0.0170373,1.99957,3.58945e-05,0.005,1.7817,0.00188284,0.0198336,-0.0158633,2.01197,0.143031,1.71961,-0.95999,-0.253927,4.88645,0.189156,5.11146,0.255939,0.217678,0.298096,0.177429,-0.0569691,-0.116891,-0.568007,-0.129158,23.479,23.3513,23.1952,23.2946,23.2378,23.2946,23.1527,
4,6.27277,1.38518,3.15336,4.11442,6.27428,1.97443,1.55578,0.0057933,0.0394342,-4.2151e-05,0.0944383,1.0582e-05,0.002517,0,0.3281,-2.66495,-0.274923,4.254,0.547198,-8.92092,0.567058,-0.0112791,-18.8246,-0.367683,0.994595,-0.0395372,2.03109,-0.00224657,-9.76796e-07,7.33553e-05,3.90478e-06,0.493463,0.00128941,0.0734409,0.0189592,-0.00214614,-0.0171442,1.99957,3.58945e-05,0.005,1.7817,0.00188284,0.0198336,-0.0158633,2.01197,0.143031,1.72562,-0.895065,-0.301444,4.72054,0.271043,5.20675,0.254519,0.209473,0.281982,0.177429,-0.0509547,-0.116821,-0.55188,-0.128969,23.479,23.3371,23.1811,23.3087,23.2378,23.3087,23.1527,
5,6.27277,1.38518,3.15336,4.11442,6.27428,1.97443,1.55578,0.0057933,0.0394342,-4.2151e-05,0.0944383,1.0582e-05,0.002517,0,0.327901,-2.68787,-0.267007,4.23917,0.571697,-9.007,0.570546,-0.0113319,-18.8384,-0.36743,0.992221,-0.0393933,2.02284,-0.00210182,-1.76732e-06,0.000135118,8.66092e-06,0.493463,0.00128941,0.0734409,0.0189592,-0.00214614,-0.0171442,1.99919,8.57688e-05,0.005,1.78221,0.00200872,0.0199298,-0.0172075,2.0902,0.16277,1.72562,-0.895065,-0.301444,4.72054,0.271043,5.20675,0.254519,0.209473,0.281982,0.177429,-0.0509547,-0.116821,-0.55188,-0.128969,23.479,23.3371,23.1811,23.3087,23.2378,23.3087,23.1527,
6,6.27277,1.38522,3.15336,4.11451,6.27428,1.97444,1.55578,0.00649551,0.038582,-4.81737e-05,0.0975052,1.0582e-05,0.00314322,0,0.327918,-2.68751,-0.267156,4.23917,0.571714,-9.00664,0.570614,-0.011329,-18.8392,-0.367452,0.992792,-0.0393898,2.02279,-0.00210159,-1.76732e-06,0.000135118,8.66092e-06,0.493463,0.00128941,0.0734409,0.0200262,-0.00241154,-0.0168032,1.99919,8.57688e-05,0.005,1.78221,0.00200872,0.0199298,-0.0172075,2.0902,0.16277,1.72789,-0.777769,-0.344758,4.49983,0.271216,5.24672,0.266721,0.217678,0.249756,0.161936,-0.00805664,-0.112865,-0.531754,-0.141049,23.479,23.3655,23.1811,23.3229,23.2236,23.3087,23.1669,
7,6.27277,1.38522,3.15336,4.11451,6.27428,1.97444,1.55578,0.00649551,0.038582,-4.81737e-05,0.0975052,1.0582e-05,0.00314322,0,0.328102,-2.7734,-0.253213,4.17268,0.620548,-9.33946,0.579685,-0.0112803,-18.8907,-0.367607,0.980863,-0.0390979,1.98939,-0.00179045,-2.3973e-06,0.000200886,1.47983e-05,0.493463,0.00128941,0.0734409,0.0200262,-0.00241154,-0.0168032,1.99881,0.000140284,0.005,1.7809,0.00229664,0.0196228,-0.0201012,2.40412,0.199028,1.72789,-0.777769,-0.344758,4.49983,0.271216,5.24672,0.266721,0.217678,0.249756,0.161936,-0.00805664,-0.112865,-0.531754,-0.141049,23.479,23.3655,23.1811,23.3229,23.2236,23.3087,23.1669,
8,6.27278,1.38525,3.15336,4.11461,6.27428,1.97445,1.55578,0.00756273,0.0372735,-4.7122e-05,0.0964248,2.11641e-05,0.00524169,0,0.32812,-2.773,-0.253371,4.17252,0.620558,-9.33889,0.57973,-0.0112803,-18.8913,-0.367624,0.981439,-0.0390959,1.98931,-0.00179045,-2.3973e-06,0.000200886,1.47983e-05,0.493463,0.00128941,0.0734409,0.0199933,-0.00282714,-0.0160434,1.99881,0.000140284,0.005,1.7809,0.00229664,0.0196228,-0.0201012,2.40412,0.199028,1.76912,-0.660092,-0.380569,4.32287,0.272409,5.30716,0.261349,0.209628,0.241699,0.153076,-0.0161133,-0.116821,-0.511613,-0.145075,23.479,23.3513,23.1811,23.3087,23.2236,23.3087,23.1669,
9,6.27278,1.38525,3.15336,4.11461,6.27428,1.97445,1.55578,0.00756273,0.0372735,-4.7122e-05,0.0964248,2.11641e-05,0.00524169,0,0.327932,-2.84276,-0.23595,4.12098,0.678337,-9.61213,0.588499,-0.0113303,-18.9332,-0.367321,0.972454,-0.038727,1.96206,-0.00152115,-3.22613e-06,0.000269705,2.00212e-05,0.493463,0.00128941,0.0734409,0.0199933,-0.00282714,-0.0160434,1.99841,0.000194087,0.005,1.78058,0.00271911,0.0189391,-0.022569,2.65972,0.244284,1.76912,-0.660092,-0.380569,4.32287,0.272409,5.30716,0.261349,0.209628,0.241699,0.153076,-0.0161133,-0.116821,-0.511613,-0.145075,23.479,23.3513,23.1811,23.3087,23.2236,23.3087,23.1669,
10,6.27278,1.38525,3.15336,4.11461,6.27428,1.97445,1.55578,0.00756273,0.0372735,-4.7122e-05,0.0964248,2.11641e-05,0.00524169,0,0.327932,-2.84276,-0.23595,4.12098,0.678337,-9.61213,0.588499,-0.0113303,-18.9332,-0.367321,0.972454,-0.038727,1.96206,-0.00152115,-3.22613e-06,0.000269705,2.00212e-05,0.493463,0.00128941,0.0734409,0.0199933,-0.00282714,-0.0160434,1.99841,0.000194087,0.005,1.78058,0.00271911,0.0189391,-0.022569,2.65972,0.244284,1.76912,-0.660092,-0.380569,4.32287,0.272409,5.30716,0.261349,0.209628,0.241699,0.153076,-0.0161133,-0.116821,-0.511613,-0.145075,23.479,23.3513,23.1811,23.3087,23.2236,23.3087,23.1669,
11,6.27279,1.38529,3.15336,4.11471,6.27428,1.97447,1.55578,0.00783283,0.0334921,-4.7121e-05,0.0975489,2.11639e-05,0.00937639,0,0.327992,-2.84234,-0.236135,4.12069,0.678393,-9.61141,0.588584,-0.0113257,-18.9341,-0.367348,0.973121,-0.0387213,1.96201,-0.00152166,-3.22613e-06,0.000269705,2.00212e-05,0.493463,0.00128941,0.0734409,0.0211211,-0.00291641,-0.0141387,1.99841,0.000194087,0.005,1.78058,0.00271911,0.0189391,-0.022569,2.65972,0.244284,1.79154,-0.558455,-0.418946,4.22276,0.306217,5.39823,0.257764,0.185303,0.104736,0.153076,-0.00805664,-0.112865,-0.499512,-0.140991,23.479,23.3513,23.1669,23.3087,23.2378,23.2946,23.1669,
12,6.27279,1.38529,3.15336,4.11471,6.27428,1.97447,1.55578,0.00783283,0.0334921,-4.7121e-05,0.0975489,2.11639e-05,0.00937639,0,0.329024,-2.9757,-0.227508,4.01968,0.716673,-10.141,0.600197,-0.0110513,-19.0141,-0.368503,0.955127,-0.0385256,1.90875,-0.00107382,-4.26037e-06,0.000353579,2.65138e-05,0.493463,0.00128941,0.0734409,0.0211211,-0.00291641,-0.0141387,1.99795,0.000250557,0.005,1.77915,0.00285027,0.0172248,-0.0268134,3.15736,0.267654,1.79154,-0.558455,-0.418946,4.22276,0.306217,5.39823,0.257764,0.185303,0.104736,0.153076,-0.00805664,-0.112865,-0.499512,-0.140991,23.479,23.3513,23.1669,23.3087,23.2378,23.2946,23.1669,
13,6.2728,1.38531,3.15336,4.11481,6.27428,1.97448,1.55578,0.00805837,0.0286303,-5.30123e-05,0.0975052,3.17219e-05,0.0137765,0,0.329095,-2.97522,-0.227707,4.01919,0.716732,-10.1401,0.600283,-0.0110464,-19.0149,-0.36853,0.955714,-0.0385192,1.9087,-0.00107447,-4.26037e-06,0.000353579,2.65138e-05,0.493463,0.00128941,0.0734409,0.02214,-0.00298521,-0.0117571,1.99795,0.000250557,0.005,1.77915,0.00285027,0.0172248,-0.0268134,3.15736,0.267654,1.78023,-0.447801,-0.451764,4.12079,0.365205,5.46269,0.27121,0.177429,-0.0402832,0.128906,-0.0227876,-0.116891,-0.499577,-0.1372,23.4932,23.3655,23.1811,23.3087,23.252,23.2946,23.1527,
14,6.2728,1.38531,3.15336,4.11481,6.27428,1.97448,1.55578,0.00805837,0.0286303,-5.30123e-05,0.0975052,3.17219e-05,0.0137765,0,0.330218,-3.11065,-0.220138,3.9171,0.752338,-10.6817,0.613346,-0.0107478,-19.0962,-0.369787,0.937571,-0.0383403,1.85416,-0.00047907,-5.71084e-06,0.000439569,3.25789e-05,0.493463,0.00128941,0.0734409,0.02214,-0.00298521,-0.0117571,1.99752,0.000309106,0.005,1.77784,0.00296489,0.0150814,-0.0325257,3.66605,0.288497,1.78023,-0.447801,-0.451764,4.12079,0.365205,5.46269,0.27121,0.177429,-0.0402832,0.128906,-0.0227876,-0.116891,-0.499577,-0.1372,23.4932,23.3655,23.1811,23.3087,23.252,23.2946,23.1527,
15,6.2728,1.38531,3.15336,4.11481,6.27428,1.97448,1.55578,0.00805837,0.0286303,-5.30123e-05,0.0975052,3.17219e-05,0.0137765,0,0.330218,-3.11065,-0.220138,3.9171,0.752338,-10.6817,0.613346,-0.0107478,-19.0962,-0.369787,0.937571,-0.0383403,1.85416,-0.00047907,-5.71084e-06,0.000439569,3.25789e-05,0.493463,0.00128941,0.0734409,0.02214,-0.00298521,-0.0117571,1.99752,0.000309106,0.005,1.77784,0.00296489,0.0150814,-0.0325257,3.66605,0.288497,1.78023,-0.447801,-0.451764,4.12079,0.365205,5.46269,0.27121,0.177429,-0.0402832,0.128906,-0.0227876,-0.116891,-0.499577,-0.1372,23.4932,23.3655,23.1811,23.3087,23.252,23.2946,23.1527,
16,6.27281,1.38533,3.15336,4.1149,6.27428,1.9745,1.55578,0.00805837,0.0185569,-6.341e-05,0.099565,3.17459e-05,0.0184563,0,0.330331,-3.10988,-0.220422,3.91602,0.752429,-10.6799,0.613472,-0.0107442,-19.0972,-0.369815,0.938046,-0.0383373,1.85418,-0.000479779,-5.71084e-06,0.000439569,3.25789e-05,0.493463,0.00128941,0.0734409,0.0248688,-0.00294866,-0.00733598,1.99752,0.000309106,0.005,1.77784,0.00296489,0.0150814,-0.0325257,3.66605,0.288497,1.74634,-0.199242,-0.465237,4.01418,0.350662,5.52866,0.284837,0.193359,-0.22573,0.128906,0,-0.0967636,-0.503556,-0.137022,23.479,23.3513,23.1811,23.3087,23.252,23.3087,23.1385,
17,6.27281,1.38533,3.15336,4.1149,6.27428,1.9745,1.55578,0.00805837,0.0185569,-6.341e-05,0.099565,3.17459e-05,0.0184563,0,0.332405,-3.31184,-0.215734,3.76061,0.786783,-11.4964,0.630378,-0.0101927,-19.2184,-0.37215,0.9101,-0.0381938,1.77138,0.000249304,-6.83892e-06,0.000538089,3.90327e-05,0.493463,0.00128941,0.0734409,0.0248688,-0.00294866,-0.00733598,1.99703,0.000365021,0.005,1.77495,0.00298231,0.0111024,-0.0395119,4.4364,0.303032,1.74634,-0.199242,-0.465237,4.01418,0.350662,5.52866,0.284837,0.193359,-0.22573,0.128906,0,-0.0967636,-0.503556,-0.137022,23.479,23.3513,23.1811,23.3087,23.252,23.3087,23.1385,
18,6.27281,1.38533,3.15336,4.1149,6.27428,1.9745,1.55578,0.00805837,0.0185569,-6.341e-05,0.099565,3.17459e-05,0.0184563,0,0.332405,-3.31184,-0.215734,3.76061,0.786783,-11.4964,0.630378,-0.0101927,-19.2184,-0.37215,0.9101,-0.0381938,1.77138,0.000249304,-6.83892e-06,0.000538089,3.90327e-05,0.493463,0.00128941,0.0734409,0.0248688,-0.00294866,-0.00733598,1.99703,0.000365021,0.005,1.77495,0.00298231,0.0111024,-0.0395119,4.4364,0.303032,1.74634,-0.199242,-0.465237,4.01418,0.350662,5.52866,0.284837,0.193359,-0.22573,0.128906,0,-0.0967636,-0.503556,-0.137022,23.479,23.3513,23.1811,23.3087,23.252,23.3087,23.1385,
19,6.27281,1.38534,3.15336,4.115,6.27428,1.97453,1.55578,0.00783283,0.00539648,-7.90172e-05,0.100038,3.70372e-05,0.0232284,0,0.332534,-3.31076,-0.216021,3.75901,0.786883,-11.4938,0.630496,-0.0101876,-19.2193,-0.37218,0.910456,-0.0381893,1.7714,0.000247746,-6.83892e-06,0.000538089,3.90327e-05,0.493463,0.00128941,0.0734409,0.0277916,-0.0028179,-0.00165732,1.99703,0.000365021,0.005,1.77495,0.00298231,0.0111024,-0.0395119,4.4364,0.303032,1.79117,0.00601459,-0.493179,4.00506,0.352052,5.62977,0.299705,0.201577,-0.27499,0.12085,-0.0241699,-0.104736,-0.507568,-0.137022,23.479,23.3513,23.2094,23.3229,23.2378,23.3087,23.1669,
20,6.27281,1.38534,3.15336,4.115,6.27428,1.97453,1.55578,0.00783283,0.00539648,-7.90172e-05,0.100038,3.70372e-05,0.0232284,0,0.33511,-3.53593,-0.215261,3.58613,0.812543,-12.411,0.650344,-0.00950248,-19.3545,-0.375097,0.879384,-0.0381122,1.67825,0.00122567,-8.59203e-06,0.000654042,4.43696e-05,0.493463,0.00128941,0.0734409,0.0277916,-0.0028179,-0.00165732,1.99649,0.00041349,0.005,1.77182,0.00290825,0.00599159,-0.048966,5.30158,0.308124,1.79117,0.00601459,-0.493179,4.00506,0.352052,5.62977,0.299705,0.201577,-0.27499,0.12085,-0.0241699,-0.104736,-0.507568,-0.137022,23.479,23.3513,23.2094,23.3229,23.2378,23.3087,23.1669,
21,6.27281,1.38534,3.15336,4.115,6.27428,1.97453,1.55578,0.00783283,0.00539648,-7.90172e-05,0.100038,3.70372e-05,0.0232284,0,0.33511,-3.53593,-0.215261,3.58613,0.812543,-12.411,0.650344,-0.00950248,-19.3545,-0.375097,0.879384,-0.0381122,1.67825,0.00122567,-8.59203e-06,0.000654042,4.43696e-05,0.493463,0.00128941,0.0734409,0.0277916,-0.0028179,-0.00165732,1.99649,0.00041349,0.005,1.77182,0.00290825,0.00599159,-0.048966,5.30158,0.308124,1.79117,0.00601459,-0.493179,4.00506,0.352052,5.62977,0.299705,0.201577,-0.27499,0.12085,-0.0241699,-0.104736,-0.507568,-0.137022,23.479,23.3513,23.2094,23.3229,23.2378,23.3087,23.1669,
22,6.27282,1.38533,3.15336,4.11511,6.27428,1.97456,1.55578,0.00783283,-0.00594214,-9.9514e-05,0.0994614,4.75834e-05,0.0275845,0,0.335241,-3.5348,-0.215558,3.58464,0.812643,-12.4084,0.650464,-0.009496,-19.3553,-0.375126,0.879864,-0.0381065,1.67822,0.00122362,-8.59203e-06,0.000654042,4.43696e-05,0.493463,0.00128941,0.0734409,0.0300259,-0.00278102,0.00328234,1.99649,0.00041349,0.005,1.77182,0.00290825,0.00599159,-0.048966,5.30158,0.308124,1.76237,0.204397,-0.542426,4.06416,0.34396,5.75922,0.288443,0.218125,-0.22573,0.121118,-0.0241699,-0.104814,-0.523697,-0.128906,23.4932,23.3513,23.1952,23.3229,23.2378,23.3087,23.1527,
23,6.27282,1.38533,3.15336,4.11511,6.27428,1.97456,1.55578,0.00783283,-0.00594214,-9.9514e-05,0.0994614,4.75834e-05,0.0275845,0,0.33758,-3.75369,-0.212188,3.41805,0.845216,-13.2945,0.671637,-0.00887405,-19.4868,-0.377778,0.850079,-0.0379779,1.58854,0.00231637,-1.09964e-05,0.000795016,4.95207e-05,0.493463,0.00128941,0.0734409,0.0300259,-0.00278102,0.00328234,1.99585,0.000462617,0.005,1.76924,0.00291927,0.0015459,-0.0595504,6.13573,0.319862,1.76237,0.204397,-0.542426,4.06416,0.34396,5.75922,0.288443,0.218125,-0.22573,0.121118,-0.0241699,-0.104814,-0.523697,-0.128906,23.4932,23.3513,23.1952,23.3229,23.2378,23.3087,23.1527,
24,6.27283,1.38532,3.15335,4.11521,6.27428,1.97459,1.55578,0.0080623,-0.0105338,-0.000124411,0.0985856,4.76188e-05,0.0329519,0,0.337702,-3.75308,-0.212456,3.4173,0.845325,-13.2932,0.671787,-0.0088656,-19.4875,-0.377804,0.850846,-0.0379688,1.58843,0.00231546,-1.09964e-05,0.000795016,4.95207e-05,0.493463,0.00128941,0.0734409,0.0307477,-0.00284809,0.00567956,1.99585,0.000462617,0.005,1.76924,0.00291927,0.0015459,-0.0595504,6.13573,0.319862,1.7109,0.364095,-0.530144,4.11601,0.375515,5.90164,0.296672,0.217529,-0.22573,0.105046,-0.0241699,-0.101431,-0.519653,-0.128906,23.4648,23.3513,23.1952,23.3229,23.252,23.2804,23.1527,
25,6.27283,1.38532,3.15335,4.11521,6.27428,1.97459,1.55578,0.0080623,-0.0105338,-0.000124411,0.0985856,4.76188e-05,0.0329519,0,0.339263,-3.9315,-0.204383,3.28446,0.886529,-14.0004,0.689094,-0.00845047,-19.5946,-0.379596,0.8274,-0.037775,1.51759,0.0031482,-1.32572e-05,0.000939332,5.61859e-05,0.493463,0.00128941,0.0734409,0.0307477,-0.00284809,0.00567956,1.99522,0.00051641,0.005,1.76803,0.00302805,-0.000611601,-0.0675715,6.79785,0.342481,1.7109,0.364095,-0.530144,4.11601,0.375515,5.90164,0.296672,0.217529,-0.22573,0.105046,-0.0241699,-0.101431,-0.519653,-0.128906,23.4648,23.3513,23.1952,23.3229,23.252,23.2804,23.1527,
26,6.27284,1.3853,3.15335,4.1153,6.27428,1.97463,1.55578,0.00798948,-0.0195599,-0.000137878,0.0993959,4.76188e-05,0.0378136,0,0.339376,-3.93058,-0.204663,3.28302,0.886628,-13.9981,0.689233,-0.00844703,-19.5954,-0.379626,0.827863,-0.0377665,1.51756,0.00314733,-1.32572e-05,0.000939332,5.61859e-05,0.493463,0.00128941,0.0734409,0.0328932,-0.00278693,0.0097361,1.99522,0.00051641,0.005,1.76803,0.00302805,-0.000611601,-0.0675715,6.79785,0.342481,1.60924,0.623743,-0.52165,4.18738,0.356769,6.00941,0.260373,0.217529,-0.346529,0.088623,0.0113938,-0.100789,-0.53981,-0.132935,23.4932,23.3655,23.1811,23.3371,23.2378,23.3229,23.1669,
27,6.27284,1.3853,3.15335,4.1153,6.27428,1.97463,1.55578,0.00798948,-0.0195599,-0.000137878,0.0993959,4.76188e-05,0.0378136,0,0.341728,-4.15928,-0.199975,3.10946,0.92336,-14.9144,0.708471,-0.00782167,-19.7328,-0.382318,0.796897,-0.0376244,1.42515,0.00400541,-1.50606e-05,0.0010951,6.34001e-05,0.493463,0.00128941,0.0734409,0.0328932,-0.00278693,0.0097361,1.99457,0.000576951,0.005,1.76551,0.0030275,-0.00426249,-0.0758023,7.65934,0.357223,1.60924,0.623743,-0.52165,4.18738,0.356769,6.00941,0.260373,0.217529,-0.346529,0.088623,0.0113938,-0.100789,-0.53981,-0.132935,23.4932,23.3655,23.1811,23.3371,23.2378,23.3229,23.1669,
28,6.27284,1.38528,3.15335,4.1154,6.27428,1.97466,1.55578,0.00728894,-0.0232284,-0.000156026,0.0991258,5.82008e-05,0.0385848,0,0.341741,-4.15826,-0.199985,3.10887,0.92339,-14.9127,0.708478,-0.00781458,-19.7333,-0.382349,0.797838,-0.0376068,1.425,0.0040008,-1.50606e-05,0.0010951,6.34001e-05,0.493463,0.00128941,0.0734409,0.0335894,-0.00249671,0.0112719,1.99457,0.000576951,0.005,1.76551,0.0030275,-0.00426249,-0.0758023,7.65934,0.357223,1.64571,0.972846,-0.554496,4.25894,0.331099,6.10534,0.276187,0.241699,-0.362549,0.0970148,0.0113938,-0.0926514,-0.547866,-0.137022,23.4932,23.3655,23.1952,23.3087,23.2236,23.2946,23.1527,
29,6.27284,1.38528,3.15335,4.1154,6.27428,1.97466,1.55578,0.00728894,-0.0232284,-0.000156026,0.0991258,5.82008e-05,0.0385848,0,0.343787,-4.30797,-0.20663,2.99679,0.918919,-15.504,0.722339,-0.00727038,-19.8232,-0.384799,0.777927,-0.0377144,1.36581,0.00486948,-1.75746e-05,0.00125379,6.585e-05,0.493463,0.00128941,0.0734409,0.0335894,-0.00249671,0.0112719,1.99391,0.000604454,0.005,1.76429,0.00279105,-0.00564469,-0.0842994,8.21285,0.342181,1.64571,0.972846,-0.554496,4.25894,0.331099,6.10534,0.276187,0.241699,-0.362549,0.0970148,0.0113938,-0.0926514,-0.547866,-0.137022,23.4932,23.3655,23.1952,23.3087,23.2236,23.2946,23.1527,
30,6.27285,1.38525,3.15335,4.11551,6.27428,1.97471,1.55578,0.00620909,-0.0242841,-0.000178592,0.0990535,5.82008e-05,0.041126,0,0.343769,-4.3072,-0.20655,2.99642,0.918951,-15.5028,0.722365,-0.00726,-19.8238,-0.384839,0.779088,-0.037687,1.36562,0.00486638,-1.75746e-05,0.00125379,6.585e-05,0.493463,0.00128941,0.0734409,0.033791,-0.00205939,0.0119629,1.99391,0.000604454,0.005,1.76429,0.00279105,-0.00564469,-0.0842994,8.21285,0.342181,1.58894,1.40443,-0.572458,4.41451,0.288593,6.20736,0.265407,0.249886,-0.499512,0.0809682,0.0180152,-0.0927389,-0.519794,-0.128906,23.479,23.3655,23.1952,23.3229,23.2378,23.3087,23.1527,
31,6.27285,1.38525,3.15335,4.11551,6.27428,1.97471,1.55578,0.00620909,-0.0242841,-0.000178592,0.0990535,5.82008e-05,0.041126,0,0.345984,-4.46459,-0.215155,2.88018,0.908564,-16.1164,0.734814,-0.00667108,-19.9183,-0.387531,0.758575,-0.0378563,1.3046,0.00563262,-1.99943e-05,0.0014266,7.06545e-05,0.493463,0.00128941,0.0734409,0.033791,-0.00205939,0.0119629,1.9932,0.000644587,0.005,1.76347,0.00243358,-0.00626665,-0.0917743,8.78516,0.321513,1.58894,1.40443,-0.572458,4.41451,0.288593,6.20736,0.265407,0.249886,-0.499512,0.0809682,0.0180152,-0.0927389,-0.519794,-0.128906,23.479,23.3655,23.1952,23.3229,23.2378,23.3087,23.1527,
32,6.27285,1.38525,3.15335,4.11551,6.27428,1.97471,1.55578,0.00620909,-0.0242841,-0.000178592,0.0990535,5.82008e-05,0.041126,0,0.345984,-4.46459,-0.215155,2.88018,0.908564,-16.1164,0.734814,-0.00667108,-19.9183,-0.387531,0.758575,-0.0378563,1.3046,0.00563262,-1.99943e-05,0.0014266,7.06545e-05,0.493463,0.00128941,0.0734409,0.033791,-0.00205939,0.0119629,1.9932,0.000644587,0.005,1.76347,0.00243358,-0.00626665,-0.0917743,8.78516,0.321513,1.58894,1.40443,-0.572458,4.41451,0.288593,6.20736,0.265407,0.249886,-0.499512,0.0809682,0.0180152,-0.0927389,-0.519794,-0.128906,23.479,23.3655,23.1952,23.3229,23.2378,23.3087,23.1527,
33,6.27286,1.38522,3.15335,4.11561,6.27428,1.97475,1.55578,0.00581318,-0.0264964,-0.000180031,0.0999361,5.82013e-05,0.0472671,0,0.346006,-4.46414,-0.21522,2.8794,0.908634,-16.1152,0.734854,-0.0066724,-19.9191,-0.387563,0.759455,-0.0378426,1.30448,0.00562999,-1.99943e-05,0.0014266,7.06545e-05,0.493463,0.00128941,0.0734409,0.0345165,-0.00188691,0.0134716,1.9932,0.000644587,0.005,1.76347,0.00243358,-0.00626665,-0.0917743,8.78516,0.321513,1.58872,1.62036,-0.47534,4.50451,0.267494,6.27551,0.324855,0.282097,-0.660694,0.072956,0.0322266,-0.0887145,-0.523682,-0.129158,23.479,23.3655,23.1811,23.3229,23.2236,23.3087,23.1811,
34,6.27286,1.38522,3.15335,4.11561,6.27428,1.97475,1.55578,0.00581318,-0.0264964,-0.000180031,0.0999361,5.82013e-05,0.0472671,0,0.348401,-4.66592,-0.217988,2.72949,0.920871,-16.9063,0.747852,-0.00603527,-20,-0.390431,0.732981,-0.0378549,1.22555,0.0061067,-2.13342e-05,0.00159782,7.46222e-05,0.493463,0.00128941,0.0734409,0.0345165,-0.00188691,0.0134716,1.99252,0.00068241,0.005,1.7622,0.00231239,-0.00762448,-0.0963065,9.52451,0.317256,1.58872,1.62036,-0.47534,4.50451,0.267494,6.27551,0.324855,0.282097,-0.660694,0.072956,0.0322266,-0.0887145,-0.523682,-0.129158,23.479,23.3655,23.1811,23.3229,23.2236,23.3087,23.1811,
35,6.27286,1.38519,3.15335,4.11571,6.27428,1.9748,1.55578,0.00546156,-0.0298134,-0.000196398,0.103343,5.82013e-05,0.0513185,0,0.348452,-4.66521,-0.218105,2.7285,0.920951,-16.9046,0.747921,-0.00602969,-20,-0.390468,0.733823,-0.0378422,1.22547,0.00610316,-2.13342e-05,0.00159782,7.46222e-05,0.493463,0.00128941,0.0734409,0.0362027,-0.00172324,0.0151451,1.99252,0.00068241,0.005,1.7622,0.00231239,-0.00762448,-0.0963065,9.52451,0.317256,1.45404,1.90008,-0.401705,4.57376,0.224487,6.34069,0.281122,0.298205,-0.773438,0.0644531,0.0180152,-0.0927389,-0.551895,-0.120917,23.479,23.3371,23.1811,23.3087,23.2236,23.2946,23.1527,
36,6.27286,1.38519,3.15335,4.11571,6.27428,1.9748,1.55578,0.00546156,-0.0298134,-0.000196398,0.103343,5.82013e-05,0.0513185,0,0.351123,-4.8882,-0.221389,2.56013,0.934113,-17.7795,0.76562,-0.0053195,-20,-0.393653,0.703842,-0.0378526,1.13789,0.00696031,-2.35454e-05,0.00178195,7.78124e-05,0.493463,0.00128941,0.0734409,0.0362027,-0.00172324,0.0151451,1.99179,0.000711049,0.005,1.76003,0.00219086,-0.00913059,-0.104591,10.3449,0.312222,1.45404,1.90008,-0.401705,4.57376,0.224487,6.34069,0.281122,0.298205,-0.773438,0.0644531,0.0180152,-0.0927389,-0.551895,-0.120917,23.479,23.3371,23.1811,23.3087,23.2236,23.2946,23.1527,
37,6.27287,1.38516,3.15335,4.11581,6.27428,1.97486,1.55578,0.00485929,-0.0340323,-0.000202536,0.105878,5.82008e-05,0.0540195,0,0.351122,-4.88724,-0.221403,2.55901,0.934163,-17.7774,0.765623,-0.00531863,-20,-0.39369,0.704683,-0.0378375,1.13779,0.00695577,-2.35454e-05,0.00178195,7.78124e-05,0.493463,0.00128941,0.0734409,0.0378263,-0.00146571,0.0170485,1.99179,0.000711049,0.005,1.76003,0.00219086,-0.00913059,-0.104591,10.3449,0.312222,1.41741,2.1457,-0.343362,4.65685,0.209379,6.40905,0.286561,0.314209,-0.854004,0.0569691,-0.0402832,-0.088623,-0.559951,-0.108765,23.479,23.3513,23.1669,23.3087,23.2378,23.3087,23.1527,
38,6.27287,1.38516,3.15335,4.11581,6.27428,1.97486,1.55578,0.00485929,-0.0340323,-0.000202536,0.105878,5.82008e-05,0.0540195,0,0.353932,-5.1039,-0.228336,2.39534,0.936138,-18.6302,0.780875,-0.00457144,-20,-0.397048,0.675516,-0.0379219,1.05232,0.00765591,-2.52722e-05,0.00197314,7.99653e-05,0.493463,0.00128941,0.0734409,0.0378263,-0.00146571,0.0170485,1.99105,0.000734017,0.005,1.7579,0.00197975,-0.0108436,-0.111334,11.1447,0.297837,1.41741,2.1457,-0.343362,4.65685,0.209379,6.40905,0.286561,0.314209,-0.854004,0.0569691,-0.0402832,-0.088623,-0.559951,-0.108765,23.479,23.3513,23.1669,23.3087,23.2378,23.3087,23.1527,
39,6.27287,1.38516,3.15335,4.11581,6.27428,1.97486,1.55578,0.00485929,-0.0340323,-0.000202536,0.105878,5.82008e-05,0.0540195,0,0.353932,-5.1039,-0.228336,2.39534,0.936138,-18.6302,0.780875,-0.00457144,-20,-0.397048,0.675516,-0.0379219,1.05232,0.00765591,-2.52722e-05,0.00197314,7.99653e-05,0.493463,0.00128941,0.0734409,0.0378263,-0.00146571,0.0170485,1.99105,0.000734017,0.005,1.7579,0.00197975,-0.0108436,-0.111334,11.1447,0.297837,1.41741,2.1457,-0.343362,4.65685,0.209379,6.40905,0.286561,0.314209,-0.854004,0.0569691,-0.0402832,-0.088623,-0.559951,-0.108765,23.479,23.3513,23.1669,23.3087,23.2378,23.3087,23.1527,
40,6.27287,1.38512,3.15335,4.11592,6.27428,1.97491,1.55578,0.00416119,-0.0386239,-0.000203718,0.108039,5.82008e-05,0.0569906,1.0582e-05,0.353906,-5.10288,-0.228303,2.39408,0.93618,-18.6279,0.780856,-0.0045731,-20,-0.397086,0.676351,-0.0379048,1.05222,0.00765158,-2.52722e-05,0.00197314,7.99653e-05,0.493463,0.00128941,0.0734409,0.03942,-0.00117135,0.0191354,1.99105,0.000734017,0.005,1.7579,0.00197975,-0.0108436,-0.111334,11.1447,0.297837,1.22509,2.47672,-0.346647,4.71161,0.197388,6.45598,0.254481,0.330322,-0.910436,0.0490066,-0.0649547,-0.0845947,-0.555923,-0.120917,23.479,23.3371,23.1952,23.3087,23.2236,23.2946,23.1669,
41,6.27287,1.38512,3.15335,4.11592,6.27428,1.97491,1.55578,0.00416119,-0.0386239,-0.000203718,0.108039,5.82008e-05,0.0569906,1.0582e-05,0.356885,-5.32854,-0.236425,2.22386,0.935627,-19.5172,0.792815,-0.00378114,-20,-0.400647,0.646045,-0.038011,0.963102,0.00800054,-2.58687e-05,0.00217392,8.20913e-05,0.493463,0.00128941,0.0734409,0.03942,-0.00117135,0.0191354,1.99027,0.000758104,0.005,1.75576,0.00173651,-0.0127219,-0.114583,11.9785,0.280536,1.22509,2.47672,-0.346647,4.71161,0.197388,6.45598,0.254481,0.330322,-0.910436,0.0490066,-0.0649547,-0.0845947,-0.555923,-0.120917,23.479,23.3371,23.1952,23.3087,23.2236,23.2946,23.1669,
42,6.27287,1.38512,3.15335,4.11592,6.27428,1.97491,1.55578,0.00416119,-0.0386239,-0.000203718,0.108039,5.82008e-05,0.0569906,1.0582e-05,0.356885,-5.32854,-0.236425,2.22386,0.935627,-19.5172,0.792815,-0.00378114,-20,-0.400647,0.646045,-0.038011,0.963102,0.00800054,-2.58687e-05,0.00217392,8.20913e-05,0.493463,0.00128941,0.0734409,0.03942,-0.00117135,0.0191354,1.99027,0.000758104,0.005,1.75576,0.00173651,-0.0127219,-0.114583,11.9785,0.280536,1.22509,2.47672,-0.346647,4.71161,0.197388,6.45598,0.254481,0.330322,-0.910436,0.0490066,-0.0649547,-0.0845947,-0.555923,-0.120917,23.479,23.3371,23.1952,23.3087,23.2236,23.2946,23.1669,
43,6.27287,1.38512,3.15335,4.11592,6.27428,1.97491,1.55578,0.00416119,-0.0386239,-0.000203718,0.108039,5.82008e-05,0.0569906,1.0582e-05,0.356885,-5.32854,-0.236425,2.22386,0.935627,-19.5172,0.792815,-0.00378114,-20,-0.400647,0.646045,-0.038011,0.963102,0.00800054,-2.58687e-05,0.00217392,8.20913e-05,0.493463,0.00128941,0.0734409,0.03942,-0.00117135,0.0191354,1.99027,0.000758104,0.005,1.75576,0.00173651,-0.0127219,-0.114583,11.9785,0.280536,1.22509,2.47672,-0.346647,4.71161,0.197388,6.45598,0.254481,0.330322,-0.910436,0.0490066,-0.0649547,-0.0845947,-0.555923,-0.120917,23.479,23.3371,23.1952,23.3087,23.2236,23.2946,23.1669,
44,6.27287,1.38508,3.15335,4.11604,6.27428,1.97498,1.55578,0.00390111,-0.0426754,-0.000199941,0.111843,5.82008e-05,0.0581783,1.059e-05,0.356889,-5.32725,-0.23649,2.22262,0.935687,-19.5147,0.792808,-0.00378722,-20,-0.400682,0.647069,-0.0380014,0.962988,0.00799544,-2.58687e-05,0.00217392,8.20913e-05,0.493463,0.00128941,0.0734409,0.0413731,-0.00105144,0.0207897,1.99027,0.000758104,0.005,1.75576,0.00173651,-0.0127219,-0.114583,11.9785,0.280536,1.26889,2.60162,-0.265829,4.73288,0.152045,6.48211,0.269445,0.346436,-0.950718,0.0490066,-0.0889885,-0.080667,-0.564022,-0.112865,23.4932,23.3513,23.1669,23.2946,23.2236,23.2946,23.1527,
45,6.27287,1.38508,3.15335,4.11604,6.27428,1.97498,1.55578,0.00390111,-0.0426754,-0.000199941,0.111843,5.82008e-05,0.0581783,1.059e-05,0.359749,-5.56443,-0.240329,2.04257,0.949186,-20.4444,0.808812,-0.0030268,-20,-0.404096,0.614946,-0.0380063,0.869837,0.00860875,-2.72787e-05,0.00239667,8.3515e-05,0.493463,0.00128941,0.0734409,0.0413731,-0.00105144,0.0207897,1.9894,0.000778613,0.005,1.75323,0.00164705,-0.0142108,-0.120434,12.8512,0.274747,1.26889,2.60162,-0.265829,4.73288,0.152045,6.48211,0.269445,0.346436,-0.950718,0.0490066,-0.0889885,-0.080667,-0.564022,-0.112865,23.4932,23.3513,23.1669,23.2946,23.2236,23.2946,23.1527,
46,6.27287,1.38508,3.15335,4.11604,6.27428,1.97503,1.55578,0.00390111,-0.0426754,-0.000199941,0.111843,5.82008e-05,0.0599616,1.059e-05,0.359756,-5.56453,-0.240339,2.04223,0.949247,-20.4441,0.808836,-0.00302536,-20,-0.4041,0.614874,-0.0380061,0.869779,0.00860599,-2.72787e-05,0.00239667,8.3515e-05,0.493463,0.00128941,0.0734409,0.041373,-0.0010486,0.0209786,1.9894,0.000778613,0.005,1.75323,0.00164705,-0.0142108,-0.120434,12.8512,0.274747,1.26889,2.60162,-0.265829,4.73288,0.152045,6.5087,0.235469,0.346436,-0.950718,0.0490066,-0.0889885,-0.080667,-0.555908,-0.116891,23.4932,23.3513,23.1669,23.2946,23.2236,23.2946,23.1527,
47,6.27288,1.38503,3.15335,4.11615,6.27428,1.97503,1.55578,0.00378136,-0.0491506,-0.000199941,0.113171,5.82008e-05,0.0599616,1.059e-05,0.360516,-5.62199,-0.242208,1.99836,0.950494,-20.6705,0.811321,-0.00283663,-20,-0.405032,0.608361,-0.0380096,0.847065,0.00860981,-2.72813e-05,0.00245565,8.26237e-05,0.493463,0.00128941,0.0734409,0.0431233,-0.000984806,0.0235113,1.9894,0.000776726,0.005,1.75323,0.00164279,-0.0143808,-0.12044,13.064,0.271533,1.18549,2.70435,-0.197633,4.78628,0.139153,6.5087,0.235469,0.346436,-0.991098,0.041081,-0.153288,-0.0685998,-0.555908,-0.116891,23.479,23.3371,23.1669,23.3087,23.2378,23.2946,23.1527,
48,6.27288,1.38503,3.15335,4.11615,6.27428,1.97503,1.55578,0.00378136,-0.0491506,-0.000199941,0.113171,5.82008e-05,0.0599616,1.059e-05,0.362572,-5.80251,-0.242297,1.85979,0.968969,-21.3889,0.825744,-0.00228988,-20,-0.407427,0.583527,-0.0379598,0.774596,0.00925677,-2.87333e-05,0.00261956,8.50641e-05,0.493463,0.00128941,0.0734409,0.0431233,-0.000984806,0.0235113,1.98854,0.000799084,0.005,1.75087,0.0016055,-0.0166602,-0.126658,13.7406,0.274075,1.18549,2.70435,-0.197633,4.78628,0.139153,6.5087,0.235469,0.346436,-0.991098,0.041081,-0.153288,-0.0685998,-0.555908,-0.116891,23.479,23.3371,23.1669,23.3087,23.2378,23.2946,23.1527,
49,6.27288,1.38503,3.15335,4.11615,6.27428,1.97503,1.55578,0.00378136,-0.0491506,-0.000199941,0.113171,5.82008e-05,0.0599616,1.059e-05,0.362572,-5.80251,-0.242297,1.85979,0.968969,-21.3889,0.825744,-0.00228988,-20,-0.407427,0.583527,-0.0379598,0.774596,0.00925677,-2.87333e-05,0.00261956,8.50641e-05,0.493463,0.00128941,0.0734409,0.0431233,-0.000984806,0.0235113,1.98854,0.000799084,0.005,1.75087,0.0016055,-0.0166602,-0.126658,13.7406,0.274075,1.18549,2.70435,-0.197633,4.78628,0.139153,6.5087,0.235469,0.346436,-0.991098,0.041081,-0.153288,-0.0685998,-0.555908,-0.116891,23.479,23.3371,23.1669,23.3087,23.2378,23.2946,23.1527,
50,6.27288,1.38497,3.15335,4.11626,6.27428,1.97509,1.55578,0.00323953,-0.0563932,-0.000196557,0.11182,5.82008e-05,0.0607104,0,0.362537,-5.80082,-0.242249,1.85826,0.968994,-21.3857,0.82567,-0.00229652,-20,-0.407452,0.584394,-0.037945,0.77442,0.0092506,-2.87333e-05,0.00261956,8.50641e-05,0.493463,0.00128941,0.0734409,0.04426,-0.000758429,0.0264785,1.98854,0.000799084,0.005,1.75087,0.0016055,-0.0166602,-0.126658,13.7406,0.274075,1.1624,2.80681,-0.16049,4.80149,0.120751,6.50263,0.236847,0.338762,-0.966931,0.0402832,-0.161334,-0.0849775,-0.547852,-0.109063,23.4648,23.3371,23.1811,23.2662,23.2236,23.2946,23.1527,
51,6.27288,1.38497,3.15335,4.11626,6.27428,1.97509,1.55578,0.00323953,-0.0563932,-0.000196557,0.11182,5.82008e-05,0.0607104,0,0.365387,-6.01777,-0.249453,1.6953,0.970682,-22.2486,0.84045,-0.00153884,-20,-0.410833,0.555474,-0.0380252,0.687783,0.00988752,-3.02121e-05,0.00284537,8.55494e-05,0.493463,0.00128941,0.0734409,0.04426,-0.000758429,0.0264785,1.98766,0.000811047,0.005,1.74906,0.00141253,-0.0193307,-0.132755,14.5495,0.259284,1.1624,2.80681,-0.16049,4.80149,0.120751,6.50263,0.236847,0.338762,-0.966931,0.0402832,-0.161334,-0.0849775,-0.547852,-0.109063,23.4648,23.3371,23.1811,23.2662,23.2236,23.2946,23.1527,
52,6.27288,1.38497,3.15335,4.11626,6.27428,1.97509,1.55578,0.00323953,-0.0563932,-0.000196557,0.11182,5.82008e-05,0.0607104,0,0.365387,-6.01777,-0.249453,1.6953,0.970682,-22.2486,0.84045,-0.00153884,-20,-0.410833,0.555474,-0.0380252,0.687783,0.00988752,-3.02121e-05,0.00284537,8.55494e-05,0.493463,0.00128941,0.0734409,0.04426,-0.000758429,0.0264785,1.98766,0.000811047,0.005,1.74906,0.00141253,-0.0193307,-0.132755,14.5495,0.259284,1.1624,2.80681,-0.16049,4.80149,0.120751,6.50263,0.236847,0.338762,-0.966931,0.0402832,-0.161334,-0.0849775,-0.547852,-0.109063,23.4648,23.3371,23.1811,23.2662,23.2236,23.2946,23.1527,
53,6.27288,1.38491,3.15335,4.11637,6.27428,1.97516,1.55578,0.00269961,-0.0623925,-0.000187415,0.110358,5.82008e-05,0.0626626,0,0.365349,-6.01626,-0.249398,1.69386,0.970716,-22.2456,0.840385,-0.00154593,-20,-0.410859,0.55644,-0.0380094,0.687586,0.00988151,-3.02121e-05,0.00284537,8.55494e-05,0.493463,0.00128941,0.0734409,0.045102,-0.000535406,0.0290861,1.98766,0.000811047,0.005,1.74906,0.00141253,-0.0193307,-0.132755,14.5495,0.259284,1.00295,3.04191,-0.136936,4.83418,0.125739,6.46864,0.240386,0.370605,-0.927074,0.0241699,-0.129158,-0.0765381,-0.531754,-0.116891,23.479,23.3371,23.1669,23.2946,23.2236,23.2946,23.1385,
54,6.27288,1.38491,3.15335,4.11637,6.27428,1.97516,1.55578,0.00269961,-0.0623925,-0.000187415,0.110358,5.82008e-05,0.0626626,0,0.368249,-6.23788,-0.256822,1.52833,0.972203,-23.1233,0.854562,-0.000774719,-20,-0.414319,0.527159,-0.0380931,0.599674,0.0104414,-3.17399e-05,0.00307758,8.60221e-05,0.493463,0.00128941,0.0734409,0.045102,-0.000535406,0.0290861,1.98677,0.000822757,0.005,1.7475,0.00122235,-0.0216775,-0.138083,15.3711,0.244041,1.00295,3.04191,-0.136936,4.83418,0.125739,6.46864,0.240386,0.370605,-0.927074,0.0241699,-0.129158,-0.0765381,-0.531754,-0.116891,23.479,23.3371,23.1669,23.2946,23.2236,23.2946,23.1385,
55,6.27289,1.38484,3.15335,4.11648,6.27428,1.97523,1.55578,0.00260074,-0.0688749,-0.000187167,0.109837,4.76193e-05,0.0646983,0,0.368271,-6.23624,-0.256914,1.52665,0.972282,-23.12,0.854543,-0.000783802,-20,-0.414342,0.52812,-0.0380856,0.599489,0.0104352,-3.17399e-05,0.00307758,8.60221e-05,0.493463,0.00128941,0.0734409,0.0463175,-0.000481559,0.0318758,1.98677,0.000822757,0.005,1.7475,0.00122235,-0.0216775,-0.138083,15.3711,0.244041,1.02374,3.17574,-0.0576945,4.86839,0.0780532,6.40265,0.227184,0.386803,-0.910721,0.041081,-0.0889885,-0.076644,-0.535782,-0.104814,23.4932,23.3371,23.1527,23.3087,23.2236,23.2804,23.1527,
56,6.27289,1.38484,3.15335,4.11648,6.27428,1.97523,1.55578,0.00260074,-0.0688749,-0.000187167,0.109837,4.76193e-05,0.0646983,0,0.371222,-6.48546,-0.259697,1.33966,0.990517,-24.1054,0.87181,9.32588e-07,-20,-0.41784,0.495006,-0.0380574,0.500748,0.0110848,-3.33966e-05,0.00333069,8.63031e-05,0.493463,0.00128941,0.0734409,0.0463175,-0.000481559,0.0318758,1.98581,0.000833649,0.005,1.74555,0.00118369,-0.0241882,-0.144271,16.2944,0.241391,1.02374,3.17574,-0.0576945,4.86839,0.0780532,6.40265,0.227184,0.386803,-0.910721,0.041081,-0.0889885,-0.076644,-0.535782,-0.104814,23.4932,23.3371,23.1527,23.3087,23.2236,23.2804,23.1527,
57,6.27289,1.38484,3.15335,4.11648,6.27428,1.97523,1.55578,0.00260074,-0.0688749,-0.000187167,0.109837,4.76193e-05,0.0646983,0,0.371222,-6.48546,-0.259697,1.33966,0.990517,-24.1054,0.87181,9.32588e-07,-20,-0.41784,0.495006,-0.0380574,0.500748,0.0110848,-3.33966e-05,0.00333069,8.63031e-05,0.493463,0.00128941,0.0734409,0.0463175,-0.000481559,0.0318758,1.98581,0.000833649,0.005,1.74555,0.00118369,-0.0241882,-0.144271,16.2944,0.241391,1.02374,3.17574,-0.0576945,4.86839,0.0780532,6.40265,0.227184,0.386803,-0.910721,0.041081,-0.0889885,-0.076644,-0.535782,-0.104814,23.4932,23.3371,23.1527,23.3087,23.2236,23.2804,23.1527,
58,6.27289,1.38484,3.15335,4.11659,6.27428,1.97529,1.55578,0.00260074,-0.0688749,-0.000178269,0.108309,4.76188e-05,0.0656337,0,0.37123,-6.48446,-0.259723,1.33908,0.990595,-24.1038,0.871765,-1.85448e-06,-20,-0.417853,0.496089,-0.0380551,0.500498,0.0110771,-3.33966e-05,0.00333069,8.63031e-05,0.493463,0.00128941,0.0734409,0.0458748,-0.000485861,0.0320098,1.98581,0.000833649,0.005,1.74555,0.00118369,-0.0241882,-0.144271,16.2944,0.241391,1.02374,3.17574,0.0103763,4.94371,0.0996324,6.31828,0.230033,0.386803,-0.910721,0.0360304,-0.0725098,-0.0735099,-0.539795,-0.109063,23.4932,23.3371,23.1527,23.2946,23.2378,23.2804,23.1385,
59,6.27289,1.38476,3.15335,4.11659,6.27428,1.97529,1.55578,0.00234067,-0.0742275,-0.000178269,0.108309,4.76188e-05,0.0656337,0,0.372754,-6.60768,-0.263064,1.24822,0.99421,-24.5814,0.878792,0.000399205,-20,-0.419741,0.480475,-0.0380628,0.45314,0.0112639,-3.4274e-05,0.00350218,8.40925e-05,0.493463,0.00128941,0.0734409,0.0470023,-0.000371886,0.0341235,1.98519,0.000827039,0.005,1.74539,0.00118161,-0.0243088,-0.146003,16.7397,0.235578,0.916275,3.29447,0.0103763,4.94371,0.0996324,6.31828,0.230033,0.386803,-0.902488,0.0360304,-0.0725098,-0.0735099,-0.539795,-0.109063,23.479,23.3371,23.1527,23.2946,23.2378,23.2804,23.1385,
60,6.27289,1.38476,3.15335,4.11659,6.27428,1.97529,1.55578,0.00234067,-0.0742275,-0.000178269,0.108309,4.76188e-05,0.0656337,0,0.373956,-6.70563,-0.264333,1.17284,1.00046,-24.9777,0.886766,0.000718947,-20,-0.421125,0.466955,-0.0380678,0.412959,0.0116616,-3.50867e-05,0.00358114,8.62239e-05,0.493463,0.00128941,0.0734409,0.0470023,-0.000371886,0.0341235,1.98486,0.000840408,0.005,1.74407,0.00109106,-0.0262112,-0.14983,17.1134,0.233534,0.916275,3.29447,0.0103763,4.94371,0.0996324,6.31828,0.230033,0.386803,-0.902488,0.0360304,-0.0725098,-0.0735099,-0.539795,-0.109063,23.479,23.3371,23.1527,23.2946,23.2378,23.2804,23.1385,
61,6.27289,1.38468,3.15335,4.1167,6.27428,1.97535,1.55578,0.00162058,-0.0804891,-0.000178272,0.108039,4.76188e-05,0.0645533,0,0.373873,-6.70367,-0.264178,1.17151,1.00046,-24.9744,0.886621,0.000710705,-20,-0.421153,0.468049,-0.0380496,0.412753,0.0116529,-3.50867e-05,0.00358114,8.62239e-05,0.493463,0.00128941,0.0734409,0.0482401,-7.6859e-05,0.0364923,1.98486,0.000840408,0.005,1.74407,0.00109106,-0.0262112,-0.14983,17.1134,0.233534,0.90771,3.46394,0.0480897,5.08273,0.134153,6.19561,0.205675,0.386803,-0.88623,0.0254773,-0.0332184,-0.0726216,-0.535827,-0.104814,23.4648,23.3513,23.1811,23.3229,23.2236,23.2946,23.1527,
62,6.27289,1.38468,3.15335,4.1167,6.27428,1.97535,1.55578,0.00162058,-0.0804891,-0.000178272,0.108039,4.76188e-05,0.0645533,0,0.376967,-6.92516,-0.275115,1.00451,0.991838,-25.8504,0.901324,0.0015334,-20,-0.42486,0.438368,-0.0382007,0.324893,0.0123251,-3.67815e-05,0.00383079,8.50988e-05,0.493463,0.00128941,0.0734409,0.0482401,-7.6859e-05,0.0364923,1.98391,0.000838794,0.005,1.7421,0.000824088,-0.0283431,-0.156261,17.9348,0.209482,0.90771,3.46394,0.0480897,5.08273,0.134153,6.19561,0.205675,0.386803,-0.88623,0.0254773,-0.0332184,-0.0726216,-0.535827,-0.104814,23.4648,23.3513,23.1811,23.3229,23.2236,23.2946,23.1527,
63,6.27289,1.38468,3.15335,4.1167,6.27428,1.97535,1.55578,0.00162058,-0.0804891,-0.000178272,0.108039,4.76188e-05,0.0645533,0,0.376967,-6.92516,-0.275115,1.00451,0.991838,-25.8504,0.901324,0.0015334,-20,-0.42486,0.438368,-0.0382007,0.324893,0.0123251,-3.67815e-05,0.00383079,8.50988e-05,0.493463,0.00128941,0.0734409,0.0482401,-7.6859e-05,0.0364923,1.98391,0.000838794,0.005,1.7421,0.000824088,-0.0283431,-0.156261,17.9348,0.209482,0.90771,3.46394,0.0480897,5.08273,0.134153,6.19561,0.205675,0.386803,-0.88623,0.0254773,-0.0332184,-0.0726216,-0.535827,-0.104814,23.4648,23.3513,23.1811,23.3229,23.2236,23.2946,23.1527,
64,6.27289,1.38468,3.15335,4.1167,6.27428,1.97535,1.55578,0.00162058,-0.0804891,-0.000178272,0.108039,4.76188e-05,0.0645533,0,0.376967,-6.92516,-0.275115,1.00451,0.991838,-25.8504,0.901324,0.0015334,-20,-0.42486,0.438368,-0.0382007,0.324893,0.0123251,-3.67815e-05,0.00383079,8.50988e-05,0.493463,0.00128941,0.0734409,0.0482401,-7.6859e-05,0.0364923,1.98391,0.000838794,0.005,1.7421,0.000824088,-0.0283431,-0.156261,17.9348,0.209482,0.90771,3.46394,0.0480897,5.08273,0.134153,6.19561,0.205675,0.386803,-0.88623,0.0254773,-0.0332184,-0.0726216,-0.535827,-0.104814,23.4648,23.3513,23.1811,23.3229,23.2236,23.2946,23.1527,
65,6.27289,1.3846,3.15335,4.11681,6.27428,1.97542,1.55578,0.00162058,-0.0853508,-0.000175306,0.11101,3.70089e-05,0.0626626,0,0.376991,-6.92311,-0.275219,1.00322,0.9919,-25.847,0.901298,0.00152271,-20,-0.424885,0.439571,-0.0381957,0.324734,0.0123193,-3.67815e-05,0.00383079,8.50988e-05,0.493463,0.00128941,0.0734409,0.0501188,-6.50746e-05,0.0381621,1.98391,0.000838794,0.005,1.7421,0.000824088,-0.0283431,-0.156261,17.9348,0.209482,0.848156,3.72674,0.0872406,5.18045,0.138909,6.02238,0.207156,0.394858,-0.862098,0.0180152,-0.0161133,-0.072956,-0.503556,-0.104736,23.479,23.3513,23.1669,23.2946,23.2236,23.2662,23.1385,
66,6.27289,1.3846,3.15335,4.11681,6.27428,1.97542,1.55578,0.00162058,-0.0853508,-0.000175306,0.11101,3.70089e-05,0.0626626,0,0.379715,-7.15871,-0.276909,0.823732,1.01185,-26.7707,0.918653,0.00224704,-20,-0.428128,0.407568,-0.0381487,0.232115,0.0130235,-3.85443e-05,0.00408616,8.50314e-05,0.493463,0.00128941,0.0734409,0.0501188,-6.50746e-05,0.0381621,1.98292,0.000845318,0.005,1.73952,0.000819353,-0.0298459,-0.163012,18.8026,0.20944,0.848156,3.72674,0.0872406,5.18045,0.138909,6.02238,0.207156,0.394858,-0.862098,0.0180152,-0.0161133,-0.072956,-0.503556,-0.104736,23.479,23.3513,23.1669,23.2946,23.2236,23.2662,23.1385,
67,6.27289,1.3845,3.15335,4.11693,6.27428,1.97548,1.55578,0.00157947,-0.0924465,-0.000170592,0.113992,3.70089e-05,0.0606289,0,0.379729,-7.15626,-0.277006,0.822007,1.0119,-26.7665,0.918581,0.00223465,-20,-0.428156,0.408694,-0.0381434,0.231973,0.0130156,-3.85443e-05,0.00408616,8.50314e-05,0.493463,0.00128941,0.0734409,0.0524711,-3.18875e-05,0.0406997,1.98292,0.000845318,0.005,1.73952,0.000819353,-0.0298459,-0.163012,18.8026,0.20944,0.850469,3.86277,0.178443,5.20358,0.100341,5.78471,0.177328,0.394858,-0.870453,0.0254773,-0.0254773,-0.0726216,-0.47937,-0.0926514,23.479,23.3371,23.1811,23.2946,23.2094,23.2804,23.1243,
68,6.27289,1.3845,3.15335,4.11693,6.27428,1.97548,1.55578,0.00157947,-0.0924465,-0.000170592,0.113992,3.70089e-05,0.0606289,0,0.382968,-7.42835,-0.28034,0.614182,1.03119,-27.8388,0.938872,0.00309589,-20,-0.431998,0.371593,-0.0381113,0.124246,0.0138678,-4.05508e-05,0.00437016,8.42562e-05,0.493463,0.00128941,0.0734409,0.0524711,-3.18875e-05,0.0406997,1.98181,0.000846444,0.005,1.7364,0.000790498,-0.0321297,-0.17119,19.8107,0.206034,0.850469,3.86277,0.178443,5.20358,0.100341,5.78471,0.177328,0.394858,-0.870453,0.0254773,-0.0254773,-0.0726216,-0.47937,-0.0926514,23.479,23.3371,23.1811,23.2946,23.2094,23.2804,23.1243,
69,6.27289,1.38441,3.15335,4.11704,6.27429,1.97554,1.55578,0.00175497,-0.0958846,-0.000170592,0.115178,4.76193e-05,0.0618523,0,0.383031,-7.4266,-0.280527,0.612831,1.03128,-27.8356,0.938843,0.00308289,-20,-0.432017,0.372994,-0.0381094,0.124031,0.0138588,-4.05508e-05,0.00437016,8.42562e-05,0.493463,0.00128941,0.0734409,0.0535341,-8.83287e-05,0.0421744,1.98181,0.000846444,0.005,1.7364,0.000790498,-0.0321297,-0.17119,19.8107,0.206034,0.791085,4.07444,0.221569,5.26008,0.159826,5.56549,0.230681,0.394858,-0.805825,0.0227876,-0.0725098,-0.0684814,-0.447144,-0.10103,23.479,23.3371,23.1811,23.3087,23.2236,23.2946,23.1385,
70,6.27289,1.38441,3.15335,4.11704,6.27429,1.97554,1.55578,0.00175497,-0.0958846,-0.000170592,0.115178,4.76193e-05,0.0618523,0,0.385878,-7.67281,-0.282614,0.427864,1.05167,-28.7983,0.957825,0.00383977,-20,-0.435431,0.340269,-0.0380542,0.0278716,0.0146631,-4.28805e-05,0.0046391,8.26482e-05,0.493463,0.00128941,0.0734409,0.0535341,-8.83287e-05,0.0421744,1.98075,0.000846104,0.005,1.73449,0.00084099,-0.033457,-0.178937,20.7123,0.205706,0.791085,4.07444,0.221569,5.26008,0.159826,5.56549,0.230681,0.394858,-0.805825,0.0227876,-0.0725098,-0.0684814,-0.447144,-0.10103,23.479,23.3371,23.1811,23.3087,23.2236,23.2946,23.1385,
71,6.2729,1.38431,3.15335,4.11716,6.27429,1.9756,1.55578,0.00158955,-0.096965,-0.000167803,0.117643,5.82013e-05,0.0599616,0,0.385882,-7.67075,-0.282656,0.427181,1.05173,-28.7955,0.957764,0.00382743,-20,-0.435455,0.342166,-0.038045,0.0276025,0.0146547,-4.28805e-05,0.0046391,8.26482e-05,0.493463,0.00128941,0.0734409,0.0544671,-1.84302e-05,0.0423657,1.98075,0.000846104,0.005,1.73449,0.00084099,-0.033457,-0.178937,20.7123,0.205706,0.790367,4.20019,0.28722,5.28431,0.190977,5.36321,0.207357,0.386803,-0.830186,0.0254773,-0.0966797,-0.0765381,-0.451244,-0.0970148,23.479,23.3655,23.1669,23.2946,23.2378,23.2662,23.1527,
72,6.2729,1.38431,3.15335,4.11716,6.27429,1.9756,1.55578,0.00158955,-0.096965,-0.000167803,0.117643,5.82013e-05,0.0599616,0,0.388518,-7.8862,-0.287514,0.264807,1.06017,-29.629,0.973028,0.00452825,-20,-0.43866,0.313382,-0.0380706,-0.0554411,0.0153006,-4.48178e-05,0.00490979,8.14834e-05,0.493463,0.00128941,0.0734409,0.0544671,-1.84302e-05,0.0423657,1.97968,0.000843545,0.005,1.73269,0.000775777,-0.0336291,-0.185132,21.4927,0.197329,0.790367,4.20019,0.28722,5.28431,0.190977,5.36321,0.207357,0.386803,-0.830186,0.0254773,-0.0966797,-0.0765381,-0.451244,-0.0970148,23.479,23.3655,23.1669,23.2946,23.2378,23.2662,23.1527,
73,6.2729,1.38421,3.15335,4.11727,6.27429,1.97566,1.55579,0.00158955,-0.0977753,-0.000168012,0.117492,6.34924e-05,0.0559102,1.0582e-05,0.38855,-7.8839,-0.287599,0.264744,1.06023,-29.6266,0.972949,0.00451491,-20,-0.43867,0.315623,-0.038067,-0.0558173,0.0152897,-4.48178e-05,0.00490979,8.14834e-05,0.493463,0.00128941,0.0734409,0.054587,-2.29884e-05,0.0422715,1.97968,0.000843545,0.005,1.73269,0.000775777,-0.0336291,-0.185132,21.4927,0.197329,0.790367,4.36291,0.324128,5.19181,0.204201,5.12029,0.222267,0.386803,-0.894323,0.0254773,-0.129158,-0.0689537,-0.427021,-0.0846906,23.479,23.3371,23.1811,23.2946,23.2378,23.2804,23.1243,
74,6.2729,1.38421,3.15335,4.11727,6.27429,1.97566,1.55579,0.00158955,-0.0977753,-0.000168012,0.117492,6.34924e-05,0.0559102,1.0582e-05,0.390624,-8.05606,-0.291107,0.13622,1.06832,-30.2903,0.98365,0.00506632,-20,-0.441205,0.29296,-0.0380728,-0.121738,0.015636,-4.6044e-05,0.00517714,7.8821e-05,0.493463,0.00128941,0.0734409,0.054587,-2.29884e-05,0.0422715,1.9786,0.000831645,0.005,1.73161,0.00076917,-0.0335444,-0.188408,22.1128,0.191882,0.790367,4.36291,0.324128,5.19181,0.204201,5.12029,0.222267,0.386803,-0.894323,0.0254773,-0.129158,-0.0689537,-0.427021,-0.0846906,23.479,23.3371,23.1811,23.2946,23.2378,23.2804,23.1243,
75,6.2729,1.38421,3.15335,4.11727,6.27429,1.97566,1.55579,0.00158955,-0.0977753,-0.000168012,0.117492,6.34924e-05,0.0559102,1.0582e-05,0.390624,-8.05606,-0.291107,0.13622,1.06832,-30.2903,0.98365,0.00506632,-20,-0.441205,0.29296,-0.0380728,-0.121738,0.015636,-4.6044e-05,0.00517714,7.8821e-05,0.493463,0.00128941,0.0734409,0.054587,-2.29884e-05,0.0422715,1.9786,0.000831645,0.005,1.73161,0.00076917,-0.0335444,-0.188408,22.1128,0.191882,0.790367,4.36291,0.324128,5.19181,0.204201,5.12029,0.222267,0.386803,-0.894323,0.0254773,-0.129158,-0.0689537,-0.427021,-0.0846906,23.479,23.3371,23.1811,23.2946,23.2378,23.2804,23.1243,
76,6.2729,1.38411,3.15335,4.1174,6.27429,1.97571,1.55579,0.00119216,-0.10131,-0.000165101,0.11435,8.46557e-05,0.0546675,1.0582e-05,0.390592,-8.05386,-0.291056,0.135575,1.06834,-30.2875,0.983496,0.0050528,-20,-0.44122,0.294962,-0.0380589,-0.122132,0.015624,-4.6044e-05,0.00517714,7.8821e-05,0.493463,0.00128941,0.0734409,0.0544175,0.000133917,0.0436075,1.9786,0.000831645,0.005,1.73161,0.00076917,-0.0335444,-0.188408,22.1128,0.191882,0.778685,4.46545,0.323639,5.05481,0.182556,4.86951,0.158932,0.378662,-0.958876,0.0241699,-0.104736,-0.0645789,-0.374655,-0.0927389,23.479,23.3371,23.1669,23.2946,23.2236,23.2946,23.1527,
77,6.2729,1.38411,3.15335,4.1174,6.27429,1.97571,1.55579,0.00119216,-0.10131,-0.000165101,0.11435,8.46557e-05,0.0546675,1.0582e-05,0.393343,-8.25879,-0.299755,-0.0160221,1.06481,-31.09,0.998875,0.00578396,-20,-0.444555,0.268341,-0.0381606,-0.20208,0.0163839,-4.85733e-05,0.00546406,7.61003e-05,0.493463,0.00128941,0.0734409,0.0544175,0.000133917,0.0436075,1.97744,0.000822101,0.005,1.73072,0.000619366,-0.0347468,-0.19572,22.862,0.173703,0.778685,4.46545,0.323639,5.05481,0.182556,4.86951,0.158932,0.378662,-0.958876,0.0241699,-0.104736,-0.0645789,-0.374655,-0.0927389,23.479,23.3371,23.1669,23.2946,23.2236,23.2946,23.1527,
78,6.2729,1.38411,3.15335,4.1174,6.27429,1.97571,1.55579,0.00119216,-0.10131,-0.000165101,0.11435,8.46557e-05,0.0546675,1.0582e-05,0.393343,-8.25879,-0.299755,-0.0160221,1.06481,-31.09,0.998875,0.00578396,-20,-0.444555,0.268341,-0.0381606,-0.20208,0.0163839,-4.85733e-05,0.00546406,7.61003e-05,0.493463,0.00128941,0.0734409,0.0544175,0.000133917,0.0436075,1.97744,0.000822101,0.005,1.73072,0.000619366,-0.0347468,-0.19572,22.862,0.173703,0.778685,4.46545,0.323639,5.05481,0.182556,4.86951,0.158932,0.378662,-0.958876,0.0241699,-0.104736,-0.0645789,-0.374655,-0.0927389,23.479,23.3371,23.1669,23.2946,23.2236,23.2946,23.1527,
79,6.2729,1.384,3.15335,4.11751,6.27429,1.97576,1.55579,0.000927469,-0.103717,-0.000152066,0.113711,9.52386e-05,0.0509967,1.059e-05,0.393317,-8.25643,-0.299731,-0.0163275,1.06482,-31.0874,0.998732,0.00576807,-20,-0.444569,0.270376,-0.038151,-0.202426,0.0163734,-4.85733e-05,0.00546406,7.61003e-05,0.493463,0.00128941,0.0734409,0.0547328,0.000233633,0.0441931,1.97744,0.000822101,0.005,1.73072,0.000619366,-0.0347468,-0.19572,22.862,0.173703,0.836807,4.51807,0.346582,4.92015,0.216567,4.63587,0.197013,0.386803,-0.958876,0.0322266,-0.0180152,-0.0645789,-0.362571,-0.0967636,23.4648,23.3229,23.1811,23.2946,23.2378,23.2946,23.1527,
80,6.2729,1.384,3.15335,4.11751,6.27429,1.97576,1.55579,0.000927469,-0.103717,-0.000152066,0.113711,9.52386e-05,0.0509967,1.059e-05,0.395668,-8.43725,-0.306182,-0.15179,1.06525,-31.7907,1.01214,0.00639295,-20,-0.447427,0.246444,-0.0382151,-0.272519,0.0170073,-5.07114e-05,0.00572887,7.36525e-05,0.493463,0.00128941,0.0734409,0.0547328,0.000233633,0.0441931,1.97636,0.000814915,0.005,1.72947,0.000523155,-0.0352738,-0.201817,23.5199,0.160819,0.836807,4.51807,0.346582,4.92015,0.216567,4.63587,0.197013,0.386803,-0.958876,0.0322266,-0.0180152,-0.0645789,-0.362571,-0.0967636,23.4648,23.3229,23.1811,23.2946,23.2378,23.2946,23.1527,
81,6.2729,1.384,3.15335,4.11751,6.27429,1.97576,1.55579,0.000927469,-0.103717,-0.000152066,0.113711,9.52386e-05,0.0509967,1.059e-05,0.395668,-8.43725,-0.306182,-0.15179,1.06525,-31.7907,1.01214,0.00639295,-20,-0.447427,0.246444,-0.0382151,-0.272519,0.0170073,-5.07114e-05,0.00572887,7.36525e-05,0.493463,0.00128941,0.0734409,0.0547328,0.000233633,0.0441931,1.97636,0.000814915,0.005,1.72947,0.000523155,-0.0352738,-0.201817,23.5199,0.160819,0.836807,4.51807,0.346582,4.92015,0.216567,4.63587,0.197013,0.386803,-0.958876,0.0322266,-0.0180152,-0.0645789,-0.362571,-0.0967636,23.4648,23.3229,23.1811,23.2946,23.2378,23.2946,23.1527,
82,6.2729,1.3839,3.15335,4.11762,6.27429,1.97581,1.55579,0.000662478,-0.105878,-0.000152069,0.111167,0.000116403,0.0502381,1.85184e-05,0.39566,-8.43533,-0.306182,-0.152261,1.06528,-31.7883,1.01202,0.00637946,-20,-0.447439,0.248433,-0.0382042,-0.272891,0.0169971,-5.07114e-05,0.00572887,7.36525e-05,0.493463,0.00128941,0.0734409,0.0544468,0.000338245,0.0450259,1.97636,0.000814915,0.005,1.72947,0.000523155,-0.0352738,-0.201817,23.5199,0.160819,0.813106,4.47606,0.342596,4.74551,0.258693,4.4221,0.170878,0.386803,-0.991,0.041081,0,-0.0605589,-0.314209,-0.0889885,23.479,23.3229,23.1811,23.3087,23.2236,23.2946,23.1385,
83,6.2729,1.3839,3.15335,4.11762,6.27429,1.97581,1.55579,0.000662478,-0.105878,-0.000152069,0.111167,0.000116403,0.0502381,1.85184e-05,0.398094,-8.62154,-0.313097,-0.289772,1.06494,-32.5142,1.02354,0.00702636,-20,-0.450401,0.224328,-0.0382759,-0.345072,0.0174219,-5.21784e-05,0.00599236,7.11905e-05,0.493463,0.00128941,0.0734409,0.0544468,0.000338245,0.0450259,1.97529,0.000806284,0.005,1.72876,0.000421236,-0.0360233,-0.205831,24.1971,0.146867,0.813106,4.47606,0.342596,4.74551,0.258693,4.4221,0.170878,0.386803,-0.991,0.041081,0,-0.0605589,-0.314209,-0.0889885,23.479,23.3229,23.1811,23.3087,23.2236,23.2946,23.1385,
84,6.2729,1.3839,3.15335,4.11762,6.27429,1.97581,1.55579,0.000662478,-0.105878,-0.000152069,0.111167,0.000116403,0.0502381,1.85184e-05,0.398094,-8.62154,-0.313097,-0.289772,1.06494,-32.5142,1.02354,0.00702636,-20,-0.450401,0.224328,-0.0382759,-0.345072,0.0174219,-5.21784e-05,0.00599236,7.11905e-05,0.493463,0.00128941,0.0734409,0.0544468,0.000338245,0.0450259,1.97529,0.000806284,0.005,1.72876,0.000421236,-0.0360233,-0.205831,24.1971,0.146867,0.813106,4.47606,0.342596,4.74551,0.258693,4.4221,0.170878,0.386803,-0.991,0.041081,0,-0.0605589,-0.314209,-0.0889885,23.479,23.3229,23.1811,23.3087,23.2236,23.2946,23.1385,
85,6.2729,1.38379,3.15335,4.11773,6.27429,1.97586,1.55579,0.00052985,-0.111167,-0.000149661,0.109389,0.000126985,0.0472671,1.85186e-05,0.398092,-8.61912,-0.313132,-0.290459,1.06496,-32.5111,1.02341,0.00701209,-20,-0.450413,0.225991,-0.0382694,-0.345375,0.0174119,-5.21784e-05,0.00599236,7.11905e-05,0.493463,0.00128941,0.0734409,0.0550406,0.000393788,0.046845,1.97529,0.000806284,0.005,1.72876,0.000421236,-0.0360233,-0.205831,24.1971,0.146867,0.786464,4.51045,0.393124,4.49284,0.289892,4.248,0.183706,0.402913,-1.02323,0.0322266,0.0644531,-0.0609595,-0.302151,-0.0927389,23.479,23.3229,23.1669,23.2946,23.2094,23.2804,23.1385,
86,6.2729,1.38379,3.15335,4.11773,6.27429,1.97586,1.55579,0.00052985,-0.111167,-0.000149661,0.109389,0.000126985,0.0472671,1.85186e-05,0.400576,-8.81669,-0.318103,-0.439056,1.07173,-33.2894,1.03968,0.00767212,-20,-0.453385,0.199711,-0.0382933,-0.423314,0.0182226,-5.46179e-05,0.00625651,6.87998e-05,0.493463,0.00128941,0.0734409,0.0550406,0.000393788,0.046845,1.9742,0.000797591,0.005,1.72725,0.000363422,-0.0376605,-0.213667,24.9265,0.138119,0.786464,4.51045,0.393124,4.49284,0.289892,4.248,0.183706,0.402913,-1.02323,0.0322266,0.0644531,-0.0609595,-0.302151,-0.0927389,23.479,23.3229,23.1669,23.2946,23.2094,23.2804,23.1385,
87,6.2729,1.38379,3.15335,4.11773,6.27429,1.97586,1.55579,0.00052985,-0.111167,-0.000149661,0.109389,0.000126985,0.0472671,1.85186e-05,0.400576,-8.81669,-0.318103,-0.439056,1.07173,-33.2894,1.03968,0.00767212,-20,-0.453385,0.199711,-0.0382933,-0.423314,0.0182226,-5.46179e-05,0.00625651,6.87998e-05,0.493463,0.00128941,0.0734409,0.0550406,0.000393788,0.046845,1.9742,0.000797591,0.005,1.72725,0.000363422,-0.0376605,-0.213667,24.9265,0.138119,0.786464,4.51045,0.393124,4.49284,0.289892,4.248,0.183706,0.402913,-1.02323,0.0322266,0.0644531,-0.0609595,-0.302151,-0.0927389,23.479,23.3229,23.1669,23.2946,23.2094,23.2804,23.1385,
88,6.2729,1.38379,3.15335,4.11773,6.27429,1.97586,1.55579,0.00052985,-0.111167,-0.000149661,0.109389,0.000126985,0.0472671,1.85186e-05,0.400576,-8.81669,-0.318103,-0.439056,1.07173,-33.2894,1.03968,0.00767212,-20,-0.453385,0.199711,-0.0382933,-0.423314,0.0182226,-5.46179e-05,0.00625651,6.87998e-05,0.493463,0.00128941,0.0734409,0.0550406,0.000393788,0.046845,1.9742,0.000797591,0.005,1.72725,0.000363422,-0.0376605,-0.213667,24.9265,0.138119,0.786464,4.51045,0.393124,4.49284,0.289892,4.248,0.183706,0.402913,-1.02323,0.0322266,0.0644531,-0.0609595,-0.302151,-0.0927389,23.479,23.3229,23.1669,23.2946,23.2094,23.2804,23.1385,
89,6.2729,1.38368,3.15335,4.11784,6.27429,1.97591,1.55579,0.00052985,-0.117222,-0.000149113,0.108583,0.000132376,0.0456399,1.85186e-05,0.400595,-8.81424,-0.318197,-0.440202,1.07177,-33.2858,1.03958,0.00765648,-20,-0.453399,0.201227,-0.0382891,-0.423573,0.0182134,-5.46179e-05,0.00625651,6.87998e-05,0.493463,0.00128941,0.0734409,0.0560761,0.00040286,0.0490919,1.9742,0.000797591,0.005,1.72725,0.000363422,-0.0376605,-0.213667,24.9265,0.138119,0.674697,4.61494,0.356526,4.28923,0.281365,4.04939,0.169286,0.402832,-0.991,0.0509547,0.112793,-0.0685998,-0.277954,-0.088623,23.4648,23.3229,23.1527,23.3087,23.2236,23.2804,23.1385,
90,6.2729,1.38368,3.15335,4.11784,6.27429,1.97591,1.55579,0.00052985,-0.117222,-0.000149113,0.108583,0.000132376,0.0456399,1.85186e-05,0.403407,-9.04764,-0.321794,-0.616471,1.0864,-34.206,1.05799,0.00840386,-20,-0.45675,0.170009,-0.0382713,-0.515818,0.0190484,-5.69672e-05,0.00653597,6.67833e-05,0.493463,0.00128941,0.0734409,0.0560761,0.00040286,0.0490919,1.97305,0.0007893,0.005,1.72528,0.000347796,-0.0396827,-0.221721,25.7897,0.133549,0.674697,4.61494,0.356526,4.28923,0.281365,4.04939,0.169286,0.402832,-0.991,0.0509547,0.112793,-0.0685998,-0.277954,-0.088623,23.4648,23.3229,23.1527,23.3087,23.2236,23.2804,23.1385,
91,6.2729,1.38368,3.15335,4.11784,6.27429,1.97591,1.55579,0.00052985,-0.117222,-0.000149113,0.108583,0.000132376,0.0456399,1.85186e-05,0.403407,-9.04764,-0.321794,-0.616471,1.0864,-34.206,1.05799,0.00840386,-20,-0.45675,0.170009,-0.0382713,-0.515818,0.0190484,-5.69672e-05,0.00653597,6.67833e-05,0.493463,0.00128941,0.0734409,0.0560761,0.00040286,0.0490919,1.97305,0.0007893,0.005,1.72528,0.000347796,-0.0396827,-0.221721,25.7897,0.133549,0.674697,4.61494,0.356526,4.28923,0.281365,4.04939,0.169286,0.402832,-0.991,0.0509547,0.112793,-0.0685998,-0.277954,-0.088623,23.4648,23.3229,23.1527,23.3087,23.2236,23.2804,23.1385,
92,6.2729,1.38355,3.15335,4.11795,6.27429,1.97595,1.55579,0.000523935,-0.121873,-0.000149297,0.109389,0.000153438,0.0434857,2.64749e-05,0.40343,-9.04516,-0.321896,-0.617399,1.08641,-34.2026,1.05784,0.00838714,-20,-0.456768,0.171719,-0.0382673,-0.516068,0.0190356,-5.69672e-05,0.00653597,6.67833e-05,0.493463,0.00128941,0.0734409,0.0572809,0.000415535,0.0506996,1.97305,0.0007893,0.005,1.72528,0.000347796,-0.0396827,-0.221721,25.7897,0.133549,0.759315,4.67672,0.331062,4.07348,0.293494,3.84278,0.196939,0.394858,-0.910971,0.0402832,0.136963,-0.0565402,-0.261872,-0.0845947,23.4648,23.3229,23.1527,23.2946,23.2094,23.2804,23.1385,
93,6.2729,1.38355,3.15335,4.11795,6.27429,1.97595,1.55579,0.000523935,-0.121873,-0.000149297,0.109389,0.000153438,0.0434857,2.64749e-05,0.406322,-9.27765,-0.327368,-0.793614,1.09578,-35.1142,1.07787,0.00915587,-20,-0.460241,0.14045,-0.0382788,-0.607366,0.0200591,-6.00341e-05,0.00681609,6.34726e-05,0.493463,0.00128941,0.0734409,0.0572809,0.000415535,0.0506996,1.97188,0.000777803,0.005,1.72314,0.000326042,-0.0411296,-0.231643,26.6451,0.124551,0.759315,4.67672,0.331062,4.07348,0.293494,3.84278,0.196939,0.394858,-0.910971,0.0402832,0.136963,-0.0565402,-0.261872,-0.0845947,23.4648,23.3229,23.1527,23.2946,23.2094,23.2804,23.1385,
94,6.2729,1.38355,3.15335,4.11795,6.27429,1.97595,1.55579,0.000523935,-0.121873,-0.000149297,0.109389,0.000153438,0.0434857,2.64749e-05,0.406322,-9.27765,-0.327368,-0.793614,1.09578,-35.1142,1.07787,0.00915587,-20,-0.460241,0.14045,-0.0382788,-0.607366,0.0200591,-6.00341e-05,0.00681609,6.34726e-05,0.493463,0.00128941,0.0734409,0.0572809,0.000415535,0.0506996,1.97188,0.000777803,0.005,1.72314,0.000326042,-0.0411296,-0.231643,26.6451,0.124551,0.759315,4.67672,0.331062,4.07348,0.293494,3.84278,0.196939,0.394858,-0.910971,0.0402832,0.136963,-0.0565402,-0.261872,-0.0845947,23.4648,23.3229,23.1527,23.2946,23.2094,23.2804,23.1385,
95,6.2729,1.38342,3.15335,4.11806,6.27429,1.97599,1.55579,0.000531888,-0.125865,-0.000146976,0.11155,0.00016402,0.0432156,3.70369e-05,0.406349,-9.27536,-0.327483,-0.794985,1.09582,-35.1105,1.07776,0.00913951,-20,-0.460263,0.141984,-0.0382742,-0.607559,0.020049,-6.00341e-05,0.00681609,6.34726e-05,0.493463,0.00128941,0.0734409,0.0587382,0.000425473,0.0522219,1.97188,0.000777803,0.005,1.72314,0.000326042,-0.0411296,-0.231643,26.6451,0.124551,0.719439,4.81958,0.313825,3.87508,0.29955,3.65539,0.1914,0.386803,-0.886267,0.0483398,0.123243,-0.0604248,-0.233643,-0.0846906,23.479,23.3229,23.1527,23.2946,23.2094,23.2946,23.1385,
96,6.2729,1.38342,3.15335,4.11806,6.27429,1.97599,1.55579,0.000531888,-0.125865,-0.000146976,0.11155,0.00016402,0.0432156,3.70369e-05,0.409409,-9.5268,-0.332252,-0.985784,1.10903,-36.0945,1.09477,0.00995276,-20,-0.463939,0.108124,-0.0382699,-0.706075,0.0206779,-6.17042e-05,0.00709275,6.11111e-05,0.493463,0.00128941,0.0734409,0.0587382,0.000425473,0.0522219,1.97072,0.000768532,0.005,1.72079,0.000308754,-0.0424997,-0.237638,27.5686,0.117513,0.719439,4.81958,0.313825,3.87508,0.29955,3.65539,0.1914,0.386803,-0.886267,0.0483398,0.123243,-0.0604248,-0.233643,-0.0846906,23.479,23.3229,23.1527,23.2946,23.2094,23.2946,23.1385,
97,6.2729,1.38342,3.15335,4.11806,6.27429,1.97599,1.55579,0.000531888,-0.125865,-0.000146976,0.11155,0.00016402,0.0432156,3.70369e-05,0.409409,-9.5268,-0.332252,-0.985784,1.10903,-36.0945,1.09477,0.00995276,-20,-0.463939,0.108124,-0.0382699,-0.706075,0.0206779,-6.17042e-05,0.00709275,6.11111e-05,0.493463,0.00128941,0.0734409,0.0587382,0.000425473,0.0522219,1.97072,0.000768532,0.005,1.72079,0.000308754,-0.0424997,-0.237638,27.5686,0.117513,0.719439,4.81958,0.313825,3.87508,0.29955,3.65539,0.1914,0.386803,-0.886267,0.0483398,0.123243,-0.0604248,-0.233643,-0.0846906,23.479,23.3229,23.1527,23.2946,23.2094,23.2946,23.1385,
98,6.2729,1.3833,3.15335,4.11817,6.27429,1.97603,1.55579,0.000444379,-0.128566,-0.000146798,0.11155,0.000174602,0.041595,3.70369e-05,0.409427,-9.52448,-0.332322,-0.986465,1.10906,-36.0915,1.09464,0.00993563,-20,-0.463953,0.110132,-0.0382635,-0.706384,0.0206664,-6.17042e-05,0.00709275,6.11111e-05,0.493463,0.00128941,0.0734409,0.0592986,0.000464201,0.0531321,1.97072,0.000768532,0.005,1.72079,0.000308754,-0.0424997,-0.237638,27.5686,0.117513,0.735207,5.07969,0.271243,3.72486,0.302906,3.4929,0.19537,0.394775,-0.878211,0.041081,0.088623,-0.0459299,-0.221558,-0.0845947,23.4648,23.3371,23.1527,23.2946,23.2236,23.2662,23.1385,
99,6.2729,1.3833,3.15335,4.11817,6.27429,1.97603,1.55579,0.000444379,-0.128566,-0.000146798,0.11155,0.000174602,0.041595,3.70369e-05,0.412105,-9.73873,-0.337924,-1.14751,1.11575,-36.9266,1.1118,0.0106472,-20,-0.467196,0.0816893,-0.0382926,-0.789723,0.0215005,-6.43365e-05,0.00737035,5.82501e-05,0.493463,0.00128941,0.0734409,0.0592986,0.000464201,0.0531321,1.96955,0.000754994,0.005,1.71923,0.000261713,-0.0433189,-0.245695,28.3505,0.107609,0.735207,5.07969,0.271243,3.72486,0.302906,3.4929,0.19537,0.394775,-0.878211,0.041081,0.088623,-0.0459299,-0.221558,-0.0845947,23.4648,23.3371,23.1527,23.2946,23.2236,23.2662,23.1385,
100,6.2729,1.3833,3.15335,4.11817,6.27429,1.97603,1.55579,0.000444379,-0.128566,-0.000146798,0.11155,0.000174602,0.041595,3.70369e-05,0.412105,-9.73873,-0.337924,-1.14751,1.11575,-36.9266,1.1118,0.0106472,-20,-0.467196,0.0816893,-0.0382926,-0.789723,0.0215005,-6.43365e-05,0.00737035,5.82501e-05,0.493463,0.00128941,0.0734409,0.0592986,0.000464201,0.0531321,1.96955,0.000754994,0.005,1.71923,0.000261713,-0.0433189,-0.245695,28.3505,0.107609,0.735207,5.07969,0.271243,3.72486,0.302906,3.4929,0.19537,0.394775,-0.878211,0.041081,0.088623,-0.0459299,-0.221558,-0.0845947,23.4648,23.3371,23.1527,23.2946,23.2236,23.2662,23.1385,
101,6.2729,1.38317,3.15335,4.11828,6.2743,1.97607,1.55579,0.000444379,-0.129647,-0.000146798,0.113171,0.000190475,0.0393943,3.70648e-05,0.412143,-9.73632,-0.33804,-1.14807,1.11578,-36.9236,1.11168,0.0106297,-20,-0.467212,0.0839124,-0.0382874,-0.79003,0.0214892,-6.43365e-05,0.00737035,5.82501e-05,0.493463,0.00128941,0.0734409,0.059986,0.000467923,0.0533113,1.96955,0.000754994,0.005,1.71923,0.000261713,-0.0433189,-0.245695,28.3505,0.107609,0.645072,5.35158,0.243309,3.57703,0.313192,3.31186,0.169153,0.394775,-0.902488,0.0563965,0.0805664,-0.0525229,-0.213653,-0.0809682,23.479,23.3229,23.1669,23.2946,23.2236,23.2804,23.1385,
102,6.2729,1.38317,3.15335,4.11828,6.2743,1.97607,1.55579,0.000444379,-0.129647,-0.000146798,0.113171,0.000190475,0.0393943,3.70648e-05,0.414724,-9.94779,-0.34274,-1.3076,1.12478,-37.7418,1.12944,0.0113156,-20,-0.470356,0.0556991,-0.0382982,-0.871558,0.0223806,-6.72014e-05,0.0076486,5.54431e-05,0.493463,0.00128941,0.0734409,0.059986,0.000467923,0.0533113,1.96837,0.000744579,0.005,1.71755,0.00024899,-0.0434802,-0.254337,29.1168,0.10003,0.645072,5.35158,0.243309,3.57703,0.313192,3.31186,0.169153,0.394775,-0.902488,0.0563965,0.0805664,-0.0525229,-0.213653,-0.0809682,23.479,23.3229,23.1669,23.2946,23.2236,23.2804,23.1385,
103,6.2729,1.38304,3.15335,4.1184,6.2743,1.97612,1.55579,0.000457916,-0.129917,-0.000144553,0.115496,0.000201059,0.0396214,3.70652e-05,0.414772,-9.94557,-0.34288,-1.30868,1.12484,-37.7385,1.12936,0.0112974,-20,-0.470377,0.0579295,-0.038292,-0.871849,0.02237,-6.72014e-05,0.0076486,5.54431e-05,0.493463,0.00128941,0.0734409,0.0607063,0.000468773,0.0534159,1.96837,0.000744579,0.005,1.71755,0.00024899,-0.0434802,-0.254337,29.1168,0.10003,0.727697,5.64088,0.237226,3.44547,0.320052,3.13453,0.168613,0.394775,-0.966931,0.0402832,0.0490066,-0.0483398,-0.189374,-0.0805664,23.479,23.3229,23.1669,23.2946,23.2236,23.2662,23.1243,
104,6.2729,1.38304,3.15335,4.1184,6.2743,1.97612,1.55579,0.000457916,-0.129917,-0.000144553,0.115496,0.000201059,0.0396214,3.70652e-05,0.417693,-10.1875,-0.347764,-1.4907,1.13645,-38.6734,1.14793,0.0120736,-20,-0.47394,0.0257948,-0.0382973,-0.964932,0.0232105,-6.99488e-05,0.00794138,5.29513e-05,0.493463,0.00128941,0.0734409,0.0607063,0.000468773,0.0534159,1.96712,0.000734616,0.005,1.71578,0.000239259,-0.0435743,-0.262449,29.9919,0.0925253,0.727697,5.64088,0.237226,3.44547,0.320052,3.13453,0.168613,0.394775,-0.966931,0.0402832,0.0490066,-0.0483398,-0.189374,-0.0805664,23.479,23.3229,23.1669,23.2946,23.2236,23.2662,23.1243,
105,6.2729,1.38304,3.15335,4.1184,6.2743,1.97612,1.55579,0.000457916,-0.129917,-0.000144553,0.115496,0.000201059,0.0396214,3.70652e-05,0.417693,-10.1875,-0.347764,-1.4907,1.13645,-38.6734,1.14793,0.0120736,-20,-0.47394,0.0257948,-0.0382973,-0.964932,0.0232105,-6.99488e-05,0.00794138,5.29513e-05,0.493463,0.00128941,0.0734409,0.0607063,0.000468773,0.0534159,1.96712,0.000734616,0.005,1.71578,0.000239259,-0.0435743,-0.262449,29.9919,0.0925253,0.727697,5.64088,0.237226,3.44547,0.320052,3.13453,0.168613,0.394775,-0.966931,0.0402832,0.0490066,-0.0483398,-0.189374,-0.0805664,23.479,23.3229,23.1669,23.2946,23.2236,23.2662,23.1243,
106,6.2729,1.3829,3.15335,4.11852,6.2743,1.97615,1.55579,0.000463619,-0.132782,-0.000148683,0.114521,0.000211639,0.0394342,3.70372e-05,0.417746,-10.1852,-0.347906,-1.49158,1.1365,-38.6703,1.14785,0.0120569,-20,-0.473952,0.0278958,-0.0382912,-0.965269,0.0232003,-6.99488e-05,0.00794138,5.29513e-05,0.493463,0.00128941,0.0734409,0.0610191,0.000472419,0.0545626,1.96712,0.000734616,0.005,1.71578,0.000239259,-0.0435743,-0.262449,29.9919,0.0925253,0.628145,5.99999,0.207159,3.40392,0.374445,2.98599,0.16948,0.370693,-1.03128,0.0490066,-0.00805664,-0.0563965,-0.189374,-0.0849775,23.479,23.3371,23.1669,23.2804,23.2236,23.2662,23.1385,
107,6.2729,1.3829,3.15335,4.11852,6.2743,1.97615,1.55579,0.000463619,-0.132782,-0.000148683,0.114521,0.000211639,0.0394342,3.70372e-05,0.420528,-10.4158,-0.352131,-1.66414,1.14887,-39.5701,1.16707,0.0127961,-20,-0.477315,-0.00247097,-0.0382884,-1.05503,0.0241444,-7.301e-05,0.00823429,5.05689e-05,0.493463,0.00128941,0.0734409,0.0610191,0.000472419,0.0545626,1.96588,0.000723116,0.005,1.71437,0.000225627,-0.0446064,-0.271597,30.8339,0.0863767,0.628145,5.99999,0.207159,3.40392,0.374445,2.98599,0.16948,0.370693,-1.03128,0.0490066,-0.00805664,-0.0563965,-0.189374,-0.0849775,23.479,23.3371,23.1669,23.2804,23.2236,23.2662,23.1385,
108,6.2729,1.3829,3.15335,4.11852,6.2743,1.97615,1.55579,0.000463619,-0.132782,-0.000148683,0.114521,0.000211639,0.0394342,3.70372e-05,0.420528,-10.4158,-0.352131,-1.66414,1.14887,-39.5701,1.16707,0.0127961,-20,-0.477315,-0.00247097,-0.0382884,-1.05503,0.0241444,-7.301e-05,0.00823429,5.05689e-05,0.493463,0.00128941,0.0734409,0.0610191,0.000472419,0.0545626,1.96588,0.000723116,0.005,1.71437,0.000225627,-0.0446064,-0.271597,30.8339,0.0863767,0.628145,5.99999,0.207159,3.40392,0.374445,2.98599,0.16948,0.370693,-1.03128,0.0490066,-0.00805664,-0.0563965,-0.189374,-0.0849775,23.479,23.3371,23.1669,23.2804,23.2236,23.2662,23.1385,
109,6.2729,1.3829,3.15335,4.11852,6.2743,1.97615,1.55579,0.000463619,-0.132782,-0.000148683,0.114521,0.000211639,0.0394342,3.70372e-05,0.420528,-10.4158,-0.352131,-1.66414,1.14887,-39.5701,1.16707,0.0127961,-20,-0.477315,-0.00247097,-0.0382884,-1.05503,0.0241444,-7.301e-05,0.00823429,5.05689e-05,0.493463,0.00128941,0.0734409,0.0610191,0.000472419,0.0545626,1.96588,0.000723116,0.005,1.71437,0.000225627,-0.0446064,-0.271597,30.8339,0.0863767,0.628145,5.99999,0.207159,3.40392,0.374445,2.98599,0.16948,0.370693,-1.03128,0.0490066,-0.00805664,-0.0563965,-0.189374,-0.0849775,23.479,23.3371,23.1669,23.2804,23.2236,23.2662,23.1385,
110,6.2729,1.38277,3.15335,4.11863,6.2743,1.97619,1.55579,0.000471982,-0.133158,-0.000146444,0.114521,0.000227512,0.0367333,4.76188e-05,0.420574,-10.4134,-0.352256,-1.66435,1.14891,-39.5675,1.16697,0.0127775,-20,-0.477326,6.82747e-05,-0.0382832,-1.05541,0.0241334,-7.301e-05,0.00823429,5.05689e-05,0.493463,0.00128941,0.0734409,0.0610898,0.000466436,0.0544411,1.96588,0.000723116,0.005,1.71437,0.000225627,-0.0446064,-0.271597,30.8339,0.0863767,0.715694,6.45615,0.12118,3.41741,0.325185,2.84429,0.154194,0.379005,-1.02332,0.041081,-0.0161133,-0.0490066,-0.193401,-0.0726216,23.4648,23.3371,23.1669,23.2946,23.2236,23.2946,23.1243,
111,6.2729,1.38277,3.15335,4.11863,6.2743,1.97619,1.55579,0.000471982,-0.133158,-0.000146444,0.114521,0.000227512,0.0367333,4.76188e-05,0.422881,-10.604,-0.356345,-1.80698,1.15738,-40.3023,1.18009,0.0133904,-20,-0.480151,-0.0250274,-0.0382915,-1.12844,0.0246449,-7.48555e-05,0.00851454,4.7786e-05,0.493463,0.00128941,0.0734409,0.0610898,0.000466436,0.0544411,1.96467,0.000712589,0.005,1.71322,0.000221538,-0.044497,-0.276494,31.5208,0.0799115,0.715694,6.45615,0.12118,3.41741,0.325185,2.84429,0.154194,0.379005,-1.02332,0.041081,-0.0161133,-0.0490066,-0.193401,-0.0726216,23.4648,23.3371,23.1669,23.2946,23.2236,23.2946,23.1243,
112,6.2729,1.38264,3.15335,4.11874,6.2743,1.97623,1.55579,0.000478699,-0.132348,-0.000154577,0.115062,0.000248676,0.0341045,4.76548e-05,0.422952,-10.6016,-0.356496,-1.80713,1.1574,-40.2998,1.17998,0.0133776,-20,-0.480165,-0.0223454,-0.0382851,-1.12883,0.0246317,-7.48555e-05,0.00851454,4.7786e-05,0.493463,0.00128941,0.0734409,0.0610674,0.000463236,0.0538488,1.96467,0.000712589,0.005,1.71322,0.000221538,-0.044497,-0.276494,31.5208,0.0799115,0.65638,6.85525,0.0936164,3.31009,0.343247,2.65776,0.150984,0.378748,-1.07153,0.0332184,-0.0161133,-0.045038,-0.16521,-0.0725098,23.479,23.3229,23.1669,23.2946,23.2094,23.2804,23.1385,
113,6.2729,1.38264,3.15335,4.11874,6.2743,1.97623,1.55579,0.000478699,-0.132348,-0.000154577,0.115062,0.000248676,0.0341045,4.76548e-05,0.42525,-10.7883,-0.361412,-1.94671,1.1631,-41.0159,1.1981,0.0139883,-20,-0.482999,-0.0468843,-0.0383093,-1.19985,0.0256774,-7.84961e-05,0.00879451,4.4414e-05,0.493463,0.00128941,0.0734409,0.0610674,0.000463236,0.0538488,1.96347,0.000698052,0.005,1.71216,0.000211334,-0.0439639,-0.286688,32.1898,0.0713846,0.65638,6.85525,0.0936164,3.31009,0.343247,2.65776,0.150984,0.378748,-1.07153,0.0332184,-0.0161133,-0.045038,-0.16521,-0.0725098,23.479,23.3229,23.1669,23.2946,23.2094,23.2804,23.1385,
114,6.2729,1.38264,3.15335,4.11874,6.2743,1.97623,1.55579,0.000478699,-0.132348,-0.000154577,0.115062,0.000248676,0.0341045,4.76548e-05,0.42525,-10.7883,-0.361412,-1.94671,1.1631,-41.0159,1.1981,0.0139883,-20,-0.482999,-0.0468843,-0.0383093,-1.19985,0.0256774,-7.84961e-05,0.00879451,4.4414e-05,0.493463,0.00128941,0.0734409,0.0610674,0.000463236,0.0538488,1.96347,0.000698052,0.005,1.71216,0.000211334,-0.0439639,-0.286688,32.1898,0.0713846,0.65638,6.85525,0.0936164,3.31009,0.343247,2.65776,0.150984,0.378748,-1.07153,0.0332184,-0.0161133,-0.045038,-0.16521,-0.0725098,23.479,23.3229,23.1669,23.2946,23.2094,23.2804,23.1385,
115,6.2729,1.38251,3.15335,4.11886,6.2743,1.97626,1.55579,0.000480889,-0.132348,-0.000160301,0.111843,0.000259258,0.0318392,4.76188e-05,0.425325,-10.7861,-0.361562,-1.94657,1.16315,-41.0138,1.19805,0.0139745,-20,-0.483002,-0.0440368,-0.0383025,-1.20034,0.0256677,-7.84961e-05,0.00879451,4.4414e-05,0.493463,0.00128941,0.0734409,0.0601298,0.000454451,0.0536832,1.96347,0.000698052,0.005,1.71216,0.000211334,-0.0439639,-0.286688,32.1898,0.0713846,0.705943,7.3006,0.0703616,3.20243,0.33082,2.48862,0.166746,0.378662,-1.14475,0.0322266,-0.0241699,-0.0444942,-0.133178,-0.0685998,23.4648,23.3229,23.1527,23.2946,23.2094,23.2662,23.1385,
116,6.2729,1.38251,3.15335,4.11886,6.2743,1.97626,1.55579,0.000480889,-0.132348,-0.000160301,0.111843,0.000259258,0.0318392,4.76188e-05,0.427289,-10.9515,-0.364629,-2.06786,1.17166,-41.6503,1.21349,0.0144962,-20,-0.48542,-0.0651331,-0.0383061,-1.2633,0.0265198,-8.1755e-05,0.0090749,4.20318e-05,0.493463,0.00128941,0.0734409,0.0601298,0.000454451,0.0536832,1.96223,0.000685522,0.005,1.71189,0.000207964,-0.0438149,-0.294993,32.7823,0.0668357,0.705943,7.3006,0.0703616,3.20243,0.33082,2.48862,0.166746,0.378662,-1.14475,0.0322266,-0.0241699,-0.0444942,-0.133178,-0.0685998,23.4648,23.3229,23.1527,23.2946,23.2094,23.2662,23.1385,
117,6.2729,1.38237,3.15335,4.11897,6.2743,1.97629,1.55579,0.000441579,-0.130149,-0.000157955,0.11101,0.000275131,0.0291705,4.76188e-05,0.427343,-10.9493,-0.364747,-2.06758,1.1717,-41.6484,1.21339,0.0144759,-20,-0.485425,-0.0620939,-0.0382993,-1.26377,0.0265075,-8.1755e-05,0.0090749,4.20318e-05,0.493463,0.00128941,0.0734409,0.0594191,0.000460043,0.052562,1.96223,0.000685522,0.005,1.71189,0.000207964,-0.0438149,-0.294993,32.7823,0.0668357,0.581903,7.78494,-0.00538984,3.20182,0.370492,2.34992,0.157109,0.370605,-1.21658,0.041081,0.0290486,-0.036478,-0.116821,-0.0645789,23.4648,23.3371,23.1527,23.2662,23.2094,23.2804,23.1385,
118,6.2729,1.38237,3.15335,4.11897,6.2743,1.97629,1.55579,0.000441579,-0.130149,-0.000157955,0.11101,0.000275131,0.0291705,4.76188e-05,0.429347,-11.1117,-0.369482,-2.1874,1.17514,-42.2659,1.22736,0.0150083,-20,-0.487925,-0.0830026,-0.0383333,-1.32468,0.0272506,-8.4709e-05,0.00935116,3.88737e-05,0.493463,0.00128941,0.0734409,0.0594191,0.000460043,0.052562,1.96102,0.000670875,0.005,1.71144,0.000189748,-0.0428058,-0.302205,33.3572,0.0581989,0.581903,7.78494,-0.00538984,3.20182,0.370492,2.34992,0.157109,0.370605,-1.21658,0.041081,0.0290486,-0.036478,-0.116821,-0.0645789,23.4648,23.3371,23.1527,23.2662,23.2094,23.2804,23.1385,
119,6.2729,1.38237,3.15335,4.11897,6.2743,1.97629,1.55579,0.000441579,-0.130149,-0.000157955,0.11101,0.000275131,0.0291705,4.76188e-05,0.429347,-11.1117,-0.369482,-2.1874,1.17514,-42.2659,1.22736,0.0150083,-20,-0.487925,-0.0830026,-0.0383333,-1.32468,0.0272506,-8.4709e-05,0.00935116,3.88737e-05,0.493463,0.00128941,0.0734409,0.0594191,0.000460043,0.052562,1.96102,0.000670875,0.005,1.71144,0.000189748,-0.0428058,-0.302205,33.3572,0.0581989,0.581903,7.78494,-0.00538984,3.20182,0.370492,2.34992,0.157109,0.370605,-1.21658,0.041081,0.0290486,-0.036478,-0.116821,-0.0645789,23.4648,23.3371,23.1527,23.2662,23.2094,23.2804,23.1385,
120,6.2729,1.38237,3.15335,4.11897,6.2743,1.97629,1.55579,0.000441579,-0.130149,-0.000157955,0.11101,0.000275131,0.0291705,4.76188e-05,0.429347,-11.1117,-0.369482,-2.1874,1.17514,-42.2659,1.22736,0.0150083,-20,-0.487925,-0.0830026,-0.0383333,-1.32468,0.0272506,-8.4709e-05,0.00935116,3.88737e-05,0.493463,0.00128941,0.0734409,0.0594191,0.000460043,0.052562,1.96102,0.000670875,0.005,1.71144,0.000189748,-0.0428058,-0.302205,33.3572,0.0581989,0.581903,7.78494,-0.00538984,3.20182,0.370492,2.34992,0.157109,0.370605,-1.21658,0.041081,0.0290486,-0.036478,-0.116821,-0.0645789,23.4648,23.3371,23.1527,23.2662,23.2094,23.2804,23.1385,
121,6.2729,1.38224,3.15335,4.11908,6.27431,1.97631,1.55579,0.000441615,-0.129647,-0.000177699,0.109818,0.000285716,0.0259294,5.82013e-05,0.429428,-11.1094,-0.369634,-2.18722,1.17517,-42.2638,1.22731,0.0149984,-20,-0.487933,-0.0802809,-0.0383266,-1.3251,0.0272416,-8.4709e-05,0.00935116,3.88737e-05,0.493463,0.00128941,0.0734409,0.0589622,0.000457728,0.0520568,1.96102,0.000670875,0.005,1.71144,0.000189748,-0.0428058,-0.302205,33.3572,0.0581989,0.692809,8.30081,-0.0806147,3.25624,0.324925,2.20769,0.1493,0.370693,-1.32937,0.0402832,0.0332184,-0.045038,-0.093001,-0.0725098,23.4648,23.3087,23.1527,23.2804,23.2236,23.2946,23.1243,
122,6.2729,1.38224,3.15335,4.11908,6.27431,1.97631,1.55579,0.000441615,-0.129647,-0.000177699,0.109818,0.000285716,0.0259294,5.82013e-05,0.431285,-11.2657,-0.372613,-2.30323,1.1829,-42.8626,1.24062,0.0154917,-20,-0.490225,-0.10058,-0.0383327,-1.3844,0.0279235,-8.71842e-05,0.00961291,3.66433e-05,0.493463,0.00128941,0.0734409,0.0589622,0.000457728,0.0520568,1.95986,0.000657589,0.005,1.71081,0.000179875,-0.0423511,-0.308829,33.9159,0.0536548,0.692809,8.30081,-0.0806147,3.25624,0.324925,2.20769,0.1493,0.370693,-1.32937,0.0402832,0.0332184,-0.045038,-0.093001,-0.0725098,23.4648,23.3087,23.1527,23.2804,23.2236,23.2946,23.1243,
123,6.2729,1.38211,3.15335,4.11919,6.27431,1.97634,1.55579,0.000449031,-0.130325,-0.00018272,0.10896,0.000306648,0.0230707,5.82013e-05,0.431349,-11.2633,-0.372755,-2.30333,1.18291,-42.8602,1.24051,0.0154788,-20,-0.490235,-0.0980947,-0.038327,-1.38478,0.0279112,-8.71842e-05,0.00961291,3.66433e-05,0.493463,0.00128941,0.0734409,0.0588497,0.000453233,0.0520525,1.95986,0.000657589,0.005,1.71081,0.000179875,-0.0423511,-0.308829,33.9159,0.0536548,0.652456,8.69824,-0.0770315,3.12998,0.343658,2.01771,0.147901,0.362638,-1.35411,0.041081,0.0664368,-0.0404841,-0.0645789,-0.0725098,23.4648,23.2946,23.1669,23.2946,23.2094,23.2662,23.1101,
124,6.2729,1.38211,3.15335,4.11919,6.27431,1.97634,1.55579,0.000449031,-0.130325,-0.00018272,0.10896,0.000306648,0.0230707,5.82013e-05,0.433438,-11.433,-0.377015,-2.43017,1.18876,-43.5152,1.25779,0.0160337,-20,-0.492795,-0.120373,-0.0383439,-1.44989,0.0289389,-9.0754e-05,0.00987344,3.35166e-05,0.493463,0.00128941,0.0734409,0.0588497,0.000453233,0.0520525,1.9587,0.000643764,0.005,1.70986,0.000171478,-0.0423472,-0.318859,34.5282,0.0464202,0.652456,8.69824,-0.0770315,3.12998,0.343658,2.01771,0.147901,0.362638,-1.35411,0.041081,0.0664368,-0.0404841,-0.0645789,-0.0725098,23.4648,23.2946,23.1669,23.2946,23.2094,23.2662,23.1101,
125,6.2729,1.38198,3.15335,4.1193,6.27431,1.97636,1.55579,0.000493389,-0.130187,-0.000191625,0.108481,0.000322753,0.0210676,6.61879e-05,0.433525,-11.4307,-0.377198,-2.4304,1.18879,-43.5127,1.25775,0.0160233,-20,-0.492807,-0.117768,-0.0383372,-1.45027,0.02893,-9.0754e-05,0.00987344,3.35166e-05,0.493463,0.00128941,0.0734409,0.0586756,0.000435129,0.0518099,1.9587,0.000643764,0.005,1.70986,0.000171478,-0.0423472,-0.318859,34.5282,0.0464202,0.704798,9.10202,-0.118075,3.03804,0.339934,1.84455,0.156097,0.378748,-1.32944,0.0227876,0.0664368,-0.036478,-0.0402832,-0.0529843,23.4506,23.3229,23.1527,23.2946,23.2094,23.2662,23.1101,
126,6.2729,1.38198,3.15335,4.1193,6.27431,1.97636,1.55579,0.000493389,-0.130187,-0.000191625,0.108481,0.000322753,0.0210676,6.61879e-05,0.435616,-11.6075,-0.38017,-2.5625,1.19889,-44.1934,1.27291,0.0165785,-20,-0.495372,-0.14094,-0.0383317,-1.51785,0.0296975,-9.35018e-05,0.0101381,3.1323e-05,0.493463,0.00128941,0.0734409,0.0586756,0.000435129,0.0518099,1.95749,0.000633482,0.005,1.70893,0.000178517,-0.0421289,-0.326322,35.1642,0.0424076,0.704798,9.10202,-0.118075,3.03804,0.339934,1.84455,0.156097,0.378748,-1.32944,0.0227876,0.0664368,-0.036478,-0.0402832,-0.0529843,23.4506,23.3229,23.1527,23.2946,23.2094,23.2662,23.1101,
127,6.2729,1.38198,3.15335,4.1193,6.27431,1.97636,1.55579,0.000493389,-0.130187,-0.000191625,0.108481,0.000322753,0.0210676,6.61879e-05,0.435616,-11.6075,-0.38017,-2.5625,1.19889,-44.1934,1.27291,0.0165785,-20,-0.495372,-0.14094,-0.0383317,-1.51785,0.0296975,-9.35018e-05,0.0101381,3.1323e-05,0.493463,0.00128941,0.0734409,0.0586756,0.000435129,0.0518099,1.95749,0.000633482,0.005,1.70893,0.000178517,-0.0421289,-0.326322,35.1642,0.0424076,0.704798,9.10202,-0.118075,3.03804,0.339934,1.84455,0.156097,0.378748,-1.32944,0.0227876,0.0664368,-0.036478,-0.0402832,-0.0529843,23.4506,23.3229,23.1527,23.2946,23.2094,23.2662,23.1101,
128,6.27291,1.38185,3.15334,4.11941,6.27431,1.97638,1.55579,0.000493962,-0.131808,-0.000204056,0.10993,0.000333335,0.019447,6.61372e-05,0.435694,-11.6051,-0.380333,-2.56321,1.1989,-44.1902,1.27283,0.0165715,-20,-0.495392,-0.138817,-0.0383247,-1.51812,0.0296883,-9.35018e-05,0.0101381,3.1323e-05,0.493463,0.00128941,0.0734409,0.0594277,0.000443333,0.052269,1.95749,0.000633482,0.005,1.70893,0.000178517,-0.0421289,-0.326322,35.1642,0.0424076,0.605802,9.5527,-0.190838,2.94881,0.374817,1.69364,0.144712,0.370693,-1.36972,0.0322266,0.0563965,-0.0332184,-0.0090076,-0.0604248,23.4506,23.2946,23.1527,23.2804,23.2094,23.2662,23.1243,
129,6.27291,1.38185,3.15334,4.11941,6.27431,1.97638,1.55579,0.000493962,-0.131808,-0.000204056,0.10993,0.000333335,0.019447,6.61372e-05,0.438146,-11.8079,-0.38426,-2.71702,1.20909,-44.9774,1.2929,0.0172228,-20,-0.498368,-0.166014,-0.0383275,-1.59672,0.0308464,-9.71922e-05,0.0103955,2.91481e-05,0.493463,0.00128941,0.0734409,0.0594277,0.000443333,0.052269,1.95632,0.000618822,0.005,1.7072,0.00015794,-0.0425421,-0.337622,35.9025,0.0364258,0.605802,9.5527,-0.190838,2.94881,0.374817,1.69364,0.144712,0.370693,-1.36972,0.0322266,0.0563965,-0.0332184,-0.0090076,-0.0604248,23.4506,23.2946,23.1527,23.2804,23.2094,23.2662,23.1243,
130,6.27291,1.38185,3.15334,4.11941,6.27431,1.97638,1.55579,0.000493962,-0.131808,-0.000204056,0.10993,0.000333335,0.019447,6.61372e-05,0.438146,-11.8079,-0.38426,-2.71702,1.20909,-44.9774,1.2929,0.0172228,-20,-0.498368,-0.166014,-0.0383275,-1.59672,0.0308464,-9.71922e-05,0.0103955,2.91481e-05,0.493463,0.00128941,0.0734409,0.0594277,0.000443333,0.052269,1.95632,0.000618822,0.005,1.7072,0.00015794,-0.0425421,-0.337622,35.9025,0.0364258,0.605802,9.5527,-0.190838,2.94881,0.374817,1.69364,0.144712,0.370693,-1.36972,0.0322266,0.0563965,-0.0332184,-0.0090076,-0.0604248,23.4506,23.2946,23.1527,23.2804,23.2094,23.2662,23.1243,
131,6.27291,1.38172,3.15334,4.11952,6.27431,1.9764,1.55579,0.000496797,-0.128895,-0.000212421,0.109389,0.000349205,0.0183666,6.61372e-05,0.438246,-11.8059,-0.384445,-2.717,1.20912,-44.9755,1.29286,0.0172111,-20,-0.498377,-0.16304,-0.0383192,-1.59716,0.0308359,-9.71922e-05,0.0103955,2.91481e-05,0.493463,0.00128941,0.0734409,0.058653,0.000436867,0.0510273,1.95632,0.000618822,0.005,1.7072,0.00015794,-0.0425421,-0.337622,35.9025,0.0364258,0.665494,10.0422,-0.247474,2.89886,0.331599,1.58508,0.127498,0.378748,-1.36965,0.0254773,0.0332184,-0.0324774,0.00402832,-0.0525229,23.4506,23.3087,23.1385,23.2804,23.2236,23.2662,23.1101,
132,6.27291,1.38172,3.15334,4.11952,6.27431,1.9764,1.55579,0.000496797,-0.128895,-0.000212421,0.109389,0.000349205,0.0183666,6.61372e-05,0.440202,-11.9683,-0.388391,-2.83669,1.21473,-45.5917,1.3091,0.0177306,-20,-0.500822,-0.183883,-0.0383402,-1.65789,0.031799,-0.000100899,0.0106583,2.65536e-05,0.493463,0.00128941,0.0734409,0.058653,0.000436867,0.0510273,1.95512,0.000604375,0.005,1.70682,0.000150757,-0.0414245,-0.347026,36.476,0.0296977,0.665494,10.0422,-0.247474,2.89886,0.331599,1.58508,0.127498,0.378748,-1.36965,0.0254773,0.0332184,-0.0324774,0.00402832,-0.0525229,23.4506,23.3087,23.1385,23.2804,23.2236,23.2662,23.1101,
133,6.27291,1.38172,3.15334,4.11952,6.27431,1.9764,1.55579,0.000496797,-0.128895,-0.000212421,0.109389,0.000349205,0.0183666,6.61372e-05,0.440202,-11.9683,-0.388391,-2.83669,1.21473,-45.5917,1.3091,0.0177306,-20,-0.500822,-0.183883,-0.0383402,-1.65789,0.031799,-0.000100899,0.0106583,2.65536e-05,0.493463,0.00128941,0.0734409,0.058653,0.000436867,0.0510273,1.95512,0.000604375,0.005,1.70682,0.000150757,-0.0414245,-0.347026,36.476,0.0296977,0.665494,10.0422,-0.247474,2.89886,0.331599,1.58508,0.127498,0.378748,-1.36965,0.0254773,0.0332184,-0.0324774,0.00402832,-0.0525229,23.4506,23.3087,23.1385,23.2804,23.2236,23.2662,23.1101,
134,6.27291,1.38159,3.15334,4.11962,6.27431,1.97641,1.55579,0.000499304,-0.126676,-0.000231343,0.107499,0.000363623,0.0152969,7.40737e-05,0.440326,-11.9662,-0.388591,-2.83627,1.21475,-45.59,1.3091,0.0177295,-20,-0.500829,-0.180927,-0.0383316,-1.65836,0.0317902,-0.000100899,0.0106583,2.65536e-05,0.493463,0.00128941,0.0734409,0.0576351,0.000428819,0.0498717,1.95512,0.000604375,0.005,1.70682,0.000150757,-0.0414245,-0.347026,36.476,0.0296977,0.604706,10.4312,-0.244924,2.758,0.348102,1.44185,0.126038,0.362638,-1.47437,0.00805664,0.0332184,-0.036478,0.0245033,-0.0605589,23.4506,23.3087,23.1385,23.2662,23.1952,23.252,23.1243,
135,6.27291,1.38159,3.15334,4.11962,6.27431,1.97641,1.55579,0.000499304,-0.126676,-0.000231343,0.107499,0.000363623,0.0152969,7.40737e-05,0.441843,-12.0948,-0.391268,-2.93037,1.22028,-46.0762,1.32251,0.0181325,-20,-0.502734,-0.197243,-0.0383442,-1.70615,0.0326089,-0.000104108,0.0109054,2.4348e-05,0.493463,0.00128941,0.0734409,0.0576351,0.000428819,0.0498717,1.95399,0.000587139,0.005,1.70672,0.000142488,-0.0403845,-0.355034,36.9278,0.0253567,0.604706,10.4312,-0.244924,2.758,0.348102,1.44185,0.126038,0.362638,-1.47437,0.00805664,0.0332184,-0.036478,0.0245033,-0.0605589,23.4506,23.3087,23.1385,23.2662,23.1952,23.252,23.1243,
136,6.27291,1.38159,3.15334,4.11962,6.27431,1.97641,1.55579,0.000499304,-0.126676,-0.000231343,0.107499,0.000363623,0.0152969,7.40737e-05,0.441843,-12.0948,-0.391268,-2.93037,1.22028,-46.0762,1.32251,0.0181325,-20,-0.502734,-0.197243,-0.0383442,-1.70615,0.0326089,-0.000104108,0.0109054,2.4348e-05,0.493463,0.00128941,0.0734409,0.0576351,0.000428819,0.0498717,1.95399,0.000587139,0.005,1.70672,0.000142488,-0.0403845,-0.355034,36.9278,0.0253567,0.604706,10.4312,-0.244924,2.758,0.348102,1.44185,0.126038,0.362638,-1.47437,0.00805664,0.0332184,-0.036478,0.0245033,-0.0605589,23.4506,23.3087,23.1385,23.2662,23.1952,23.252,23.1243,
137,6.27291,1.38147,3.15334,4.11973,6.27432,1.97642,1.55579,0.000501537,-0.125198,-0.000246354,0.104821,0.00040089,0.0124119,7.40744e-05,0.441951,-12.0927,-0.391453,-2.93002,1.22027,-46.0745,1.32243,0.0181282,-20,-0.502741,-0.194325,-0.0383363,-1.70662,0.0325965,-0.000104108,0.0109054,2.4348e-05,0.493463,0.00128941,0.0734409,0.056546,0.000422225,0.0490428,1.95399,0.000587139,0.005,1.70672,0.000142488,-0.0403845,-0.355034,36.9278,0.0253567,0.649379,10.802,-0.281074,2.60689,0.349471,1.28513,0.127599,0.370605,-1.55495,0.0113938,0.0586532,-0.0284845,0.0362549,-0.0605589,23.4648,23.3087,23.1243,23.2662,23.1952,23.2804,23.1243,
138,6.27291,1.38147,3.15334,4.11973,6.27432,1.97642,1.55579,0.000501537,-0.125198,-0.000246354,0.104821,0.00040089,0.0124119,7.40744e-05,0.443549,-12.2215,-0.395397,-3.02419,1.22252,-46.5647,1.33925,0.0185525,-20,-0.504739,-0.210645,-0.0383655,-1.75489,0.0337657,-0.000108439,0.0111523,2.12155e-05,0.493463,0.00128941,0.0734409,0.056546,0.000422225,0.0490428,1.95282,0.000569288,0.005,1.70665,0.000132357,-0.0396385,-0.3665,37.3834,0.0180833,0.649379,10.802,-0.281074,2.60689,0.349471,1.28513,0.127599,0.370605,-1.55495,0.0113938,0.0586532,-0.0284845,0.0362549,-0.0605589,23.4648,23.3087,23.1243,23.2662,23.1952,23.2804,23.1243,
139,6.27291,1.38147,3.15334,4.11973,6.27432,1.97642,1.55579,0.000501537,-0.125198,-0.000246354,0.104821,0.00040089,0.0124119,7.40744e-05,0.443549,-12.2215,-0.395397,-3.02419,1.22252,-46.5647,1.33925,0.0185525,-20,-0.504739,-0.210645,-0.0383655,-1.75489,0.0337657,-0.000108439,0.0111523,2.12155e-05,0.493463,0.00128941,0.0734409,0.056546,0.000422225,0.0490428,1.95282,0.000569288,0.005,1.70665,0.000132357,-0.0396385,-0.3665,37.3834,0.0180833,0.649379,10.802,-0.281074,2.60689,0.349471,1.28513,0.127599,0.370605,-1.55495,0.0113938,0.0586532,-0.0284845,0.0362549,-0.0605589,23.4648,23.3087,23.1243,23.2662,23.1952,23.2804,23.1243,
140,6.27291,1.38135,3.15334,4.11984,6.27432,1.97644,1.55579,0.000503512,-0.12356,-0.000287194,0.102263,0.000455922,0.0116142,8.46565e-05,0.443657,-12.2198,-0.395585,-3.02414,1.22254,-46.563,1.33924,0.0185489,-20,-0.504747,-0.207988,-0.0383568,-1.75531,0.0337576,-0.000108439,0.0111523,2.12155e-05,0.493463,0.00128941,0.0734409,0.0554574,0.000427935,0.048368,1.95282,0.000569288,0.005,1.70665,0.000132357,-0.0396385,-0.3665,37.3834,0.0180833,0.57476,11.2085,-0.311108,2.4849,0.379842,1.15861,0.119289,0.362638,-1.57206,0,0.12085,-0.0322266,0.0726216,-0.0523682,23.4648,23.3229,23.1527,23.2804,23.1811,23.252,23.1243,
141,6.27291,1.38135,3.15334,4.11984,6.27432,1.97644,1.55579,0.000503512,-0.12356,-0.000287194,0.102263,0.000455922,0.0116142,8.46565e-05,0.445303,-12.3557,-0.398959,-3.12331,1.22696,-47.0818,1.35308,0.0189861,-20,-0.506799,-0.225147,-0.0383784,-1.80642,0.034593,-0.000111311,0.0113863,1.91894e-05,0.493463,0.00128941,0.0734409,0.0554574,0.000427935,0.048368,1.95173,0.000554055,0.005,1.70665,0.000113508,-0.0390312,-0.374655,37.8654,0.0121716,0.57476,11.2085,-0.311108,2.4849,0.379842,1.15861,0.119289,0.362638,-1.57206,0,0.12085,-0.0322266,0.0726216,-0.0523682,23.4648,23.3229,23.1527,23.2804,23.1811,23.252,23.1243,
142,6.27291,1.38135,3.15334,4.11984,6.27432,1.97644,1.55579,0.000503512,-0.12356,-0.000287194,0.102263,0.000455922,0.0116142,8.46565e-05,0.445303,-12.3557,-0.398959,-3.12331,1.22696,-47.0818,1.35308,0.0189861,-20,-0.506799,-0.225147,-0.0383784,-1.80642,0.034593,-0.000111311,0.0113863,1.91894e-05,0.493463,0.00128941,0.0734409,0.0554574,0.000427935,0.048368,1.95173,0.000554055,0.005,1.70665,0.000113508,-0.0390312,-0.374655,37.8654,0.0121716,0.57476,11.2085,-0.311108,2.4849,0.379842,1.15861,0.119289,0.362638,-1.57206,0,0.12085,-0.0322266,0.0726216,-0.0523682,23.4648,23.3229,23.1527,23.2804,23.1811,23.252,23.1243,
143,6.27291,1.38122,3.15334,4.11993,6.27432,1.97644,1.55579,0.000503408,-0.121759,-0.000366055,0.100206,0.000536871,0.00972351,8.46557e-05,0.445409,-12.3539,-0.39914,-3.12309,1.22695,-47.0802,1.35302,0.0189815,-20,-0.506806,-0.222374,-0.0383697,-1.80685,0.0345831,-0.000111311,0.0113863,1.91894e-05,0.493463,0.00128941,0.0734409,0.0544794,0.000446636,0.0475045,1.95173,0.000554055,0.005,1.70665,0.000113508,-0.0390312,-0.374655,37.8654,0.0121716,0.616547,11.6681,-0.330755,2.38244,0.389129,1.03758,0.108474,0.370605,-1.57104,0,0.169955,-0.0205405,0.080667,-0.0644531,23.4364,23.3087,23.1101,23.2946,23.1811,23.252,23.1101,
144,6.27291,1.38122,3.15334,4.11993,6.27432,1.97644,1.55579,0.000503408,-0.121759,-0.000366055,0.100206,0.000536871,0.00972351,8.46557e-05,0.447058,-12.4867,-0.40323,-3.22039,1.22899,-47.5855,1.37169,0.0194196,-20,-0.508868,-0.239251,-0.0384055,-1.85663,0.035931,-0.000115389,0.0116242,1.67301e-05,0.493463,0.00128941,0.0734409,0.0544794,0.000446636,0.0475045,1.95062,0.000537599,0.005,1.70652,8.18664e-05,-0.0382541,-0.387883,38.3353,0.00441469,0.616547,11.6681,-0.330755,2.38244,0.389129,1.03758,0.108474,0.370605,-1.57104,0,0.169955,-0.0205405,0.080667,-0.0644531,23.4364,23.3087,23.1101,23.2946,23.1811,23.252,23.1101,
145,6.27291,1.38122,3.15334,4.11993,6.27432,1.97644,1.55579,0.000503408,-0.121759,-0.000366055,0.100206,0.000536871,0.00972351,8.46557e-05,0.447058,-12.4867,-0.40323,-3.22039,1.22899,-47.5855,1.37169,0.0194196,-20,-0.508868,-0.239251,-0.0384055,-1.85663,0.035931,-0.000115389,0.0116242,1.67301e-05,0.493463,0.00128941,0.0734409,0.0544794,0.000446636,0.0475045,1.95062,0.000537599,0.005,1.70652,8.18664e-05,-0.0382541,-0.387883,38.3353,0.00441469,0.616547,11.6681,-0.330755,2.38244,0.389129,1.03758,0.108474,0.370605,-1.57104,0,0.169955,-0.0205405,0.080667,-0.0644531,23.4364,23.3087,23.1101,23.2946,23.1811,23.252,23.1101,
146,6.27291,1.3811,3.15334,4.12003,6.27432,1.97645,1.55579,0.000529903,-0.122624,-0.000421947,0.0966949,0.000660531,0.00756273,9.52376e-05,0.447126,-12.4848,-0.403384,-3.22023,1.22896,-47.5838,1.37159,0.0194103,-20,-0.508874,-0.236861,-0.0383984,-1.85702,0.0359223,-0.000115389,0.0116242,1.67301e-05,0.493463,0.00128941,0.0734409,0.0536413,0.000454697,0.047692,1.95062,0.000537599,0.005,1.70652,8.18664e-05,-0.0382541,-0.387883,38.3353,0.00441469,0.548871,12.035,-0.287593,2.24459,0.398607,0.867193,0.0885792,0.362549,-1.61946,-0.0113938,0.201577,-0.0245033,0.108839,-0.0525229,23.4506,23.3087,23.1101,23.2804,23.1811,23.2662,23.1243,
147,6.27291,1.3811,3.15334,4.12003,6.27432,1.97645,1.55579,0.000529903,-0.122624,-0.000421947,0.0966949,0.000660531,0.00756273,9.52376e-05,0.448724,-12.6122,-0.407133,-3.31387,1.23178,-48.0771,1.38648,0.0198346,-20,-0.510836,-0.253126,-0.0384222,-1.90592,0.0368951,-0.000118101,0.0118479,1.44792e-05,0.493463,0.00128941,0.0734409,0.0536413,0.000454697,0.047692,1.94956,0.000527903,0.005,1.70633,6.58856e-05,-0.0384228,-0.397396,38.7949,-0.00240752,0.548871,12.035,-0.287593,2.24459,0.398607,0.867193,0.0885792,0.362549,-1.61946,-0.0113938,0.201577,-0.0245033,0.108839,-0.0525229,23.4506,23.3087,23.1101,23.2804,23.1811,23.2662,23.1243,
148,6.27291,1.3811,3.15334,4.12003,6.27432,1.97645,1.55579,0.000529903,-0.122624,-0.000421947,0.0966949,0.000660531,0.00756273,9.52376e-05,0.448724,-12.6122,-0.407133,-3.31387,1.23178,-48.0771,1.38648,0.0198346,-20,-0.510836,-0.253126,-0.0384222,-1.90592,0.0368951,-0.000118101,0.0118479,1.44792e-05,0.493463,0.00128941,0.0734409,0.0536413,0.000454697,0.047692,1.94956,0.000527903,0.005,1.70633,6.58856e-05,-0.0384228,-0.397396,38.7949,-0.00240752,0.548871,12.035,-0.287593,2.24459,0.398607,0.867193,0.0885792,0.362549,-1.61946,-0.0113938,0.201577,-0.0245033,0.108839,-0.0525229,23.4506,23.3087,23.1101,23.2804,23.1811,23.2662,23.1243,
149,6.27291,1.38098,3.15334,4.12012,6.27432,1.97646,1.55579,0.000530384,-0.122084,-0.000347831,0.0964248,0.000835613,0.00626921,9.52376e-05,0.4488,-12.6103,-0.407323,-3.31409,1.23173,-48.075,1.38634,0.0198289,-20,-0.510852,-0.250809,-0.0384128,-1.90624,0.0368817,-0.000118101,0.0118479,1.44792e-05,0.493463,0.00128941,0.0734409,0.0534451,0.000446885,0.0473573,1.94956,0.000527903,0.005,1.70633,6.58856e-05,-0.0384228,-0.397396,38.7949,-0.00240752,0.595687,12.4091,-0.266269,2.12898,0.421972,0.70494,0.131716,0.354584,-1.60329,-0.0113938,0.249886,-0.0245033,0.124943,-0.0525229,23.4506,23.3087,23.1243,23.2946,23.2094,23.252,23.1243,
150,6.27291,1.38098,3.15334,4.12012,6.27432,1.97646,1.55579,0.000530384,-0.122084,-0.000347831,0.0964248,0.000835613,0.00626921,9.52376e-05,0.450778,-12.7595,-0.413768,-3.42563,1.22963,-48.6487,1.40327,0.0203543,-20,-0.513297,-0.27037,-0.038466,-1.96318,0.0379831,-0.000122214,0.0120698,1.11779e-05,0.493463,0.00128941,0.0734409,0.0534451,0.000446885,0.0473573,1.94851,0.000511524,0.005,1.70555,5.81753e-05,-0.0381215,-0.408133,39.3309,-0.0150425,0.595687,12.4091,-0.266269,2.12898,0.421972,0.70494,0.131716,0.354584,-1.60329,-0.0113938,0.249886,-0.0245033,0.124943,-0.0525229,23.4506,23.3087,23.1243,23.2946,23.2094,23.252,23.1243,
151,6.27291,1.38098,3.15334,4.12012,6.27432,1.97646,1.55579,0.000530384,-0.122084,-0.000347831,0.0964248,0.000835613,0.00626921,9.52376e-05,0.450778,-12.7595,-0.413768,-3.42563,1.22963,-48.6487,1.40327,0.0203543,-20,-0.513297,-0.27037,-0.038466,-1.96318,0.0379831,-0.000122214,0.0120698,1.11779e-05,0.493463,0.00128941,0.0734409,0.0534451,0.000446885,0.0473573,1.94851,0.000511524,0.005,1.70555,5.81753e-05,-0.0381215,-0.408133,39.3309,-0.0150425,0.595687,12.4091,-0.266269,2.12898,0.421972,0.70494,0.131716,0.354584,-1.60329,-0.0113938,0.249886,-0.0245033,0.124943,-0.0525229,23.4506,23.3087,23.1243,23.2946,23.2094,23.252,23.1243,
152,6.27291,1.38086,3.15334,4.12023,6.27432,1.97646,1.55579,0.000506694,-0.120463,-0.000347831,0.0977997,0.000995623,0.00377753,0.000103174,0.450805,-12.7573,-0.413878,-3.4258,1.2296,-48.6463,1.40308,0.0203357,-20,-0.513311,-0.26785,-0.0384586,-1.9635,0.0379705,-0.000122214,0.0120698,1.11779e-05,0.493463,0.00128941,0.0734409,0.0534982,0.000467284,0.0464406,1.94851,0.000511524,0.005,1.70555,5.81753e-05,-0.0381215,-0.408133,39.3309,-0.0150425,0.520383,12.8557,-0.266269,2.12497,0.449748,0.566771,0.10751,0.354492,-1.63552,-0.0113938,0.241699,-0.0216932,0.136963,-0.0523682,23.4648,23.2804,23.1243,23.2804,23.1811,23.2662,23.1101,
153,6.27291,1.38086,3.15334,4.12023,6.27432,1.97646,1.55579,0.000506694,-0.120463,-0.000347831,0.0977997,0.000995623,0.00377753,0.000103174,0.452771,-12.9056,-0.420443,-3.53768,1.22677,-49.2121,1.41591,0.0208577,-20,-0.515756,-0.287555,-0.038521,-2.01961,0.0386778,-0.000124195,0.0122963,7.96752e-06,0.493463,0.00128941,0.0734409,0.0534982,0.000467284,0.0464406,1.94741,0.000497716,0.005,1.70452,2.73892e-05,-0.0372966,-0.414955,39.8601,-0.0281939,0.520383,12.8557,-0.266269,2.12497,0.449748,0.566771,0.10751,0.354492,-1.63552,-0.0113938,0.241699,-0.0216932,0.136963,-0.0523682,23.4648,23.2804,23.1243,23.2804,23.1811,23.2662,23.1101,
154,6.27291,1.38086,3.15334,4.12023,6.27432,1.97646,1.55579,0.000506694,-0.120463,-0.000347831,0.0977997,0.000995623,0.00377753,0.000103174,0.452771,-12.9056,-0.420443,-3.53768,1.22677,-49.2121,1.41591,0.0208577,-20,-0.515756,-0.287555,-0.038521,-2.01961,0.0386778,-0.000124195,0.0122963,7.96752e-06,0.493463,0.00128941,0.0734409,0.0534982,0.000467284,0.0464406,1.94741,0.000497716,0.005,1.70452,2.73892e-05,-0.0372966,-0.414955,39.8601,-0.0281939,0.520383,12.8557,-0.266269,2.12497,0.449748,0.566771,0.10751,0.354492,-1.63552,-0.0113938,0.241699,-0.0216932,0.136963,-0.0523682,23.4648,23.2804,23.1243,23.2804,23.1811,23.2662,23.1101,
155,6.27291,1.38074,3.15334,4.12032,6.27433,1.97646,1.55579,0.000506671,-0.118843,-0.000334948,0.0972351,0.00124348,0.00108039,0.000103174,0.45282,-12.9037,-0.420595,-3.53753,1.2267,-49.2103,1.41573,0.0208458,-20,-0.515767,-0.285003,-0.0385119,-2.01996,0.0386655,-0.000124195,0.0122963,7.96752e-06,0.493463,0.00128941,0.0734409,0.0529914,0.000478761,0.0455345,1.94741,0.000497716,0.005,1.70452,2.73892e-05,-0.0372966,-0.414955,39.8601,-0.0281939,0.567655,13.3219,-0.271114,2.1422,0.442386,0.400704,0.108406,0.354492,-1.6678,-0.0180152,0.20206,-0.0284845,0.169237,-0.0523682,23.4648,23.3087,23.1385,23.252,23.1811,23.2236,23.1101,
156,6.27291,1.38074,3.15334,4.12032,6.27433,1.97646,1.55579,0.000506671,-0.118843,-0.000334948,0.0972351,0.00124348,0.00108039,0.000103174,0.454495,-13.0253,-0.427274,-3.62795,1.22087,-49.6726,1.43207,0.0212904,-20,-0.517863,-0.300815,-0.038582,-2.06563,0.0398434,-0.000127758,0.0125102,4.8402e-06,0.493463,0.00128941,0.0734409,0.0529914,0.000478761,0.0455345,1.94636,0.000484608,0.005,1.70403,5.26236e-06,-0.036481,-0.42646,40.2912,-0.0420009,0.567655,13.3219,-0.271114,2.1422,0.442386,0.400704,0.108406,0.354492,-1.6678,-0.0180152,0.20206,-0.0284845,0.169237,-0.0523682,23.4648,23.3087,23.1385,23.252,23.1811,23.2236,23.1101,
157,6.27291,1.38074,3.15334,4.12032,6.27433,1.97646,1.55579,0.000506671,-0.118843,-0.000334948,0.0972351,0.00124348,0.00108039,0.000103174,0.454495,-13.0253,-0.427274,-3.62795,1.22087,-49.6726,1.43207,0.0212904,-20,-0.517863,-0.300815,-0.038582,-2.06563,0.0398434,-0.000127758,0.0125102,4.8402e-06,0.493463,0.00128941,0.0734409,0.0529914,0.000478761,0.0455345,1.94636,0.000484608,0.005,1.70403,5.26236e-06,-0.036481,-0.42646,40.2912,-0.0420009,0.567655,13.3219,-0.271114,2.1422,0.442386,0.400704,0.108406,0.354492,-1.6678,-0.0180152,0.20206,-0.0284845,0.169237,-0.0523682,23.4648,23.3087,23.1385,23.252,23.1811,23.2236,23.1101,
