LWingKi/MAS_RnD/main/log/us2/contactless/10/grasp_log_12_08_2023_15_03_10.csv
Index,joint_angle_0,joint_angle_1,joint_angle_2,joint_angle_3,joint_angle_4,joint_angle_5,joint_angle_6,joint_velocity_0,joint_velocity_1,joint_velocity_2,joint_velocity_3,joint_velocity_4,joint_velocity_5,joint_velocity_6,joint_accel_0,joint_accel_1,joint_accel_2,joint_accel_3,joint_accel_4,joint_accel_5,joint_accel_6,constraint_tau_0,constraint_tau_1,constraint_tau_2,constraint_tau_3,constraint_tau_4,constraint_tau_5,constraint_tau_6,current_pos_x,current_pos_y,current_pos_z,target_pos_x,target_pos_y,target_pos_z,current_vel_x,current_vel_y,current_vel_z,target_vel_x,target_vel_y,target_vel_z,control_signal_linear_x,control_signal_linear_y,control_signal_linear_z,control_signal_angular_x,control_signal_angular_y,control_signal_angular_z,joint_torque_0,joint_torque_1,joint_torque_2,joint_torque_3,joint_torque_4,joint_torque_5,joint_torque_6,actuar_current_0,actuar_current_1,actuar_current_2,actuar_current_3,actuar_current_4,actuar_current_5,actuar_current_6,actuar_voltage_0,actuar_voltage_1,actuar_voltage_2,actuar_voltage_3,actuar_voltage_4,actuar_voltage_5,actuar_voltage_6
0,6.27053,1.38129,3.1515,4.12786,6.27152,1.96112,1.5571,0.000759654,0.027083,0.000412985,0.100746,2.11799e-05,0.0232284,0,0.429832,-5.25026,-0.459494,2.37338,0.483268,-19.3848,1.72724,0.0143576,-20,-0.414388,0.834829,-0.0398478,0.98501,0.0970427,-0.000369841,0.00436001,-5.25272e-05,0.4982,0.00244636,0.0733198,0.023568,-0.000153175,-0.00984352,1.98619,-0.00225073,0.005,1.78757,-0.00202565,0.0045,-0.998571,11.772,-0.141823,1.58695,0.0997748,0.0145553,5.56823,0.26067,5.8859,0.150334,0.330322,0.290039,0.410889,-0.0970148,-0.0970148,-0.717041,-0.112865,23.479,23.3513,23.1811,23.3087,23.2378,23.2804,23.1669,
1,6.27053,1.38132,3.1515,4.12796,6.27152,1.96115,1.5571,0.000796198,0.0270097,0.00042551,0.101557,2.11797e-05,0.0260799,0,0.394739,-2.79083,-0.387523,4.11553,0.437087,-9.80268,0.638553,0.00503824,-19.003,-0.376447,1.12736,-0.0389266,1.92929,-0.00275169,0,0,0,0.4982,0.00244636,0.0733198,0.0238199,-0.000164368,-0.00952309,2,0,0.005,1.77879,0.000137857,0.0133592,-0.0104405,2.90657,-0.014767,1.55331,0.141637,0.0198131,5.53871,0.239836,5.91296,0.148734,0.354858,0.314312,0.394858,-0.0509547,-0.0967636,-0.733165,-0.108839,23.5074,23.3655,23.1811,23.3087,23.2378,23.2946,23.1527,
2,6.27053,1.38134,3.15151,4.12807,6.27152,1.96118,1.5571,0.000808166,0.0270097,0.0004328,0.102907,2.11959e-05,0.0307911,0,0.396181,-2.89664,-0.389621,4.03695,0.442981,-10.2148,0.643851,0.00542145,-19.068,-0.378031,1.11458,-0.0389196,1.88821,-0.00269218,-2.21572e-07,0.000101062,-7.32868e-07,0.4982,0.00244636,0.0733198,0.0242138,-0.000160088,-0.00904285,1.99953,1.8554e-06,0.005,1.77814,0.000149601,0.0130708,-0.0109608,3.29149,-0.0170328,1.53341,0.165699,0.0257934,5.48718,0.233712,5.91625,0.133312,0.354492,0.290039,0.403154,-0.0483398,-0.0967636,-0.74525,-0.112793,23.4932,23.3513,23.1811,23.3087,23.2378,23.2804,23.1527,
3,6.27053,1.38137,3.15151,4.12818,6.27152,1.96121,1.5571,0.000808166,0.0280901,0.000397421,0.103971,2.11959e-05,0.0329185,0,0.397941,-3.02437,-0.392094,3.94201,0.450192,-10.7137,0.650465,0.00589,-19.1464,-0.379936,1.09911,-0.038913,1.83841,-0.00259692,-4.5749e-07,0.000206385,-9.87754e-07,0.4982,0.00244636,0.0733198,0.0242944,-0.0001466,-0.00926165,1.99905,7.78548e-06,0.005,1.77735,0.000151086,0.0126386,-0.0118209,3.75769,-0.0197259,1.52047,0.218638,0.0588338,5.46878,0.225056,5.90565,0.136801,0.338379,0.274044,0.378748,-0.0563965,-0.10103,-0.773448,-0.124943,23.479,23.3655,23.1811,23.3087,23.252,23.2662,23.1669,
4,6.27053,1.38137,3.15151,4.12818,6.27152,1.96121,1.5571,0.000808166,0.0280901,0.000397421,0.103971,2.11959e-05,0.0329185,0,0.399409,-3.12876,-0.394863,3.86483,0.453715,-11.1155,0.658276,0.00627999,-19.2096,-0.381527,1.08586,-0.0389262,1.79861,-0.00226152,-1.30246e-06,0.000321687,-1.99011e-06,0.4982,0.00244636,0.0733198,0.0242944,-0.0001466,-0.00926165,1.99853,5.91421e-06,0.005,1.77681,0.000137263,0.0128355,-0.0150793,4.13232,-0.0238496,1.52047,0.218638,0.0588338,5.46878,0.225056,5.90565,0.136801,0.338379,0.274044,0.378748,-0.0563965,-0.10103,-0.773448,-0.124943,23.479,23.3655,23.1811,23.3087,23.252,23.2662,23.1669,
5,6.27053,1.3814,3.15151,4.12828,6.27152,1.96124,1.5571,0.000833461,0.0298134,0.000375342,0.106689,2.11799e-05,0.0345725,0,0.399389,-3.12857,-0.394857,3.86503,0.453764,-11.1155,0.658264,0.00627722,-19.2105,-0.381549,1.08666,-0.0389246,1.7985,-0.00226149,-1.30246e-06,0.000321687,-1.99011e-06,0.4982,0.00244636,0.0733198,0.0247195,-0.000144446,-0.00981172,1.99853,5.91421e-06,0.005,1.77681,0.000137263,0.0128355,-0.0150793,4.13232,-0.0238496,1.52228,0.275229,0.0588988,5.48457,0.211171,5.86725,0.123911,0.354492,0.233781,0.402832,-0.072956,-0.0927389,-0.781505,-0.124878,23.4932,23.3513,23.1669,23.3087,23.2236,23.2946,23.1385,
6,6.27053,1.38143,3.15151,4.12839,6.27152,1.96128,1.5571,0.000847845,0.0307911,0.000377753,0.108579,2.11799e-05,0.0358599,-1.0582e-05,0.400785,-3.23192,-0.396741,3.78749,0.459755,-11.5115,0.665004,0.00664984,-19.2741,-0.38309,1.07407,-0.0389202,1.75911,-0.00203822,-1.77606e-06,0.000429404,-2.38448e-06,0.4982,0.00244636,0.0733198,0.0250617,-0.000145888,-0.0100914,1.99805,1.02747e-05,0.005,1.776,0.000139249,0.0133305,-0.0172324,4.50258,-0.0257794,1.49677,0.310662,0.0583488,5.49345,0.229366,5.82737,0.140865,0.362549,0.169189,0.386803,-0.12085,-0.0926514,-0.781505,-0.124878,23.4932,23.3513,23.1811,23.3229,23.2378,23.2946,23.1385,
7,6.27053,1.38143,3.15151,4.1285,6.27152,1.96132,1.5571,0.000847845,0.0307911,0.000377753,0.10993,2.11961e-05,0.0367333,-1.0582e-05,0.402251,-3.33605,-0.399325,3.7093,0.464091,-11.9136,0.674724,0.0070344,-19.3382,-0.38469,1.06169,-0.0389242,1.719,-0.00151844,-3.4821e-06,0.000544306,-3.43056e-06,0.4982,0.00244636,0.0733198,0.0254538,-0.000140533,-0.0100166,1.99755,8.58096e-06,0.005,1.77524,0.000139022,0.0135823,-0.022326,4.87882,-0.029258,1.49677,0.310662,0.0583488,5.53609,0.220964,5.80161,0.131391,0.362549,0.169189,0.386803,-0.136963,-0.0809682,-0.773448,-0.12085,23.4932,23.3513,23.1811,23.3087,23.2378,23.2946,23.1527,
8,6.27053,1.38147,3.15151,4.1285,6.27152,1.96132,1.5571,0.000821309,0.0318715,0.000346978,0.10993,2.11961e-05,0.0367333,-1.0582e-05,0.404024,-3.46243,-0.402686,3.61511,0.468401,-12.4025,0.683872,0.00751284,-19.4147,-0.386618,1.04516,-0.0389371,1.67044,-0.00114695,-4.65286e-06,0.000688768,-4.99747e-06,0.4982,0.00244636,0.0733198,0.0252247,-0.000124161,-0.0104475,1.99692,1.00894e-06,0.005,1.77432,0.000127387,0.0135149,-0.0259244,5.33557,-0.0342542,1.50312,0.388118,0.0621544,5.53609,0.220964,5.80161,0.131391,0.370693,0.0254773,0.386803,-0.136963,-0.0809682,-0.773448,-0.12085,23.5074,23.3655,23.1811,23.3087,23.2378,23.2946,23.1527,
9,6.27053,1.38149,3.15151,4.12861,6.27152,1.96136,1.5571,0.000797911,0.0289004,0.000306157,0.109837,2.11961e-05,0.0394342,-1.059e-05,0.403582,-3.43056,-0.402125,3.63822,0.466461,-12.2769,0.681815,0.00739521,-19.3966,-0.386185,1.05005,-0.0389402,1.68284,-0.00120719,-4.25686e-06,0.000657478,-4.46524e-06,0.4982,0.00244636,0.0733198,0.0258259,-9.15862e-05,-0.0089741,1.99706,6.92465e-06,0.005,1.77465,0.000117977,0.0139027,-0.0253515,5.21867,-0.0337884,1.46199,0.440783,0.0564383,5.60616,0.212413,5.79549,0.130762,0.370605,-0.290039,0.378748,-0.153288,-0.0845947,-0.765381,-0.116821,23.4932,23.3513,23.1811,23.3229,23.2236,23.2804,23.1527,
10,6.27054,1.38152,3.15151,4.12872,6.27152,1.9614,1.5571,0.000847845,0.020563,0.000306157,0.10993,2.11799e-05,0.0423623,-1.05901e-05,0.405571,-3.56736,-0.40573,3.53378,0.471775,-12.8198,0.692661,0.00791971,-19.481,-0.388299,1.03276,-0.0389491,1.62819,-0.000720213,-5.15614e-06,0.00078463,-5.62178e-06,0.4982,0.00244636,0.0733198,0.0276169,-8.45461e-05,-0.00534172,1.9965,4.53677e-06,0.005,1.77361,8.65107e-05,0.0125767,-0.0300803,5.72932,-0.0389661,1.47018,0.527333,0.0590877,5.59761,0.21339,5.79024,0.130423,0.370693,-0.523929,0.378748,-0.121118,-0.0845947,-0.765381,-0.116891,23.479,23.3655,23.1811,23.3371,23.2236,23.2804,23.1527,
11,6.27054,1.38152,3.15151,4.12872,6.27152,1.9614,1.5571,0.000847845,0.020563,0.000306157,0.10993,2.11799e-05,0.0423623,-1.05901e-05,0.408099,-3.74801,-0.408272,3.39608,0.485162,-13.5496,0.706688,0.00859102,-19.5905,-0.390882,1.00878,-0.0389159,1.5544,-0.000141556,-6.04861e-06,0.000912847,-6.20503e-06,0.4982,0.00244636,0.0733198,0.0276169,-8.45461e-05,-0.00534172,1.99596,6.45415e-06,0.005,1.77151,8.19002e-05,0.00930755,-0.0356821,6.41624,-0.0403143,1.47018,0.527333,0.0590877,5.59761,0.21339,5.79024,0.130423,0.370693,-0.523929,0.378748,-0.121118,-0.0845947,-0.765381,-0.116891,23.479,23.3655,23.1811,23.3371,23.2236,23.2804,23.1527,
12,6.27054,1.38152,3.15151,4.12883,6.27152,1.96145,1.5571,0.000794855,0.00837302,0.000265671,0.109548,2.11959e-05,0.0456399,-1.0582e-05,0.408119,-3.74677,-0.408329,3.39403,0.485246,-13.5463,0.706673,0.00859148,-19.5913,-0.390909,1.00911,-0.0389126,1.55438,-0.000142506,-6.04861e-06,0.000912847,-6.20503e-06,0.4982,0.00244636,0.0733198,0.0300847,-1.56252e-05,-0.0001291,1.99596,6.45415e-06,0.005,1.77151,8.19002e-05,0.00930755,-0.0356821,6.41624,-0.0403143,1.45159,0.615425,0.0483374,5.6151,0.214692,5.79555,0.128725,0.378662,-0.580302,0.378662,-0.088623,-0.0845947,-0.765381,-0.116821,23.479,23.3513,23.1527,23.3087,23.2236,23.2946,23.1669,
13,6.27054,1.38152,3.15151,4.12883,6.27152,1.96145,1.5571,0.000794855,0.00837302,0.000265671,0.109548,2.11959e-05,0.0456399,-1.0582e-05,0.411391,-3.96929,-0.413933,3.2238,0.494708,-14.4518,0.726047,0.00946043,-19.7262,-0.394267,0.97939,-0.0389194,1.46257,0.000811048,-7.37379e-06,0.0010613,-7.99719e-06,0.4982,0.00244636,0.0733198,0.0300847,-1.56252e-05,-0.0001291,1.99537,-2.54359e-06,0.005,1.76875,1.17735e-05,0.00461619,-0.0449572,7.26959,-0.0482511,1.45159,0.615425,0.0483374,5.6151,0.214692,5.79555,0.128725,0.378662,-0.580302,0.378662,-0.088623,-0.0845947,-0.765381,-0.116821,23.479,23.3513,23.1527,23.3087,23.2236,23.2946,23.1669,
14,6.27054,1.38152,3.15151,4.12894,6.27152,1.9615,1.5571,0.000762594,-0.00377753,0.000226491,0.10966,2.11959e-05,0.0491577,-1.05821e-05,0.411402,-3.96805,-0.413991,3.22166,0.494785,-14.4484,0.726026,0.00945747,-19.7271,-0.394295,0.979677,-0.038916,1.46255,0.00081054,-7.37379e-06,0.0010613,-7.99719e-06,0.4982,0.00244636,0.0733198,0.0326871,4.63757e-05,0.00508706,1.99537,-2.54359e-06,0.005,1.76875,1.17735e-05,0.00461619,-0.0449572,7.26959,-0.0482511,1.44965,0.719546,0.085445,5.57931,0.207947,5.79296,0.127143,0.394775,-0.556142,0.354584,-0.0433863,-0.0809682,-0.773438,-0.108765,23.479,23.3513,23.1811,23.3087,23.2236,23.2946,23.1669,
15,6.27054,1.38151,3.15151,4.12894,6.27152,1.96155,1.5571,0.000765466,-0.00837302,0.000207617,0.10966,1.0598e-05,0.0491577,-1.0582e-05,0.41483,-4.20462,-0.418973,3.03956,0.50768,-15.4086,0.745949,0.010366,-19.8708,-0.397805,0.947859,-0.0389048,1.36515,0.00174524,-8.58693e-06,0.00122147,-9.20463e-06,0.4982,0.00244636,0.0733198,0.0336582,6.1762e-05,0.00691881,1.99472,-6.42061e-06,0.005,1.76583,-4.75167e-05,-7.83534e-05,-0.0540324,8.17539,-0.0542261,1.40266,0.89781,0.126539,5.57931,0.188612,5.76109,0.11479,0.394775,-0.523929,0.386803,-0.0433863,-0.0726216,-0.785564,-0.116821,23.479,23.3513,23.1811,23.3087,23.2236,23.2946,23.1527,
16,6.27054,1.38149,3.1515,4.12906,6.27152,1.96159,1.5571,0.00075227,-0.0161246,0.000132835,0.110589,2.11479e-05,0.0502381,-1.059e-05,0.415927,-4.28257,-0.419334,2.97759,0.515836,-15.7281,0.752274,0.01065,-19.9197,-0.398907,0.938073,-0.0388754,1.3324,0.00201347,-8.7506e-06,0.00128285,-8.82792e-06,0.4982,0.00244636,0.0733198,0.0355664,0.00011428,0.0101139,1.99467,-8.00261e-08,0.005,1.76491,-5.56578e-05,-0.00172693,-0.0566462,8.47897,-0.052934,1.4355,1.17246,0.126836,5.63932,0.195358,5.72192,0.118901,0.386719,-0.644582,0.354584,-0.0227876,-0.0845947,-0.761395,-0.117099,23.479,23.3513,23.1811,23.3229,23.2236,23.2804,23.1527,
17,6.27054,1.38146,3.1515,4.12917,6.27152,1.96165,1.5571,0.000782911,-0.0232284,9.48825e-05,0.114521,2.11797e-05,0.0519091,-1.0582e-05,0.419032,-4.49365,-0.425053,2.8143,0.523813,-16.5739,0.773968,0.0114666,-20,-0.402169,0.910534,-0.0388875,1.24683,0.00325974,-1.12072e-05,0.00147003,-1.12239e-05,0.4982,0.00244636,0.0733198,0.0382103,0.000146006,0.0130695,1.9939,-1.0533e-05,0.005,1.7625,-0.000112332,-0.00460255,-0.0688438,9.27714,-0.0612368,1.41919,1.35192,0.128324,5.67301,0.210224,5.66972,0.117325,0.394775,-0.676758,0.362549,-0.0360304,-0.0845947,-0.753339,-0.116821,23.4932,23.3655,23.1811,23.3229,23.2236,23.2946,23.1385,
18,6.27054,1.38146,3.1515,4.12917,6.27152,1.96165,1.5571,0.000782911,-0.0232284,9.48825e-05,0.114521,2.11797e-05,0.0519091,-1.0582e-05,0.422375,-4.73323,-0.428968,2.63047,0.539527,-17.5262,0.794026,0.0123545,-20,-0.40564,0.878432,-0.0388629,1.15086,0.00419993,-1.27155e-05,0.00166096,-1.20394e-05,0.4982,0.00244636,0.0733198,0.0382103,0.000146006,0.0130695,1.99315,-1.16817e-05,0.005,1.75944,-0.000141919,-0.00726259,-0.0779951,10.1738,-0.0645891,1.41919,1.35192,0.128324,5.67301,0.210224,5.66972,0.117325,0.394775,-0.676758,0.362549,-0.0360304,-0.0845947,-0.753339,-0.116821,23.4932,23.3655,23.1811,23.3229,23.2236,23.2946,23.1385,
19,6.27054,1.38144,3.1515,4.12928,6.27152,1.9617,1.5571,0.000766826,-0.0264696,3.77486e-05,0.116142,2.11959e-05,0.0529391,-1.05821e-05,0.422385,-4.73211,-0.429015,2.62961,0.539614,-17.5242,0.794022,0.0123486,-20,-0.405664,0.879478,-0.038859,1.15071,0.00419957,-1.27155e-05,0.00166096,-1.20394e-05,0.4982,0.00244636,0.0733198,0.0393649,0.000183594,0.0144528,1.99315,-1.16817e-05,0.005,1.75944,-0.000141919,-0.00726259,-0.0779951,10.1738,-0.0645891,1.42631,1.63944,0.160806,5.68857,0.20828,5.63299,0.131248,0.410968,-0.70903,0.362638,-0.0563965,-0.076644,-0.749278,-0.116821,23.4932,23.3513,23.1669,23.3087,23.2236,23.2946,23.1385,
20,6.27054,1.38141,3.1515,4.12941,6.27152,1.96176,1.5571,0.000766791,-0.0291705,0,0.115855,2.11479e-05,0.0558535,-1.05821e-05,0.42507,-4.9204,-0.43319,2.48577,0.548943,-18.2665,0.810124,0.0130502,-20,-0.408504,0.855915,-0.0388589,1.076,0.00498643,-1.42832e-05,0.00185402,-1.33633e-05,0.4982,0.00244636,0.0733198,0.0398513,0.000204958,0.015849,1.99237,-1.72643e-05,0.005,1.7577,-0.000180772,-0.00850755,-0.0856604,10.8718,-0.069877,1.34367,1.92533,0.191505,5.61895,0.211207,5.5888,0.122755,0.411204,-0.82999,0.346529,-0.0644531,-0.0684814,-0.749268,-0.116891,23.479,23.3655,23.1811,23.3371,23.2378,23.2804,23.1385,
21,6.27054,1.38141,3.1515,4.12941,6.27152,1.96176,1.5571,0.000766791,-0.0291705,0,0.115855,2.11479e-05,0.0558535,-1.05821e-05,0.427782,-5.11609,-0.436786,2.34001,0.560308,-19.0352,0.825513,0.0137704,-20,-0.411373,0.830892,-0.0388526,0.999289,0.00566617,-1.59758e-05,0.00206106,-1.42769e-05,0.4982,0.00244636,0.0733198,0.0398513,0.000204958,0.015849,1.99153,-1.93365e-05,0.005,1.75651,-0.000201865,-0.00976408,-0.0922659,11.5906,-0.0737107,1.34367,1.92533,0.191505,5.61895,0.211207,5.5888,0.122755,0.411204,-0.82999,0.346529,-0.0644531,-0.0684814,-0.749268,-0.116891,23.479,23.3655,23.1811,23.3371,23.2378,23.2804,23.1385,
22,6.27054,1.38137,3.1515,4.12952,6.27152,1.96182,1.5571,0.000788059,-0.0340724,0,0.117104,3.17219e-05,0.0591814,-1.05901e-05,0.427802,-5.11501,-0.436875,2.33862,0.560396,-19.0327,0.825515,0.013764,-20,-0.411401,0.831775,-0.0388477,0.999159,0.00566574,-1.59758e-05,0.00206106,-1.42769e-05,0.4982,0.00244636,0.0733198,0.0412491,0.000219257,0.0181438,1.99153,-1.93365e-05,0.005,1.75651,-0.000201865,-0.00976408,-0.0922659,11.5906,-0.0737107,1.39008,2.21564,0.18828,5.62051,0.21099,5.52934,0.114986,0.402832,-0.942765,0.354584,-0.0644531,-0.076644,-0.757367,-0.121118,23.4932,23.3513,23.1669,23.2946,23.2094,23.2946,23.1385,
23,6.27054,1.38133,3.1515,4.12964,6.27152,1.96188,1.5571,0.000766826,-0.0399744,0,0.117763,3.17459e-05,0.0615822,-1.0582e-05,0.431088,-5.34676,-0.441599,2.16142,0.573397,-19.9509,0.844153,0.0146261,-20,-0.414866,0.802261,-0.0388327,0.906709,0.00649664,-1.80891e-05,0.00227568,-1.56783e-05,0.4982,0.00244636,0.0733198,0.0426864,0.000249017,0.0207484,1.99071,-1.94239e-05,0.005,1.75451,-0.000214812,-0.0118294,-0.100347,12.4544,-0.0789256,1.32765,2.42358,0.190715,5.56304,0.211027,5.47424,0.121052,0.410889,-0.991098,0.338379,-0.041081,-0.0644531,-0.769451,-0.104814,23.479,23.3371,23.1669,23.3087,23.2236,23.2662,23.1385,
24,6.27054,1.38133,3.1515,4.12964,6.27152,1.96188,1.5571,0.000766826,-0.0399744,0,0.117763,3.17459e-05,0.0615822,-1.0582e-05,0.434331,-5.57608,-0.446394,1.98826,0.585425,-20.8603,0.861673,0.0154872,-20,-0.418266,0.772318,-0.0388291,0.815432,0.00723724,-1.98416e-05,0.00249217,-1.71382e-05,0.4982,0.00244636,0.0733198,0.0426864,0.000249017,0.0207484,1.98986,-2.60665e-05,0.005,1.75246,-0.000247575,-0.0141735,-0.107524,13.3078,-0.0847144,1.32765,2.42358,0.190715,5.56304,0.211027,5.47424,0.121052,0.410889,-0.991098,0.338379,-0.041081,-0.0644531,-0.769451,-0.104814,23.479,23.3371,23.1669,23.3087,23.2236,23.2662,23.1385,
25,6.27054,1.38129,3.1515,4.12975,6.27152,1.96194,1.5571,0.000790789,-0.0475372,0,0.117492,3.17462e-05,0.0648234,-1.0582e-05,0.434352,-5.57469,-0.44649,1.9863,0.58552,-20.857,0.861677,0.0154794,-20,-0.418291,0.772986,-0.0388245,0.815311,0.00723754,-1.98416e-05,0.00249217,-1.71382e-05,0.4982,0.00244636,0.0733198,0.0442046,0.000263637,0.0241185,1.98986,-2.60665e-05,0.005,1.75246,-0.000247575,-0.0141735,-0.107524,13.3078,-0.0847144,1.3521,2.63782,0.241365,5.49342,0.230281,5.44592,0.119486,0.410889,-0.983207,0.346436,-0.0332184,-0.076644,-0.773448,-0.112793,23.4932,23.3513,23.1669,23.2946,23.2236,23.2662,23.1385,
26,6.27054,1.38129,3.1515,4.12975,6.27152,1.96194,1.5571,0.000790789,-0.0475372,0,0.117492,3.17462e-05,0.0648234,-1.0582e-05,0.437803,-5.82275,-0.450447,1.79915,0.602121,-21.8452,0.880775,0.016396,-20,-0.42188,0.740657,-0.0387964,0.716005,0.00803589,-2.16829e-05,0.00271865,-1.81042e-05,0.4982,0.00244636,0.0733198,0.0442046,0.000263637,0.0241185,1.98899,-2.89237e-05,0.005,1.75031,-0.000263305,-0.0172067,-0.115266,14.2352,-0.0878991,1.3521,2.63782,0.241365,5.49342,0.230281,5.44592,0.119486,0.410889,-0.983207,0.346436,-0.0332184,-0.076644,-0.773448,-0.112793,23.4932,23.3513,23.1669,23.2946,23.2236,23.2662,23.1385,
27,6.27054,1.38123,3.1515,4.12988,6.27152,1.96201,1.5571,0.000790789,-0.05537,0,0.11761,3.17222e-05,0.0656337,-1.0582e-05,0.437818,-5.82094,-0.450534,1.79725,0.602207,-21.8415,0.880764,0.0163871,-20,-0.421904,0.741492,-0.0387915,0.715858,0.00803619,-2.16829e-05,0.00271865,-1.81042e-05,0.4982,0.00244636,0.0733198,0.0458913,0.000286024,0.0273348,1.98899,-2.89237e-05,0.005,1.75031,-0.000263305,-0.0172067,-0.115266,14.2352,-0.0878991,1.25457,2.91252,0.255883,5.32177,0.233748,5.40602,0.121779,0.427002,-0.967099,0.33042,-0.0161133,-0.076644,-0.777508,-0.0967636,23.479,23.3371,23.1811,23.3229,23.2378,23.2662,23.1385,
28,6.27054,1.38117,3.1515,4.12999,6.27152,1.96208,1.5571,0.000766826,-0.0614383,-2.78617e-05,0.117222,3.70093e-05,0.0662029,-1.05901e-05,0.441285,-6.06585,-0.454577,1.60872,0.618707,-22.8198,0.900511,0.0172942,-20,-0.425496,0.71016,-0.0387597,0.616946,0.00890893,-2.37191e-05,0.00296284,-1.91713e-05,0.4982,0.00244636,0.0733198,0.0470569,0.000319789,0.02983,1.98804,-3.27612e-05,0.005,1.74793,-0.000286906,-0.0201013,-0.12376,15.1574,-0.0911521,1.27292,3.24546,0.262885,5.18374,0.226463,5.3552,0.12173,0.410968,-0.942765,0.34681,-0.00805664,-0.0604248,-0.76942,-0.104814,23.479,23.3371,23.1669,23.2946,23.2236,23.2662,23.1385,
29,6.27054,1.38117,3.1515,4.12999,6.27152,1.96208,1.5571,0.000766826,-0.0614383,-2.78617e-05,0.117222,3.70093e-05,0.0662029,-1.05901e-05,0.4446,-6.29887,-0.459901,1.43321,0.629594,-23.7426,0.921563,0.0181744,-20,-0.428985,0.679882,-0.0387655,0.524411,0.00999574,-2.65175e-05,0.00321394,-2.13507e-05,0.4982,0.00244636,0.0733198,0.0470569,0.000319789,0.02983,1.98709,-4.50789e-05,0.005,1.74603,-0.000328382,-0.022347,-0.134366,16.0228,-0.098179,1.27292,3.24546,0.262885,5.18374,0.226463,5.3552,0.12173,0.410968,-0.942765,0.34681,-0.00805664,-0.0604248,-0.76942,-0.104814,23.479,23.3371,23.1669,23.2946,23.2236,23.2662,23.1385,
30,6.27055,1.3811,3.1515,4.13011,6.27152,1.96215,1.5571,0.000764178,-0.0680646,-2.64952e-05,0.116412,3.70093e-05,0.0663767,-1.0582e-05,0.444617,-6.29703,-0.459985,1.43162,0.62968,-23.7392,0.921551,0.0181642,-20,-0.429003,0.680874,-0.0387611,0.524212,0.00999551,-2.65175e-05,0.00321394,-2.13507e-05,0.4982,0.00244636,0.0733198,0.0482175,0.000335898,0.0325123,1.98709,-4.50789e-05,0.005,1.74603,-0.000328382,-0.022347,-0.134366,16.0228,-0.098179,1.21119,3.46024,0.273397,5.05461,0.238456,5.2416,0.10747,0.410889,-0.950991,0.33042,0.0254773,-0.0726216,-0.757335,-0.112793,23.4648,23.3229,23.1527,23.3087,23.2236,23.2662,23.1527,
31,6.27055,1.38103,3.1515,4.13022,6.27152,1.96221,1.5571,0.000766826,-0.0707655,-5.29903e-05,0.116952,3.70369e-05,0.0675244,-1.05821e-05,0.447825,-6.52316,-0.464127,1.25886,0.643743,-24.64,0.939746,0.0189981,-20,-0.432348,0.652642,-0.0387388,0.433298,0.0108015,-2.86011e-05,0.00346132,-2.28648e-05,0.4982,0.00244636,0.0733198,0.0489406,0.000352779,0.0337135,1.98614,-5.3245e-05,0.005,1.74413,-0.000350229,-0.0247611,-0.142192,16.8704,-0.10217,1.24811,3.76997,0.284586,4.92701,0.249484,5.16868,0.116206,0.410968,-0.918492,0.338475,0.041081,-0.0609595,-0.737227,-0.104814,23.479,23.3513,23.1811,23.2946,23.2236,23.2804,23.1527,
32,6.27055,1.38103,3.1515,4.13022,6.27152,1.96221,1.5571,0.000766826,-0.0707655,-5.29903e-05,0.116952,3.70369e-05,0.0675244,-1.05821e-05,0.450866,-6.74451,-0.467818,1.09299,0.657622,-25.5065,0.957388,0.0198057,-20,-0.435568,0.624136,-0.0387256,0.346811,0.0115927,-3.07244e-05,0.00371296,-2.38643e-05,0.4982,0.00244636,0.0733198,0.0489406,0.000352779,0.0337135,1.98517,-5.73692e-05,0.005,1.74261,-0.000369133,-0.0258421,-0.149891,17.6815,-0.10558,1.24811,3.76997,0.284586,4.92701,0.249484,5.16868,0.116206,0.410968,-0.918492,0.338475,0.041081,-0.0609595,-0.737227,-0.104814,23.479,23.3513,23.1811,23.2946,23.2236,23.2804,23.1527,
33,6.27055,1.38096,3.1515,4.13035,6.27152,1.96228,1.5571,0.000766826,-0.0731223,-5.05128e-05,0.118502,4.75829e-05,0.0656337,-1.059e-05,0.450888,-6.74255,-0.467905,1.09215,0.657701,-25.5037,0.95736,0.0197943,-20,-0.43559,0.625806,-0.0387209,0.346547,0.0115906,-3.07244e-05,0.00371296,-2.38643e-05,0.4982,0.00244636,0.0733198,0.0498838,0.000361112,0.0344419,1.98517,-5.73692e-05,0.005,1.74261,-0.000369133,-0.0258421,-0.149891,17.6815,-0.10558,1.13646,4.10274,0.312414,4.72913,0.249812,5.07504,0.117237,0.419023,-0.982943,0.354858,0.0644531,-0.0685998,-0.741211,-0.0966797,23.4932,23.3371,23.1669,23.2946,23.2094,23.2946,23.1527,
34,6.27055,1.38088,3.1515,4.13047,6.27152,1.96234,1.5571,0.000766826,-0.0777382,-5.05104e-05,0.119113,4.75829e-05,0.0636952,-1.059e-05,0.453886,-6.95112,-0.473095,0.931904,0.666754,-26.3219,0.975417,0.0205728,-20,-0.438788,0.599776,-0.0387247,0.264261,0.0124802,-3.34024e-05,0.00397578,-2.64569e-05,0.4982,0.00244636,0.0733198,0.0510311,0.000372219,0.0360805,1.98413,-6.85366e-05,0.005,1.74083,-0.000386683,-0.0264977,-0.158556,18.4516,-0.1125,1.18204,4.44792,0.341817,4.60706,0.253254,4.9825,0.10846,0.419023,-1.03934,0.346436,0.0483398,-0.0529843,-0.696911,-0.104814,23.479,23.3371,23.1669,23.3087,23.2094,23.2804,23.1385,
35,6.27055,1.38088,3.1515,4.13047,6.27152,1.96234,1.5571,0.000766826,-0.0777382,-5.05104e-05,0.119113,4.75829e-05,0.0636952,-1.059e-05,0.456932,-7.17365,-0.476301,0.76354,0.682274,-27.1968,0.993658,0.0213815,-20,-0.441988,0.570705,-0.0386997,0.176641,0.0133178,-3.57091e-05,0.00424327,-2.74899e-05,0.4982,0.00244636,0.0733198,0.0510311,0.000372219,0.0360805,1.9831,-7.34934e-05,0.005,1.73887,-0.000401141,-0.0279725,-0.166717,19.2724,-0.114636,1.18204,4.44792,0.341817,4.60706,0.253254,4.9825,0.10846,0.419023,-1.03934,0.346436,0.0483398,-0.0529843,-0.696911,-0.104814,23.479,23.3371,23.1669,23.3087,23.2094,23.2804,23.1385,
36,6.27055,1.38079,3.1515,4.13058,6.27152,1.96241,1.5571,0.000764212,-0.0826498,-6.3138e-05,0.118843,4.75829e-05,0.063743,-1.0598e-05,0.456953,-7.17173,-0.476393,0.762147,0.682365,-27.1935,0.993654,0.0213692,-20,-0.442006,0.571992,-0.0386946,0.176408,0.0133176,-3.57091e-05,0.00424327,-2.74899e-05,0.4982,0.00244636,0.0733198,0.0519847,0.000389098,0.0380606,1.9831,-7.34934e-05,0.005,1.73887,-0.000401141,-0.0279725,-0.166717,19.2724,-0.114636,1.11491,4.74196,0.317274,4.46332,0.255531,4.82205,0.102273,0.427306,-1.03934,0.346529,0.0322266,-0.0604248,-0.652638,-0.109434,23.479,23.3371,23.1669,23.2804,23.2236,23.2804,23.1385,
37,6.27055,1.38079,3.1515,4.13058,6.27152,1.96241,1.5571,0.000764212,-0.0826498,-6.3138e-05,0.118843,4.75829e-05,0.063743,-1.0598e-05,0.460135,-7.4007,-0.480484,0.589679,0.69617,-28.0962,1.0123,0.0222141,-20,-0.445355,0.542292,-0.0386819,0.0860109,0.0141723,-3.79985e-05,0.00450463,-2.89866e-05,0.4982,0.00244636,0.0733198,0.0519847,0.000389098,0.0380606,1.98208,-8.24792e-05,0.005,1.73708,-0.000424419,-0.0297545,-0.175035,20.1188,-0.118763,1.11491,4.74196,0.317274,4.46332,0.255531,4.82205,0.102273,0.427306,-1.03934,0.346529,0.0322266,-0.0604248,-0.652638,-0.109434,23.479,23.3371,23.1669,23.2804,23.2236,23.2804,23.1385,
38,6.27055,1.38071,3.1515,4.1307,6.27152,1.96247,1.5571,0.000742862,-0.0848106,-8.41555e-05,0.120463,5.81574e-05,0.063743,-1.0598e-05,0.460179,-7.39891,-0.480596,0.588591,0.696258,-28.0933,1.0123,0.0222071,-20,-0.445379,0.543883,-0.0386753,0.0857669,0.0141697,-3.79985e-05,0.00450463,-2.89866e-05,0.4982,0.00244636,0.0733198,0.0529062,0.000415113,0.0389117,1.98208,-8.24792e-05,0.005,1.73708,-0.000424419,-0.0297545,-0.175035,20.1188,-0.118763,1.1478,5.11715,0.341902,4.30746,0.259955,4.7225,0.100969,0.435133,-1.03153,0.330322,0.0161133,-0.0616214,-0.644544,-0.100789,23.479,23.3513,23.1669,23.3087,23.2094,23.2946,23.1527,
39,6.27055,1.38071,3.1515,4.1307,6.27152,1.96247,1.5571,0.000742862,-0.0848106,-8.41555e-05,0.120463,5.81574e-05,0.063743,-1.0598e-05,0.463404,-7.6256,-0.486467,0.417788,0.704699,-28.9779,1.03321,0.0230635,-20,-0.448829,0.514462,-0.0386955,-0.00253834,0.0152848,-4.12637e-05,0.00476957,-3.15798e-05,0.4982,0.00244636,0.0733198,0.0529062,0.000415113,0.0389117,1.98104,-9.67663e-05,0.005,1.73532,-0.000460691,-0.0305206,-0.185926,20.9475,-0.127281,1.1478,5.11715,0.341902,4.30746,0.259955,4.7225,0.100969,0.435133,-1.03153,0.330322,0.0161133,-0.0616214,-0.644544,-0.100789,23.479,23.3513,23.1669,23.3087,23.2094,23.2946,23.1527,
40,6.27055,1.38063,3.1515,4.13083,6.27152,1.96253,1.5571,0.000766791,-0.0848106,-8.05693e-05,0.118613,5.81574e-05,0.063743,-1.0582e-05,0.463448,-7.62385,-0.486585,0.417365,0.704817,-28.9757,1.03327,0.0230494,-20,-0.448838,0.516625,-0.0386886,-0.00294422,0.0152861,-4.12637e-05,0.00476957,-3.15798e-05,0.4982,0.00244636,0.0733198,0.0523632,0.000398894,0.0389495,1.98104,-9.67663e-05,0.005,1.73532,-0.000460691,-0.0305206,-0.185926,20.9475,-0.127281,1.01502,5.44531,0.348083,4.07035,0.268694,4.60002,0.0878769,0.427002,-1.0557,0.330322,0.0113938,-0.0604248,-0.632459,-0.0926514,23.479,23.3371,23.1669,23.3087,23.2236,23.2804,23.1243,
41,6.27055,1.38063,3.1515,4.13083,6.27152,1.9626,1.5571,0.000766791,-0.0848106,-8.05693e-05,0.118613,5.81574e-05,0.0636353,0,0.46598,-7.81231,-0.489196,0.278134,0.718076,-29.7048,1.04757,0.0237228,-20,-0.451551,0.49302,-0.0386697,-0.0753336,0.0158798,-4.36743e-05,0.00504198,-3.26289e-05,0.4982,0.00244636,0.0733198,0.0523613,0.000398715,0.0389381,1.97995,-0.000102143,0.005,1.73483,-0.000450934,-0.0305546,-0.191716,21.6275,-0.128831,1.01502,5.44531,0.348083,4.07035,0.268694,4.46613,0.0828375,0.427002,-1.0557,0.330322,0.0113938,-0.0604248,-0.60829,-0.100708,23.479,23.3371,23.1669,23.3087,23.2236,23.2662,23.1385,
42,6.27055,1.38053,3.1515,4.13094,6.27152,1.9626,1.5571,0.000790789,-0.0872674,-8.05693e-05,0.117222,6.87315e-05,0.0636353,0,0.46673,-7.86044,-0.490898,0.241408,0.719125,-29.8953,1.04691,0.0238969,-20,-0.452342,0.488722,-0.0386731,-0.0946182,0.0155984,-4.27426e-05,0.00510949,-3.35889e-05,0.4982,0.00244636,0.0733198,0.0524717,0.000392436,0.0399501,1.97995,-0.00010417,0.005,1.73483,-0.000452596,-0.0305443,-0.188883,21.8066,-0.131377,1.05279,5.79383,0.357015,3.9166,0.280783,4.46613,0.0828375,0.435133,-1.14404,0.322366,0.041081,-0.0537445,-0.60829,-0.100708,23.479,23.3513,23.1527,23.2804,23.2236,23.2662,23.1385,
43,6.27055,1.38045,3.1515,4.13106,6.27152,1.96266,1.5571,0.000788059,-0.0888621,-7.72763e-05,0.116024,6.87308e-05,0.0626626,0,0.468981,-8.02043,-0.493533,0.119363,0.73,-30.5276,1.06249,0.024472,-20,-0.454697,0.469774,-0.0386508,-0.158388,0.0164365,-4.5565e-05,0.00531785,-3.46283e-05,0.4982,0.00244636,0.0733198,0.0524545,0.000391698,0.0405118,1.97889,-0.000109611,0.005,1.73377,-0.000451842,-0.0314551,-0.197092,22.4011,-0.133344,0.978068,6.06555,0.331087,3.79374,0.300362,4.2615,0.0801262,0.427306,-1.16018,0.338475,0.0821619,-0.0563965,-0.588149,-0.0970148,23.479,23.3513,23.1527,23.3087,23.2094,23.2804,23.1243,
44,6.27055,1.38045,3.1515,4.13106,6.27152,1.96266,1.5571,0.000788059,-0.0888621,-7.72763e-05,0.116024,6.87308e-05,0.0626626,0,0.4716,-8.21165,-0.496851,-0.0229055,0.741583,-31.2721,1.07748,0.0251673,-20,-0.457492,0.445478,-0.0386419,-0.232459,0.0170965,-4.7903e-05,0.00558188,-3.6085e-05,0.4982,0.00244636,0.0733198,0.0524545,0.000391698,0.0405118,1.97785,-0.000118735,0.005,1.73286,-0.00045939,-0.0319606,-0.203514,23.0967,-0.136573,0.978068,6.06555,0.331087,3.79374,0.300362,4.2615,0.0801262,0.427306,-1.16018,0.338475,0.0821619,-0.0563965,-0.588149,-0.0970148,23.479,23.3513,23.1527,23.3087,23.2094,23.2804,23.1243,
45,6.27055,1.38035,3.1515,4.13117,6.27152,1.96272,1.5571,0.000788059,-0.0938987,-7.72763e-05,0.115332,7.93647e-05,0.0615822,0,0.471621,-8.20948,-0.496945,-0.0242205,0.741652,-31.2686,1.07742,0.0251535,-20,-0.457507,0.446877,-0.0386379,-0.232721,0.0170931,-4.7903e-05,0.00558188,-3.6085e-05,0.4982,0.00244636,0.0733198,0.0533101,0.000402374,0.0424299,1.97785,-0.000118735,0.005,1.73286,-0.00045939,-0.0319606,-0.203514,23.0967,-0.136573,0.978068,6.32167,0.328413,3.61432,0.289866,4.13266,0.0961175,0.427306,-1.19263,0.33042,0.11308,-0.0402832,-0.559951,-0.0967636,23.479,23.3513,23.1669,23.2946,23.1952,23.2804,23.1243,
46,6.27055,1.38026,3.1515,4.13129,6.27152,1.96278,1.5571,0.000766826,-0.0983155,-8.48478e-05,0.1141,7.93647e-05,0.0599616,0,0.474818,-8.42881,-0.50255,-0.192499,0.750999,-32.1392,1.09675,0.0259819,-20,-0.460875,0.419759,-0.0386407,-0.320589,0.0180553,-5.07077e-05,0.00584922,-3.9035e-05,0.4982,0.00244636,0.0733198,0.0538778,0.000418524,0.044052,1.9768,-0.000134394,0.005,1.73114,-0.000483091,-0.033687,-0.212889,23.9164,-0.144164,1.01893,6.58535,0.321,3.42905,0.289866,3.95256,0.0974681,0.427306,-1.13701,0.338475,0.121118,-0.0402832,-0.523682,-0.100789,23.479,23.3371,23.1527,23.2946,23.1952,23.2804,23.1101,
47,6.27055,1.38015,3.1515,4.13141,6.27152,1.96284,1.5571,0.000814752,-0.10131,-8.1642e-05,0.114791,7.93048e-05,0.0556706,0,0.477836,-8.64184,-0.506443,-0.355262,0.764198,-32.984,1.11548,0.0267582,-20,-0.464037,0.393859,-0.0386248,-0.405735,0.0189805,-5.34942e-05,0.00612616,-4.05639e-05,0.4982,0.00244636,0.0733198,0.0547045,0.000401925,0.0447971,1.97569,-0.000145821,0.005,1.72963,-0.00050791,-0.0351468,-0.221902,24.7111,-0.147917,0.930835,6.90859,0.344181,3.30062,0.280128,3.76646,0.0804653,0.435133,-1.1199,0.346529,0.121118,-0.0444942,-0.491472,-0.0967636,23.4506,23.3371,23.1527,23.2946,23.2094,23.252,23.1243,
48,6.27055,1.38015,3.1515,4.13141,6.27152,1.96284,1.5571,0.000814752,-0.10131,-8.1642e-05,0.114791,7.93048e-05,0.0556706,0,0.480514,-8.84317,-0.508269,-0.507913,0.781184,-33.7694,1.13284,0.0274693,-20,-0.46686,0.367544,-0.0385839,-0.48423,0.0198168,-5.60653e-05,0.00640576,-4.14326e-05,0.4982,0.00244636,0.0733198,0.0547045,0.000401925,0.0447971,1.97458,-0.000151573,0.005,1.72789,-0.000498148,-0.0358174,-0.230093,25.4479,-0.147178,0.930835,6.90859,0.344181,3.30062,0.280128,3.76646,0.0804653,0.435133,-1.1199,0.346529,0.121118,-0.0444942,-0.491472,-0.0967636,23.4506,23.3371,23.1527,23.2946,23.2094,23.252,23.1243,
49,6.27055,1.38005,3.1515,4.13152,6.27152,1.96289,1.5571,0.000830468,-0.105338,-8.1642e-05,0.115872,8.45926e-05,0.0518587,0,0.480535,-8.8406,-0.508372,-0.508779,0.781238,-33.7659,1.13283,0.0274538,-20,-0.466875,0.36926,-0.0385789,-0.484496,0.0198174,-5.60653e-05,0.00640576,-4.14326e-05,0.4982,0.00244636,0.0733198,0.055862,0.000404247,0.0460006,1.97458,-0.000151573,0.005,1.72789,-0.000498148,-0.0358174,-0.230093,25.4479,-0.147178,0.965101,7.18028,0.329434,3.18233,0.266771,3.53104,0.0731789,0.427078,-1.1199,0.330715,0.105046,-0.0483398,-0.431049,-0.0926514,23.479,23.3229,23.1669,23.2946,23.2094,23.2662,23.1243,
50,6.27055,1.37994,3.1515,4.13164,6.27153,1.96294,1.5571,0.000833422,-0.106148,-7.84494e-05,0.116412,9.51658e-05,0.0491079,0,0.483408,-9.04639,-0.511406,-0.667768,0.79605,-34.5787,1.15155,0.0281912,-20,-0.469877,0.34402,-0.0385474,-0.566551,0.0207679,-5.88062e-05,0.00667511,-4.26939e-05,0.4982,0.00244636,0.0733198,0.0561839,0.000402729,0.0460389,1.97348,-0.000158006,0.005,1.72585,-0.000506027,-0.0369006,-0.239417,26.214,-0.148949,0.885959,7.43929,0.360097,3.0163,0.299458,3.36245,0.0891008,0.435133,-1.11185,0.338762,0.0889885,-0.0404841,-0.378684,-0.0926514,23.479,23.3229,23.1385,23.2946,23.2094,23.2662,23.1243,
51,6.27055,1.37984,3.1515,4.13176,6.27153,1.96299,1.5571,0.000794815,-0.105338,-9.80618e-05,0.118752,9.51658e-05,0.0453764,0,0.486076,-9.232,-0.515666,-0.809481,0.805097,-35.3041,1.16841,0.0288749,-20,-0.472709,0.322224,-0.0385442,-0.639387,0.0216363,-6.17682e-05,0.00694312,-4.4947e-05,0.4982,0.00244636,0.0733198,0.0566876,0.000422883,0.0453024,1.97237,-0.000169729,0.005,1.72457,-0.000515212,-0.036935,-0.247914,26.8956,-0.154204,0.932312,7.6986,0.345235,2.82431,0.292258,3.14271,0.0816029,0.427002,-1.12796,0.33042,0.0809682,-0.0444942,-0.338403,-0.0967636,23.4648,23.3371,23.1669,23.2804,23.2094,23.2662,23.1243,
52,6.27055,1.37973,3.1515,4.13188,6.27153,1.96303,1.5571,0.000741864,-0.10372,-9.46262e-05,0.119653,0.00010574,0.0421291,0,0.488715,-9.41769,-0.519965,-0.951659,0.813589,-36.0231,1.18622,0.0295487,-20,-0.475539,0.300389,-0.0385505,-0.711485,0.0226176,-6.49584e-05,0.00721779,-4.69045e-05,0.4982,0.00244636,0.0733198,0.0566029,0.000437559,0.0443137,1.9712,-0.000187154,0.005,1.72306,-0.000549033,-0.0362722,-0.25755,27.5712,-0.159851,0.838606,7.96371,0.385899,2.70364,0.277245,2.95625,0.0842756,0.418945,-1.19241,0.33042,0.0254773,-0.0371393,-0.286266,-0.0934362,23.479,23.3229,23.1385,23.2804,23.2094,23.2804,23.1385,
53,6.27056,1.37962,3.1515,4.132,6.27153,1.96307,1.5571,0.000688874,-0.103717,-0.000104089,0.116952,0.00010574,0.0394342,0,0.491223,-9.58857,-0.525219,-1.08102,0.817924,-36.6822,1.20172,0.0301888,-20,-0.478231,0.280736,-0.038574,-0.777411,0.0234367,-6.80264e-05,0.00749059,-4.96643e-05,0.4982,0.00244636,0.0733198,0.0558125,0.000449185,0.0440765,1.97005,-0.0002035,0.005,1.7221,-0.000576954,-0.0353824,-0.265528,28.1888,-0.168046,0.859221,8.22592,0.365687,2.5823,0.288267,2.70618,0.0639924,0.410968,-1.26512,0.330322,-0.0180152,-0.0324774,-0.241699,-0.0845947,23.479,23.3087,23.1527,23.2804,23.2094,23.2662,23.1385,
54,6.27056,1.37962,3.1515,4.132,6.27153,1.96307,1.5571,0.000688874,-0.103717,-0.000104089,0.116952,0.00010574,0.0394342,0,0.493236,-9.73649,-0.527921,-1.18987,0.826159,-37.2523,1.21586,0.030723,-20,-0.480406,0.262314,-0.0385772,-0.833829,0.0242168,-7.10797e-05,0.00774729,-5.09016e-05,0.4982,0.00244636,0.0733198,0.0558125,0.000449185,0.0440765,1.96895,-0.00021577,0.005,1.72182,-0.00059846,-0.0351689,-0.27317,28.72,-0.171093,0.859221,8.22592,0.365687,2.5823,0.288267,2.70618,0.0639924,0.410968,-1.26512,0.330322,-0.0180152,-0.0324774,-0.241699,-0.0845947,23.479,23.3087,23.1527,23.2804,23.2094,23.2662,23.1385,
55,6.27056,1.37952,3.1515,4.13211,6.27153,1.96311,1.5571,0.000688874,-0.106148,-0.000100301,0.115062,0.000116314,0.0367333,0,0.493264,-9.73421,-0.528023,-1.19027,0.826206,-37.2497,1.21582,0.0307059,-20,-0.480412,0.264394,-0.0385716,-0.83419,0.0242151,-7.10797e-05,0.00774729,-5.09016e-05,0.4982,0.00244636,0.0733198,0.0557705,0.000445796,0.0448005,1.96895,-0.00021577,0.005,1.72182,-0.00059846,-0.0351689,-0.27317,28.72,-0.171093,0.73171,8.43523,0.381266,2.43658,0.310913,2.52365,0.0673141,0.410968,-1.3054,0.322266,0.0180152,-0.0404841,-0.189374,-0.0967636,23.479,23.3229,23.1527,23.2946,23.2094,23.2804,23.1385,
56,6.27056,1.37941,3.1515,4.13223,6.27153,1.96314,1.5571,0.000656666,-0.108579,-0.000109704,0.112846,0.000116315,0.0345725,0,0.495669,-9.90203,-0.531632,-1.31812,0.835184,-37.9113,1.23171,0.0313193,-20,-0.482947,0.244775,-0.0385633,-0.900821,0.0250597,-7.40256e-05,0.00800158,-5.29659e-05,0.4982,0.00244636,0.0733198,0.0556335,0.000457847,0.0455867,1.96785,-0.000227036,0.005,1.72087,-0.000605549,-0.0358205,-0.281437,29.3418,-0.175237,0.776386,8.6812,0.36727,2.30941,0.278794,2.29611,0.042098,0.410968,-1.28103,0.338379,0.041081,-0.036478,-0.161334,-0.0887145,23.4648,23.3087,23.1527,23.2662,23.1952,23.2662,23.1385,
57,6.27056,1.37941,3.1515,4.13223,6.27153,1.96314,1.5571,0.000656666,-0.108579,-0.000109704,0.112846,0.000116315,0.0345725,0,0.498122,-10.0789,-0.535091,-1.45034,0.84478,-38.6025,1.24789,0.0319702,-20,-0.485562,0.222202,-0.0385636,-0.969729,0.0259098,-7.69262e-05,0.00826268,-5.4662e-05,0.4982,0.00244636,0.0733198,0.0556335,0.000457847,0.0455867,1.9667,-0.00024243,0.005,1.71996,-0.000630249,-0.0365281,-0.289748,29.9883,-0.179269,0.776386,8.6812,0.36727,2.30941,0.278794,2.29611,0.042098,0.410968,-1.28103,0.338379,0.041081,-0.036478,-0.161334,-0.0887145,23.4648,23.3087,23.1527,23.2662,23.1952,23.2662,23.1385,
58,6.27056,1.37929,3.1515,4.13234,6.27153,1.96317,1.5571,0.00063138,-0.112344,-0.000106113,0.109389,0.00012151,0.0318715,0,0.498147,-10.0766,-0.535188,-1.45064,0.844824,-38.5999,1.24787,0.0319511,-20,-0.485564,0.224283,-0.0385573,-0.970111,0.02591,-7.69262e-05,0.00826268,-5.4662e-05,0.4982,0.00244636,0.0733198,0.0554168,0.00046294,0.0468654,1.9667,-0.00024243,0.005,1.71996,-0.000630249,-0.0365281,-0.289748,29.9883,-0.179269,0.686749,8.9944,0.342507,2.23255,0.265638,2.0638,0.0458051,0.427078,-1.28909,0.322266,0.0586532,-0.0245033,-0.120917,-0.0889885,23.479,23.2946,23.1527,23.2946,23.2094,23.2662,23.1243,
59,6.27056,1.37918,3.1515,4.13244,6.27153,1.9632,1.5571,0.000603948,-0.113171,-0.000106113,0.107499,0.000111027,0.0285607,0,0.500525,-10.2446,-0.53813,-1.57769,0.855611,-39.2671,1.26356,0.0325549,-20,-0.488047,0.204969,-0.0385399,-1.03736,0.0267287,-7.97919e-05,0.00852124,-5.61114e-05,0.4982,0.00244636,0.0733198,0.0550368,0.000464355,0.0468832,1.96557,-0.000252949,0.005,1.71914,-0.0006443,-0.0376789,-0.297743,30.6147,-0.181908,0.713997,9.2985,0.318491,2.21528,0.281618,1.79989,0.0283098,0.427078,-1.25694,0.314312,0.129158,-0.0284845,-0.080667,-0.088623,23.4648,23.3229,23.1527,23.2804,23.2378,23.252,23.1243,
60,6.27056,1.37918,3.1515,4.13244,6.27153,1.9632,1.5571,0.000603948,-0.113171,-0.000106113,0.107499,0.000111027,0.0285607,0,0.502518,-10.3935,-0.540067,-1.68857,0.866229,-39.8431,1.27664,0.0330836,-20,-0.490179,0.186094,-0.0385265,-1.09458,0.0273867,-8.2336e-05,0.00876916,-5.70357e-05,0.4982,0.00244636,0.0733198,0.0550368,0.000464355,0.0468832,1.96448,-0.00026187,0.005,1.7185,-0.000653602,-0.0376948,-0.30419,31.1529,-0.182978,0.713997,9.2985,0.318491,2.21528,0.281618,1.79989,0.0283098,0.427078,-1.25694,0.314312,0.129158,-0.0284845,-0.080667,-0.088623,23.4648,23.3229,23.1527,23.2804,23.2378,23.252,23.1243,
61,6.27056,1.37907,3.1515,4.13255,6.27153,1.96323,1.5571,0.000578784,-0.112247,-0.000102498,0.10793,0.000121601,0.0259294,0,0.502555,-10.3914,-0.54017,-1.68866,0.866274,-39.8409,1.2766,0.0330654,-20,-0.490188,0.188511,-0.0385202,-1.09493,0.0273835,-8.2336e-05,0.00876916,-5.70357e-05,0.4982,0.00244636,0.0733198,0.0549628,0.000469261,0.046242,1.96448,-0.00026187,0.005,1.7185,-0.000653602,-0.0376948,-0.30419,31.1529,-0.182978,0.655185,9.5767,0.341893,2.15741,0.328767,1.62076,0.0499318,0.427078,-1.2653,0.322366,0.154973,-0.0254773,-0.0362549,-0.0887145,23.479,23.3229,23.1527,23.2662,23.2094,23.252,23.1385,
62,6.27056,1.37896,3.1515,4.13267,6.27153,1.96325,1.5571,0.000555641,-0.11047,-0.000102495,0.109586,0.000121509,0.0243088,0,0.504828,-10.546,-0.544593,-1.80654,0.871344,-40.4395,1.29123,0.0336391,-20,-0.49261,0.170892,-0.0385329,-1.15489,0.0281777,-8.52837e-05,0.009012,-5.94159e-05,0.4982,0.00244636,0.0733198,0.0550653,0.00047627,0.0453514,1.9634,-0.000276978,0.005,1.71759,-0.000671615,-0.0371178,-0.31195,31.7148,-0.18944,0.673086,9.97135,0.347996,2.1117,0.30298,1.37145,0.0470026,0.410968,-1.3052,0.314209,0.137907,-0.0245033,-0.0090076,-0.0846906,23.479,23.3229,23.1669,23.2804,23.2094,23.2804,23.1243,
63,6.27056,1.37896,3.1515,4.13277,6.27153,1.96327,1.55711,0.000555641,-0.11047,-0.000102498,0.108849,0.000132075,0.0202573,1.0606e-05,0.507205,-10.7175,-0.548288,-1.93715,0.879668,-41.1007,1.30705,0.0342666,-20,-0.495209,0.149936,-0.0385402,-1.22091,0.029027,-8.84313e-05,0.00926111,-6.09803e-05,0.4982,0.00244636,0.0733198,0.0548529,0.000469047,0.0449387,1.96227,-0.000293456,0.005,1.71648,-0.000692753,-0.0363163,-0.320305,32.3352,-0.194149,0.673086,9.97135,0.29613,2.15302,0.280477,1.13444,0.0419794,0.410968,-1.3052,0.330715,0.072956,-0.0241699,0.0281982,-0.088623,23.479,23.3229,23.1385,23.2662,23.2236,23.2662,23.1101,
64,6.27056,1.37885,3.1515,4.13277,6.27153,1.96327,1.55711,0.000530384,-0.108332,-0.000102498,0.108849,0.000132075,0.0202573,1.0606e-05,0.508096,-10.7732,-0.550925,-1.97877,0.878837,-41.3148,1.31085,0.0344754,-20,-0.496137,0.144125,-0.038555,-1.2423,0.0291653,-8.90611e-05,0.00938838,-6.32897e-05,0.4982,0.00244636,0.0733198,0.054398,0.000473376,0.0440895,1.96164,-0.00030257,0.005,1.71611,-0.000694455,-0.0359448,-0.321575,32.5352,-0.198744,0.612192,10.3813,0.29613,2.15302,0.280477,1.13444,0.0419794,0.419023,-1.39401,0.330715,0.072956,-0.0241699,0.0281982,-0.088623,23.4648,23.3229,23.1385,23.2662,23.2236,23.2662,23.1101,
65,6.27056,1.37874,3.1515,4.13288,6.27153,1.96329,1.55711,0.000503314,-0.107499,-0.000115916,0.109389,0.00014275,0.0180553,1.0598e-05,0.509043,-10.8417,-0.551412,-2.03065,0.885128,-41.5782,1.31698,0.0346996,-20,-0.497122,0.137766,-0.0385386,-1.26869,0.0294757,-9.05094e-05,0.00950355,-6.27541e-05,0.4982,0.00244636,0.0733198,0.0543757,0.000485109,0.0435286,1.96116,-0.000304417,0.005,1.71608,-0.000700013,-0.0351806,-0.324666,32.782,-0.198055,0.64777,10.7107,0.276461,2.17923,0.311436,0.8813,0.0179352,0.402913,-1.44216,0.33042,0.072956,-0.0205405,0.0735099,-0.0887145,23.4648,23.3087,23.1527,23.2804,23.1952,23.252,23.1243,
66,6.27056,1.37864,3.1515,4.13299,6.27153,1.96331,1.55711,0.000452961,-0.106959,-0.000128535,0.10966,0.000153324,0.0162058,1.0598e-05,0.511283,-10.994,-0.555933,-2.14689,0.889523,-42.1683,1.33328,0.0352681,-20,-0.499519,0.120215,-0.0385559,-1.32784,0.0304558,-9.39367e-05,0.00973654,-6.5152e-05,0.4982,0.00244636,0.0733198,0.0543365,0.000506426,0.0431257,1.96009,-0.000322175,0.005,1.71514,-0.000726555,-0.0346757,-0.334294,33.3362,-0.204936,0.581478,10.9677,0.310618,2.1278,0.36238,0.711886,0.0629857,0.410889,-1.49873,0.330322,0.0332184,-0.0166092,0.100789,-0.0926514,23.4506,23.3371,23.1527,23.2804,23.2094,23.2662,23.1101,
67,6.27056,1.37853,3.1515,4.1331,6.27153,1.96332,1.55711,0.000454594,-0.107499,-0.000124545,0.105323,0.000158611,0.0134912,1.0606e-05,0.513534,-11.1466,-0.560706,-2.2629,0.893246,-42.7618,1.3496,0.0358352,-20,-0.501924,0.102858,-0.0385794,-1.38741,0.0314398,-9.73599e-05,0.00996633,-6.75109e-05,0.4982,0.00244636,0.0733198,0.053187,0.000489459,0.0431223,1.95901,-0.000339833,0.005,1.71421,-0.000761633,-0.0343131,-0.343908,33.893,-0.212474,0.620569,11.3161,0.322526,2.09091,0.34298,0.493641,0.0235343,0.418945,-1.52279,0.306152,0.0332184,-0.0245033,0.132996,-0.080667,23.4648,23.3087,23.1385,23.2662,23.1952,23.2662,23.1243,
68,6.27056,1.37853,3.1515,4.1331,6.27153,1.96332,1.55711,0.000454594,-0.107499,-0.000124545,0.105323,0.000158611,0.0134912,1.0606e-05,0.515127,-11.2659,-0.562345,-2.34996,0.901578,-43.223,1.36109,0.036258,-20,-0.503641,0.0882419,-0.0385684,-1.43302,0.032065,-0.0001001,0.0101976,-6.87426e-05,0.4982,0.00244636,0.0733198,0.053187,0.000489459,0.0431223,1.95792,-0.00034934,0.005,1.71426,-0.000754919,-0.0343101,-0.350051,34.3221,-0.213459,0.620569,11.3161,0.322526,2.09091,0.34298,0.493641,0.0235343,0.418945,-1.52279,0.306152,0.0332184,-0.0245033,0.132996,-0.080667,23.4648,23.3087,23.1385,23.2662,23.1952,23.2662,23.1243,
69,6.27056,1.37842,3.1515,4.1332,6.27153,1.96333,1.55711,0.00043429,-0.105824,-0.000132624,0.101016,0.000169056,0.0124245,1.0606e-05,0.51519,-11.2643,-0.562475,-2.34967,0.901627,-43.2218,1.36109,0.0362412,-20,-0.503638,0.0908716,-0.0385611,-1.43347,0.0320623,-0.0001001,0.0101976,-6.87426e-05,0.4982,0.00244636,0.0733198,0.0515796,0.000481901,0.0424057,1.95792,-0.00034934,0.005,1.71426,-0.000754919,-0.0343101,-0.350051,34.3221,-0.213459,0.562421,11.6553,0.329184,2.13363,0.334704,0.284961,0.0165263,0.386719,-1.52273,0.298205,0.1372,-0.0127387,0.173265,-0.088623,23.4648,23.3087,23.1385,23.2662,23.2094,23.252,23.1101,
70,6.27056,1.37832,3.1515,4.1333,6.27154,1.96334,1.55711,0.000410163,-0.103073,-0.000128897,0.100105,0.000179758,0.0115353,1.0598e-05,0.516801,-11.3745,-0.56582,-2.42965,0.904589,-43.6462,1.37277,0.0366383,-20,-0.505376,0.0800397,-0.0385756,-1.47561,0.0327593,-0.000103255,0.0104219,-7.09163e-05,0.4982,0.00244636,0.0733198,0.0507326,0.000480155,0.0412323,1.95687,-0.000365227,0.005,1.71476,-0.000762416,-0.0336651,-0.3569,34.7164,-0.218566,0.5841,11.9649,0.303241,2.15494,0.364193,0.0955091,-0.0196242,0.394775,-1.57113,0.322266,0.210862,-0.0090076,0.177429,-0.0805664,23.4648,23.3087,23.1243,23.2804,23.1952,23.252,23.1243,
71,6.27056,1.37832,3.1515,4.1333,6.27154,1.96334,1.55711,0.000410163,-0.103073,-0.000128897,0.100105,0.000179758,0.0115353,1.0598e-05,0.51855,-11.4987,-0.569596,-2.52096,0.907344,-44.1169,1.38422,0.0371023,-20,-0.507316,0.0646421,-0.0386011,-1.52192,0.0333842,-0.000106003,0.0106347,-7.30329e-05,0.4982,0.00244636,0.0733198,0.0507326,0.000480155,0.0412323,1.95587,-0.000378989,0.005,1.71462,-0.00077323,-0.0326091,-0.362993,35.1543,-0.224639,0.5841,11.9649,0.303241,2.15494,0.364193,0.0955091,-0.0196242,0.394775,-1.57113,0.322266,0.210862,-0.0090076,0.177429,-0.0805664,23.4648,23.3087,23.1243,23.2804,23.1952,23.252,23.1243,
72,6.27056,1.37821,3.1515,4.1334,6.27154,1.96335,1.55711,0.000360683,-0.102367,-0.000128897,0.0991258,0.000200905,0.0108039,1.0598e-05,0.518583,-11.497,-0.56969,-2.52121,0.907357,-44.115,1.38413,0.0370849,-20,-0.507324,0.0667974,-0.038595,-1.52224,0.0333779,-0.000106003,0.0106347,-7.30329e-05,0.4982,0.00244636,0.0733198,0.0502961,0.000496096,0.0408954,1.95587,-0.000378989,0.005,1.71462,-0.00077323,-0.0326091,-0.362993,35.1543,-0.224639,0.544696,12.2295,0.350071,2.12485,0.392518,-0.0173896,-0.00074403,0.386719,-1.65969,0.306152,0.217678,0.00569691,0.189502,-0.0846906,23.479,23.2946,23.1385,23.2662,23.1811,23.252,23.1101,
73,6.27056,1.37811,3.1515,4.1335,6.27154,1.96336,1.55711,0.000312592,-0.101557,-0.000139833,0.0977997,0.000216766,0.00972351,1.0606e-05,0.520666,-11.6322,-0.575254,-2.62327,0.907103,-44.6403,1.39809,0.0376108,-20,-0.509561,0.0517573,-0.0386331,-1.57485,0.0342069,-0.000109138,0.0108438,-7.60974e-05,0.4982,0.00244636,0.0733198,0.049737,0.000512228,0.0404842,1.95487,-0.00039468,0.005,1.71412,-0.000801698,-0.0323059,-0.371111,35.6465,-0.234389,0.549847,12.5711,0.375717,2.13599,0.390876,-0.166806,-0.0104229,0.402832,-1.6678,0.306258,0.217529,-0.00569691,0.201577,-0.0846906,23.4506,23.2946,23.1669,23.2662,23.1952,23.2662,23.1101,
74,6.27056,1.37801,3.1515,4.1336,6.27154,1.96337,1.55711,0.00028954,-0.101557,-0.000136124,0.0977753,0.000238096,0.00756273,1.0606e-05,0.522644,-11.764,-0.580176,-2.72272,0.908077,-45.1523,1.41299,0.0381106,-20,-0.511711,0.037007,-0.0386668,-1.62607,0.0351465,-0.000112648,0.0110572,-7.88133e-05,0.4982,0.00244636,0.0733198,0.0497273,0.00051916,0.0402661,1.95385,-0.000412634,0.005,1.7137,-0.000832376,-0.0319358,-0.380354,36.1262,-0.242823,0.493529,12.9575,0.357812,2.16686,0.376205,-0.298278,0.00888157,0.386719,-1.67578,0.290486,0.241833,-0.00569691,0.225622,-0.0846906,23.4648,23.2946,23.1527,23.2804,23.1952,23.2378,23.1101,
75,6.27056,1.37801,3.1515,4.1336,6.27154,1.96337,1.55711,0.00028954,-0.101557,-0.000136124,0.0977753,0.000238096,0.00756273,1.0606e-05,0.524617,-11.8983,-0.585098,-2.82403,0.909104,-45.6708,1.42736,0.038634,-20,-0.513867,0.0196713,-0.0387013,-1.67765,0.0360195,-0.000115758,0.0112613,-8.18236e-05,0.4982,0.00244636,0.0733198,0.0497273,0.00051916,0.0402661,1.95287,-0.000428114,0.005,1.71283,-0.000852547,-0.0317395,-0.388873,36.6117,-0.251292,0.493529,12.9575,0.357812,2.16686,0.376205,-0.298278,0.00888157,0.386719,-1.67578,0.290486,0.241833,-0.00569691,0.225622,-0.0846906,23.4648,23.2946,23.1527,23.2804,23.1952,23.2378,23.1101,
76,6.27056,1.37791,3.1515,4.13369,6.27154,1.96338,1.55711,0.000265399,-0.10131,-0.000136124,0.0988557,0.000253969,0.00450959,1.0606e-05,0.524646,-11.8962,-0.585192,-2.82417,0.909105,-45.6685,1.42727,0.0386155,-20,-0.513876,0.021861,-0.0386959,-1.67794,0.0360154,-0.000115758,0.0112613,-8.18236e-05,0.4982,0.00244636,0.0733198,0.0499874,0.000528373,0.0398417,1.95287,-0.000428114,0.005,1.71283,-0.000852547,-0.0317395,-0.388873,36.6117,-0.251292,0.500931,13.2695,0.358446,2.16625,0.418062,-0.477884,-0.0272016,0.386803,-1.6758,0.298096,0.209473,0.00402832,0.245728,-0.0809682,23.4506,23.3087,23.1385,23.2804,23.1811,23.252,23.1101,
77,6.27056,1.3778,3.1515,4.13379,6.27155,1.96338,1.55711,0.0002164,-0.102907,-0.000132607,0.0991258,0.000285713,0.00108039,1.0598e-05,0.526649,-12.0325,-0.589556,-2.92964,0.912194,-46.1989,1.44172,0.0391254,-20,-0.516052,0.00574805,-0.0387157,-1.73124,0.036885,-0.000118768,0.011471,-8.43123e-05,0.4982,0.00244636,0.0733198,0.0503997,0.00055,0.0401256,1.95185,-0.00044292,0.005,1.71168,-0.000874164,-0.0313576,-0.397433,37.1112,-0.258201,0.411247,13.4501,0.413495,2.1226,0.459058,-0.630422,0.00870141,0.394858,-1.68386,0.290039,0.177429,-0.00569691,0.269897,-0.0805664,23.4506,23.2946,23.1385,23.2804,23.1811,23.2378,23.1101,
78,6.27056,1.3778,3.1515,4.13379,6.27155,1.96338,1.55711,0.0002164,-0.102907,-0.000132607,0.0991258,0.000285713,0.00108039,1.0598e-05,0.528655,-12.1674,-0.59463,-3.03276,0.912922,-46.724,1.45702,0.0396574,-20,-0.518225,-0.0120259,-0.0387522,-1.78377,0.0378503,-0.000121908,0.0116711,-8.72415e-05,0.4982,0.00244636,0.0733198,0.0503997,0.00055,0.0401256,1.95086,-0.000458351,0.005,1.71041,-0.000907515,-0.031613,-0.406858,37.6046,-0.26707,0.411247,13.4501,0.413495,2.1226,0.459058,-0.630422,0.00870141,0.394858,-1.68386,0.290039,0.177429,-0.00569691,0.269897,-0.0805664,23.4506,23.2946,23.1385,23.2804,23.1811,23.2378,23.1101,
79,6.27056,1.3777,3.1515,4.1339,6.27155,1.96338,1.55711,0.00016889,-0.102803,-0.00013234,0.0984593,0.000301586,-0.00108039,1.0606e-05,0.528682,-12.1654,-0.594716,-3.03292,0.912925,-46.7219,1.45693,0.0396389,-20,-0.518233,-0.00978759,-0.0387462,-1.78408,0.0378462,-0.000121908,0.0116711,-8.72415e-05,0.4982,0.00244636,0.0733198,0.0501819,0.000564986,0.0398744,1.95086,-0.000458351,0.005,1.71041,-0.000907515,-0.031613,-0.406858,37.6046,-0.26707,0.440265,13.7664,0.444955,2.08902,0.451551,-0.826788,-0.0263456,0.394775,-1.65975,0.298205,0.178886,0.00402832,0.314235,-0.0765381,23.4506,23.3087,23.1527,23.2662,23.1811,23.2378,23.1101,
80,6.27056,1.3777,3.1515,4.1339,6.27155,1.96338,1.55711,0.00016889,-0.102803,-0.00013234,0.0984593,0.000301586,-0.00108039,1.0606e-05,0.530558,-12.2946,-0.599114,-3.13,0.914698,-47.2199,1.47057,0.0401364,-20,-0.520282,-0.0263557,-0.0387773,-1.83358,0.0386703,-0.000124918,0.0118762,-8.97193e-05,0.4982,0.00244636,0.0733198,0.0501819,0.000564986,0.0398744,1.94982,-0.000473099,0.005,1.70968,-0.000934276,-0.0313869,-0.414903,38.0706,-0.274518,0.440265,13.7664,0.444955,2.08902,0.451551,-0.826788,-0.0263456,0.394775,-1.65975,0.298205,0.178886,0.00402832,0.314235,-0.0765381,23.4506,23.3087,23.1527,23.2662,23.1811,23.2378,23.1101,
81,6.27056,1.3776,3.1515,4.134,6.27155,1.96337,1.55711,0.00014477,-0.0999361,-0.000132607,0.100746,0.000312168,-0.00135049,1.85605e-05,0.530599,-12.2929,-0.599224,-3.13042,0.914729,-47.2178,1.47054,0.0401187,-20,-0.520295,-0.0241368,-0.0387707,-1.83384,0.0386682,-0.000124918,0.0118762,-8.97193e-05,0.4982,0.00244636,0.0733198,0.0502413,0.000574611,0.0386797,1.94982,-0.000473099,0.005,1.70968,-0.000934276,-0.0313869,-0.414903,38.0706,-0.274518,0.380574,14.0847,0.459858,2.1317,0.420527,-1.0568,-0.0367357,0.386719,-1.64427,0.306152,0.185303,-0.00569691,0.330322,-0.0725098,23.4506,23.3229,23.1385,23.2662,23.1811,23.252,23.0959,
82,6.27056,1.3775,3.1515,4.1341,6.27155,1.96337,1.55711,0.00014477,-0.0983012,-0.000129266,0.102367,0.000333332,-0.00219443,1.85605e-05,0.532644,-12.4327,-0.603586,-3.23781,0.918117,-47.7542,1.48089,0.0406319,-20,-0.522517,-0.0402242,-0.0387919,-1.88746,0.039113,-0.000126701,0.0120724,-9.16387e-05,0.4982,0.00244636,0.0733198,0.0503661,0.000574992,0.0379265,1.94883,-0.000486308,0.005,1.70873,-0.000954828,-0.0303117,-0.419251,38.5746,-0.281272,0.394086,14.3877,0.484363,2.1096,0.444193,-1.26604,-0.0351077,0.386803,-1.69997,0.298096,0.129158,0.0166092,0.322366,-0.076644,23.4506,23.3229,23.1243,23.2804,23.1811,23.2378,23.1243,
83,6.27056,1.3774,3.1515,4.1342,6.27155,1.96337,1.55711,0.000138125,-0.0983155,-0.000129266,0.100476,0.000343917,-0.00264991,1.85464e-05,0.534775,-12.5755,-0.608736,-3.34736,0.919856,-48.3051,1.49583,0.0411693,-20,-0.524824,-0.056848,-0.0388198,-1.94267,0.0400027,-0.000129909,0.0122736,-9.45314e-05,0.4982,0.00244636,0.0733198,0.0498168,0.000572357,0.0379174,1.94781,-0.000501935,0.005,1.7077,-0.000969234,-0.0296338,-0.427952,39.0923,-0.289768,0.328207,14.6369,0.537118,2.02245,0.475174,-1.40305,-0.0203696,0.370693,-1.7242,0.306258,0.0970148,0.00569691,0.330347,-0.0725098,23.4648,23.3087,23.1527,23.252,23.1952,23.2378,23.1243,
84,6.27056,1.3774,3.1515,4.1342,6.27155,1.96337,1.55711,0.000138125,-0.0983155,-0.000129266,0.100476,0.000343917,-0.00264991,1.85464e-05,0.536527,-12.6996,-0.612037,-3.43968,0.924198,-48.7857,1.50807,0.0416341,-20,-0.526727,-0.0724834,-0.0388329,-1.99038,0.0406955,-0.000132599,0.0124658,-9.64214e-05,0.4982,0.00244636,0.0733198,0.0498168,0.000572357,0.0379174,1.94683,-0.000514977,0.005,1.70731,-0.0009786,-0.0296257,-0.434726,39.5411,-0.294622,0.328207,14.6369,0.537118,2.02245,0.475174,-1.40305,-0.0203696,0.370693,-1.7242,0.306258,0.0970148,0.00569691,0.330347,-0.0725098,23.4648,23.3087,23.1527,23.252,23.1952,23.2378,23.1243,
85,6.27056,1.37731,3.1515,4.1343,6.27155,1.96336,1.55711,0.000138119,-0.0950743,-0.000125852,0.0990535,0.000349208,-0.00303236,1.85603e-05,0.536578,-12.6981,-0.612157,-3.43978,0.924251,-48.7841,1.50808,0.0416155,-20,-0.526731,-0.0700186,-0.0388263,-1.99073,0.0406954,-0.000132599,0.0124658,-9.64214e-05,0.4982,0.00244636,0.0733198,0.0487209,0.000558486,0.0366053,1.94683,-0.000514977,0.005,1.70731,-0.0009786,-0.0296257,-0.434726,39.5411,-0.294622,0.351568,14.9781,0.551438,1.87645,0.466663,-1.54248,-0.0225779,0.378748,-1.71614,0.298205,0.113938,0.0161133,0.338403,-0.076644,23.4648,23.2946,23.1385,23.2662,23.1811,23.252,23.1243,
86,6.27056,1.37722,3.1515,4.1344,6.27155,1.96336,1.55711,0.000115478,-0.0899425,-0.000112604,0.099666,0.000374036,-0.00333284,1.85603e-05,0.538078,-12.8034,-0.614788,-3.51772,0.928579,-49.1841,1.51768,0.0419831,-20,-0.528356,-0.0806154,-0.0388307,-2.03041,0.0412049,-0.000135109,0.0126599,-9.78674e-05,0.4982,0.00244636,0.0733198,0.0478201,0.000554055,0.0345182,1.94582,-0.000527143,0.005,1.70739,-0.000977066,-0.0284448,-0.439773,39.9138,-0.29808,0.298193,15.3035,0.571858,1.74666,0.459015,-1.65309,-0.0330899,0.370693,-1.78054,0.306576,0.129158,0.0205405,0.326294,-0.0726216,23.479,23.3087,23.1385,23.2804,23.1811,23.252,23.1243,
87,6.27056,1.37722,3.1515,4.1344,6.27155,1.96336,1.55711,0.000115478,-0.0899425,-0.000112604,0.099666,0.000374036,-0.00333284,1.85603e-05,0.539571,-12.9046,-0.619584,-3.59193,0.925978,-49.5582,1.5281,0.0423788,-20,-0.530065,-0.0930894,-0.0388799,-2.0669,0.0418422,-0.000138092,0.012842,-0.000100722,0.4982,0.00244636,0.0733198,0.0478201,0.000554055,0.0345182,1.94488,-0.000541758,0.005,1.70735,-0.000986231,-0.0265664,-0.445964,40.2609,-0.307133,0.298193,15.3035,0.571858,1.74666,0.459015,-1.65309,-0.0330899,0.370693,-1.78054,0.306576,0.129158,0.0205405,0.326294,-0.0726216,23.479,23.3087,23.1385,23.2804,23.1811,23.252,23.1243,
88,6.27056,1.37713,3.1515,4.1345,6.27155,1.96335,1.55711,9.23827e-05,-0.0871853,-0.000112602,0.0976762,0.00040966,-0.00377486,1.85605e-05,0.539613,-12.9032,-0.619692,-3.59197,0.926005,-49.5568,1.52807,0.0423608,-20,-0.530068,-0.0907693,-0.0388734,-2.06724,0.0418404,-0.000138092,0.012842,-0.000100722,0.4982,0.00244636,0.0733198,0.0466614,0.00055287,0.0333992,1.94488,-0.000541758,0.005,1.70735,-0.000986231,-0.0265664,-0.445964,40.2609,-0.307133,0.320621,15.6204,0.5735,1.63993,0.468511,-1.76659,-0.0312323,0.354584,-1.88527,0.298531,0.11308,0.0216932,0.318263,-0.076644,23.4506,23.3087,23.1385,23.2946,23.2094,23.2378,23.1243,
89,6.27056,1.37713,3.1515,4.1345,6.27155,1.96335,1.55711,9.23827e-05,-0.0871853,-0.000112602,0.0976762,0.00040966,-0.00377486,1.85605e-05,0.540986,-12.9995,-0.623078,-3.66187,0.926812,-49.9199,1.53793,0.0427248,-20,-0.531608,-0.102435,-0.0389019,-2.10282,0.0424297,-0.000140698,0.0130244,-0.000102547,0.4982,0.00244636,0.0733198,0.0466614,0.00055287,0.0333992,1.94393,-0.00055433,0.005,1.70754,-0.00099648,-0.0255593,-0.451714,40.5977,-0.31298,0.320621,15.6204,0.5735,1.63993,0.468511,-1.76659,-0.0312323,0.354584,-1.88527,0.298531,0.11308,0.0216932,0.318263,-0.076644,23.4506,23.3087,23.1385,23.2946,23.2094,23.2378,23.1243,
90,6.27056,1.37704,3.1515,4.13459,6.27156,1.96335,1.55711,9.23827e-05,-0.0880518,-0.000112818,0.0945341,0.000466834,-0.00404061,1.85605e-05,0.541013,-12.998,-0.623173,-3.66216,0.926809,-49.9182,1.53784,0.0427081,-20,-0.531613,-0.10055,-0.038897,-2.1031,0.0424257,-0.000140698,0.0130244,-0.000102547,0.4982,0.00244636,0.0733198,0.0459278,0.000550979,0.0337648,1.94393,-0.00055433,0.005,1.70754,-0.00099648,-0.0255593,-0.451714,40.5977,-0.31298,0.264303,15.8784,0.607346,1.52596,0.459389,-1.83863,-0.0334931,0.354492,-1.91755,0.306152,0.153288,0.0241699,0.314209,-0.080667,23.4648,23.3087,23.1243,23.2804,23.1811,23.2378,23.1101,
91,6.27056,1.37696,3.1515,4.13469,6.27156,1.96334,1.55711,8.83157e-05,-0.0869714,-0.000109906,0.0930351,0.000550543,-0.00483549,1.85605e-05,0.542638,-13.1048,-0.627233,-3.74237,0.927774,-50.339,1.54982,0.0431144,-20,-0.533359,-0.11194,-0.038917,-2.14539,0.0431669,-0.000143399,0.0131987,-0.000104847,0.4982,0.00244636,0.0733198,0.045264,0.000551431,0.033274,1.94302,-0.000567472,0.005,1.70739,-0.00100661,-0.0258883,-0.458968,40.992,-0.319754,0.252317,16.2342,0.631615,1.39653,0.468114,-1.90893,-0.0229961,0.362549,-1.8611,0.306152,0.185478,0.0245033,0.302124,-0.0846906,23.479,23.3229,23.1527,23.2662,23.1952,23.252,23.1243,
92,6.27056,1.37687,3.1515,4.13478,6.27156,1.96333,1.55711,6.62395e-05,-0.0853508,-9.69762e-05,0.0921032,0.000646684,-0.00592652,1.85605e-05,0.544176,-13.2087,-0.631138,-3.82065,0.928562,-50.7415,1.56115,0.0434983,-20,-0.535057,-0.123106,-0.0389399,-2.18564,0.0438657,-0.000145946,0.0133757,-0.000106682,0.4982,0.00244636,0.0733198,0.0446523,0.00055732,0.0325276,1.94209,-0.000579801,0.005,1.70714,-0.00101811,-0.0254466,-0.465803,41.3688,-0.326372,0.188912,16.543,0.638626,1.33193,0.441512,-1.99011,-0.0257202,0.354584,-1.85366,0.314209,0.209628,0.0241699,0.302124,-0.076644,23.4648,23.3087,23.1243,23.2804,23.1811,23.2662,23.1101,
93,6.27056,1.37677,3.1515,4.13487,6.27156,1.96332,1.55711,4.42974e-05,-0.0842384,-9.69786e-05,0.0918331,0.000786768,-0.00733509,1.85605e-05,0.54561,-13.3028,-0.63513,-3.89179,0.928096,-51.104,1.57014,0.0438529,-20,-0.536631,-0.132964,-0.0389659,-2.22188,0.0443747,-0.000147859,0.013542,-0.000108328,0.4982,0.00244636,0.0733198,0.0443391,0.00057397,0.0319444,1.94121,-0.000588511,0.005,1.7069,-0.00103125,-0.0247749,-0.470752,41.7085,-0.333349,0.197665,16.8256,0.644884,1.29633,0.427143,-2.11125,-0.01829,0.346529,-1.86115,0.314209,0.233643,0.036478,0.294067,-0.076644,23.4648,23.3229,23.1527,23.2662,23.1952,23.252,23.1101,
94,6.27056,1.37677,3.1515,4.13487,6.27156,1.96332,1.55711,4.42974e-05,-0.0842384,-9.69786e-05,0.0918331,0.000786768,-0.00733509,1.85605e-05,0.547322,-13.4183,-0.639858,-3.97848,0.927454,-51.5466,1.58335,0.0443068,-20,-0.538524,-0.147712,-0.0390069,-2.26576,0.0452213,-0.000150524,0.0137263,-0.000110067,0.4982,0.00244636,0.0733198,0.0443391,0.00057397,0.0319444,1.94025,-0.000601185,0.005,1.70632,-0.00105764,-0.0242499,-0.479007,42.1222,-0.341931,0.197665,16.8256,0.644884,1.29633,0.427143,-2.11125,-0.01829,0.346529,-1.86115,0.314209,0.233643,0.036478,0.294067,-0.076644,23.4648,23.3229,23.1527,23.2662,23.1952,23.252,23.1101,
95,6.27056,1.3767,3.1515,4.13496,6.27156,1.96331,1.55711,4.42974e-05,-0.0843015,-8.83974e-05,0.0901212,0.000891193,-0.00900746,1.85462e-05,0.547328,-13.4168,-0.639924,-3.97864,0.927468,-51.5449,1.58332,0.044289,-20,-0.538529,-0.14594,-0.0390017,-2.266,0.0452236,-0.000150524,0.0137263,-0.000110067,0.4982,0.00244636,0.0733198,0.0438547,0.000574295,0.03182,1.94025,-0.000601185,0.005,1.70632,-0.00105764,-0.0242499,-0.479007,42.1222,-0.341931,0.176479,17.0683,0.704539,1.19802,0.40881,-2.21981,-0.0302488,0.346436,-1.86921,0.314312,0.210091,0.0254773,0.302151,-0.076961,23.4506,23.3087,23.1385,23.2662,23.1811,23.252,23.0959,
96,6.27056,1.3767,3.1515,4.13496,6.27156,1.96331,1.55711,4.42974e-05,-0.0843015,-8.83974e-05,0.0901212,0.000891193,-0.00900746,1.85462e-05,0.548503,-13.4999,-0.642201,-4.04065,0.930175,-51.8657,1.59161,0.0446005,-20,-0.539809,-0.156442,-0.0390118,-2.29785,0.045699,-0.000152102,0.0138742,-0.00011072,0.4982,0.00244636,0.0733198,0.0438547,0.000574295,0.03182,1.93944,-0.000608397,0.005,1.70603,-0.00106442,-0.024138,-0.483655,42.422,-0.345347,0.176479,17.0683,0.704539,1.19802,0.40881,-2.21981,-0.0302488,0.346436,-1.86921,0.314312,0.210091,0.0254773,0.302151,-0.076961,23.4506,23.3087,23.1385,23.2662,23.1811,23.252,23.0959,
97,6.27056,1.37661,3.1515,4.13505,6.27156,1.96329,1.55711,4.24239e-05,-0.0814394,-7.56311e-05,0.0900259,0.000966072,-0.0116103,1.85605e-05,0.548516,-13.4982,-0.642282,-4.04057,0.930197,-51.8641,1.59158,0.0445758,-20,-0.539812,-0.154122,-0.0390061,-2.29815,0.0457002,-0.000152102,0.0138742,-0.00011072,0.4982,0.00244636,0.0733198,0.0432278,0.000567032,0.0304056,1.93944,-0.000608397,0.005,1.70603,-0.00106442,-0.024138,-0.483655,42.422,-0.345347,0.187856,17.3824,0.7242,1.07563,0.392203,-2.32751,-0.0389999,0.354584,-1.83698,0.314312,0.241833,0.0284845,0.298096,-0.0726216,23.4506,23.3087,23.1385,23.2662,23.1952,23.2378,23.1101,
98,6.27056,1.37653,3.1515,4.13514,6.27156,1.96328,1.55711,4.24239e-05,-0.0764376,-6.31395e-05,0.0904827,0.000988268,-0.013865,1.85605e-05,0.549767,-13.5838,-0.644919,-4.10522,0.932423,-52.1877,1.59974,0.0448798,-20,-0.541171,-0.162852,-0.0390162,-2.33034,0.0461529,-0.000153972,0.0140481,-0.000111837,0.4982,0.00244636,0.0733198,0.0423135,0.000550477,0.0281618,1.9385,-0.000616634,0.005,1.70574,-0.0010653,-0.022865,-0.488053,42.7247,-0.349307,0.123972,17.6143,0.782385,0.978124,0.363292,-2.47165,-0.0664523,0.330322,-1.88532,0.322668,0.201416,0.0205405,0.314235,-0.0726216,23.4506,23.3087,23.1385,23.2662,23.1811,23.252,23.0959,
99,6.27056,1.37653,3.1515,4.13514,6.27156,1.96328,1.55711,4.24239e-05,-0.0764376,-6.31395e-05,0.0904827,0.000988268,-0.013865,1.85605e-05,0.550544,-13.6445,-0.646124,-4.14946,0.935201,-52.4035,1.60554,0.0450857,-20,-0.542078,-0.170235,-0.0390233,-2.35108,0.0464857,-0.000155878,0.0141975,-0.000112488,0.4982,0.00244636,0.0733198,0.0423135,0.000550477,0.0281618,1.93766,-0.000625521,0.005,1.70581,-0.0010584,-0.0208456,-0.491329,42.924,-0.350795,0.123972,17.6143,0.782385,0.978124,0.363292,-2.47165,-0.0664523,0.330322,-1.88532,0.322668,0.201416,0.0205405,0.314235,-0.0726216,23.4506,23.3087,23.1385,23.2662,23.1811,23.252,23.0959,
100,6.27056,1.37645,3.1515,4.13523,6.27156,1.96326,1.55711,4.0821e-05,-0.0731555,-5.05116e-05,0.0883219,0.00096845,-0.0162546,1.85605e-05,0.550564,-13.6431,-0.646189,-4.14921,0.935249,-52.4024,1.60555,0.0450627,-20,-0.542076,-0.168069,-0.0390192,-2.35138,0.0464889,-0.000155878,0.0141975,-0.000112488,0.4982,0.00244636,0.0733198,0.0409993,0.000526893,0.0266237,1.93766,-0.000625521,0.005,1.70581,-0.0010584,-0.0208456,-0.491329,42.924,-0.350795,0.144938,17.8407,0.782385,0.88895,0.36084,-2.63771,-0.0537217,0.322366,-1.982,0.314209,0.185478,0.0281982,0.310181,-0.0726216,23.4506,23.2946,23.1385,23.2662,23.1952,23.252,23.1243,
101,6.27056,1.37645,3.1515,4.13523,6.27156,1.96326,1.55711,4.0821e-05,-0.0731555,-5.05116e-05,0.0883219,0.00096845,-0.0162546,1.85605e-05,0.551141,-13.6919,-0.646302,-4.18347,0.939856,-52.5777,1.60886,0.0452158,-20,-0.542743,-0.173649,-0.0390109,-2.36817,0.0466104,-0.000157265,0.0143441,-0.000112977,0.4982,0.00244636,0.0733198,0.0409993,0.000526893,0.0266237,1.93683,-0.000631297,0.005,1.70625,-0.00104237,-0.0194613,-0.492542,43.0849,-0.349906,0.144938,17.8407,0.782385,0.88895,0.36084,-2.63771,-0.0537217,0.322366,-1.982,0.314209,0.185478,0.0281982,0.310181,-0.0726216,23.4506,23.2946,23.1385,23.2662,23.1952,23.252,23.1243,
102,6.27056,1.37638,3.1515,4.13532,6.27156,1.96324,1.55711,2.04097e-05,-0.0696851,-3.78837e-05,0.0860136,0.00096845,-0.0180752,1.85464e-05,0.551156,-13.6906,-0.64636,-4.18336,0.939904,-52.5766,1.60887,0.0451938,-20,-0.542742,-0.171549,-0.0390064,-2.36846,0.0466132,-0.000157265,0.0143441,-0.000112977,0.4982,0.00244636,0.0733198,0.0396027,0.000512711,0.0250713,1.93683,-0.000631297,0.005,1.70625,-0.00104237,-0.0194613,-0.492542,43.0849,-0.349906,0.104284,18.0189,0.814777,0.789961,0.356348,-2.73656,-0.0516373,0.33042,-2.01422,0.314312,0.217678,0.0444942,0.330347,-0.076961,23.4648,23.2946,23.1243,23.2662,23.1952,23.2662,23.1101,
103,6.27056,1.37638,3.1515,4.13532,6.27156,1.96324,1.55711,2.04097e-05,-0.0696851,-3.78837e-05,0.0860136,0.00096845,-0.0180752,1.85464e-05,0.551738,-13.7374,-0.647015,-4.2159,0.942764,-52.7443,1.61197,0.0453481,-20,-0.543423,-0.176812,-0.0390086,-2.38446,0.0467294,-0.000158588,0.0144854,-0.000113496,0.4982,0.00244636,0.0733198,0.0396027,0.000512711,0.0250713,1.93601,-0.000636842,0.005,1.70677,-0.0010346,-0.0180642,-0.493683,43.2384,-0.350413,0.104284,18.0189,0.814777,0.789961,0.356348,-2.73656,-0.0516373,0.33042,-2.01422,0.314312,0.217678,0.0444942,0.330347,-0.076961,23.4648,23.2946,23.1243,23.2662,23.1952,23.2662,23.1101,
104,6.27056,1.37632,3.1515,4.1354,6.27156,1.96322,1.55711,2.04097e-05,-0.0675244,-3.78156e-05,0.0829199,0.000942061,-0.0221256,1.85605e-05,0.551773,-13.7361,-0.647087,-4.2155,0.942782,-52.7434,1.61198,0.0453331,-20,-0.54342,-0.174838,-0.0390048,-2.38474,0.0467319,-0.000158588,0.0144854,-0.000113496,0.4982,0.00244636,0.0733198,0.0382546,0.000489091,0.0238165,1.93601,-0.000636842,0.005,1.70677,-0.0010346,-0.0180642,-0.493683,43.2384,-0.350413,0.105992,18.2258,0.828043,0.697778,0.336611,-2.84572,-0.0483795,0.322266,-2.05451,0.33042,0.241699,0.0324774,0.310207,-0.076644,23.4506,23.3087,23.1101,23.2662,23.1811,23.2378,23.0959,
105,6.27056,1.37626,3.1515,4.13549,6.27156,1.9632,1.55711,1.96667e-05,-0.0632028,-3.15705e-05,0.0823797,0.000914542,-0.0232284,1.85603e-05,0.551988,-13.7558,-0.646483,-4.22885,0.946584,-52.8117,1.61539,0.0453653,-20,-0.543657,-0.17501,-0.0389888,-2.39131,0.0469855,-0.000160303,0.0146117,-0.000113978,0.4982,0.00244636,0.0733198,0.0371934,0.000470266,0.0219768,1.93526,-0.000644615,0.005,1.7073,-0.00102034,-0.0169349,-0.496206,43.3005,-0.348374,0.0862674,18.3892,0.8469,0.63701,0.313929,-2.95277,-0.0553388,0.322366,-2.08669,0.322366,0.306576,0.0404841,0.346459,-0.080667,23.4506,23.3087,23.1243,23.2662,23.1952,23.2378,23.1101,
106,6.27056,1.37626,3.1515,4.13549,6.27156,1.9632,1.55711,1.96667e-05,-0.0632028,-3.15705e-05,0.0823797,0.000914542,-0.0232284,1.85603e-05,0.552532,-13.8014,-0.646806,-4.26128,0.950208,-52.9724,1.61876,0.0455095,-20,-0.544297,-0.180329,-0.038986,-2.40661,0.0471329,-0.000161699,0.0147326,-0.000114395,0.4982,0.00244636,0.0733198,0.0371934,0.000470266,0.0219768,1.93452,-0.000650607,0.005,1.7076,-0.00100879,-0.0152791,-0.497669,43.448,-0.3481,0.0862674,18.3892,0.8469,0.63701,0.313929,-2.95277,-0.0553388,0.322366,-2.08669,0.322366,0.306576,0.0404841,0.346459,-0.080667,23.4506,23.3087,23.1243,23.2662,23.1952,23.2378,23.1101,
107,6.27056,1.3762,3.1515,4.13556,6.27156,1.96317,1.55711,1.96674e-05,-0.0571752,-1.26282e-05,0.0801377,0.000942035,-0.0260799,1.85605e-05,0.552551,-13.8004,-0.646869,-4.26086,0.950217,-52.9718,1.61872,0.0454889,-20,-0.544295,-0.178283,-0.0389825,-2.4069,0.0471313,-0.000161699,0.0147326,-0.000114395,0.4982,0.00244636,0.0733198,0.0352827,0.000440718,0.0192854,1.93452,-0.000650607,0.005,1.7076,-0.00100879,-0.0152791,-0.497669,43.448,-0.3481,0.0896672,18.5398,0.846058,0.604645,0.318917,-3.04434,-0.0406099,0.290151,-2.14313,0.33042,0.290151,0.0371393,0.330347,-0.0726216,23.4364,23.2946,23.1243,23.2662,23.1669,23.2378,23.1243,
108,6.27056,1.3762,3.1515,4.13556,6.27156,1.96317,1.55711,1.96674e-05,-0.0571752,-1.26282e-05,0.0801377,0.000942035,-0.0260799,1.85605e-05,0.552509,-13.7993,-0.647765,-4.25626,0.947137,-52.9444,1.61926,0.0454776,-20,-0.544353,-0.177128,-0.0390041,-2.40305,0.0472111,-0.000163191,0.0148447,-0.000115659,0.4982,0.00244636,0.0733198,0.0352827,0.000440718,0.0192854,1.93381,-0.000656807,0.005,1.70867,-0.000987773,-0.0128569,-0.498445,43.417,-0.350318,0.0896672,18.5398,0.846058,0.604645,0.318917,-3.04434,-0.0406099,0.290151,-2.14313,0.33042,0.290151,0.0371393,0.330347,-0.0726216,23.4364,23.2946,23.1243,23.2662,23.1669,23.2378,23.1243,
109,6.27056,1.37614,3.1515,4.13564,6.27156,1.96314,1.55711,1.89765e-05,-0.0529391,0,0.0769778,0.000917047,-0.0259294,1.85605e-05,0.552523,-13.7986,-0.647815,-4.25621,0.947179,-52.9438,1.61928,0.0454584,-20,-0.544352,-0.175427,-0.039001,-2.40328,0.0472136,-0.000163191,0.0148447,-0.000115659,0.4982,0.00244636,0.0733198,0.0334774,0.000414537,0.0176409,1.93381,-0.000656807,0.005,1.70867,-0.000987773,-0.0128569,-0.498445,43.417,-0.350318,0.0740312,18.611,0.87977,0.54423,0.324563,-3.11204,-0.0540572,0.314209,-2.24793,0.322366,0.33042,0.0444942,0.346436,-0.076644,23.4364,23.3087,23.1243,23.2662,23.1811,23.2378,23.1101,
110,6.27056,1.37609,3.1515,4.13572,6.27156,1.96312,1.55711,0,-0.0501872,6.15888e-06,0.0734752,0.000917047,-0.0259294,1.85605e-05,0.55275,-13.8193,-0.647713,-4.26844,0.949538,-53.0117,1.61938,0.0454983,-20,-0.544637,-0.175501,-0.0389949,-2.40947,0.0471379,-0.00016414,0.0149472,-0.000115932,0.4982,0.00244636,0.0733198,0.0318833,0.000402641,0.0165798,1.93315,-0.000660351,0.005,1.7097,-0.000967399,-0.0113768,-0.497732,43.4765,-0.349457,0.0938177,18.7391,0.879423,0.529793,0.332754,-3.16137,-0.065555,0.314209,-2.2881,0.338762,0.362549,0.0523682,0.318263,-0.0725098,23.4648,23.3087,23.1243,23.2804,23.1811,23.2236,23.0959,
111,6.27056,1.37609,3.1515,4.13579,6.27156,1.96309,1.55711,0,-0.0501872,1.80647e-05,0.0726562,0.00089335,-0.0291705,1.85605e-05,0.553124,-13.846,-0.649249,-4.28594,0.94799,-53.1086,1.62241,0.0455929,-20,-0.545131,-0.177219,-0.0390147,-2.41867,0.0473428,-0.000165745,0.0150492,-0.000117262,0.4982,0.00244636,0.0733198,0.0316496,0.000389689,0.0162482,1.93249,-0.000667474,0.005,1.71054,-0.000963104,-0.0104218,-0.499712,43.5643,-0.352564,0.0938177,18.7391,0.858515,0.54815,0.322856,-3.20429,-0.0697739,0.314209,-2.2881,0.338379,0.435357,0.0444942,0.298123,-0.0684814,23.4648,23.3087,23.1101,23.2662,23.1811,23.252,23.1101,
112,6.27056,1.37599,3.1515,4.13586,6.27156,1.96306,1.55711,0,-0.0515886,1.76708e-05,0.0740067,0.000919436,-0.0295907,1.85605e-05,0.553089,-13.8436,-0.648601,-4.2859,0.949882,-53.1006,1.62211,0.0455589,-20,-0.545074,-0.175543,-0.0389978,-2.41816,0.047318,-0.000165991,0.0150922,-0.000117455,0.4982,0.00244636,0.0733198,0.0323348,0.000399489,0.0167572,1.93207,-0.000667913,0.005,1.71038,-0.000951842,-0.0101234,-0.499503,43.5586,-0.350753,0.0900924,18.9818,0.840726,0.575807,0.334552,-3.22345,-0.0703706,0.290151,-2.2398,0.346436,0.402832,0.0523682,0.302151,-0.076644,23.4506,23.2946,23.1101,23.2378,23.1952,23.2236,23.0959,
113,6.27056,1.37594,3.1515,4.13594,6.27156,1.96303,1.55711,0,-0.0506552,2.94513e-05,0.0734665,0.000960059,-0.0307599,1.85603e-05,0.55484,-13.966,-0.651718,-4.38142,0.954908,-53.5824,1.63539,0.0460057,-20,-0.546957,-0.19058,-0.0390019,-2.46679,0.048122,-0.000168448,0.0152348,-0.000118705,0.4982,0.00244636,0.0733198,0.0319836,0.000394316,0.0162687,1.93122,-0.000678779,0.005,1.709,-0.000970441,-0.0105815,-0.507398,44.0135,-0.355076,0.0938394,19.0686,0.812752,0.618923,0.335062,-3.2174,-0.0476182,0.290039,-2.19142,0.346529,0.362549,0.0525229,0.294095,-0.0805664,23.4506,23.2946,23.1101,23.2662,23.1811,23.2378,23.1101,
114,6.27056,1.37594,3.1515,4.13594,6.27156,1.96303,1.55711,0,-0.0506552,2.94513e-05,0.0734665,0.000960059,-0.0307599,1.85603e-05,0.55558,-14.0165,-0.653736,-4.41944,0.954827,-53.774,1.64076,0.0462019,-20,-0.547783,-0.197041,-0.039017,-2.48575,0.0484489,-0.000169783,0.0153305,-0.000119863,0.4982,0.00244636,0.0733198,0.0319836,0.000394316,0.0162687,1.93058,-0.000684135,0.005,1.70873,-0.000970606,-0.0101418,-0.51058,44.1927,-0.358619,0.0938394,19.0686,0.812752,0.618923,0.335062,-3.2174,-0.0476182,0.290039,-2.19142,0.346529,0.362549,0.0525229,0.294095,-0.0805664,23.4506,23.2946,23.1101,23.2662,23.1811,23.2378,23.1101,
115,6.27056,1.37589,3.1515,4.13601,6.27156,1.963,1.55711,0,-0.0491577,2.87748e-05,0.0734752,0.000973545,-0.0307911,1.85743e-05,0.555599,-14.0155,-0.653798,-4.41964,0.954809,-53.7728,1.64071,0.0461901,-20,-0.547792,-0.195612,-0.0390135,-2.48589,0.0484486,-0.000169783,0.0153305,-0.000119863,0.4982,0.00244636,0.0733198,0.0316728,0.000391873,0.0156681,1.93058,-0.000684135,0.005,1.70873,-0.000970606,-0.0101418,-0.51058,44.1927,-0.358619,0.0865811,19.2255,0.835184,0.639138,0.324998,-3.18167,-0.0424624,0.282097,-2.19154,0.346436,0.354584,0.0609595,0.273955,-0.0726216,23.4506,23.2946,23.1101,23.2662,23.1811,23.252,23.0959,
116,6.27056,1.37584,3.15151,4.13608,6.27157,1.96296,1.55711,0,-0.0480286,4.03518e-05,0.0725826,0.000998685,-0.0331014,1.85605e-05,0.556437,-14.0748,-0.655512,-4.46497,0.956541,-54.0007,1.64722,0.0463958,-20,-0.548731,-0.201906,-0.0390212,-2.50866,0.0488565,-0.000171433,0.0154267,-0.000120682,0.4982,0.00244636,0.0733198,0.0311798,0.000381975,0.0149836,1.92992,-0.000691526,0.005,1.70842,-0.000975059,-0.00960132,-0.514639,44.4066,-0.361203,0.0906928,19.3225,0.80965,0.68455,0.342351,-3.15306,-0.028525,0.273926,-2.18336,0.33042,0.338475,0.0609595,0.257812,-0.0726216,23.4506,23.3229,23.1385,23.2804,23.1811,23.2378,23.1243,
117,6.27056,1.3758,3.15151,4.13616,6.27157,1.96293,1.55711,0,-0.0456465,3.95078e-05,0.0740067,0.0010119,-0.0329519,1.85605e-05,0.556928,-14.1019,-0.657979,-4.48615,0.95297,-54.1028,1.652,0.0465101,-20,-0.549295,-0.204114,-0.0390453,-2.51887,0.049232,-0.000173081,0.0155104,-0.000122753,0.4982,0.00244636,0.0733198,0.0310952,0.000381746,0.0140307,1.9293,-0.000698436,0.005,1.70831,-0.00097237,-0.00898528,-0.518314,44.5027,-0.366197,0.12114,19.4134,0.800873,0.711584,0.343195,-3.10121,-0.0501088,0.290039,-2.17531,0.370605,0.338379,0.0605589,0.253784,-0.0726216,23.4506,23.2804,23.1243,23.2804,23.1811,23.252,23.0959,
118,6.27056,1.37575,3.15151,4.13623,6.27157,1.9629,1.55711,0,-0.0446368,5.07957e-05,0.0756273,0.00102978,-0.0329519,2.65149e-05,0.557799,-14.1599,-0.660384,-4.53139,0.952727,-54.3224,1.65885,0.0467263,-20,-0.550272,-0.210497,-0.0390625,-2.54079,0.0496839,-0.000174834,0.015596,-0.00012399,0.4982,0.00244636,0.0733198,0.031355,0.000382531,0.0136111,1.92869,-0.000706321,0.005,1.70784,-0.00097926,-0.00812759,-0.52277,44.7096,-0.370391,0.111759,19.4518,0.828644,0.717852,0.363655,-3.08022,-0.0498469,0.281982,-2.1996,0.346436,0.282442,0.0645789,0.237705,-0.0726216,23.4506,23.3087,23.1243,23.2804,23.1811,23.2378,23.0818,
119,6.27056,1.37575,3.15151,4.13631,6.27157,1.96287,1.55711,0,-0.0446368,5.52844e-05,0.0764844,0.000996145,-0.0318715,2.65149e-05,0.558869,-14.2312,-0.663502,-4.58778,0.952008,-54.5975,1.66451,0.0470053,-20,-0.551483,-0.219273,-0.0390859,-2.56843,0.049957,-0.000175904,0.0156856,-0.000125732,0.4982,0.00244636,0.0733198,0.0316035,0.000382177,0.0137189,1.92806,-0.000715471,0.005,1.70703,-0.000988201,-0.00774998,-0.525421,44.9698,-0.376,0.117815,19.4518,0.813892,0.728357,0.378193,-3.05661,-0.0498469,0.257938,-2.1996,0.362638,0.241833,0.0565402,0.213501,-0.0685998,23.4364,23.3087,23.1101,23.2662,23.1952,23.2662,23.1101,
120,6.27056,1.37571,3.15151,4.13639,6.27157,1.96283,1.55711,0,-0.044296,6.49103e-05,0.0753572,0.00101221,-0.033728,2.65147e-05,0.559638,-14.2827,-0.665443,-4.62865,0.952513,-54.801,1.66917,0.0471942,-20,-0.552332,-0.224982,-0.0390951,-2.58911,0.0502087,-0.000176918,0.0157355,-0.000127015,0.4982,0.00244636,0.0733198,0.0312069,0.000373993,0.0134016,1.92758,-0.000720003,0.005,1.70638,-0.000991962,-0.00784705,-0.527922,45.1627,-0.37921,0.105351,19.4925,0.805971,0.752532,0.390285,-3.02555,-0.0518887,0.265991,-2.18341,0.338379,0.233781,0.0565402,0.185347,-0.0725098,23.4648,23.2946,23.1385,23.252,23.1952,23.2378,23.1101,
121,6.27056,1.37566,3.15151,4.13646,6.27157,1.9628,1.55711,0,-0.044296,6.36359e-05,0.0726562,0.00099636,-0.0341045,2.65152e-05,0.560244,-14.3179,-0.667999,-4.65587,0.94962,-54.9375,1.67449,0.047339,-20,-0.553005,-0.228292,-0.0391176,-2.60285,0.0505999,-0.000178547,0.01582,-0.000129139,0.4982,0.00244636,0.0733198,0.0304225,0.000364138,0.0133951,1.92697,-0.000726934,0.005,1.70619,-0.000990835,-0.00756144,-0.531722,45.2912,-0.384229,0.106634,19.4721,0.799417,0.777085,0.390263,-3.00319,-0.0542053,0.249756,-2.15919,0.362638,0.22573,0.0765381,0.173218,-0.0765381,23.4648,23.3087,23.1385,23.252,23.1811,23.252,23.1385,
122,6.27056,1.37562,3.15151,4.13653,6.27158,1.96276,1.55711,0,-0.044296,7.42418e-05,0.0723861,0.000998549,-0.0345725,2.65149e-05,0.560686,-14.3507,-0.66855,-4.68028,0.951741,-55.0671,1.67892,0.0474417,-20,-0.553505,-0.231037,-0.0391146,-2.61585,0.0509064,-0.000180067,0.0158991,-0.000129816,0.4982,0.00244636,0.0733198,0.0303447,0.000359858,0.0133521,1.92637,-0.000733512,0.005,1.70635,-0.000987886,-0.00755558,-0.534815,45.4124,-0.384679,0.113171,19.4887,0.792938,0.770452,0.396322,-3.00248,-0.0359879,0.273926,-2.11891,0.346436,0.274044,0.0609595,0.157311,-0.0726216,23.4506,23.2946,23.1243,23.2662,23.1952,23.252,23.1243,
123,6.27056,1.37562,3.15151,4.13653,6.27158,1.96276,1.55711,0,-0.044296,7.42418e-05,0.0723861,0.000998549,-0.0345725,2.65149e-05,0.561526,-14.4045,-0.671384,-4.72144,0.949949,-55.2754,1.68522,0.0476643,-20,-0.554433,-0.238091,-0.0391381,-2.63665,0.0513121,-0.000181664,0.0159798,-0.000131898,0.4982,0.00244636,0.0733198,0.0303447,0.000359858,0.0133521,1.92577,-0.00074024,0.005,1.70588,-0.000990088,-0.00751691,-0.538748,45.6081,-0.390028,0.113171,19.4887,0.792938,0.770452,0.396322,-3.00248,-0.0359879,0.273926,-2.11891,0.346436,0.274044,0.0609595,0.157311,-0.0726216,23.4506,23.2946,23.1243,23.2662,23.1952,23.252,23.1243,
124,6.27056,1.37557,3.15151,4.13661,6.27158,1.96273,1.55711,0,-0.04234,7.28109e-05,0.072905,0.000982947,-0.0378136,2.65149e-05,0.561543,-14.4033,-0.671436,-4.72137,0.949902,-55.2742,1.68513,0.0476526,-20,-0.55444,-0.236609,-0.0391355,-2.6368,0.0513098,-0.000181664,0.0159798,-0.000131898,0.4982,0.00244636,0.0733198,0.0300905,0.000350343,0.0122211,1.92577,-0.00074024,0.005,1.70588,-0.000990088,-0.00751691,-0.538748,45.6081,-0.390028,0.151731,19.454,0.786094,0.778237,0.3982,-3.00895,-0.0391361,0.257938,-2.10278,0.362638,0.257938,0.0735099,0.132935,-0.0726216,23.4506,23.2804,23.1385,23.2804,23.1811,23.252,23.1385,
125,6.27056,1.37554,3.15151,4.13668,6.27158,1.96269,1.55711,0,-0.0391641,8.30891e-05,0.0734665,0.000967373,-0.0367333,2.65149e-05,0.561936,-14.4298,-0.672444,-4.74275,0.950033,-55.3694,1.69031,0.0477412,-20,-0.554888,-0.238959,-0.0391413,-2.64626,0.0517265,-0.000183464,0.0160651,-0.000133111,0.4982,0.00244636,0.0733198,0.0295885,0.000340852,0.0110563,1.92513,-0.000748257,0.005,1.70554,-0.00098874,-0.00649895,-0.542906,45.6981,-0.391669,0.15914,19.4235,0.757837,0.776869,0.405583,-3.03338,-0.0397968,0.249886,-2.12695,0.354492,0.249886,0.0846906,0.145075,-0.0726216,23.4648,23.3087,23.1385,23.2662,23.2094,23.252,23.1243,
126,6.27056,1.37554,3.15151,4.13668,6.27158,1.96269,1.55711,0,-0.0391641,8.30891e-05,0.0734665,0.000967373,-0.0367333,2.65149e-05,0.562623,-14.4757,-0.674861,-4.77676,0.948232,-55.5377,1.69578,0.047923,-20,-0.555684,-0.244672,-0.0391662,-2.66265,0.0520906,-0.000185332,0.01614,-0.000134784,0.4982,0.00244636,0.0733198,0.0295885,0.000340852,0.0110563,1.92455,-0.000756707,0.005,1.70546,-0.000987803,-0.00545069,-0.546443,45.8545,-0.396314,0.15914,19.4235,0.757837,0.776869,0.405583,-3.03338,-0.0397968,0.249886,-2.12695,0.354492,0.249886,0.0846906,0.145075,-0.0726216,23.4648,23.3087,23.1385,23.2662,23.2094,23.252,23.1243,
127,6.27056,1.3755,3.15151,4.13675,6.27158,1.96265,1.55711,0,-0.035923,8.66168e-05,0.0723861,0.000980792,-0.0386183,2.65149e-05,0.56263,-14.4749,-0.674899,-4.77664,0.948168,-55.537,1.69562,0.0479096,-20,-0.555689,-0.243299,-0.0391647,-2.6628,0.0520837,-0.000185332,0.01614,-0.000134784,0.4982,0.00244636,0.0733198,0.0285993,0.000326594,0.0095687,1.92455,-0.000756707,0.005,1.70546,-0.000987803,-0.00545069,-0.546443,45.8545,-0.396314,0.15032,19.3374,0.755679,0.775041,0.416432,-3.03149,-0.0429488,0.257938,-2.15918,0.362549,0.217678,0.0725098,0.116891,-0.0725098,23.4648,23.3087,23.1385,23.2804,23.1952,23.2662,23.1101,
128,6.27056,1.37547,3.15151,4.13682,6.27158,1.96261,1.55711,0,-0.0340323,8.50131e-05,0.0715758,0.000998714,-0.0394342,2.65147e-05,0.562735,-14.4757,-0.676947,-4.77643,0.942608,-55.5297,1.69866,0.0479239,-20,-0.555867,-0.241879,-0.0391956,-2.66173,0.052409,-0.000187088,0.0162059,-0.000136822,0.4982,0.00244636,0.0733198,0.0279698,0.000320191,0.00873407,1.92398,-0.000764317,0.005,1.70585,-0.00098182,-0.00411183,-0.549654,45.8462,-0.401067,0.172797,19.285,0.705444,0.759185,0.417568,-3.05423,-0.0486142,0.249756,-2.21558,0.354584,0.22573,0.0805664,0.104814,-0.0725098,23.4506,23.3087,23.1385,23.2804,23.1811,23.252,23.1101,
129,6.27056,1.37543,3.15151,4.1369,6.27158,1.96257,1.55711,0,-0.0320984,8.51346e-05,0.0732244,0.000998578,-0.0415529,2.65149e-05,0.563106,-14.4959,-0.678994,-4.79191,0.939246,-55.6044,1.70343,0.0480092,-20,-0.556313,-0.243123,-0.0392195,-2.6691,0.0528196,-0.00018887,0.0162709,-0.000138436,0.4982,0.00244636,0.0733198,0.0280477,0.000316886,0.00771781,1.92343,-0.000772295,0.005,1.70592,-0.000983238,-0.00336066,-0.553733,45.916,-0.405357,0.18427,19.1887,0.685171,0.731388,0.415777,-3.04406,-0.0520818,0.257938,-2.21558,0.362549,0.22573,0.0846906,0.0967636,-0.0765381,23.4648,23.3087,23.1243,23.2804,23.1811,23.2378,23.1101,
130,6.27056,1.3754,3.15151,4.13697,6.27159,1.96253,1.55711,0,-0.0310953,8.35864e-05,0.0747412,0.00102975,-0.0432156,2.65149e-05,0.563679,-14.5295,-0.681648,-4.81952,0.935695,-55.7295,1.71006,0.0481496,-20,-0.556982,-0.246725,-0.0392473,-2.68166,0.053363,-0.000190939,0.0163417,-0.000140584,0.4982,0.00244636,0.0733198,0.0282814,0.000319854,0.00712535,1.92284,-0.000781725,0.005,1.70531,-0.00098875,-0.00244603,-0.559109,46.0351,-0.410747,0.224735,19.051,0.688943,0.711666,0.42685,-3.06017,-0.0385695,0.249756,-2.2317,0.354492,0.177429,0.076644,0.088623,-0.0725098,23.4648,23.2946,23.1243,23.2804,23.1811,23.252,23.0959,
131,6.27056,1.37537,3.15151,4.13705,6.27159,1.96248,1.55711,0,-0.0316014,9.81992e-05,0.0753572,0.00102825,-0.0456399,2.65149e-05,0.564312,-14.5673,-0.684673,-4.85055,0.931585,-55.8746,1.71746,0.0483065,-20,-0.557733,-0.250982,-0.03928,-2.69634,0.0539668,-0.000192951,0.0164057,-0.00014267,0.4982,0.00244636,0.0733198,0.0285699,0.00031518,0.00706859,1.92227,-0.000790808,0.005,1.70459,-0.000999596,-0.00191281,-0.565041,46.1735,-0.417001,0.227596,18.9309,0.685058,0.689165,0.42944,-3.05478,-0.0472177,0.257938,-2.22369,0.378748,0.14502,0.0845947,0.080667,-0.0605589,23.4648,23.2946,23.1385,23.2946,23.1952,23.2662,23.1101,
132,6.27056,1.37534,3.15151,4.13712,6.27159,1.96243,1.55711,0,-0.0329519,9.64442e-05,0.0756273,0.00106041,-0.0483474,2.65149e-05,0.564801,-14.5972,-0.686267,-4.87601,0.930735,-55.9938,1.72203,0.0484257,-20,-0.558274,-0.254324,-0.0392889,-2.70862,0.0543045,-0.000194221,0.0164627,-0.000144087,0.4982,0.00244636,0.0733198,0.0289347,0.000319208,0.00732528,1.92171,-0.000795596,0.005,1.70382,-0.000999698,-0.00186173,-0.568412,46.2882,-0.419866,0.240152,18.8605,0.666084,0.694265,0.443221,-3.05729,-0.0551279,0.249886,-2.19948,0.346436,0.121919,0.0887145,0.076644,-0.072956,23.4648,23.3087,23.1243,23.2662,23.1952,23.2378,23.0959,
133,6.27056,1.3753,3.15151,4.1372,6.27159,1.96238,1.55711,0,-0.0345374,9.64442e-05,0.0734752,0.0010598,-0.0502381,2.65149e-05,0.565396,-14.63,-0.68889,-4.9038,0.927439,-56.1269,1.72982,0.0485711,-20,-0.558924,-0.25802,-0.0393129,-2.7224,0.054959,-0.000196236,0.0165222,-0.000146111,0.4982,0.00244636,0.0733198,0.0286435,0.000314072,0.00778895,1.92114,-0.00080456,0.005,1.70298,-0.00101139,-0.00209275,-0.574861,46.4162,-0.42518,0.232155,18.7639,0.642162,0.715699,0.446942,-3.03659,-0.068834,0.233643,-2.14307,0.362907,0.105969,0.0927389,0.0765381,-0.0685998,23.4506,23.3087,23.1243,23.2804,23.1952,23.252,23.1385,
134,6.27056,1.37527,3.15151,4.13727,6.27159,1.96233,1.55711,0,-0.0361931,9.4497e-05,0.0731964,0.00109292,-0.0521288,2.64949e-05,0.565806,-14.6539,-0.690337,-4.92301,0.926341,-56.2268,1.73571,0.0486688,-20,-0.559371,-0.260154,-0.0393221,-2.7327,0.0554553,-0.000198104,0.0165847,-0.000147652,0.4982,0.00244636,0.0733198,0.0289115,0.000318613,0.00826081,1.92054,-0.000812709,0.005,1.70271,-0.0010141,-0.00251005,-0.579804,46.5114,-0.427903,0.254625,18.6751,0.621918,0.693431,0.451654,-2.99044,-0.0673826,0.241699,-2.1028,0.362549,0.14502,0.0926514,0.080667,-0.0645789,23.4648,23.2946,23.1243,23.2804,23.1952,23.2662,23.1243,
135,6.27056,1.37523,3.15151,4.13735,6.2716,1.96227,1.55711,0,-0.0366122,8.49328e-05,0.0726562,0.00118157,-0.0526118,2.65149e-05,0.566458,-14.6891,-0.693029,-4.95203,0.923175,-56.3703,1.74355,0.0488292,-20,-0.560058,-0.264042,-0.0393445,-2.74748,0.0561043,-0.000200133,0.0166413,-0.0001496,0.4982,0.00244636,0.0733198,0.0288431,0.000328799,0.00838732,1.91997,-0.000821589,0.005,1.70195,-0.00102618,-0.00293473,-0.586245,46.6487,-0.433225,0.238686,18.5726,0.617803,0.692959,0.440177,-2.93628,-0.0664308,0.241699,-2.0464,0.362638,0.145243,0.0927389,0.0726216,-0.072956,23.4648,23.3087,23.1385,23.3087,23.2094,23.2662,23.1101,
136,6.27056,1.37519,3.15151,4.13742,6.2716,1.96222,1.55711,0,-0.0367333,8.50473e-05,0.0734665,0.00131645,-0.0540195,2.65149e-05,0.567135,-14.723,-0.697115,-4.97918,0.915901,-56.5062,1.75361,0.0489974,-20,-0.560831,-0.267532,-0.0393918,-2.76132,0.0569966,-0.000202922,0.0166958,-0.00015207,0.4982,0.00244636,0.0733198,0.0291063,0.000342673,0.00828161,1.91939,-0.000834526,0.005,1.70149,-0.00104699,-0.00304858,-0.595018,46.7778,-0.442063,0.281607,18.4924,0.60302,0.705306,0.429109,-2.90253,-0.0664549,0.257938,-2.03835,0.362638,0.1372,0.100789,0.0569691,-0.080667,23.4506,23.3229,23.1527,23.2804,23.2378,23.2662,23.1101,
137,6.27056,1.37515,3.15151,4.13749,6.2716,1.96217,1.55711,0,-0.0367333,8.35851e-05,0.0698986,0.00148997,-0.0550999,2.65149e-05,0.567839,-14.7592,-0.701144,-5.00873,0.909039,-56.6484,1.76231,0.0491703,-20,-0.561623,-0.271449,-0.0394371,-2.77584,0.0577425,-0.00020496,0.0167513,-0.000153994,0.4982,0.00244636,0.0733198,0.0280709,0.00034776,0.00820776,1.91881,-0.000843396,0.005,1.70074,-0.00106746,-0.00295345,-0.602319,46.9133,-0.450667,0.249095,18.4582,0.60723,0.703465,0.417854,-2.82658,-0.0426319,0.257812,-2.02223,0.346436,0.11308,0.0967636,0.0565402,-0.0689537,23.4648,23.3087,23.1385,23.2662,23.2094,23.2378,23.1243,
138,6.27056,1.37515,3.15151,4.13749,6.2716,1.96217,1.55711,0,-0.0367333,8.35851e-05,0.0698986,0.00148997,-0.0550999,2.65149e-05,0.568051,-14.7631,-0.704182,-5.01016,0.901163,-56.6631,1.76824,0.0492264,-20,-0.561896,-0.271558,-0.0394832,-2.77712,0.0583417,-0.000206815,0.0168075,-0.00015543,0.4982,0.00244636,0.0733198,0.0280709,0.00034776,0.00820776,1.91823,-0.000851296,0.005,1.70114,-0.00107915,-0.00288698,-0.608147,46.9255,-0.457896,0.249095,18.4582,0.60723,0.703465,0.417854,-2.82658,-0.0426319,0.257812,-2.02223,0.346436,0.11308,0.0967636,0.0565402,-0.0689537,23.4648,23.3087,23.1385,23.2662,23.2094,23.2378,23.1243,
139,6.27056,1.37512,3.15151,4.13756,6.2716,1.96211,1.55711,0,-0.0358866,9.28723e-05,0.0672543,0.00163979,-0.0550999,2.64949e-05,0.568064,-14.7625,-0.704238,-5.00999,0.901083,-56.6627,1.76815,0.049216,-20,-0.561904,-0.270329,-0.0394805,-2.77722,0.0583396,-0.000206815,0.0168075,-0.00015543,0.4982,0.00244636,0.0733198,0.0271256,0.000349631,0.0078975,1.91823,-0.000851296,0.005,1.70114,-0.00107915,-0.00288698,-0.608147,46.9255,-0.457896,0.248458,18.4204,0.607676,0.722989,0.426277,-2.78003,-0.0360762,0.233781,-2.00617,0.346529,0.201577,0.104814,0.036478,-0.0645789,23.4648,23.3229,23.1527,23.2662,23.2094,23.2662,23.1101,
140,6.27056,1.37508,3.15151,4.13762,6.2716,1.96205,1.55711,0,-0.0358937,9.11838e-05,0.0656337,0.00172365,-0.0546675,2.65149e-05,0.568293,-14.7695,-0.706724,-5.01407,0.895079,-56.6891,1.77267,0.0492636,-20,-0.562193,-0.269725,-0.0395153,-2.77973,0.058788,-0.000208373,0.016855,-0.000156296,0.4982,0.00244636,0.0733198,0.0266558,0.000354128,0.00796591,1.91769,-0.000857635,0.005,1.70151,-0.00108654,-0.00260775,-0.612569,46.949,-0.46359,0.243268,18.2984,0.601495,0.744496,0.415929,-2.70372,-0.0220205,0.241833,-2.03034,0.346529,0.233781,0.104814,0.0284845,-0.072956,23.4648,23.3087,23.1385,23.2662,23.1952,23.2662,23.1243,
141,6.27056,1.37505,3.15151,4.13769,6.2716,1.962,1.55711,0,-0.035923,9.11838e-05,0.066444,0.00172219,-0.0550441,2.65149e-05,0.568769,-14.7919,-0.709873,-5.03129,0.889096,-56.7797,1.77934,0.0493779,-20,-0.562742,-0.271508,-0.0395528,-2.78887,0.0593811,-0.00021035,0.0168997,-0.000158079,0.4982,0.00244636,0.0733198,0.0268984,0.000355969,0.00793229,1.91716,-0.00086599,0.005,1.70145,-0.00109811,-0.00266932,-0.61836,47.0343,-0.470464,0.262069,18.2134,0.617553,0.783167,0.385837,-2.69083,-0.0373545,0.249886,-2.01422,0.346529,0.249756,0.112865,0.0113938,-0.0725098,23.4648,23.3087,23.1669,23.2804,23.1952,23.2662,23.1101,
142,6.27056,1.37501,3.15151,4.13776,6.2716,1.96194,1.55711,0,-0.0377753,8.96702e-05,0.0672059,0.00169561,-0.0559102,2.65149e-05,0.569334,-14.829,-0.711283,-5.06163,0.889423,-56.9264,1.78535,0.0495168,-20,-0.563365,-0.27566,-0.0395587,-2.80382,0.0598327,-0.000211899,0.0169464,-0.000158938,0.4982,0.00244636,0.0733198,0.0275087,0.000359713,0.00858124,1.91662,-0.000872282,0.005,1.70075,-0.00110543,-0.00263906,-0.622793,47.1743,-0.472825,0.231964,18.1065,0.608434,0.823744,0.391219,-2.66109,-0.0306748,0.241699,-1.99806,0.346436,0.226161,0.100708,-0.012085,-0.0645789,23.4648,23.3087,23.1527,23.2662,23.2094,23.2662,23.1385,
143,6.27056,1.37497,3.15151,4.13782,6.27161,1.96188,1.55711,0,-0.0386239,9.85112e-05,0.065837,0.00164262,-0.057426,3.70925e-05,0.57006,-14.88,-0.711958,-5.10312,0.89336,-57.1325,1.79215,0.0496958,-20,-0.564113,-0.281803,-0.0395478,-2.82493,0.060292,-0.000213332,0.0169998,-0.000159347,0.4982,0.00244636,0.0733198,0.0272905,0.000347911,0.00877934,1.91605,-0.000877948,0.005,1.69969,-0.00111389,-0.00322312,-0.627353,47.3709,-0.473061,0.260065,17.9923,0.63349,0.797868,0.365295,-2.64741,-0.0315359,0.241833,-1.94977,0.354584,0.209628,0.104814,-0.0127387,-0.0685998,23.479,23.3229,23.1527,23.2804,23.1952,23.2662,23.1243,
144,6.27056,1.37497,3.15151,4.13782,6.27161,1.96188,1.55711,0,-0.0386239,9.85112e-05,0.065837,0.00164262,-0.057426,3.70925e-05,0.570239,-14.8938,-0.711912,-5.11428,0.895088,-57.1876,1.7929,0.0497432,-20,-0.564294,-0.283764,-0.0395402,-2.83056,0.0603008,-0.000213843,0.0170419,-0.000160101,0.4982,0.00244636,0.0733198,0.0272905,0.000347911,0.00877934,1.91551,-0.000884148,0.005,1.6994,-0.00110885,-0.00340141,-0.627447,47.4234,-0.472533,0.260065,17.9923,0.63349,0.797868,0.365295,-2.64741,-0.0315359,0.241833,-1.94977,0.354584,0.209628,0.104814,-0.0127387,-0.0685998,23.479,23.3229,23.1527,23.2804,23.1952,23.2662,23.1243,
145,6.27056,1.37493,3.15151,4.13789,6.27161,1.96182,1.55711,0,-0.0410548,0.000105714,0.0634729,0.00167545,-0.0596915,4.77269e-05,0.57022,-14.8929,-0.711918,-5.11383,0.895004,-57.1872,1.79277,0.0497255,-20,-0.564298,-0.282577,-0.0395396,-2.83063,0.0602997,-0.000213843,0.0170419,-0.000160101,0.4982,0.00244636,0.0733198,0.0271145,0.000345028,0.00954492,1.91551,-0.000884148,0.005,1.6994,-0.00110885,-0.00340141,-0.627447,47.4234,-0.472533,0.229115,17.8472,0.639778,0.769769,0.364688,-2.61179,-0.0343146,0.242236,-1.92555,0.338379,0.234198,0.104814,-0.0205405,-0.0726216,23.479,23.3229,23.1527,23.2804,23.2094,23.252,23.1243,
146,6.27056,1.37489,3.15151,4.13795,6.27161,1.96176,1.55711,0,-0.0418783,0.000104018,0.0623925,0.0016162,-0.0618523,4.77269e-05,0.570444,-14.9047,-0.712545,-5.1238,0.894903,-57.2424,1.79615,0.0497705,-20,-0.564514,-0.283185,-0.039539,-2.83654,0.0605875,-0.000214901,0.0170861,-0.000160767,0.4982,0.00244636,0.0733198,0.0269757,0.000335442,0.00966176,1.91498,-0.000887375,0.005,1.69908,-0.00110916,-0.00409043,-0.630295,47.4768,-0.473562,0.232332,17.7569,0.623108,0.791809,0.373067,-2.60822,-0.0211239,0.233781,-1.88527,0.346436,0.281982,0.104736,-0.00805664,-0.0604248,23.4506,23.3087,23.1243,23.2662,23.2094,23.252,23.1101,
147,6.27056,1.37489,3.15151,4.13795,6.27161,1.96176,1.55711,0,-0.0418783,0.000104018,0.0623925,0.0016162,-0.0618523,4.77269e-05,0.570601,-14.9177,-0.712302,-5.13458,0.897034,-57.2935,1.80048,0.0498119,-20,-0.564669,-0.28511,-0.0395294,-2.84177,0.0609619,-0.00021652,0.0171311,-0.000161491,0.4982,0.00244636,0.0733198,0.0269757,0.000335442,0.00966176,1.91443,-0.000893704,0.005,1.69871,-0.00110623,-0.00419559,-0.634024,47.5257,-0.47266,0.232332,17.7569,0.623108,0.791809,0.373067,-2.60822,-0.0211239,0.233781,-1.88527,0.346436,0.281982,0.104736,-0.00805664,-0.0604248,23.4506,23.3087,23.1243,23.2662,23.2094,23.252,23.1101,
148,6.27056,1.37489,3.15151,4.13795,6.27161,1.96176,1.55711,0,-0.0418783,0.000104018,0.0623925,0.0016162,-0.0618523,4.77269e-05,0.570601,-14.9177,-0.712302,-5.13458,0.897034,-57.2935,1.80048,0.0498119,-20,-0.564669,-0.28511,-0.0395294,-2.84177,0.0609619,-0.00021652,0.0171311,-0.000161491,0.4982,0.00244636,0.0733198,0.0269757,0.000335442,0.00966176,1.91443,-0.000893704,0.005,1.69871,-0.00110623,-0.00419559,-0.634024,47.5257,-0.47266,0.232332,17.7569,0.623108,0.791809,0.373067,-2.60822,-0.0211239,0.233781,-1.88527,0.346436,0.281982,0.104736,-0.00805664,-0.0604248,23.4506,23.3087,23.1243,23.2662,23.2094,23.252,23.1101,
149,6.27056,1.37484,3.15151,4.13801,6.27161,1.9617,1.55711,0,-0.0426322,0.000104016,0.0621906,0.00156321,-0.0626626,4.77269e-05,0.570633,-14.9168,-0.712368,-5.13428,0.896952,-57.2929,1.80047,0.0498068,-20,-0.564679,-0.283869,-0.0395264,-2.84183,0.0609646,-0.00021652,0.0171311,-0.000161491,0.4982,0.00244636,0.0733198,0.027076,0.000330458,0.00988464,1.91443,-0.000893704,0.005,1.69871,-0.00110623,-0.00419559,-0.634024,47.5257,-0.47266,0.205994,17.6453,0.62024,0.821438,0.373806,-2.60371,-0.0219391,0.225586,-1.86916,0.338379,0.281982,0.104814,0.0090076,-0.0685998,23.4648,23.3087,23.1527,23.2662,23.2094,23.2662,23.1243,
150,6.27056,1.37484,3.15151,4.13801,6.27161,1.9617,1.55711,0,-0.0426322,0.000104016,0.0621906,0.00156321,-0.0626626,4.77269e-05,0.571007,-14.9483,-0.711741,-5.15954,0.902086,-57.4168,1.80627,0.0499059,-20,-0.565056,-0.288285,-0.0395065,-2.85439,0.0614034,-0.000218281,0.0171775,-0.000161362,0.4982,0.00244636,0.0733198,0.027076,0.000330458,0.00988464,1.91387,-0.000901094,0.005,1.69812,-0.0011084,-0.00439618,-0.63841,47.6435,-0.470437,0.205994,17.6453,0.62024,0.821438,0.373806,-2.60371,-0.0219391,0.225586,-1.86916,0.338379,0.281982,0.104814,0.0090076,-0.0685998,23.4648,23.3087,23.1527,23.2662,23.2094,23.2662,23.1243,
151,6.27056,1.3748,3.15151,4.13808,6.27161,1.96164,1.55711,0,-0.0410548,0.000104145,0.063743,0.00151022,-0.0656337,4.76908e-05,0.571019,-14.9473,-0.711783,-5.1591,0.901997,-57.4163,1.8062,0.0498944,-20,-0.565062,-0.287005,-0.0395044,-2.85446,0.0614042,-0.000218281,0.0171775,-0.000161362,0.4982,0.00244636,0.0733198,0.0272022,0.000321377,0.00892231,1.91387,-0.000901094,0.005,1.69812,-0.0011084,-0.00439618,-0.63841,47.6435,-0.470437,0.227674,17.5255,0.647179,0.850332,0.372098,-2.59766,-0.0239321,0.225586,-1.86916,0.338379,0.265869,0.125138,-0.00402832,-0.0684814,23.4648,23.3371,23.1527,23.2804,23.1952,23.2804,23.1243,
152,6.27056,1.37476,3.15151,4.13814,6.27161,1.96156,1.55711,0,-0.0394342,0.000102373,0.0648234,0.00151596,-0.0688965,4.77269e-05,0.571046,-14.9521,-0.711133,-5.16473,0.904213,-57.4298,1.80927,0.0498875,-20,-0.565097,-0.286933,-0.0394922,-2.85586,0.0617015,-0.000219664,0.0172161,-0.000161554,0.4982,0.00244636,0.0733198,0.0271826,0.000316624,0.00791642,1.91334,-0.00090614,0.005,1.69752,-0.00110477,-0.00353008,-0.641455,47.6578,-0.468688,0.216183,17.4188,0.647918,0.863037,0.380409,-2.59028,-0.0382693,0.233781,-1.90942,0.34681,0.241833,0.116891,0.0166092,-0.0604248,23.479,23.3087,23.1385,23.2804,23.2094,23.2662,23.1385,
153,6.27056,1.37476,3.15151,4.13814,6.27161,1.96156,1.55711,0,-0.0394342,0.000102373,0.0648234,0.00151596,-0.0688965,4.77269e-05,0.571006,-14.9445,-0.712435,-5.16071,0.899761,-57.3923,1.81404,0.0498767,-20,-0.565091,-0.28643,-0.039515,-2.85206,0.0622294,-0.000221642,0.0172458,-0.000163116,0.4982,0.00244636,0.0733198,0.0271826,0.000316624,0.00791642,1.9128,-0.000914051,0.005,1.69706,-0.00110761,-0.00262477,-0.646642,47.6238,-0.472027,0.216183,17.4188,0.647918,0.863037,0.380409,-2.59028,-0.0382693,0.233781,-1.90942,0.34681,0.241833,0.116891,0.0166092,-0.0604248,23.479,23.3087,23.1385,23.2804,23.2094,23.2662,23.1385,
154,6.27056,1.37472,3.15151,4.1382,6.27161,1.96149,1.55711,0,-0.0376153,0.000106639,0.0636784,0.00149006,-0.0713057,4.77264e-05,0.571022,-14.9439,-0.712482,-5.1602,0.899661,-57.3922,1.81395,0.049865,-20,-0.565096,-0.285116,-0.0395133,-2.85214,0.0622279,-0.000221642,0.0172458,-0.000163116,0.4982,0.00244636,0.0733198,0.0264733,0.000301095,0.00694355,1.9128,-0.000914051,0.005,1.69706,-0.00110761,-0.00262477,-0.646642,47.6238,-0.472027,0.237308,17.3417,0.669936,0.878961,0.387567,-2.58494,-0.0413825,0.249886,-1.94167,0.33042,0.217678,0.12085,0.0362549,-0.0644531,23.4648,23.3087,23.1527,23.2946,23.1952,23.2662,23.1101,
155,6.27056,1.37469,3.15151,4.13827,6.27161,1.96142,1.55711,0,-0.0367333,0.000104981,0.0614383,0.00149006,-0.0723861,4.76193e-05,0.570763,-14.9254,-0.712131,-5.14595,0.898533,-57.3141,1.81577,0.0497812,-20,-0.564835,-0.281485,-0.0395135,-2.84416,0.0625034,-0.000223219,0.0172781,-0.000163721,0.4982,0.00244636,0.0733198,0.0256396,0.00029092,0.00649954,1.91226,-0.000919943,0.005,1.69721,-0.00109893,-0.00174919,-0.649429,47.55,-0.471574,0.222443,17.2625,0.670763,0.899955,0.388008,-2.55737,-0.0512438,0.241833,-1.98193,0.354858,0.217678,0.120917,0.0525229,-0.0644531,23.4648,23.3229,23.1527,23.2662,23.1952,23.252,23.1243,
156,6.27056,1.37469,3.15151,4.13827,6.27161,1.96142,1.55711,0,-0.0367333,0.000104981,0.0614383,0.00149006,-0.0723861,4.76193e-05,0.570647,-14.9144,-0.712801,-5.13687,0.895466,-57.2677,1.81899,0.0497507,-20,-0.564736,-0.27988,-0.0395278,-2.83934,0.0628827,-0.000224975,0.0173083,-0.000164831,0.4982,0.00244636,0.0733198,0.0256396,0.00029092,0.00649954,1.91173,-0.000926804,0.005,1.69748,-0.00109595,-0.00134959,-0.653164,47.5055,-0.473481,0.222443,17.2625,0.670763,0.899955,0.388008,-2.55737,-0.0512438,0.241833,-1.98193,0.354858,0.217678,0.120917,0.0525229,-0.0644531,23.4648,23.3229,23.1527,23.2662,23.1952,23.252,23.1243,
157,6.27056,1.37465,3.15151,4.13833,6.27162,1.96135,1.55711,0,-0.0361931,0.000104981,0.0602317,0.00152001,-0.0713057,4.76188e-05,0.570657,-14.914,-0.712846,-5.13652,0.895335,-57.2676,1.81883,0.0497402,-20,-0.564746,-0.278732,-0.0395268,-2.83937,0.0628762,-0.000224975,0.0173083,-0.000164831,0.4982,0.00244636,0.0733198,0.0251748,0.000290425,0.0064112,1.91173,-0.000926804,0.005,1.69748,-0.00109595,-0.00134959,-0.653164,47.5055,-0.473481,0.237955,17.1928,0.670763,0.895477,0.399274,-2.52951,-0.0492833,0.233781,-2.01422,0.354858,0.282097,0.124878,0.0605589,-0.0685998,23.4506,23.3229,23.1527,23.2804,23.1952,23.2662,23.1527,
