LWingKi/MAS_RnD/log/us2/contact/43_contact/grasp_log_12_08_2023_15_24_02.csv
Index,joint_angle_0,joint_angle_1,joint_angle_2,joint_angle_3,joint_angle_4,joint_angle_5,joint_angle_6,joint_velocity_0,joint_velocity_1,joint_velocity_2,joint_velocity_3,joint_velocity_4,joint_velocity_5,joint_velocity_6,joint_accel_0,joint_accel_1,joint_accel_2,joint_accel_3,joint_accel_4,joint_accel_5,joint_accel_6,constraint_tau_0,constraint_tau_1,constraint_tau_2,constraint_tau_3,constraint_tau_4,constraint_tau_5,constraint_tau_6,current_pos_x,current_pos_y,current_pos_z,target_pos_x,target_pos_y,target_pos_z,current_vel_x,current_vel_y,current_vel_z,target_vel_x,target_vel_y,target_vel_z,control_signal_linear_x,control_signal_linear_y,control_signal_linear_z,control_signal_angular_x,control_signal_angular_y,control_signal_angular_z,joint_torque_0,joint_torque_1,joint_torque_2,joint_torque_3,joint_torque_4,joint_torque_5,joint_torque_6,actuar_current_0,actuar_current_1,actuar_current_2,actuar_current_3,actuar_current_4,actuar_current_5,actuar_current_6,actuar_voltage_0,actuar_voltage_1,actuar_voltage_2,actuar_voltage_3,actuar_voltage_4,actuar_voltage_5,actuar_voltage_6
0,6.27374,1.53084,3.15246,4.23933,6.2709,2.00146,1.55355,0.0172862,-0.00621224,-0.0256593,-0.0494278,0.000699911,-0.000217094,1.0598e-05,0.0808876,-6.34959,1.45977,150.733,1.02138,-157.171,0.677479,-0.0574073,-20,-0.354332,20,-0.149129,-1.10835,0.00111809,0.00120927,0.00210907,-0.00223769,0.494434,0.000805795,0.0159152,-0.0125096,0.000449115,0.00393785,1.49067,-0.00843274,0.005,44.72,-0.252982,0.15,0.0483708,0.0843627,-0.0895078,1.13409,-0.41766,-1.74839,-3.42104,0.956497,-1.37296,-0.00539712,0.555908,-0.354584,-0.112793,0.0569691,0.00569691,0.370605,-0.104736,23.479,23.3655,23.1952,23.3229,23.2378,23.2946,23.1527,
1,6.27374,1.53084,3.15246,4.23933,6.2709,2.00146,1.55355,0.0172862,-0.00621224,-0.0256593,-0.0494278,0.000699911,-0.000217094,1.0598e-05,0.123907,-6.77242,0.617528,152.641,1.1784,-159.317,1.71012,-0.0455769,-20,-0.430312,20,-0.100809,-1.10058,0.00721219,0,0,0,0.494434,0.000805795,0.0159152,-0.0125096,0.000449115,0.00393785,1.5,0,0.005,45.3753,-0.0134735,0.0318645,-0.0510681,-0.08736,0.0323309,1.13409,-0.41766,-1.74839,-3.42104,0.956497,-1.37296,-0.00539712,0.555908,-0.354584,-0.112793,0.0569691,0.00569691,0.370605,-0.104736,23.479,23.3655,23.1952,23.3229,23.2378,23.2946,23.1527,
2,6.27376,1.53083,3.15243,4.23928,6.2709,2.00146,1.55355,0.0170523,-0.00546156,-0.0263307,-0.0483983,0.00115757,-0.000217094,1.0598e-05,0.125029,-6.77623,0.615546,152.64,1.17899,-159.321,1.71147,-0.0452479,-20,-0.430564,20,-0.100739,-1.10022,0.00720727,0,0,0,0.494434,0.000805795,0.0159152,-0.0124195,0.000777237,0.00362108,1.5,0,0.005,45.3753,-0.0134735,0.0318645,-0.0510681,-0.08736,0.0323309,1.16509,-0.359676,-1.75846,-3.324,0.926987,-1.33598,0.00561666,0.596409,-0.346436,-0.112793,0.0161133,0.00402832,0.362571,-0.108839,23.479,23.3513,23.1952,23.3087,23.2236,23.3229,23.1669,
3,6.27377,1.53083,3.1524,4.23924,6.27091,2.00146,1.55355,0.016746,-0.00441911,-0.0275499,-0.0469493,0.00224612,-0.000217094,1.0598e-05,0.124045,-6.78265,0.652953,152.649,1.17813,-159.335,1.67586,-0.0455029,-20,-0.427624,20,-0.102845,-1.09986,0.00766981,-3.02061e-05,-4.66851e-05,1.1748e-05,0.494434,0.000805795,0.0159152,-0.0122899,0.00135056,0.00318223,1.5002,-1.98091e-05,0.005,45.3786,-0.0239114,0.0413677,-0.054008,-0.088694,0.0314231,1.15431,-0.252558,-1.70528,-3.22688,0.926272,-1.25526,-0.00569008,0.58819,-0.346436,-0.0966797,-0.0332184,0.012085,0.350464,-0.129158,23.479,23.3513,23.1952,23.3087,23.2378,23.3087,23.1527,
4,6.27377,1.53083,3.1524,4.23924,6.27091,2.00146,1.55355,0.016746,-0.00441911,-0.0275499,-0.0469493,0.00224612,-0.000217094,1.0598e-05,0.120498,-6.78501,0.720063,152.651,1.17483,-159.34,1.61203,-0.0464782,-20,-0.422158,20,-0.106552,-1.0999,0.00842051,-5.98751e-05,-8.92418e-05,2.13904e-05,0.494434,0.000805795,0.0159152,-0.0122899,0.00135056,0.00318223,1.50038,-4.65759e-05,0.005,45.3802,-0.041914,0.054533,-0.0585527,-0.089635,0.029089,1.15431,-0.252558,-1.70528,-3.22688,0.926272,-1.25526,-0.00569008,0.58819,-0.346436,-0.0966797,-0.0332184,0.012085,0.350464,-0.129158,23.479,23.3513,23.1952,23.3087,23.2378,23.3087,23.1527,
5,6.27379,1.53082,3.15237,4.23919,6.27092,2.00146,1.55355,0.0162058,-0.00405146,-0.0289004,-0.0467269,0.00450331,-0.000227686,1.05981e-05,0.121647,-6.78847,0.718522,152.651,1.17534,-159.343,1.61281,-0.0461528,-20,-0.422359,20,-0.106528,-1.09956,0.00841857,-5.98751e-05,-8.92418e-05,2.13904e-05,0.494434,0.000805795,0.0159152,-0.0123298,0.00216483,0.00303991,1.50038,-4.65759e-05,0.005,45.3802,-0.041914,0.054533,-0.0585527,-0.089635,0.029089,1.14846,-0.175256,-1.6674,-3.05859,0.927298,-1.23583,-0.00984205,0.604248,-0.370693,-0.0805664,-0.0563965,0.00402832,0.342502,-0.12085,23.479,23.3513,23.1811,23.3087,23.2378,23.3087,23.1385,
6,6.27379,1.53082,3.15237,4.23919,6.27092,2.00146,1.55355,0.0162058,-0.00405146,-0.0289004,-0.0467269,0.00450331,-0.000227686,1.05981e-05,0.116646,-6.79482,0.813082,152.668,1.16897,-159.365,1.52175,-0.0475279,-20,-0.414707,20,-0.111802,-1.09961,0.00942222,-9.10997e-05,-0.000132883,2.99742e-05,0.494434,0.000805795,0.0159152,-0.0123298,0.00216483,0.00303991,1.50057,-8.29186e-05,0.005,45.3869,-0.0674324,0.0588026,-0.0643936,-0.0917777,0.0241396,1.14846,-0.175256,-1.6674,-3.05859,0.927298,-1.23583,-0.00984205,0.604248,-0.370693,-0.0805664,-0.0563965,0.00402832,0.342502,-0.12085,23.479,23.3513,23.1811,23.3087,23.2378,23.3087,23.1385,
7,6.27381,1.53082,3.15234,4.23914,6.27092,2.00146,1.55355,0.0172687,-0.00324117,-0.0297107,-0.0491577,0.00634176,-0.000238094,1.05979e-05,0.117775,-6.79844,0.811529,152.668,1.16954,-159.369,1.52293,-0.0471899,-20,-0.414937,20,-0.111736,-1.09923,0.00941763,-9.10997e-05,-0.000132883,2.99742e-05,0.494434,0.000805795,0.0159152,-0.0132435,0.00214578,0.00278804,1.50057,-8.29186e-05,0.005,45.3869,-0.0674324,0.0588026,-0.0643936,-0.0917777,0.0241396,1.14415,-0.124544,-1.67308,-2.89062,0.958334,-1.26631,-0.00154241,0.58819,-0.370693,-0.0569691,-0.072956,-0.00569691,0.33042,-0.125461,23.4648,23.3655,23.2094,23.3087,23.2378,23.3087,23.1527,
8,6.27381,1.53082,3.15234,4.23914,6.27092,2.00146,1.55355,0.0172687,-0.00324117,-0.0297107,-0.0491577,0.00634176,-0.000238094,1.05979e-05,0.117627,-6.82089,0.813258,152.763,1.16937,-159.478,1.52679,-0.0472307,-20,-0.41516,20,-0.111889,-1.09895,0.00986185,-0.000122423,-0.000179838,4.10662e-05,0.494434,0.000805795,0.0159152,-0.0132435,0.00214578,0.00278804,1.50076,-0.000113948,0.005,45.4202,-0.0677919,0.0663587,-0.0687521,-0.100222,0.0233571,1.14415,-0.124544,-1.67308,-2.89062,0.958334,-1.26631,-0.00154241,0.58819,-0.370693,-0.0569691,-0.072956,-0.00569691,0.33042,-0.125461,23.4648,23.3655,23.2094,23.3087,23.2378,23.3087,23.1527,
9,6.27382,1.53082,3.15231,4.23909,6.27093,2.00146,1.55355,0.0165507,-0.00297107,-0.0307911,-0.0488998,0.00638265,-0.000254159,1.0598e-05,0.118821,-6.8249,0.811431,152.763,1.17005,-159.482,1.52815,-0.0468804,-20,-0.415396,20,-0.11182,-1.09855,0.00985688,-0.000122423,-0.000179838,4.10662e-05,0.494434,0.000805795,0.0159152,-0.0132461,0.0027404,0.00268356,1.50076,-0.000113948,0.005,45.4202,-0.0677919,0.0663587,-0.0687521,-0.100222,0.0233571,1.16442,-0.083268,-1.67692,-2.74111,0.934239,-1.25438,-0.0134069,0.540336,-0.539795,-0.0402832,0.0805664,-0.012085,0.318263,-0.116821,23.479,23.3513,23.1952,23.3087,23.252,23.3229,23.1669,
10,6.27382,1.53082,3.15231,4.23909,6.27093,2.00146,1.55355,0.0165507,-0.00297107,-0.0307911,-0.0488998,0.00638265,-0.000254159,1.0598e-05,0.115076,-6.83057,0.882089,152.78,1.16816,-159.503,1.46048,-0.0479102,-20,-0.409694,20,-0.115691,-1.09855,0.0105127,-0.000154562,-0.000230789,5.31822e-05,0.494434,0.000805795,0.0159152,-0.0132461,0.0027404,0.00268356,1.50098,-0.000145482,0.005,45.4266,-0.0865765,0.0694932,-0.0722327,-0.102337,0.0222372,1.16442,-0.083268,-1.67692,-2.74111,0.934239,-1.25438,-0.0134069,0.540336,-0.539795,-0.0402832,0.0805664,-0.012085,0.318263,-0.116821,23.479,23.3513,23.1952,23.3087,23.252,23.3229,23.1669,
11,6.27384,1.53081,3.15228,4.23905,6.27093,2.00145,1.55355,0.0172862,-0.00520149,-0.031066,-0.0448362,0.00557514,-0.000285929,1.0606e-05,0.116336,-6.8339,0.880541,152.779,1.1691,-159.506,1.46186,-0.0475395,-20,-0.409896,20,-0.115612,-1.09823,0.0105075,-0.000154562,-0.000230789,5.31822e-05,0.494434,0.000805795,0.0159152,-0.0114858,0.00246588,0.00345814,1.50098,-0.000145482,0.005,45.4266,-0.0865765,0.0694932,-0.0722327,-0.102337,0.0222372,1.14918,-0.000772238,-1.64517,-2.57701,0.926084,-1.20263,0.00609324,0.556142,-0.845947,-0.0161133,0.394858,-0.0216932,0.302151,-0.129158,23.479,23.3371,23.1669,23.2946,23.2378,23.3087,23.1527,
12,6.27384,1.53081,3.15228,4.23905,6.27093,2.00145,1.55355,0.0172862,-0.00520149,-0.031066,-0.0448362,0.00557514,-0.000285929,1.0606e-05,0.117772,-6.80097,0.854704,152.642,1.17201,-159.347,1.48836,-0.0471443,-20,-0.411481,20,-0.114065,-1.09844,0.0105316,-0.00018858,-0.00027095,6.65241e-05,0.494434,0.000805795,0.0159152,-0.0114858,0.00246588,0.00345814,1.50114,-0.000188849,0.005,45.3787,-0.0796419,0.0462557,-0.073581,-0.0914014,0.0255964,1.14918,-0.000772238,-1.64517,-2.57701,0.926084,-1.20263,0.00609324,0.556142,-0.845947,-0.0161133,0.394858,-0.0216932,0.302151,-0.129158,23.479,23.3371,23.1669,23.2946,23.2378,23.3087,23.1527,
13,6.27386,1.53079,3.15225,4.23901,6.27093,2.00145,1.55355,0.0172862,-0.00859933,-0.0307911,-0.0340323,0.00437501,-0.000312404,1.0598e-05,0.119004,-6.8029,0.852923,152.642,1.17325,-159.349,1.49019,-0.0468055,-20,-0.411657,20,-0.113971,-1.09827,0.0105256,-0.00018858,-0.00027095,6.65241e-05,0.494434,0.000805795,0.0159152,-0.00748588,0.00230534,0.00451317,1.50114,-0.000188849,0.005,45.3787,-0.0796419,0.0462557,-0.073581,-0.0914014,0.0255964,1.13324,0.0733643,-1.59217,-2.38818,0.935088,-1.17569,0.000459917,0.555908,-1.03943,-0.0290486,0.588355,-0.00402832,0.282442,-0.120917,23.4648,23.3229,23.1952,23.3229,23.2378,23.3371,23.1669,
14,6.27386,1.53079,3.15225,4.23901,6.27093,2.00145,1.55355,0.0172862,-0.00859933,-0.0307911,-0.0340323,0.00437501,-0.000312404,1.0598e-05,0.120048,-6.72326,0.836707,152.305,1.17367,-158.959,1.50189,-0.0465182,-20,-0.411694,20,-0.112889,-1.09895,0.0104572,-0.000219217,-0.000292949,8.18022e-05,0.494434,0.000805795,0.0159152,-0.00748588,0.00230534,0.00451317,1.50122,-0.000218435,0.005,45.2611,-0.0757133,0.014605,-0.0735068,-0.0638945,0.0281752,1.13324,0.0733643,-1.59217,-2.38818,0.935088,-1.17569,0.000459917,0.555908,-1.03943,-0.0290486,0.588355,-0.00402832,0.282442,-0.120917,23.4648,23.3229,23.1952,23.3229,23.2378,23.3371,23.1669,
15,6.27388,1.53077,3.15222,4.23899,6.27093,2.00145,1.55355,0.0178264,-0.0218668,-0.0297107,-0.0205274,0.00303942,-0.000349733,1.0598e-05,0.121324,-6.72304,0.834848,152.306,1.17479,-158.959,1.50365,-0.0462023,-20,-0.411802,20,-0.112818,-1.09898,0.0104531,-0.000219217,-0.000292949,8.18022e-05,0.494434,0.000805795,0.0159152,-5.8411e-05,0.00172019,0.00938141,1.50122,-0.000218435,0.005,45.2611,-0.0757133,0.014605,-0.0735068,-0.0638945,0.0281752,1.17145,0.131395,-1.61347,-2.2229,0.954461,-1.16962,0.0159869,0.547852,-1.19241,-0.041081,0.588135,-0.00402832,0.265991,-0.120917,23.479,23.3371,23.1669,23.2946,23.2378,23.3229,23.1527,
16,6.27388,1.53077,3.15222,4.23899,6.27093,2.00145,1.55355,0.0178264,-0.0218668,-0.0297107,-0.0205274,0.00303942,-0.000349733,1.0598e-05,0.125219,-6.57101,0.767945,151.666,1.17499,-158.221,1.56021,-0.0451314,-20,-0.414819,20,-0.10883,-1.10037,0.0100213,-0.000248575,-0.000289758,9.84787e-05,0.494434,0.000805795,0.0159152,-5.8411e-05,0.00172019,0.00938141,1.5012,-0.000239687,0.005,45.0376,-0.0587963,-0.131442,-0.0718888,-0.0102434,0.0321444,1.17145,0.131395,-1.61347,-2.2229,0.954461,-1.16962,0.0159869,0.547852,-1.19241,-0.041081,0.588135,-0.00402832,0.265991,-0.120917,23.479,23.3371,23.1669,23.2946,23.2378,23.3229,23.1527,
17,6.2739,1.53072,3.15219,4.23899,6.27093,2.00144,1.55355,0.0185569,-0.0424053,-0.0289004,-0.00501065,0.00185874,-0.000401054,1.0582e-05,0.126564,-6.56739,0.765669,151.667,1.17595,-158.218,1.56211,-0.0448319,-20,-0.414879,20,-0.108772,-1.10057,0.0100184,-0.000248575,-0.000289758,9.84787e-05,0.494434,0.000805795,0.0159152,0.00989712,0.00117401,0.0170656,1.5012,-0.000239687,0.005,45.0376,-0.0587963,-0.131442,-0.0718888,-0.0102434,0.0321444,1.19956,0.19816,-1.62529,-2.12041,0.943696,-1.14315,-0.00351904,0.539795,-1.10388,-0.0563965,0.531799,0.0201416,0.249788,-0.125138,23.4648,23.3371,23.1952,23.3087,23.2378,23.3087,23.1527,
18,6.2739,1.53072,3.15219,4.23899,6.27093,2.00144,1.55355,0.0185569,-0.0424053,-0.0289004,-0.00501065,0.00185874,-0.000401054,1.0582e-05,0.130524,-6.36188,0.699916,150.799,1.17455,-157.217,1.61455,-0.0437429,-20,-0.416934,20,-0.104754,-1.10256,0.0096833,-0.000277403,-0.000258332,0.000117169,0.494434,0.000805795,0.0159152,0.00989712,0.00117401,0.0170656,1.50105,-0.000245942,0.005,44.7346,-0.0425984,-0.361967,-0.0710883,0.0630647,0.0362308,1.19956,0.19816,-1.62529,-2.12041,0.943696,-1.14315,-0.00351904,0.539795,-1.10388,-0.0563965,0.531799,0.0201416,0.249788,-0.125138,23.4648,23.3371,23.1952,23.3087,23.2378,23.3087,23.1527,
19,6.27391,1.53067,3.15216,4.23899,6.27093,2.00144,1.55355,0.019967,-0.0540195,-0.0278353,0.00648234,0.0011359,-0.000486733,1.0582e-05,0.131854,-6.35591,0.697593,150.8,1.17552,-157.212,1.61647,-0.0434351,-20,-0.416991,20,-0.10468,-1.10291,0.00967967,-0.000277403,-0.000258332,0.000117169,0.494434,0.000805795,0.0159152,0.016305,0.000299545,0.0213297,1.50105,-0.000245942,0.005,44.7346,-0.0425984,-0.361967,-0.0710883,0.0630647,0.0362308,1.19862,0.368046,-1.56162,-2.0842,0.966402,-1.06312,-0.0100957,0.523929,-0.870453,-0.0809682,0.435059,0.0402832,0.233643,-0.121118,23.4648,23.3371,23.1811,23.3087,23.2378,23.3087,23.1385,
20,6.27391,1.53067,3.15216,4.23899,6.27093,2.00144,1.55355,0.019967,-0.0540195,-0.0278353,0.00648234,0.0011359,-0.000486733,1.0582e-05,0.137437,-6.2195,0.597851,150.23,1.17737,-156.553,1.70801,-0.0419,-20,-0.422955,20,-0.0989188,-1.10413,0.00915632,-0.000308177,-0.000203635,0.000134236,0.494434,0.000805795,0.0159152,0.016305,0.000299545,0.0213297,1.50081,-0.000259869,0.005,44.5351,-0.0167824,-0.489891,-0.0700014,0.111333,0.040888,1.19862,0.368046,-1.56162,-2.0842,0.966402,-1.06312,-0.0100957,0.523929,-0.870453,-0.0809682,0.435059,0.0402832,0.233643,-0.121118,23.4648,23.3371,23.1811,23.3087,23.2378,23.3087,23.1385,
21,6.27394,1.53061,3.15214,4.23901,6.27094,2.00143,1.55355,0.0205274,-0.060686,-0.0264696,0.0109389,0.00115266,-0.000640998,1.05821e-05,0.13854,-6.21235,0.595394,150.232,1.17793,-156.547,1.70988,-0.0416235,-20,-0.423039,20,-0.0988087,-1.10466,0.00915086,-0.000308177,-0.000203635,0.000134236,0.494434,0.000805795,0.0159152,0.0193729,-0.000282742,0.0238159,1.50081,-0.000259869,0.005,44.5351,-0.0167824,-0.489891,-0.0700014,0.111333,0.040888,1.18629,0.491894,-1.54984,-2.0975,0.950457,-1.0077,0.00619893,0.483466,-0.838046,-0.121118,0.410889,0.0576768,0.209473,-0.116821,23.479,23.3229,23.1811,23.3087,23.2378,23.2946,23.1385,
22,6.27394,1.53061,3.15214,4.23901,6.27094,2.00143,1.55355,0.0205274,-0.060686,-0.0264696,0.0109389,0.00115266,-0.000640998,1.05821e-05,0.142265,-6.14249,0.527911,149.942,1.17838,-156.211,1.77214,-0.0405989,-20,-0.427438,20,-0.0949864,-1.10529,0.00872969,-0.000336343,-0.00012922,0.00015043,0.494434,0.000805795,0.0159152,0.0193729,-0.000282742,0.0238159,1.50049,-0.000258878,0.005,44.4334,0.00071591,-0.564477,-0.068613,0.136272,0.0426438,1.18629,0.491894,-1.54984,-2.0975,0.950457,-1.0077,0.00619893,0.483466,-0.838046,-0.121118,0.410889,0.0576768,0.209473,-0.116821,23.479,23.3229,23.1811,23.3087,23.2378,23.2946,23.1385,
23,6.27394,1.53061,3.15214,4.23901,6.27094,2.00143,1.55355,0.0205274,-0.060686,-0.0264696,0.0109389,0.00115266,-0.000640998,1.05821e-05,0.142265,-6.14249,0.527911,149.942,1.17838,-156.211,1.77214,-0.0405989,-20,-0.427438,20,-0.0949864,-1.10529,0.00872969,-0.000336343,-0.00012922,0.00015043,0.494434,0.000805795,0.0159152,0.0193729,-0.000282742,0.0238159,1.50049,-0.000258878,0.005,44.4334,0.00071591,-0.564477,-0.068613,0.136272,0.0426438,1.18629,0.491894,-1.54984,-2.0975,0.950457,-1.0077,0.00619893,0.483466,-0.838046,-0.121118,0.410889,0.0576768,0.209473,-0.116821,23.479,23.3229,23.1811,23.3087,23.2378,23.2946,23.1385,
24,6.27395,1.53054,3.15211,4.23903,6.27094,2.00143,1.55355,0.0199872,-0.0669163,-0.0259294,0.0199872,0.00157973,-0.000947604,1.05821e-05,0.143312,-6.1343,0.525612,149.943,1.17891,-156.204,1.77371,-0.0403298,-20,-0.427513,20,-0.0948861,-1.10584,0.00872505,-0.000336343,-0.00012922,0.00015043,0.494434,0.000805795,0.0159152,0.0236311,-0.000147812,0.026002,1.50049,-0.000258878,0.005,44.4334,0.00071591,-0.564477,-0.068613,0.136272,0.0426438,1.20411,0.616516,-1.51524,-2.12287,0.939419,-0.954654,0.0137512,0.491521,-0.894432,-0.153076,0.563965,0.0649547,0.193401,-0.121118,23.4648,23.3371,23.1811,23.2804,23.2378,23.3229,23.1385,
25,6.27395,1.53054,3.15211,4.23903,6.27094,2.00143,1.55355,0.0199872,-0.0669163,-0.0259294,0.0199872,0.00157973,-0.000947604,1.05821e-05,0.142897,-6.04141,0.537643,149.546,1.17423,-155.747,1.75498,-0.0404439,-20,-0.425018,20,-0.0954223,-1.10679,0.00886313,-0.000364254,-4.85493e-05,0.000165578,0.494434,0.000805795,0.0159152,0.0236311,-0.000147812,0.026002,1.50014,-0.00025974,0.005,44.2952,-0.00335782,-0.630059,-0.0692812,0.16944,0.0412543,1.20411,0.616516,-1.51524,-2.12287,0.939419,-0.954654,0.0137512,0.491521,-0.894432,-0.153076,0.563965,0.0649547,0.193401,-0.121118,23.4648,23.3371,23.1811,23.2804,23.2378,23.3229,23.1385,
26,6.27395,1.53054,3.15211,4.23903,6.27094,2.00143,1.55355,0.0199872,-0.0669163,-0.0259294,0.0199872,0.00157973,-0.000947604,1.05821e-05,0.142897,-6.04141,0.537643,149.546,1.17423,-155.747,1.75498,-0.0404439,-20,-0.425018,20,-0.0954223,-1.10679,0.00886313,-0.000364254,-4.85493e-05,0.000165578,0.494434,0.000805795,0.0159152,0.0236311,-0.000147812,0.026002,1.50014,-0.00025974,0.005,44.2952,-0.00335782,-0.630059,-0.0692812,0.16944,0.0412543,1.20411,0.616516,-1.51524,-2.12287,0.939419,-0.954654,0.0137512,0.491521,-0.894432,-0.153076,0.563965,0.0649547,0.193401,-0.121118,23.4648,23.3371,23.1811,23.2804,23.2378,23.3229,23.1385,
27,6.27398,1.53047,3.15209,4.23905,6.27095,2.00142,1.55355,0.0195599,-0.0734665,-0.0261729,0.0258292,0.00203871,-0.00168536,1.05821e-05,0.143911,-6.03217,0.535323,149.547,1.17446,-155.74,1.75635,-0.0401738,-20,-0.425088,20,-0.0953194,-1.10745,0.00885884,-0.000364254,-4.85493e-05,0.000165578,0.494434,0.000805795,0.0159152,0.0270568,0.000161226,0.0283599,1.50014,-0.00025974,0.005,44.2952,-0.00335782,-0.630059,-0.0692812,0.16944,0.0412543,1.20523,0.851307,-1.49957,-2.19602,0.951197,-0.938635,0.0245814,0.515625,-0.926829,-0.177429,0.555967,0.0609595,0.189331,-0.116821,23.479,23.3229,23.1811,23.2804,23.2094,23.2946,23.1243,
28,6.27398,1.53047,3.15209,4.23905,6.27095,2.00142,1.55355,0.0195599,-0.0734665,-0.0261729,0.0258292,0.00203871,-0.00168536,1.05821e-05,0.142402,-5.95527,0.567286,149.216,1.17026,-155.359,1.72039,-0.0405887,-20,-0.421218,20,-0.0969575,-1.1082,0.00923833,-0.000393006,4.63525e-05,0.000180729,0.494434,0.000805795,0.0159152,0.0270568,0.000161226,0.0283599,1.49973,-0.00025746,0.005,44.1801,-0.0125606,-0.700798,-0.0715258,0.196528,0.0400508,1.20523,0.851307,-1.49957,-2.19602,0.951197,-0.938635,0.0245814,0.515625,-0.926829,-0.177429,0.555967,0.0609595,0.189331,-0.116821,23.479,23.3229,23.1811,23.2804,23.2094,23.2946,23.1243,
29,6.27398,1.53047,3.15209,4.23905,6.27095,2.00142,1.55355,0.0195599,-0.0734665,-0.0261729,0.0258292,0.00203871,-0.00168536,1.05821e-05,0.142402,-5.95527,0.567286,149.216,1.17026,-155.359,1.72039,-0.0405887,-20,-0.421218,20,-0.0969575,-1.1082,0.00923833,-0.000393006,4.63525e-05,0.000180729,0.494434,0.000805795,0.0159152,0.0270568,0.000161226,0.0283599,1.49973,-0.00025746,0.005,44.1801,-0.0125606,-0.700798,-0.0715258,0.196528,0.0400508,1.20523,0.851307,-1.49957,-2.19602,0.951197,-0.938635,0.0245814,0.515625,-0.926829,-0.177429,0.555967,0.0609595,0.189331,-0.116821,23.479,23.3229,23.1811,23.2804,23.2094,23.2946,23.1243,
30,6.274,1.53039,3.15206,4.23908,6.27095,2.00142,1.55355,0.0199872,-0.0829199,-0.0268322,0.0299808,0.00238462,-0.0021726,1.0574e-05,0.143527,-5.94489,0.565221,149.218,1.17044,-155.35,1.72135,-0.0403033,-20,-0.421225,20,-0.0968918,-1.10894,0.00923671,-0.000393006,4.63525e-05,0.000180729,0.494434,0.000805795,0.0159152,0.0307788,0.00024419,0.0319384,1.49973,-0.00025746,0.005,44.1801,-0.0125606,-0.700798,-0.0715258,0.196528,0.0400508,1.16662,1.1053,-1.466,-2.37109,0.967462,-0.901788,0.00820251,0.515877,-0.950991,-0.169381,0.628418,0.0644531,0.181319,-0.116821,23.4648,23.3371,23.1811,23.2662,23.2236,23.2946,23.1385,
31,6.274,1.53039,3.15206,4.23908,6.27095,2.00142,1.55355,0.0199872,-0.0829199,-0.0268322,0.0299808,0.00238462,-0.0021726,1.0574e-05,0.143248,-5.86074,0.574148,148.857,1.16832,-154.937,1.70976,-0.04038,-20,-0.419126,20,-0.0972175,-1.10983,0.00960267,-0.00042452,0.000152681,0.00019468,0.494434,0.000805795,0.0159152,0.0307788,0.00024419,0.0319384,1.49927,-0.000273244,0.005,44.0548,-0.015523,-0.808153,-0.0746385,0.226995,0.0407077,1.16662,1.1053,-1.466,-2.37109,0.967462,-0.901788,0.00820251,0.515877,-0.950991,-0.169381,0.628418,0.0644531,0.181319,-0.116821,23.4648,23.3371,23.1811,23.2662,23.2236,23.2946,23.1385,
32,6.274,1.53039,3.15206,4.23908,6.27095,2.00142,1.55355,0.0199872,-0.0829199,-0.0268322,0.0299808,0.00238462,-0.0021726,1.0574e-05,0.143248,-5.86074,0.574148,148.857,1.16832,-154.937,1.70976,-0.04038,-20,-0.419126,20,-0.0972175,-1.10983,0.00960267,-0.00042452,0.000152681,0.00019468,0.494434,0.000805795,0.0159152,0.0307788,0.00024419,0.0319384,1.49927,-0.000273244,0.005,44.0548,-0.015523,-0.808153,-0.0746385,0.226995,0.0407077,1.16662,1.1053,-1.466,-2.37109,0.967462,-0.901788,0.00820251,0.515877,-0.950991,-0.169381,0.628418,0.0644531,0.181319,-0.116821,23.4648,23.3371,23.1811,23.2662,23.2236,23.2946,23.1385,
33,6.27401,1.53029,3.15203,4.23912,6.27096,2.00141,1.55355,0.0189068,-0.092032,-0.0275499,0.0334921,0.00269154,-0.00301371,1.0582e-05,0.144211,-5.84878,0.572516,148.859,1.16826,-154.927,1.71029,-0.0401112,-20,-0.419113,20,-0.0971452,-1.11071,0.00960124,-0.00042452,0.000152681,0.00019468,0.494434,0.000805795,0.0159152,0.0342237,0.000931724,0.0353635,1.49927,-0.000273244,0.005,44.0548,-0.015523,-0.808153,-0.0746385,0.226995,0.0407077,1.08323,1.32818,-1.4598,-2.54734,0.962983,-0.848603,0.0153658,0.507632,-0.902344,-0.153076,0.717086,0.0685998,0.181453,-0.116821,23.4506,23.3229,23.1669,23.2804,23.2236,23.3087,23.1385,
34,6.27401,1.53029,3.15203,4.23912,6.27096,2.00141,1.55355,0.0189068,-0.092032,-0.0275499,0.0334921,0.00269154,-0.00301371,1.0582e-05,0.140349,-5.76997,0.649136,148.515,1.16224,-154.533,1.62969,-0.0411733,-20,-0.41155,20,-0.101231,-1.11163,0.0102661,-0.000455103,0.000278322,0.000207095,0.494434,0.000805795,0.0159152,0.0342237,0.000931724,0.0353635,1.49874,-0.000291105,0.005,43.9354,-0.0366849,-0.910905,-0.0777811,0.255564,0.0383774,1.08323,1.32818,-1.4598,-2.54734,0.962983,-0.848603,0.0153658,0.507632,-0.902344,-0.153076,0.717086,0.0685998,0.181453,-0.116821,23.4506,23.3229,23.1669,23.2804,23.2236,23.3087,23.1385,
35,6.27401,1.53029,3.15203,4.23912,6.27096,2.00141,1.55355,0.0189068,-0.092032,-0.0275499,0.0334921,0.00269154,-0.00301371,1.0582e-05,0.140349,-5.76997,0.649136,148.515,1.16224,-154.533,1.62969,-0.0411733,-20,-0.41155,20,-0.101231,-1.11163,0.0102661,-0.000455103,0.000278322,0.000207095,0.494434,0.000805795,0.0159152,0.0342237,0.000931724,0.0353635,1.49874,-0.000291105,0.005,43.9354,-0.0366849,-0.910905,-0.0777811,0.255564,0.0383774,1.08323,1.32818,-1.4598,-2.54734,0.962983,-0.848603,0.0153658,0.507632,-0.902344,-0.153076,0.717086,0.0685998,0.181453,-0.116821,23.4506,23.3229,23.1669,23.2804,23.2236,23.3087,23.1385,
36,6.27403,1.53019,3.152,4.23916,6.27096,2.00141,1.55355,0.0172862,-0.0977753,-0.0289004,0.0380452,0.00290363,-0.00437648,1.0582e-05,0.141271,-5.7579,0.648058,148.516,1.16225,-154.522,1.62992,-0.0408958,-20,-0.411524,20,-0.101158,-1.11253,0.0102649,-0.000455103,0.000278322,0.000207095,0.494434,0.000805795,0.0159152,0.0370581,0.00199644,0.0373841,1.49874,-0.000291105,0.005,43.9354,-0.0366849,-0.910905,-0.0777811,0.255564,0.0383774,1.12668,1.58131,-1.40521,-2.71357,0.94728,-0.828374,-0.00157194,0.547911,-0.854156,-0.161334,0.829873,0.0685998,0.169237,-0.120917,23.4648,23.3229,23.1527,23.2662,23.2236,23.2804,23.1243,
37,6.27403,1.53019,3.152,4.23916,6.27096,2.00141,1.55355,0.0172862,-0.0977753,-0.0289004,0.0380452,0.00290363,-0.00437648,1.0582e-05,0.135034,-5.6919,0.769031,148.222,1.15499,-154.186,1.50637,-0.0426109,-20,-0.400532,20,-0.107698,-1.11324,0.0112398,-0.00048682,0.000407287,0.000218292,0.494434,0.000805795,0.0159152,0.0370581,0.00199644,0.0373841,1.49819,-0.000323423,0.005,43.8339,-0.069596,-0.971522,-0.0821123,0.27856,0.0350333,1.12668,1.58131,-1.40521,-2.71357,0.94728,-0.828374,-0.00157194,0.547911,-0.854156,-0.161334,0.829873,0.0685998,0.169237,-0.120917,23.4648,23.3229,23.1527,23.2662,23.2236,23.2804,23.1243,
38,6.27405,1.53009,3.15197,4.2392,6.27097,2.0014,1.55355,0.0165351,-0.101454,-0.0302509,0.0434857,0.00317386,-0.00471857,1.0582e-05,0.136048,-5.67916,0.767771,148.223,1.15512,-154.175,1.50659,-0.0423224,-20,-0.400498,20,-0.107636,-1.11422,0.0112394,-0.00048682,0.000407287,0.000218292,0.494434,0.000805795,0.0159152,0.0395919,0.00272224,0.0386762,1.49819,-0.000323423,0.005,43.8339,-0.069596,-0.971522,-0.0821123,0.27856,0.0350333,1.17546,1.93218,-1.39029,-2.90178,0.983692,-0.870435,0.0175514,0.58819,-0.862098,-0.11308,0.862098,0.076961,0.16521,-0.112865,23.4506,23.3229,23.1527,23.2804,23.2094,23.2946,23.1243,
39,6.27405,1.53009,3.15197,4.2392,6.27097,2.0014,1.55355,0.0165351,-0.101454,-0.0302509,0.0434857,0.00317386,-0.00471857,1.0582e-05,0.131762,-5.61798,0.851603,147.952,1.15019,-153.867,1.42153,-0.0435007,-20,-0.39263,20,-0.112127,-1.11504,0.0120608,-0.00052039,0.000545147,0.00022894,0.494434,0.000805795,0.0159152,0.0395919,0.00272224,0.0386762,1.4976,-0.000360098,0.005,43.7403,-0.0924701,-1.01029,-0.0865383,0.301597,0.0332502,1.17546,1.93218,-1.39029,-2.90178,0.983692,-0.870435,0.0175514,0.58819,-0.862098,-0.11308,0.862098,0.076961,0.16521,-0.112865,23.4506,23.3229,23.1527,23.2804,23.2094,23.2946,23.1243,
40,6.27405,1.53009,3.15197,4.2392,6.27097,2.0014,1.55355,0.0165351,-0.101454,-0.0302509,0.0434857,0.00317386,-0.00471857,1.0582e-05,0.131762,-5.61798,0.851603,147.952,1.15019,-153.867,1.42153,-0.0435007,-20,-0.39263,20,-0.112127,-1.11504,0.0120608,-0.00052039,0.000545147,0.00022894,0.494434,0.000805795,0.0159152,0.0395919,0.00272224,0.0386762,1.4976,-0.000360098,0.005,43.7403,-0.0924701,-1.01029,-0.0865383,0.301597,0.0332502,1.17546,1.93218,-1.39029,-2.90178,0.983692,-0.870435,0.0175514,0.58819,-0.862098,-0.11308,0.862098,0.076961,0.16521,-0.112865,23.4506,23.3229,23.1527,23.2804,23.2094,23.2946,23.1243,
41,6.27406,1.52999,3.15194,4.23925,6.27097,2.0014,1.55355,0.0156657,-0.106418,-0.0318176,0.0491506,0.0038251,-0.0047179,1.05741e-05,0.132828,-5.60383,0.850983,147.954,1.15035,-153.854,1.42119,-0.0431856,-20,-0.392531,20,-0.112085,-1.1161,0.0120622,-0.00052039,0.000545147,0.00022894,0.494434,0.000805795,0.0159152,0.0425341,0.00359717,0.0405092,1.4976,-0.000360098,0.005,43.7403,-0.0924701,-1.01029,-0.0865383,0.301597,0.0332502,1.13987,2.38457,-1.32101,-3.1986,1.0037,-0.86727,-0.0116306,0.596246,-0.902667,-0.105969,0.902488,0.080667,0.153076,-0.116821,23.4506,23.3087,23.1527,23.252,23.2094,23.2946,23.1243,
42,6.27406,1.52999,3.15194,4.23925,6.27097,2.0014,1.55355,0.0156657,-0.106418,-0.0318176,0.0491506,0.0038251,-0.0047179,1.05741e-05,0.127539,-5.53376,0.954267,147.642,1.1438,-153.501,1.3164,-0.0446401,-20,-0.382922,20,-0.117644,-1.11716,0.0130643,-0.000557629,0.000696965,0.000238162,0.494434,0.000805795,0.0159152,0.0425341,0.00359717,0.0405092,1.49696,-0.000425353,0.005,43.6327,-0.120676,-1.06528,-0.0918879,0.328884,0.0304486,1.13987,2.38457,-1.32101,-3.1986,1.0037,-0.86727,-0.0116306,0.596246,-0.902667,-0.105969,0.902488,0.080667,0.153076,-0.116821,23.4506,23.3087,23.1527,23.252,23.2094,23.2946,23.1243,
43,6.27406,1.52999,3.15194,4.23925,6.27097,2.0014,1.55355,0.0156657,-0.106418,-0.0318176,0.0491506,0.0038251,-0.0047179,1.05741e-05,0.127539,-5.53376,0.954267,147.642,1.1438,-153.501,1.3164,-0.0446401,-20,-0.382922,20,-0.117644,-1.11716,0.0130643,-0.000557629,0.000696965,0.000238162,0.494434,0.000805795,0.0159152,0.0425341,0.00359717,0.0405092,1.49696,-0.000425353,0.005,43.6327,-0.120676,-1.06528,-0.0918879,0.328884,0.0304486,1.13987,2.38457,-1.32101,-3.1986,1.0037,-0.86727,-0.0116306,0.596246,-0.902667,-0.105969,0.902488,0.080667,0.153076,-0.116821,23.4506,23.3087,23.1527,23.252,23.2094,23.2946,23.1243,
44,6.27408,1.52987,3.1519,4.23931,6.27098,2.00139,1.55355,0.0156657,-0.11109,-0.0334921,0.0564504,0.00473893,-0.00476995,1.0582e-05,0.128617,-5.51794,0.953437,147.644,1.14391,-153.487,1.31589,-0.0443373,-20,-0.382797,20,-0.117621,-1.11832,0.0130672,-0.000557629,0.000696965,0.000238162,0.494434,0.000805795,0.0159152,0.0458642,0.00418761,0.0421814,1.49696,-0.000425353,0.005,43.6327,-0.120676,-1.06528,-0.0918879,0.328884,0.0304486,1.01859,2.74057,-1.34046,-3.48974,0.980527,-0.819702,-0.012096,0.62847,-0.918598,-0.0644531,0.926654,0.0684814,0.153076,-0.116821,23.479,23.3087,23.1669,23.2804,23.1952,23.2804,23.1101,
45,6.27408,1.52987,3.1519,4.23931,6.27098,2.00139,1.55355,0.0156657,-0.11109,-0.0334921,0.0564504,0.00473893,-0.00476995,1.0582e-05,0.125044,-5.43805,1.02453,147.293,1.1387,-153.088,1.24375,-0.0453199,-20,-0.375668,20,-0.121385,-1.1194,0.0139755,-0.000594665,0.000865421,0.000246406,0.494434,0.000805795,0.0159152,0.0458642,0.00418761,0.0421814,1.49625,-0.000489318,0.005,43.5115,-0.140308,-1.11544,-0.0976866,0.359407,0.0288281,1.01859,2.74057,-1.34046,-3.48974,0.980527,-0.819702,-0.012096,0.62847,-0.918598,-0.0644531,0.926654,0.0684814,0.153076,-0.116821,23.479,23.3087,23.1669,23.2804,23.1952,23.2804,23.1101,
46,6.27408,1.52987,3.1519,4.23931,6.27098,2.00139,1.55355,0.0156657,-0.11109,-0.0334921,0.0564504,0.00473893,-0.00476995,1.0582e-05,0.125044,-5.43805,1.02453,147.293,1.1387,-153.088,1.24375,-0.0453199,-20,-0.375668,20,-0.121385,-1.1194,0.0139755,-0.000594665,0.000865421,0.000246406,0.494434,0.000805795,0.0159152,0.0458642,0.00418761,0.0421814,1.49625,-0.000489318,0.005,43.5115,-0.140308,-1.11544,-0.0976866,0.359407,0.0288281,1.01859,2.74057,-1.34046,-3.48974,0.980527,-0.819702,-0.012096,0.62847,-0.918598,-0.0644531,0.926654,0.0684814,0.153076,-0.116821,23.479,23.3087,23.1669,23.2804,23.1952,23.2804,23.1101,
47,6.27409,1.52976,3.15187,4.23937,6.27098,2.00139,1.55355,0.0151255,-0.113441,-0.033222,0.0629327,0.00520856,-0.00488443,1.0582e-05,0.12609,-5.42269,1.02364,147.295,1.13903,-153.075,1.24368,-0.0450182,-20,-0.375567,20,-0.12133,-1.12058,0.0139761,-0.000594665,0.000865421,0.000246406,0.494434,0.000805795,0.0159152,0.0483428,0.00438783,0.042936,1.49625,-0.000489318,0.005,43.5115,-0.140308,-1.11544,-0.0976866,0.359407,0.0288281,1.08673,3.0783,-1.2206,-3.70628,0.943432,-0.808374,-0.0244439,0.620414,-0.918492,-0.0332184,0.878174,0.076961,0.133178,-0.116891,23.4506,23.3229,23.1527,23.2804,23.2094,23.2804,23.1101,
48,6.27409,1.52976,3.15187,4.23937,6.27098,2.00139,1.55355,0.0151255,-0.113441,-0.033222,0.0629327,0.00520856,-0.00488443,1.0582e-05,0.124782,-5.35901,1.05111,147.019,1.13476,-152.759,1.21218,-0.0453777,-20,-0.372279,20,-0.12276,-1.1214,0.014257,-0.000631211,0.00103335,0.000254559,0.494434,0.000805795,0.0159152,0.0483428,0.00438783,0.042936,1.49553,-0.000554481,0.005,43.4156,-0.148269,-1.13808,-0.099151,0.383554,0.0271088,1.08673,3.0783,-1.2206,-3.70628,0.943432,-0.808374,-0.0244439,0.620414,-0.918492,-0.0332184,0.878174,0.076961,0.133178,-0.116891,23.4506,23.3229,23.1527,23.2804,23.2094,23.2804,23.1101,
49,6.27411,1.52964,3.15184,4.23943,6.27099,2.00138,1.55355,0.0145446,-0.118303,-0.0334921,0.0675244,0.00524367,-0.00498281,1.0582e-05,0.12584,-5.34281,1.05034,147.021,1.13496,-152.745,1.21207,-0.0450786,-20,-0.372151,20,-0.122709,-1.12264,0.0142582,-0.000631211,0.00103335,0.000254559,0.494434,0.000805795,0.0159152,0.0509536,0.00471783,0.0447389,1.49553,-0.000554481,0.005,43.4156,-0.148269,-1.13808,-0.099151,0.383554,0.0271088,1.15033,3.58148,-1.19986,-4.01218,0.984728,-0.843171,0.0115689,0.620414,-0.983042,-0.041081,0.88623,0.0725098,0.12085,-0.112793,23.4506,23.3229,23.1527,23.2662,23.1811,23.2804,23.1243,
50,6.27411,1.52964,3.15184,4.23943,6.27099,2.00138,1.55355,0.0145446,-0.118303,-0.0334921,0.0675244,0.00524367,-0.00498281,1.0582e-05,0.123765,-5.27608,1.09244,146.73,1.13124,-152.414,1.16672,-0.0456492,-20,-0.367613,20,-0.124906,-1.12355,0.0146752,-0.000667879,0.00121048,0.000263665,0.494434,0.000805795,0.0159152,0.0509536,0.00471783,0.0447389,1.49478,-0.000617159,0.005,43.3147,-0.16005,-1.19217,-0.101348,0.409344,0.0261298,1.15033,3.58148,-1.19986,-4.01218,0.984728,-0.843171,0.0115689,0.620414,-0.983042,-0.041081,0.88623,0.0725098,0.12085,-0.112793,23.4506,23.3229,23.1527,23.2662,23.1811,23.2804,23.1243,
51,6.27411,1.52964,3.15184,4.23943,6.27099,2.00138,1.55355,0.0145446,-0.118303,-0.0334921,0.0675244,0.00524367,-0.00498281,1.0582e-05,0.123765,-5.27608,1.09244,146.73,1.13124,-152.414,1.16672,-0.0456492,-20,-0.367613,20,-0.124906,-1.12355,0.0146752,-0.000667879,0.00121048,0.000263665,0.494434,0.000805795,0.0159152,0.0509536,0.00471783,0.0447389,1.49478,-0.000617159,0.005,43.3147,-0.16005,-1.19217,-0.101348,0.409344,0.0261298,1.15033,3.58148,-1.19986,-4.01218,0.984728,-0.843171,0.0115689,0.620414,-0.983042,-0.041081,0.88623,0.0725098,0.12085,-0.112793,23.4506,23.3229,23.1527,23.2662,23.1811,23.2804,23.1243,
52,6.27412,1.52952,3.1518,4.23951,6.27099,2.00138,1.55355,0.0145853,-0.125325,-0.0328507,0.0711512,0.00506592,-0.00539804,1.0574e-05,0.124927,-5.2584,1.09169,146.732,1.13153,-152.398,1.16667,-0.0453437,-20,-0.367425,20,-0.124872,-1.12487,0.0146774,-0.000667879,0.00121048,0.000263665,0.494434,0.000805795,0.0159152,0.0538713,0.00452526,0.04738,1.49478,-0.000617159,0.005,43.3147,-0.16005,-1.19217,-0.101348,0.409344,0.0261298,1.11311,4.11826,-1.10381,-4.44885,1.02035,-0.827129,0.00243206,0.644582,-0.991,-0.0241699,0.926549,0.0845947,0.108839,-0.116891,23.4648,23.2946,23.1527,23.2662,23.1952,23.2804,23.1101,
53,6.27412,1.52952,3.1518,4.23951,6.27099,2.00138,1.55355,0.0145853,-0.125325,-0.0328507,0.0711512,0.00506592,-0.00539804,1.0574e-05,0.125887,-5.18298,1.07653,146.411,1.1301,-152.029,1.17714,-0.0450799,-20,-0.367443,20,-0.123903,-1.12572,0.0146531,-0.000706109,0.00140172,0.000272527,0.494434,0.000805795,0.0159152,0.0538713,0.00452526,0.04738,1.49396,-0.000693048,0.005,43.2026,-0.156549,-1.2714,-0.101631,0.437478,0.0268756,1.11311,4.11826,-1.10381,-4.44885,1.02035,-0.827129,0.00243206,0.644582,-0.991,-0.0241699,0.926549,0.0845947,0.108839,-0.116891,23.4648,23.2946,23.1527,23.2662,23.1952,23.2804,23.1101,
54,6.27412,1.52952,3.1518,4.23951,6.27099,2.00138,1.55355,0.0145853,-0.125325,-0.0328507,0.0711512,0.00506592,-0.00539804,1.0574e-05,0.125887,-5.18298,1.07653,146.411,1.1301,-152.029,1.17714,-0.0450799,-20,-0.367443,20,-0.123903,-1.12572,0.0146531,-0.000706109,0.00140172,0.000272527,0.494434,0.000805795,0.0159152,0.0538713,0.00452526,0.04738,1.49396,-0.000693048,0.005,43.2026,-0.156549,-1.2714,-0.101631,0.437478,0.0268756,1.11311,4.11826,-1.10381,-4.44885,1.02035,-0.827129,0.00243206,0.644582,-0.991,-0.0241699,0.926549,0.0845947,0.108839,-0.116891,23.4648,23.2946,23.1527,23.2662,23.1952,23.2804,23.1101,
55,6.27412,1.52952,3.1518,4.23951,6.27099,2.00138,1.55355,0.0145853,-0.125325,-0.0328507,0.0711512,0.00506592,-0.00539804,1.0574e-05,0.125887,-5.18298,1.07653,146.411,1.1301,-152.029,1.17714,-0.0450799,-20,-0.367443,20,-0.123903,-1.12572,0.0146531,-0.000706109,0.00140172,0.000272527,0.494434,0.000805795,0.0159152,0.0538713,0.00452526,0.04738,1.49396,-0.000693048,0.005,43.2026,-0.156549,-1.2714,-0.101631,0.437478,0.0268756,1.11311,4.11826,-1.10381,-4.44885,1.02035,-0.827129,0.00243206,0.644582,-0.991,-0.0241699,0.926549,0.0845947,0.108839,-0.116891,23.4648,23.2946,23.1527,23.2662,23.1952,23.2804,23.1101,
56,6.27414,1.52938,3.15177,4.23958,6.27099,2.00137,1.55355,0.0145705,-0.128774,-0.0326818,0.0737366,0.00506592,-0.0062213,1.05821e-05,0.126945,-5.16533,1.07569,146.413,1.1306,-152.014,1.17786,-0.0448006,-20,-0.367262,20,-0.123808,-1.12715,0.0146517,-0.000706109,0.00140172,0.000272527,0.494434,0.000805795,0.0159152,0.0555297,0.00449436,0.0485989,1.49396,-0.000693048,0.005,43.2026,-0.156549,-1.2714,-0.101631,0.437478,0.0268756,1.01787,4.50191,-1.13668,-4.89553,1.02035,-0.744724,0.0298808,0.644582,-0.894287,-0.0332184,0.934883,0.0845947,0.108839,-0.116821,23.4648,23.3087,23.1527,23.252,23.1952,23.2662,23.1101,
57,6.27414,1.52938,3.15177,4.23958,6.27099,2.00137,1.55355,0.0145705,-0.128774,-0.0326818,0.0737366,0.00506592,-0.0062213,1.05821e-05,0.126947,-5.11471,1.0776,146.196,1.12943,-151.764,1.17364,-0.0447999,-20,-0.366283,20,-0.123814,-1.12768,0.0147821,-0.00074021,0.00160235,0.000284921,0.494434,0.000805795,0.0159152,0.0555297,0.00449436,0.0485989,1.4931,-0.00075253,0.005,43.127,-0.157407,-1.30797,-0.102761,0.455929,0.0273228,1.01787,4.50191,-1.13668,-4.89553,1.02035,-0.744724,0.0298808,0.644582,-0.894287,-0.0332184,0.934883,0.0845947,0.108839,-0.116821,23.4648,23.3087,23.1527,23.252,23.1952,23.2662,23.1101,
58,6.27415,1.52925,3.15174,4.23966,6.27099,2.00136,1.55355,0.0140451,-0.132482,-0.0329185,0.074817,0.00465219,-0.00776711,0,0.127975,-5.09776,1.07714,146.198,1.12958,-151.75,1.17355,-0.0445189,-20,-0.366103,20,-0.123764,-1.12905,0.0147834,-0.00074021,0.00160235,0.000284921,0.494434,0.000805795,0.0159152,0.0568264,0.00473686,0.0498868,1.4931,-0.00075253,0.005,43.127,-0.157407,-1.30797,-0.102761,0.455929,0.0273228,1.11992,4.91677,-1.01661,-5.2233,0.9847,-0.677058,0.0130459,0.636526,-0.90238,-0.041081,0.991098,0.080667,0.100708,-0.124943,23.4648,23.2946,23.1385,23.2378,23.2094,23.2662,23.1101,
59,6.27415,1.52925,3.15174,4.23966,6.27099,2.00136,1.55355,0.0140451,-0.132482,-0.0329185,0.074817,0.00465219,-0.00776711,0,0.126259,-5.05534,1.11118,146.013,1.12781,-151.537,1.13797,-0.0449908,-20,-0.362622,20,-0.125538,-1.12937,0.0151053,-0.000776094,0.00179481,0.000293421,0.494434,0.000805795,0.0159152,0.0568264,0.00473686,0.0498868,1.49226,-0.000821402,0.005,43.0629,-0.166748,-1.3466,-0.10443,0.47012,0.0273641,1.11992,4.91677,-1.01661,-5.2233,0.9847,-0.677058,0.0130459,0.636526,-0.90238,-0.041081,0.991098,0.080667,0.100708,-0.124943,23.4648,23.2946,23.1385,23.2378,23.2094,23.2662,23.1101,
60,6.27415,1.52925,3.15174,4.23966,6.27099,2.00136,1.55355,0.0140451,-0.132482,-0.0329185,0.074817,0.00465219,-0.00776711,0,0.126259,-5.05534,1.11118,146.013,1.12781,-151.537,1.13797,-0.0449908,-20,-0.362622,20,-0.125538,-1.12937,0.0151053,-0.000776094,0.00179481,0.000293421,0.494434,0.000805795,0.0159152,0.0568264,0.00473686,0.0498868,1.49226,-0.000821402,0.005,43.0629,-0.166748,-1.3466,-0.10443,0.47012,0.0273641,1.11992,4.91677,-1.01661,-5.2233,0.9847,-0.677058,0.0130459,0.636526,-0.90238,-0.041081,0.991098,0.080667,0.100708,-0.124943,23.4648,23.2946,23.1385,23.2378,23.2094,23.2662,23.1101,
61,6.27417,1.52912,3.15171,4.23973,6.271,2.00134,1.55355,0.0150461,-0.134372,-0.0340323,0.0772479,0.00456366,-0.0103961,0,0.127455,-5.03809,1.11006,146.015,1.12804,-151.522,1.13814,-0.0447008,-20,-0.362443,20,-0.125501,-1.13074,0.0151074,-0.000776094,0.00179481,0.000293421,0.494434,0.000805795,0.0159152,0.0580196,0.00465392,0.0503158,1.49226,-0.000821402,0.005,43.0629,-0.166748,-1.3466,-0.10443,0.47012,0.0273641,1.23938,5.47761,-0.9784,-5.55977,0.913196,-0.705996,0.0130459,0.660694,-0.895194,-0.041081,1.06351,0.10103,0.0967636,-0.124943,23.4648,23.3229,23.1527,23.252,23.2094,23.2662,23.1101,
62,6.27417,1.52912,3.15171,4.23973,6.271,2.00134,1.55355,0.0150461,-0.134372,-0.0340323,0.0772479,0.00456366,-0.0103961,0,0.127658,-4.99637,1.10744,145.839,1.12939,-151.315,1.14264,-0.0446449,-20,-0.361982,20,-0.125221,-1.13069,0.0154723,-0.000813304,0.00198991,0.000303524,0.494434,0.000805795,0.0159152,0.0580196,0.00465392,0.0503158,1.4914,-0.000883056,0.005,43.0013,-0.166109,-1.35947,-0.108151,0.481292,0.0298641,1.23938,5.47761,-0.9784,-5.55977,0.913196,-0.705996,0.0130459,0.660694,-0.895194,-0.041081,1.06351,0.10103,0.0967636,-0.124943,23.4648,23.3229,23.1527,23.252,23.2094,23.2662,23.1101,
63,6.27417,1.52912,3.15171,4.23973,6.271,2.00134,1.55355,0.0150461,-0.134372,-0.0340323,0.0772479,0.00456366,-0.0103961,0,0.127658,-4.99637,1.10744,145.839,1.12939,-151.315,1.14264,-0.0446449,-20,-0.361982,20,-0.125221,-1.13069,0.0154723,-0.000813304,0.00198991,0.000303524,0.494434,0.000805795,0.0159152,0.0580196,0.00465392,0.0503158,1.4914,-0.000883056,0.005,43.0013,-0.166109,-1.35947,-0.108151,0.481292,0.0298641,1.23938,5.47761,-0.9784,-5.55977,0.913196,-0.705996,0.0130459,0.660694,-0.895194,-0.041081,1.06351,0.10103,0.0967636,-0.124943,23.4648,23.3229,23.1527,23.252,23.2094,23.2662,23.1101,
64,6.27418,1.52899,3.15167,4.23982,6.271,2.00133,1.55355,0.0151255,-0.133698,-0.0351076,0.0817505,0.00426604,-0.0137765,0,0.128879,-4.97843,1.10692,145.841,1.12984,-151.299,1.14262,-0.0443238,-20,-0.361792,20,-0.125172,-1.13209,0.0154737,-0.000813304,0.00198991,0.000303524,0.494434,0.000805795,0.0159152,0.0591164,0.00490115,0.0496008,1.4914,-0.000883056,0.005,43.0013,-0.166109,-1.35947,-0.108151,0.481292,0.0298641,1.17493,6.04464,-0.907427,-6.05387,0.987526,-0.714409,0.0427455,0.612305,-0.942765,-0.0180152,1.11185,0.100708,0.104814,-0.112865,23.4222,23.3229,23.1385,23.252,23.1952,23.2804,23.1101,
65,6.27418,1.52899,3.15167,4.23982,6.271,2.00133,1.55355,0.0151255,-0.133698,-0.0351076,0.0817505,0.00426604,-0.0137765,0,0.126999,-4.93841,1.14361,145.669,1.12907,-151.096,1.1069,-0.0448409,-20,-0.358134,20,-0.127068,-1.13188,0.0159985,-0.000854109,0.00219112,0.000312839,0.494434,0.000805795,0.0159152,0.0591164,0.00490115,0.0496008,1.4905,-0.000966371,0.005,42.9414,-0.176026,-1.33802,-0.111757,0.490227,0.0308532,1.17493,6.04464,-0.907427,-6.05387,0.987526,-0.714409,0.0427455,0.612305,-0.942765,-0.0180152,1.11185,0.100708,0.104814,-0.112865,23.4222,23.3229,23.1385,23.252,23.1952,23.2804,23.1101,
66,6.27418,1.52899,3.15167,4.23982,6.271,2.00133,1.55355,0.0151255,-0.133698,-0.0351076,0.0817505,0.00426604,-0.0137765,0,0.126999,-4.93841,1.14361,145.669,1.12907,-151.096,1.1069,-0.0448409,-20,-0.358134,20,-0.127068,-1.13188,0.0159985,-0.000854109,0.00219112,0.000312839,0.494434,0.000805795,0.0159152,0.0591164,0.00490115,0.0496008,1.4905,-0.000966371,0.005,42.9414,-0.176026,-1.33802,-0.111757,0.490227,0.0308532,1.17493,6.04464,-0.907427,-6.05387,0.987526,-0.714409,0.0427455,0.612305,-0.942765,-0.0180152,1.11185,0.100708,0.104814,-0.112865,23.4222,23.3229,23.1385,23.252,23.1952,23.2804,23.1101,
67,6.27418,1.52899,3.15167,4.23982,6.271,2.00133,1.55355,0.0151255,-0.133698,-0.0351076,0.0817505,0.00426604,-0.0137765,0,0.126999,-4.93841,1.14361,145.669,1.12907,-151.096,1.1069,-0.0448409,-20,-0.358134,20,-0.127068,-1.13188,0.0159985,-0.000854109,0.00219112,0.000312839,0.494434,0.000805795,0.0159152,0.0591164,0.00490115,0.0496008,1.4905,-0.000966371,0.005,42.9414,-0.176026,-1.33802,-0.111757,0.490227,0.0308532,1.17493,6.04464,-0.907427,-6.05387,0.987526,-0.714409,0.0427455,0.612305,-0.942765,-0.0180152,1.11185,0.100708,0.104814,-0.112865,23.4222,23.3229,23.1385,23.252,23.1952,23.2804,23.1101,
68,6.2742,1.52884,3.15163,4.2399,6.27101,2.00131,1.55355,0.0162058,-0.132406,-0.0367333,0.0848106,0.00435491,-0.0162546,0,0.128265,-4.92046,1.14261,145.671,1.12934,-151.08,1.10674,-0.0445303,-20,-0.357942,20,-0.127045,-1.13334,0.0160015,-0.000854109,0.00219112,0.000312839,0.494434,0.000805795,0.0159152,0.0596344,0.00494331,0.0487788,1.4905,-0.000966371,0.005,42.9414,-0.176026,-1.33802,-0.111757,0.490227,0.0308532,1.02741,6.4427,-0.934326,-6.49048,1.01296,-0.658799,0.0189028,0.620414,-1.04749,0.0180152,1.08768,0.108839,0.124943,-0.113439,23.4506,23.2946,23.1385,23.252,23.1811,23.252,23.1101,
69,6.2742,1.52884,3.15163,4.2399,6.27101,2.00131,1.55355,0.0162058,-0.132406,-0.0367333,0.0848106,0.00435491,-0.0162546,0,0.127596,-4.89141,1.15601,145.546,1.13059,-150.934,1.09717,-0.0447144,-20,-0.356372,20,-0.127663,-1.13321,0.0165609,-0.000894784,0.00239857,0.000321341,0.494434,0.000805795,0.0159152,0.0596344,0.00494331,0.0487788,1.48958,-0.00104211,0.005,42.8982,-0.179562,-1.31336,-0.116739,0.497074,0.0330639,1.02741,6.4427,-0.934326,-6.49048,1.01296,-0.658799,0.0189028,0.620414,-1.04749,0.0180152,1.08768,0.108839,0.124943,-0.113439,23.4506,23.2946,23.1385,23.252,23.1811,23.252,23.1101,
70,6.27422,1.52872,3.15159,4.23999,6.27101,2.00129,1.55355,0.0172862,-0.131267,-0.0380837,0.0852643,0.00445433,-0.0168811,0,0.128911,-4.87483,1.15485,145.548,1.13096,-150.919,1.09732,-0.0443883,-20,-0.356202,20,-0.127623,-1.13462,0.0165628,-0.000894784,0.00239857,0.000321341,0.494434,0.000805795,0.0159152,0.0594507,0.0049057,0.0482766,1.48958,-0.00104211,0.005,42.8982,-0.179562,-1.31336,-0.116739,0.497074,0.0330639,1.04515,6.75972,-0.834637,-6.80279,0.972843,-0.631242,0.0470176,0.604463,-1.11255,0.0490066,1.08777,0.116821,0.140991,-0.108765,23.4364,23.2804,23.1385,23.2662,23.1811,23.252,23.1101,
71,6.27422,1.52872,3.15159,4.23999,6.27101,2.00129,1.55355,0.0172862,-0.131267,-0.0380837,0.0852643,0.00445433,-0.0168811,0,0.128689,-4.86097,1.15947,145.488,1.13295,-150.85,1.09716,-0.0444494,-20,-0.355599,20,-0.127787,-1.13477,0.0170269,-0.000936468,0.00259482,0.000331347,0.494434,0.000805795,0.0159152,0.0594507,0.0049057,0.0482766,1.48869,-0.00111602,0.005,42.8773,-0.180652,-1.2983,-0.121169,0.502277,0.035335,1.04515,6.75972,-0.834637,-6.80279,0.972843,-0.631242,0.0470176,0.604463,-1.11255,0.0490066,1.08777,0.116821,0.140991,-0.108765,23.4364,23.2804,23.1385,23.2662,23.1811,23.252,23.1101,
72,6.27424,1.52858,3.15156,4.24007,6.27102,2.00127,1.55355,0.0180383,-0.133023,-0.0399339,0.0856209,0.00460532,-0.0178264,0,0.130026,-4.84366,1.1583,145.49,1.1331,-150.835,1.09714,-0.0441036,-20,-0.355439,20,-0.127746,-1.13615,0.017029,-0.000936468,0.00259482,0.000331347,0.494434,0.000805795,0.0159152,0.0600133,0.00515095,0.0488916,1.48869,-0.00111602,0.005,42.8773,-0.180652,-1.2983,-0.121169,0.502277,0.035335,1.07415,7.15308,-0.795617,-7.11999,0.924421,-0.696562,0.0340929,0.580134,-1.16027,0.0805664,1.16041,0.117099,0.153129,-0.108839,23.4506,23.2804,23.1669,23.2378,23.1811,23.252,23.1101,
73,6.27424,1.52858,3.15156,4.24007,6.27102,2.00127,1.55355,0.0180383,-0.133023,-0.0399339,0.0856209,0.00460532,-0.0178264,0,0.1282,-4.81526,1.1938,145.364,1.13343,-150.691,1.06573,-0.0446058,-20,-0.352065,20,-0.129579,-1.13645,0.0177487,-0.00098025,0.00279199,0.000342933,0.494434,0.000805795,0.0159152,0.0600133,0.00515095,0.0488916,1.48781,-0.00118605,0.005,42.8338,-0.19011,-1.31675,-0.126776,0.512463,0.0368878,1.07415,7.15308,-0.795617,-7.11999,0.924421,-0.696562,0.0340929,0.580134,-1.16027,0.0805664,1.16041,0.117099,0.153129,-0.108839,23.4506,23.2804,23.1669,23.2378,23.1811,23.252,23.1101,
74,6.27424,1.52858,3.15156,4.24007,6.27102,2.00127,1.55355,0.0180383,-0.133023,-0.0399339,0.0856209,0.00460532,-0.0178264,0,0.1282,-4.81526,1.1938,145.364,1.13343,-150.691,1.06573,-0.0446058,-20,-0.352065,20,-0.129579,-1.13645,0.0177487,-0.00098025,0.00279199,0.000342933,0.494434,0.000805795,0.0159152,0.0600133,0.00515095,0.0488916,1.48781,-0.00118605,0.005,42.8338,-0.19011,-1.31675,-0.126776,0.512463,0.0368878,1.07415,7.15308,-0.795617,-7.11999,0.924421,-0.696562,0.0340929,0.580134,-1.16027,0.0805664,1.16041,0.117099,0.153129,-0.108839,23.4506,23.2804,23.1669,23.2378,23.1811,23.252,23.1101,
75,6.27426,1.52845,3.15151,4.24017,6.27103,2.00125,1.55355,0.0199872,-0.135186,-0.0409138,0.0912797,0.0049821,-0.0195415,0,0.12978,-4.79553,1.19213,145.366,1.1339,-150.674,1.06583,-0.0442297,-20,-0.351868,20,-0.129567,-1.13782,0.0177523,-0.00098025,0.00279199,0.000342933,0.494434,0.000805795,0.0159152,0.0622034,0.00470845,0.0494459,1.48781,-0.00118605,0.005,42.8338,-0.19011,-1.31675,-0.126776,0.512463,0.0368878,1.05617,7.51188,-0.710766,-7.49022,0.961521,-0.7609,0.0674862,0.555908,-1.1606,0.121118,1.23269,0.12085,0.140991,-0.11308,23.4364,23.2662,23.1243,23.2378,23.1952,23.252,23.0818,
76,6.27426,1.52845,3.15151,4.24017,6.27103,2.00125,1.55355,0.0199872,-0.135186,-0.0409138,0.0912797,0.0049821,-0.0195415,0,0.132044,-4.73152,1.1512,145.097,1.13617,-150.361,1.10834,-0.0436071,-20,-0.354189,20,-0.127143,-1.1381,0.0180158,-0.00102837,0.0030007,0.000354314,0.494434,0.000805795,0.0159152,0.0622034,0.00470845,0.0494459,1.48686,-0.00127112,0.005,42.7396,-0.179387,-1.33338,-0.131106,0.532998,0.0404064,1.05617,7.51188,-0.710766,-7.49022,0.961521,-0.7609,0.0674862,0.555908,-1.1606,0.121118,1.23269,0.12085,0.140991,-0.11308,23.4364,23.2662,23.1243,23.2378,23.1952,23.252,23.0818,
77,6.27428,1.52829,3.15147,4.24026,6.27104,2.00123,1.55355,0.0216078,-0.13579,-0.0407434,0.0926434,0.00579943,-0.0183853,0,0.133496,-4.7111,1.14894,145.099,1.13639,-150.343,1.10859,-0.0432555,-20,-0.354022,20,-0.127096,-1.13978,0.0180177,-0.00102837,0.0030007,0.000354314,0.494434,0.000805795,0.0159152,0.06275,0.00410182,0.0497874,1.48686,-0.00127112,0.005,42.7396,-0.179387,-1.33338,-0.131106,0.532998,0.0404064,0.9682,7.75134,-0.727314,-7.84151,0.949992,-0.776327,0.04138,0.515688,-1.14404,0.14502,1.15221,0.124943,0.161183,-0.108765,23.4364,23.2804,23.1243,23.2378,23.1811,23.2378,23.0959,
78,6.27428,1.52829,3.15147,4.24026,6.27104,2.00123,1.55355,0.0216078,-0.13579,-0.0407434,0.0926434,0.00579943,-0.0183853,0,0.136802,-4.67829,1.08767,144.963,1.13851,-150.188,1.17105,-0.0423466,-20,-0.358516,20,-0.123658,-1.14049,0.0179791,-0.00107464,0.0032383,0.000365,0.494434,0.000805795,0.0159152,0.06275,0.00410182,0.0497874,1.48581,-0.0013379,0.005,42.6917,-0.163192,-1.34362,-0.133313,0.548736,0.0425331,0.9682,7.75134,-0.727314,-7.84151,0.949992,-0.776327,0.04138,0.515688,-1.14404,0.14502,1.15221,0.124943,0.161183,-0.108765,23.4364,23.2804,23.1243,23.2378,23.1811,23.2378,23.0959,
79,6.27428,1.52829,3.15147,4.24026,6.27104,2.00123,1.55355,0.0216078,-0.13579,-0.0407434,0.0926434,0.00579943,-0.0183853,0,0.136802,-4.67829,1.08767,144.963,1.13851,-150.188,1.17105,-0.0423466,-20,-0.358516,20,-0.123658,-1.14049,0.0179791,-0.00107464,0.0032383,0.000365,0.494434,0.000805795,0.0159152,0.06275,0.00410182,0.0497874,1.48581,-0.0013379,0.005,42.6917,-0.163192,-1.34362,-0.133313,0.548736,0.0425331,0.9682,7.75134,-0.727314,-7.84151,0.949992,-0.776327,0.04138,0.515688,-1.14404,0.14502,1.15221,0.124943,0.161183,-0.108765,23.4364,23.2804,23.1243,23.2378,23.1811,23.2378,23.0959,
80,6.27428,1.52829,3.15147,4.24026,6.27104,2.00123,1.55355,0.0216078,-0.13579,-0.0407434,0.0926434,0.00579943,-0.0183853,0,0.136802,-4.67829,1.08767,144.963,1.13851,-150.188,1.17105,-0.0423466,-20,-0.358516,20,-0.123658,-1.14049,0.0179791,-0.00107464,0.0032383,0.000365,0.494434,0.000805795,0.0159152,0.06275,0.00410182,0.0497874,1.48581,-0.0013379,0.005,42.6917,-0.163192,-1.34362,-0.133313,0.548736,0.0425331,0.9682,7.75134,-0.727314,-7.84151,0.949992,-0.776327,0.04138,0.515688,-1.14404,0.14502,1.15221,0.124943,0.161183,-0.108765,23.4364,23.2804,23.1243,23.2378,23.1811,23.2378,23.0959,
81,6.2743,1.52815,3.15143,4.24035,6.27104,2.00121,1.55355,0.022148,-0.135049,-0.0397043,0.0950743,0.00675773,-0.0202368,0,0.138078,-4.6603,1.08548,144.965,1.13861,-150.172,1.17156,-0.0419923,-20,-0.358443,20,-0.123558,-1.14193,0.0179772,-0.00107464,0.0032383,0.000365,0.494434,0.000805795,0.0159152,0.0632443,0.00368316,0.0492417,1.48581,-0.0013379,0.005,42.6917,-0.163192,-1.34362,-0.133313,0.548736,0.0425331,0.960069,7.93152,-0.605441,-8.07815,0.933695,-0.809696,0.0583772,0.47541,-1.19241,0.145243,1.18457,0.116891,0.14502,-0.108765,23.4222,23.2946,23.1385,23.2378,23.1669,23.2378,23.0676,
82,6.2743,1.52815,3.15143,4.24035,6.27104,2.00121,1.55355,0.022148,-0.135049,-0.0397043,0.0950743,0.00675773,-0.0202368,0,0.140332,-4.63054,1.04364,144.843,1.13803,-150.028,1.21198,-0.0413724,-20,-0.361393,20,-0.121243,-1.14185,0.0178559,-0.00111935,0.00344476,0.000376762,0.494434,0.000805795,0.0159152,0.0632443,0.00368316,0.0492417,1.48487,-0.00139508,0.005,42.6488,-0.152347,-1.32725,-0.133848,0.556667,0.042431,0.960069,7.93152,-0.605441,-8.07815,0.933695,-0.809696,0.0583772,0.47541,-1.19241,0.145243,1.18457,0.116891,0.14502,-0.108765,23.4222,23.2946,23.1385,23.2378,23.1669,23.2378,23.0676,
83,6.2743,1.52815,3.15143,4.24035,6.27104,2.00121,1.55355,0.022148,-0.135049,-0.0397043,0.0950743,0.00675773,-0.0202368,0,0.140332,-4.63054,1.04364,144.843,1.13803,-150.028,1.21198,-0.0413724,-20,-0.361393,20,-0.121243,-1.14185,0.0178559,-0.00111935,0.00344476,0.000376762,0.494434,0.000805795,0.0159152,0.0632443,0.00368316,0.0492417,1.48487,-0.00139508,0.005,42.6488,-0.152347,-1.32725,-0.133848,0.556667,0.042431,0.960069,7.93152,-0.605441,-8.07815,0.933695,-0.809696,0.0583772,0.47541,-1.19241,0.145243,1.18457,0.116891,0.14502,-0.108765,23.4222,23.2946,23.1385,23.2378,23.1669,23.2378,23.0676,
84,6.27433,1.52802,3.1514,4.24045,6.27105,2.00119,1.55355,0.0241308,-0.136129,-0.0367333,0.0948042,0.00776556,-0.0202573,0,0.141749,-4.61275,1.03931,144.845,1.1382,-150.013,1.21426,-0.0410303,-20,-0.361407,20,-0.121082,-1.14331,0.0178498,-0.00111935,0.00344476,0.000376762,0.494434,0.000805795,0.0159152,0.0634617,0.00214986,0.0496601,1.48487,-0.00139508,0.005,42.6488,-0.152347,-1.32725,-0.133848,0.556667,0.042431,0.940596,8.13581,-0.582964,-8.27587,0.898971,-0.923703,0.02715,0.459229,-1.24075,0.12085,1.16866,0.112793,0.153129,-0.105046,23.4364,23.2804,23.1243,23.252,23.1669,23.2378,23.0818,
85,6.27433,1.52802,3.1514,4.24045,6.27105,2.00119,1.55355,0.0241308,-0.136129,-0.0367333,0.0948042,0.00776556,-0.0202573,0,0.150934,-4.58624,0.866292,144.75,1.14304,-149.899,1.38438,-0.0385049,-20,-0.375179,20,-0.111567,-1.14344,0.0167586,-0.00116134,0.00365191,0.000395616,0.494434,0.000805795,0.0159152,0.0634617,0.00214986,0.0496601,1.48393,-0.00139627,0.005,42.6141,-0.106384,-1.3398,-0.130429,0.566563,0.0455712,0.940596,8.13581,-0.582964,-8.27587,0.898971,-0.923703,0.02715,0.459229,-1.24075,0.12085,1.16866,0.112793,0.153129,-0.105046,23.4364,23.2804,23.1243,23.252,23.1669,23.2378,23.0818,
86,6.27435,1.52788,3.15136,4.24055,6.27106,2.00117,1.55355,0.0242686,-0.135288,-0.0348426,0.0977077,0.0088772,-0.020563,0,0.152007,-4.56657,0.864087,144.753,1.14302,-149.882,1.38474,-0.0382006,-20,-0.375089,20,-0.111461,-1.14502,0.0167563,-0.00116134,0.00365191,0.000395616,0.494434,0.000805795,0.0159152,0.064066,0.00166576,0.0492205,1.48393,-0.00139627,0.005,42.6141,-0.106384,-1.3398,-0.130429,0.566563,0.0455712,0.926127,8.31665,-0.532477,-8.42137,0.913574,-1.03531,0.0552001,0.402913,-1.22503,0.0725098,1.21666,0.112793,0.149265,-0.108765,23.4364,23.2804,23.1101,23.252,23.1669,23.2378,23.0959,
87,6.27435,1.52788,3.15136,4.24055,6.27106,2.00117,1.55355,0.0242686,-0.135288,-0.0348426,0.0977077,0.0088772,-0.020563,0,0.15476,-4.53312,0.81317,144.614,1.14124,-149.721,1.43177,-0.0374437,-20,-0.378724,20,-0.108677,-1.14534,0.0164236,-0.00120166,0.00387718,0.000405404,0.494434,0.000805795,0.0159152,0.064066,0.00166576,0.0492205,1.48291,-0.00144382,0.005,42.5653,-0.0932875,-1.32662,-0.129211,0.579094,0.044324,0.926127,8.31665,-0.532477,-8.42137,0.913574,-1.03531,0.0552001,0.402913,-1.22503,0.0725098,1.21666,0.112793,0.149265,-0.108765,23.4364,23.2804,23.1101,23.252,23.1669,23.2378,23.0959,
88,6.27435,1.52788,3.15136,4.24055,6.27106,2.00117,1.55355,0.0242686,-0.135288,-0.0348426,0.0977077,0.0088772,-0.020563,0,0.15476,-4.53312,0.81317,144.614,1.14124,-149.721,1.43177,-0.0374437,-20,-0.378724,20,-0.108677,-1.14534,0.0164236,-0.00120166,0.00387718,0.000405404,0.494434,0.000805795,0.0159152,0.064066,0.00166576,0.0492205,1.48291,-0.00144382,0.005,42.5653,-0.0932875,-1.32662,-0.129211,0.579094,0.044324,0.926127,8.31665,-0.532477,-8.42137,0.913574,-1.03531,0.0552001,0.402913,-1.22503,0.0725098,1.21666,0.112793,0.149265,-0.108765,23.4364,23.2804,23.1101,23.252,23.1669,23.2378,23.0959,
89,6.27438,1.52774,3.15133,4.24065,6.27107,2.00115,1.55355,0.0238702,-0.134509,-0.0328507,0.100206,0.00954344,-0.022148,0,0.155878,-4.51481,0.810091,144.616,1.14114,-149.705,1.43311,-0.0371132,-20,-0.37876,20,-0.108503,-1.1468,0.0164171,-0.00120166,0.00387718,0.000405404,0.494434,0.000805795,0.0159152,0.0645719,0.00131905,0.048679,1.48291,-0.00144382,0.005,42.5653,-0.0932875,-1.32662,-0.129211,0.579094,0.044324,0.850205,8.48577,-0.508641,-8.47591,0.870505,-1.16153,0.0395828,0.410968,-1.26489,0.0332184,1.19249,0.108839,0.140991,-0.108839,23.4364,23.2662,23.1243,23.2378,23.1669,23.2378,23.0959,
90,6.27438,1.52774,3.15133,4.24065,6.27107,2.00115,1.55355,0.0238702,-0.134509,-0.0328507,0.100206,0.00954344,-0.022148,0,0.158013,-4.48457,0.77057,144.491,1.13931,-149.558,1.46837,-0.0365261,-20,-0.381513,20,-0.106343,-1.14679,0.0160772,-0.00124279,0.00408633,0.000421184,0.494434,0.000805795,0.0159152,0.0645719,0.00131905,0.048679,1.48195,-0.0014535,0.005,42.5215,-0.0831766,-1.31037,-0.127451,0.58775,0.0431102,0.850205,8.48577,-0.508641,-8.47591,0.870505,-1.16153,0.0395828,0.410968,-1.26489,0.0332184,1.19249,0.108839,0.140991,-0.108839,23.4364,23.2662,23.1243,23.2378,23.1669,23.2378,23.0959,
91,6.27438,1.52774,3.15133,4.24065,6.27107,2.00115,1.55355,0.0238702,-0.134509,-0.0328507,0.100206,0.00954344,-0.022148,0,0.158013,-4.48457,0.77057,144.491,1.13931,-149.558,1.46837,-0.0365261,-20,-0.381513,20,-0.106343,-1.14679,0.0160772,-0.00124279,0.00408633,0.000421184,0.494434,0.000805795,0.0159152,0.0645719,0.00131905,0.048679,1.48195,-0.0014535,0.005,42.5215,-0.0831766,-1.31037,-0.127451,0.58775,0.0431102,0.850205,8.48577,-0.508641,-8.47591,0.870505,-1.16153,0.0395828,0.410968,-1.26489,0.0332184,1.19249,0.108839,0.140991,-0.108839,23.4364,23.2662,23.1243,23.2378,23.1669,23.2378,23.0959,
92,6.2744,1.52761,3.15129,4.24075,6.27108,2.00113,1.55355,0.0250768,-0.135589,-0.0331883,0.101016,0.0103577,-0.0251191,0,0.159176,-4.46609,0.767447,144.494,1.13878,-149.542,1.4689,-0.0362266,-20,-0.381487,20,-0.106254,-1.14821,0.0160761,-0.00124279,0.00408633,0.000421184,0.494434,0.000805795,0.0159152,0.0650884,0.00101281,0.0487896,1.48195,-0.0014535,0.005,42.5215,-0.0831766,-1.31037,-0.127451,0.58775,0.0431102,0.817781,8.59824,-0.491042,-8.54635,0.877376,-1.30873,0.0446534,0.435133,-1.3054,-0.00805664,1.19249,0.0967636,0.153129,-0.112865,23.4222,23.2662,23.1385,23.2378,23.1811,23.2236,23.0818,
93,6.2744,1.52761,3.15129,4.24075,6.27108,2.00113,1.55355,0.0250768,-0.135589,-0.0331883,0.101016,0.0103577,-0.0251191,0,0.161013,-4.43532,0.733283,144.367,1.13981,-149.391,1.50472,-0.0357216,-20,-0.383793,20,-0.104308,-1.14789,0.01623,-0.0012827,0.00429441,0.000434614,0.494434,0.000805795,0.0159152,0.0650884,0.00101281,0.0487896,1.48099,-0.00146028,0.005,42.4771,-0.0741927,-1.31369,-0.13043,0.59389,0.0446162,0.817781,8.59824,-0.491042,-8.54635,0.877376,-1.30873,0.0446534,0.435133,-1.3054,-0.00805664,1.19249,0.0967636,0.153129,-0.112865,23.4222,23.2662,23.1385,23.2378,23.1811,23.2236,23.0818,
94,6.2744,1.52761,3.15129,4.24075,6.27108,2.00113,1.55355,0.0250768,-0.135589,-0.0331883,0.101016,0.0103577,-0.0251191,0,0.161013,-4.43532,0.733283,144.367,1.13981,-149.391,1.50472,-0.0357216,-20,-0.383793,20,-0.104308,-1.14789,0.01623,-0.0012827,0.00429441,0.000434614,0.494434,0.000805795,0.0159152,0.0650884,0.00101281,0.0487896,1.48099,-0.00146028,0.005,42.4771,-0.0741927,-1.31369,-0.13043,0.59389,0.0446162,0.817781,8.59824,-0.491042,-8.54635,0.877376,-1.30873,0.0446534,0.435133,-1.3054,-0.00805664,1.19249,0.0967636,0.153129,-0.112865,23.4222,23.2662,23.1385,23.2378,23.1811,23.2236,23.0818,
95,6.27443,1.52747,3.15126,4.24085,6.2711,2.0011,1.55355,0.0237686,-0.136399,-0.0329519,0.101557,0.0112318,-0.0280901,0,0.161869,-4.41694,0.731416,144.37,1.13906,-149.375,1.50451,-0.0354234,-20,-0.383782,20,-0.104183,-1.14931,0.016227,-0.0012827,0.00429441,0.000434614,0.494434,0.000805795,0.0159152,0.0654549,0.00154318,0.0487949,1.48099,-0.00146028,0.005,42.4771,-0.0741927,-1.31369,-0.13043,0.59389,0.0446162,0.726843,8.66595,-0.482992,-8.57803,0.88648,-1.45665,0.0479381,0.402913,-1.29714,0.0180152,1.2329,0.0846906,0.169237,-0.116891,23.4222,23.2804,23.1385,23.2378,23.1669,23.2378,23.0818,
96,6.27443,1.52747,3.15126,4.24085,6.2711,2.0011,1.55355,0.0237686,-0.136399,-0.0329519,0.101557,0.0112318,-0.0280901,0,0.158704,-4.39102,0.791952,144.253,1.1333,-149.239,1.44194,-0.0362934,-20,-0.37839,20,-0.107526,-1.1491,0.0166863,-0.00132213,0.00450103,0.000445377,0.494434,0.000805795,0.0159152,0.0654549,0.00154318,0.0487949,1.48002,-0.00148405,0.005,42.4371,-0.0908169,-1.31385,-0.132285,0.598899,0.0409308,0.726843,8.66595,-0.482992,-8.57803,0.88648,-1.45665,0.0479381,0.402913,-1.29714,0.0180152,1.2329,0.0846906,0.169237,-0.116891,23.4222,23.2804,23.1385,23.2378,23.1669,23.2378,23.0818,
97,6.27445,1.52733,3.15123,4.24096,6.27111,2.00106,1.55355,0.0232048,-0.138926,-0.0340668,0.104069,0.0112318,-0.0330703,0,0.15971,-4.36997,0.790306,144.256,1.13268,-149.22,1.4417,-0.0360028,-20,-0.378287,20,-0.107442,-1.15055,0.016686,-0.00132213,0.00450103,0.000445377,0.494434,0.000805795,0.0159152,0.0668412,0.0020844,0.0492337,1.48002,-0.00148405,0.005,42.4371,-0.0908169,-1.31385,-0.132285,0.598899,0.0409308,0.705467,8.73187,-0.449012,-8.56894,0.871228,-1.62251,0.038329,0.427078,-1.32937,-0.0113938,1.27297,0.093001,0.185347,-0.112865,23.4222,23.2662,23.1101,23.2094,23.1527,23.2236,23.0818,
98,6.27445,1.52733,3.15123,4.24096,6.27111,2.00106,1.55355,0.0232048,-0.138926,-0.0340668,0.104069,0.0112318,-0.0330703,0,0.156429,-4.3214,0.853332,144.044,1.12938,-148.969,1.37843,-0.036905,-20,-0.372323,20,-0.110799,-1.15007,0.0173607,-0.00136219,0.00472337,0.000457013,0.494434,0.000805795,0.0159152,0.0668412,0.0020844,0.0492337,1.47896,-0.0015138,0.005,42.3636,-0.107946,-1.32701,-0.136212,0.607894,0.0402618,0.705467,8.73187,-0.449012,-8.56894,0.871228,-1.62251,0.038329,0.427078,-1.32937,-0.0113938,1.27297,0.093001,0.185347,-0.112865,23.4222,23.2662,23.1101,23.2094,23.1527,23.2236,23.0818,
99,6.27445,1.52733,3.15123,4.24096,6.27111,2.00106,1.55355,0.0232048,-0.138926,-0.0340668,0.104069,0.0112318,-0.0330703,0,0.156429,-4.3214,0.853332,144.044,1.12938,-148.969,1.37843,-0.036905,-20,-0.372323,20,-0.110799,-1.15007,0.0173607,-0.00136219,0.00472337,0.000457013,0.494434,0.000805795,0.0159152,0.0668412,0.0020844,0.0492337,1.47896,-0.0015138,0.005,42.3636,-0.107946,-1.32701,-0.136212,0.607894,0.0402618,0.705467,8.73187,-0.449012,-8.56894,0.871228,-1.62251,0.038329,0.427078,-1.32937,-0.0113938,1.27297,0.093001,0.185347,-0.112865,23.4222,23.2662,23.1101,23.2094,23.1527,23.2236,23.0818,
100,6.27447,1.52719,3.15119,4.24106,6.27112,2.00103,1.55355,0.0232284,-0.140308,-0.0340724,0.106148,0.0113403,-0.0386239,0,0.157573,-4.30192,0.851373,144.047,1.12887,-148.952,1.37827,-0.0365877,-20,-0.372237,20,-0.110733,-1.15139,0.0173609,-0.00136219,0.00472337,0.000457013,0.494434,0.000805795,0.0159152,0.0678021,0.00208367,0.0491589,1.47896,-0.0015138,0.005,42.3636,-0.107946,-1.32701,-0.136212,0.607894,0.0402618,0.676403,8.83353,-0.431267,-8.48698,0.827849,-1.81613,0.0514636,0.427078,-1.28929,0.0254773,1.25686,0.0849775,0.225622,-0.108765,23.4364,23.2804,23.1243,23.2236,23.1811,23.2236,23.0676,
101,6.27447,1.52719,3.15119,4.24106,6.27112,2.00103,1.55355,0.0232284,-0.140308,-0.0340724,0.106148,0.0113403,-0.0386239,0,0.157398,-4.26166,0.85519,143.878,1.12775,-148.748,1.3736,-0.0366358,-20,-0.371272,20,-0.110864,-1.15054,0.0175723,-0.00140543,0.0049281,0.000467194,0.494434,0.000805795,0.0159152,0.0678021,0.00208367,0.0491589,1.47796,-0.00155661,0.005,42.3046,-0.109208,-1.32477,-0.138115,0.6119,0.0406333,0.676403,8.83353,-0.431267,-8.48698,0.827849,-1.81613,0.0514636,0.427078,-1.28929,0.0254773,1.25686,0.0849775,0.225622,-0.108765,23.4364,23.2804,23.1243,23.2236,23.1811,23.2236,23.0676,
102,6.27447,1.52719,3.15119,4.24106,6.27112,2.00103,1.55355,0.0232284,-0.140308,-0.0340724,0.106148,0.0113403,-0.0386239,0,0.157398,-4.26166,0.85519,143.878,1.12775,-148.748,1.3736,-0.0366358,-20,-0.371272,20,-0.110864,-1.15054,0.0175723,-0.00140543,0.0049281,0.000467194,0.494434,0.000805795,0.0159152,0.0678021,0.00208367,0.0491589,1.47796,-0.00155661,0.005,42.3046,-0.109208,-1.32477,-0.138115,0.6119,0.0406333,0.676403,8.83353,-0.431267,-8.48698,0.827849,-1.81613,0.0514636,0.427078,-1.28929,0.0254773,1.25686,0.0849775,0.225622,-0.108765,23.4364,23.2804,23.1243,23.2236,23.1811,23.2236,23.0676,
103,6.2745,1.52705,3.15116,4.24117,6.27113,2.00098,1.55355,0.0230707,-0.142611,-0.0345725,0.106689,0.011164,-0.0424053,0,0.158495,-4.24214,0.853105,143.881,1.12722,-148.731,1.37374,-0.0363371,-20,-0.371198,20,-0.110781,-1.15185,0.0175715,-0.00140543,0.0049281,0.000467194,0.494434,0.000805795,0.0159152,0.0685673,0.00226943,0.0496793,1.47796,-0.00155661,0.005,42.3046,-0.109208,-1.32477,-0.138115,0.6119,0.0406333,0.619242,8.88251,-0.448022,-8.45065,0.851141,-2.01214,0.0345545,0.427078,-1.25684,0.041081,1.24114,0.088623,0.265869,-0.108839,23.4364,23.2804,23.1101,23.2378,23.1669,23.252,23.0676,
104,6.2745,1.52705,3.15116,4.24117,6.27113,2.00098,1.55355,0.0230707,-0.142611,-0.0345725,0.106689,0.011164,-0.0424053,0,0.157315,-4.2064,0.876022,143.727,1.12624,-148.548,1.35091,-0.0366615,-20,-0.368736,20,-0.11195,-1.15142,0.0179295,-0.00144635,0.00513165,0.000479591,0.494434,0.000805795,0.0159152,0.0685673,0.00226943,0.0496793,1.47694,-0.00158004,0.005,42.2512,-0.115484,-1.34038,-0.140658,0.618165,0.0411827,0.619242,8.88251,-0.448022,-8.45065,0.851141,-2.01214,0.0345545,0.427078,-1.25684,0.041081,1.24114,0.088623,0.265869,-0.108839,23.4364,23.2804,23.1101,23.2378,23.1669,23.252,23.0676,
105,6.27452,1.5269,3.15113,4.24128,6.27114,2.00094,1.55355,0.0226882,-0.144772,-0.0326818,0.109119,0.0117621,-0.044296,0,0.158284,-4.18611,0.87365,143.73,1.1257,-148.53,1.35086,-0.0363789,-20,-0.368673,20,-0.111863,-1.15272,0.017928,-0.00144635,0.00513165,0.000479591,0.494434,0.000805795,0.0159152,0.0698407,0.00194527,0.0502753,1.47694,-0.00158004,0.005,42.2512,-0.115484,-1.34038,-0.140658,0.618165,0.0411827,0.532539,8.89845,-0.466399,-8.39629,0.87267,-2.20187,0.0332602,0.443408,-1.20893,0.0644531,1.24878,0.0846906,0.294178,-0.108765,23.4222,23.2662,23.1243,23.2236,23.1669,23.2236,23.0818,
106,6.27452,1.5269,3.15113,4.24128,6.27114,2.00094,1.55355,0.0226882,-0.144772,-0.0326818,0.109119,0.0117621,-0.044296,0,0.160204,-4.13912,0.838537,143.532,1.12313,-148.299,1.3806,-0.0358511,-20,-0.370794,20,-0.109915,-1.15274,0.0176244,-0.00148611,0.00533773,0.000488483,0.494434,0.000805795,0.0159152,0.0698407,0.00194527,0.0502753,1.47591,-0.00161054,0.005,42.182,-0.106674,-1.35826,-0.139039,0.631831,0.0398505,0.532539,8.89845,-0.466399,-8.39629,0.87267,-2.20187,0.0332602,0.443408,-1.20893,0.0644531,1.24878,0.0846906,0.294178,-0.108765,23.4222,23.2662,23.1243,23.2236,23.1669,23.2236,23.0818,
107,6.27454,1.52675,3.1511,4.2414,6.27115,2.00089,1.55355,0.0232284,-0.147953,-0.0310612,0.11299,0.0117033,-0.0465991,0,0.161266,-4.11613,0.835785,143.535,1.12279,-148.279,1.3811,-0.0355962,-20,-0.370667,20,-0.109841,-1.15412,0.0176237,-0.00148611,0.00533773,0.000488483,0.494434,0.000805795,0.0159152,0.0717982,0.0012738,0.0512028,1.47591,-0.00161054,0.005,42.182,-0.106674,-1.35826,-0.139039,0.631831,0.0398505,0.583028,8.87879,-0.483263,-8.25318,0.834791,-2.33966,0.00508767,0.435133,-1.20852,0.0161133,1.24096,0.0845947,0.306152,-0.104736,23.4364,23.2662,23.1243,23.2236,23.1669,23.2236,23.0818,
108,6.27454,1.52675,3.1511,4.2414,6.27115,2.00089,1.55355,0.0232284,-0.147953,-0.0310612,0.11299,0.0117033,-0.0465991,0,0.165307,-4.05244,0.760817,143.27,1.1236,-147.968,1.45109,-0.0344853,-20,-0.375791,20,-0.105617,-1.15412,0.0171395,-0.00152385,0.00556502,0.000499368,0.494434,0.000805795,0.0159152,0.0717982,0.0012738,0.0512028,1.47476,-0.00162947,0.005,42.089,-0.0870981,-1.38608,-0.137376,0.650452,0.0415997,0.583028,8.87879,-0.483263,-8.25318,0.834791,-2.33966,0.00508767,0.435133,-1.20852,0.0161133,1.24096,0.0845947,0.306152,-0.104736,23.4364,23.2662,23.1243,23.2236,23.1669,23.2236,23.0818,
109,6.27454,1.52675,3.1511,4.2414,6.27115,2.00089,1.55355,0.0232284,-0.147953,-0.0310612,0.11299,0.0117033,-0.0465991,0,0.165307,-4.05244,0.760817,143.27,1.1236,-147.968,1.45109,-0.0344853,-20,-0.375791,20,-0.105617,-1.15412,0.0171395,-0.00152385,0.00556502,0.000499368,0.494434,0.000805795,0.0159152,0.0717982,0.0012738,0.0512028,1.47476,-0.00162947,0.005,42.089,-0.0870981,-1.38608,-0.137376,0.650452,0.0415997,0.583028,8.87879,-0.483263,-8.25318,0.834791,-2.33966,0.00508767,0.435133,-1.20852,0.0161133,1.24096,0.0845947,0.306152,-0.104736,23.4364,23.2662,23.1243,23.2236,23.1669,23.2236,23.0818,
110,6.27456,1.52675,3.15106,4.24151,6.27116,2.00084,1.55355,0.0232284,-0.147953,-0.0285607,0.118303,0.0110684,-0.0464568,0,0.166381,-4.0421,0.758062,143.271,1.12391,-147.958,1.45241,-0.034198,-20,-0.375897,20,-0.105535,-1.15436,0.0171354,-0.00152385,0.00556502,0.000499368,0.494434,0.000805795,0.0159152,0.0733262,0.00051084,0.0510759,1.47476,-0.00162947,0.005,42.089,-0.0870981,-1.38608,-0.137376,0.650452,0.0415997,0.564094,8.87879,-0.470387,-8.0325,0.809707,-2.54947,0.0332943,0.410968,-1.20852,-0.0113938,1.21679,0.0846906,0.318263,-0.108839,23.4222,23.2662,23.0959,23.2378,23.1527,23.2236,23.0676,
111,6.27456,1.52675,3.15106,4.24151,6.27116,2.00084,1.55355,0.0232284,-0.147953,-0.0285607,0.118303,0.0110684,-0.0464568,0,0.170959,-3.99991,0.672498,143.099,1.12559,-147.757,1.53224,-0.0329393,-20,-0.382241,20,-0.100772,-1.1545,0.0163655,-0.00155966,0.0056356,0.000510839,0.494434,0.000805795,0.0159152,0.0733262,0.00051084,0.0510759,1.47427,-0.00164101,0.005,42.0282,-0.0645556,-1.38228,-0.13336,0.664245,0.0433325,0.564094,8.87879,-0.470387,-8.0325,0.809707,-2.54947,0.0332943,0.410968,-1.20852,-0.0113938,1.21679,0.0846906,0.318263,-0.108839,23.4222,23.2662,23.0959,23.2378,23.1527,23.2236,23.0676,
112,6.27456,1.52675,3.15106,4.24151,6.27116,2.00084,1.55355,0.0232284,-0.147953,-0.0285607,0.118303,0.0110684,-0.0464568,0,0.170959,-3.99991,0.672498,143.099,1.12559,-147.757,1.53224,-0.0329393,-20,-0.382241,20,-0.100772,-1.1545,0.0163655,-0.00155966,0.0056356,0.000510839,0.494434,0.000805795,0.0159152,0.0733262,0.00051084,0.0510759,1.47427,-0.00164101,0.005,42.0282,-0.0645556,-1.38228,-0.13336,0.664245,0.0433325,0.564094,8.87879,-0.470387,-8.0325,0.809707,-2.54947,0.0332943,0.410968,-1.20852,-0.0113938,1.21679,0.0846906,0.318263,-0.108839,23.4222,23.2662,23.0959,23.2378,23.1527,23.2236,23.0676,
113,6.27456,1.52675,3.15106,4.24151,6.27116,2.00084,1.55355,0.0232284,-0.147953,-0.0285607,0.118303,0.0110684,-0.0464568,0,0.170959,-3.99991,0.672498,143.099,1.12559,-147.757,1.53224,-0.0329393,-20,-0.382241,20,-0.100772,-1.1545,0.0163655,-0.00155966,0.0056356,0.000510839,0.494434,0.000805795,0.0159152,0.0733262,0.00051084,0.0510759,1.47427,-0.00164101,0.005,42.0282,-0.0645556,-1.38228,-0.13336,0.664245,0.0433325,0.564094,8.87879,-0.470387,-8.0325,0.809707,-2.54947,0.0332943,0.410968,-1.20852,-0.0113938,1.21679,0.0846906,0.318263,-0.108839,23.4222,23.2662,23.0959,23.2378,23.1527,23.2236,23.0676,
114,6.27459,1.5266,3.15104,4.24164,6.27117,2.0008,1.55355,0.023049,-0.149634,-0.0264696,0.122624,0.0105285,-0.0464568,0,0.171893,-3.97778,0.669455,143.101,1.12549,-147.737,1.5336,-0.0327169,-20,-0.382179,20,-0.100645,-1.15587,0.0163611,-0.00155966,0.0056356,0.000510839,0.494434,0.000805795,0.0159152,0.0750116,-5.5127e-05,0.0516392,1.47427,-0.00164101,0.005,42.0282,-0.0645556,-1.38228,-0.13336,0.664245,0.0433325,0.535699,8.97249,-0.513088,-7.92344,0.863993,-2.73301,0.00254535,0.410889,-1.18444,-0.0644531,1.13624,0.100708,0.314235,-0.105046,23.4364,23.2662,23.0959,23.2236,23.1669,23.2236,23.0818,
115,6.27459,1.5266,3.15104,4.24164,6.27117,2.0008,1.55355,0.023049,-0.149634,-0.0264696,0.122624,0.0105285,-0.0464568,0,0.175491,-3.92096,0.602945,142.862,1.12596,-147.461,1.59379,-0.0317276,-20,-0.386719,20,-0.0969031,-1.15636,0.0157562,-0.00159232,0.00585789,0.000524414,0.494434,0.000805795,0.0159152,0.0750116,-5.5127e-05,0.0516392,1.47316,-0.00162929,0.005,41.9443,-0.047225,-1.39917,-0.130125,0.685191,0.0445954,0.535699,8.97249,-0.513088,-7.92344,0.863993,-2.73301,0.00254535,0.410889,-1.18444,-0.0644531,1.13624,0.100708,0.314235,-0.105046,23.4364,23.2662,23.0959,23.2236,23.1669,23.2236,23.0818,
116,6.27461,1.52645,3.15101,4.24176,6.27118,2.00075,1.55355,0.0243088,-0.149482,-0.024849,0.127486,0.0101429,-0.0480774,0,0.176505,-3.89881,0.599459,142.864,1.12584,-147.441,1.59522,-0.0315279,-20,-0.386622,20,-0.0968139,-1.15775,0.0157539,-0.00159232,0.00585789,0.000524414,0.494434,0.000805795,0.0159152,0.0763623,-0.00104826,0.051297,1.47316,-0.00162929,0.005,41.9443,-0.047225,-1.39917,-0.130125,0.685191,0.0445954,0.400416,9.056,-0.539039,-7.85081,0.909354,-2.89951,0.00757388,0.410968,-1.18433,-0.0966797,1.11999,0.104814,0.302151,-0.104736,23.4364,23.2804,23.1101,23.2236,23.1527,23.2378,23.0818,
117,6.27461,1.52645,3.15101,4.24176,6.27118,2.00075,1.55355,0.0243088,-0.149482,-0.024849,0.127486,0.0101429,-0.0480774,0,0.182587,-3.84687,0.485481,142.654,1.12988,-147.193,1.70567,-0.0298558,-20,-0.395145,20,-0.0904341,-1.1577,0.0150369,-0.00162365,0.00608311,0.000537014,0.494434,0.000805795,0.0159152,0.0763623,-0.00104826,0.051297,1.47203,-0.00161475,0.005,41.8699,-0.0169949,-1.38891,-0.12789,0.700418,0.0484127,0.400416,9.056,-0.539039,-7.85081,0.909354,-2.89951,0.00757388,0.410968,-1.18433,-0.0966797,1.11999,0.104814,0.302151,-0.104736,23.4364,23.2804,23.1101,23.2236,23.1527,23.2378,23.0818,
118,6.27461,1.52645,3.15101,4.24176,6.27118,2.00075,1.55355,0.0243088,-0.149482,-0.024849,0.127486,0.0101429,-0.0480774,0,0.182587,-3.84687,0.485481,142.654,1.12988,-147.193,1.70567,-0.0298558,-20,-0.395145,20,-0.0904341,-1.1577,0.0150369,-0.00162365,0.00608311,0.000537014,0.494434,0.000805795,0.0159152,0.0763623,-0.00104826,0.051297,1.47203,-0.00161475,0.005,41.8699,-0.0169949,-1.38891,-0.12789,0.700418,0.0484127,0.400416,9.056,-0.539039,-7.85081,0.909354,-2.89951,0.00757388,0.410968,-1.18433,-0.0966797,1.11999,0.104814,0.302151,-0.104736,23.4364,23.2804,23.1101,23.2236,23.1527,23.2378,23.0818,
119,6.27461,1.52645,3.15101,4.24176,6.27118,2.00075,1.55355,0.0243088,-0.149482,-0.024849,0.127486,0.0101429,-0.0480774,0,0.182587,-3.84687,0.485481,142.654,1.12988,-147.193,1.70567,-0.0298558,-20,-0.395145,20,-0.0904341,-1.1577,0.0150369,-0.00162365,0.00608311,0.000537014,0.494434,0.000805795,0.0159152,0.0763623,-0.00104826,0.051297,1.47203,-0.00161475,0.005,41.8699,-0.0169949,-1.38891,-0.12789,0.700418,0.0484127,0.400416,9.056,-0.539039,-7.85081,0.909354,-2.89951,0.00757388,0.410968,-1.18433,-0.0966797,1.11999,0.104814,0.302151,-0.104736,23.4364,23.2804,23.1101,23.2236,23.1527,23.2378,23.0818,
120,6.27464,1.52631,3.15099,4.2419,6.27119,2.0007,1.55355,0.0259294,-0.145853,-0.0232284,0.129275,0.00936268,-0.0513185,0,0.183604,-3.82596,0.481736,142.656,1.12997,-147.174,1.70802,-0.0296722,-20,-0.395063,20,-0.0903005,-1.1592,0.0150319,-0.00162365,0.00608311,0.000537014,0.494434,0.000805795,0.0159152,0.0759067,-0.00223969,0.0494801,1.47203,-0.00161475,0.005,41.8699,-0.0169949,-1.38891,-0.12789,0.700418,0.0484127,0.46705,9.05945,-0.565283,-7.72518,0.874084,-2.97756,-0.0291152,0.370956,-1.20917,-0.153288,1.06424,0.112793,0.306152,-0.112793,23.4506,23.2804,23.1243,23.2378,23.1669,23.2236,23.0818,
121,6.27464,1.52631,3.15099,4.2419,6.27119,2.0007,1.55355,0.0259294,-0.145853,-0.0232284,0.129275,0.00936268,-0.0513185,0,0.190833,-3.80832,0.344818,142.599,1.13724,-147.097,1.84423,-0.0276846,-20,-0.406033,20,-0.0826886,-1.15839,0.0141514,-0.00165256,0.00631357,0.00055314,0.494434,0.000805795,0.0159152,0.0759067,-0.00223969,0.0494801,1.47086,-0.00158094,0.005,41.8487,0.0197624,-1.3344,-0.125131,0.699521,0.0539168,0.46705,9.05945,-0.565283,-7.72518,0.874084,-2.97756,-0.0291152,0.370956,-1.20917,-0.153288,1.06424,0.112793,0.306152,-0.112793,23.4506,23.2804,23.1243,23.2378,23.1669,23.2236,23.0818,
122,6.27464,1.52631,3.15099,4.2419,6.27119,2.0007,1.55355,0.0259294,-0.145853,-0.0232284,0.129275,0.00936268,-0.0513185,0,0.190833,-3.80832,0.344818,142.599,1.13724,-147.097,1.84423,-0.0276846,-20,-0.406033,20,-0.0826886,-1.15839,0.0141514,-0.00165256,0.00631357,0.00055314,0.494434,0.000805795,0.0159152,0.0759067,-0.00223969,0.0494801,1.47086,-0.00158094,0.005,41.8487,0.0197624,-1.3344,-0.125131,0.699521,0.0539168,0.46705,9.05945,-0.565283,-7.72518,0.874084,-2.97756,-0.0291152,0.370956,-1.20917,-0.153288,1.06424,0.112793,0.306152,-0.112793,23.4506,23.2804,23.1243,23.2378,23.1669,23.2236,23.0818,
123,6.27466,1.52616,3.15097,4.24203,6.2712,2.00064,1.55355,0.0259294,-0.144944,-0.0233215,0.128566,0.00864312,-0.0536645,0,0.1917,-3.78745,0.342196,142.602,1.13697,-147.078,1.84563,-0.0274815,-20,-0.405961,20,-0.082542,-1.15982,0.0141462,-0.00165256,0.00631357,0.00055314,0.494434,0.000805795,0.0159152,0.0754576,-0.00229299,0.048912,1.47086,-0.00158094,0.005,41.8487,0.0197624,-1.3344,-0.125131,0.699521,0.0539168,0.404249,9.13116,-0.554729,-7.53864,0.877097,-3.11235,0.00812665,0.330322,-1.31333,-0.169955,1.07181,0.116821,0.318237,-0.0970148,23.4364,23.2804,23.1385,23.2236,23.1669,23.252,23.0818,
124,6.27466,1.52616,3.15097,4.24203,6.2712,2.00064,1.55355,0.0259294,-0.144944,-0.0233215,0.128566,0.00864312,-0.0536645,0,0.192154,-3.7727,0.333642,142.541,1.13877,-147.004,1.85489,-0.0273566,-20,-0.406426,20,-0.0819971,-1.15944,0.0141853,-0.00168333,0.00653669,0.000569387,0.494434,0.000805795,0.0159152,0.0754576,-0.00229299,0.048912,1.4697,-0.0015549,0.005,41.8273,0.0221428,-1.31736,-0.125922,0.700538,0.0559432,0.404249,9.13116,-0.554729,-7.53864,0.877097,-3.11235,0.00812665,0.330322,-1.31333,-0.169955,1.07181,0.116821,0.318237,-0.0970148,23.4364,23.2804,23.1385,23.2236,23.1669,23.252,23.0818,
125,6.27466,1.52616,3.15097,4.24215,6.27121,2.00059,1.55355,0.0259294,-0.144944,-0.0233215,0.129917,0.00883821,-0.0559102,0,0.191994,-3.76266,0.333867,142.542,1.13759,-146.995,1.85268,-0.0273987,-20,-0.40628,20,-0.0820888,-1.15971,0.0141912,-0.00168333,0.00653669,0.000569387,0.494434,0.000805795,0.0159152,0.0758476,-0.00227537,0.0486518,1.4697,-0.0015549,0.005,41.8273,0.0221428,-1.31736,-0.125922,0.700538,0.0559432,0.404249,9.13116,-0.554729,-7.3924,0.918837,-3.22544,-0.0185677,0.330322,-1.31333,-0.169955,1.14404,0.132996,0.326294,-0.112793,23.4364,23.2804,23.1385,23.2378,23.1527,23.2378,23.0959,
126,6.27469,1.52601,3.15094,4.24215,6.27121,2.00059,1.55355,0.0270097,-0.145853,-0.0237445,0.129917,0.00883821,-0.0559102,0,0.192876,-3.73221,0.333374,142.463,1.13673,-146.887,1.85173,-0.027206,-20,-0.405799,20,-0.0820288,-1.16026,0.0142385,-0.00168853,0.00660954,0.000560202,0.494434,0.000805795,0.0159152,0.0760831,-0.00258415,0.049027,1.46915,-0.00157152,0.005,41.7991,0.0211155,-1.30955,-0.126323,0.701657,0.0552578,0.389641,9.31589,-0.649049,-7.3924,0.918837,-3.22544,-0.0185677,0.323171,-1.35354,-0.161133,1.14404,0.132996,0.326294,-0.112793,23.4364,23.2662,23.1243,23.2378,23.1527,23.2378,23.0959,
127,6.27469,1.52601,3.15094,4.24215,6.27121,2.00059,1.55355,0.0270097,-0.145853,-0.0237445,0.129917,0.00883821,-0.0559102,0,0.195024,-3.71551,0.293166,142.394,1.14025,-146.808,1.89425,-0.0266155,-20,-0.408832,20,-0.0797296,-1.16054,0.0142454,-0.00171312,0.00675302,0.000585747,0.494434,0.000805795,0.0159152,0.0760831,-0.00258415,0.049027,1.46858,-0.00151806,0.005,41.7748,0.0319826,-1.32081,-0.128153,0.709208,0.0583981,0.389641,9.31589,-0.649049,-7.3924,0.918837,-3.22544,-0.0185677,0.323171,-1.35354,-0.161133,1.14404,0.132996,0.326294,-0.112793,23.4364,23.2662,23.1243,23.2378,23.1527,23.2378,23.0959,
128,6.27472,1.52586,3.15092,4.24228,6.27122,2.00053,1.55355,0.0265565,-0.149094,-0.0243088,0.130727,0.00877483,-0.0588813,0,0.195772,-3.69351,0.290248,142.397,1.13957,-146.789,1.8955,-0.0264117,-20,-0.408807,20,-0.0795559,-1.16184,0.0142388,-0.00171312,0.00675302,0.000585747,0.494434,0.000805795,0.0159152,0.0771757,-0.00224899,0.0500054,1.46858,-0.00151806,0.005,41.7748,0.0319826,-1.32081,-0.128153,0.709208,0.0583981,0.277785,9.47217,-0.706404,-7.25836,0.985029,-3.29518,-0.00286745,0.298205,-1.36965,-0.153076,1.16846,0.1372,0.330322,-0.0967636,23.4222,23.2804,23.1101,23.2236,23.1669,23.2378,23.0676,
129,6.27472,1.52586,3.15092,4.24228,6.27122,2.00053,1.55355,0.0265565,-0.149094,-0.0243088,0.130727,0.00877483,-0.0588813,0,0.194146,-3.64932,0.321801,142.204,1.13759,-146.563,1.86293,-0.0268586,-20,-0.405494,20,-0.0811938,-1.16166,0.014617,-0.00174303,0.00697057,0.000604682,0.494434,0.000805795,0.0159152,0.0771757,-0.00224899,0.0500054,1.46744,-0.00147248,0.005,41.7078,0.0232955,-1.35016,-0.130491,0.720065,0.0583772,0.277785,9.47217,-0.706404,-7.25836,0.985029,-3.29518,-0.00286745,0.298205,-1.36965,-0.153076,1.16846,0.1372,0.330322,-0.0967636,23.4222,23.2804,23.1101,23.2236,23.1669,23.2378,23.0676,
130,6.27472,1.52586,3.15092,4.24228,6.27122,2.00053,1.55355,0.0265565,-0.149094,-0.0243088,0.130727,0.00877483,-0.0588813,0,0.194146,-3.64932,0.321801,142.204,1.13759,-146.563,1.86293,-0.0268586,-20,-0.405494,20,-0.0811938,-1.16166,0.014617,-0.00174303,0.00697057,0.000604682,0.494434,0.000805795,0.0159152,0.0771757,-0.00224899,0.0500054,1.46744,-0.00147248,0.005,41.7078,0.0232955,-1.35016,-0.130491,0.720065,0.0583772,0.277785,9.47217,-0.706404,-7.25836,0.985029,-3.29518,-0.00286745,0.298205,-1.36965,-0.153076,1.16846,0.1372,0.330322,-0.0967636,23.4222,23.2804,23.1101,23.2236,23.1669,23.2378,23.0676,
131,6.27474,1.52572,3.15089,4.24243,6.27123,2.00047,1.55355,0.024849,-0.149904,-0.0264696,0.134663,0.00877483,-0.0607104,0,0.194779,-3.6259,0.320349,142.206,1.13685,-146.542,1.86288,-0.0266455,-20,-0.405423,20,-0.081042,-1.16303,0.0146122,-0.00174303,0.00697057,0.000604682,0.494434,0.000805795,0.0159152,0.0785065,-0.000952793,0.0500831,1.46744,-0.00147248,0.005,41.7078,0.0232955,-1.35016,-0.130491,0.720065,0.0583772,0.350744,9.61615,-0.706859,-7.09642,0.953923,-3.29502,-0.040389,0.322668,-1.3375,-0.14502,1.22485,0.137022,0.342407,-0.0970148,23.408,23.2662,23.1101,23.2236,23.1527,23.2236,23.0676,
132,6.27474,1.52572,3.15089,4.24243,6.27123,2.00047,1.55355,0.024849,-0.149904,-0.0264696,0.134663,0.00877483,-0.0607104,0,0.187301,-3.57833,0.462913,141.984,1.12991,-146.288,1.72036,-0.0287012,-20,-0.392924,20,-0.0887833,-1.16331,0.0158141,-0.0017752,0.00720113,0.000619682,0.494434,0.000805795,0.0159152,0.0785065,-0.000952793,0.0500831,1.46623,-0.00145854,0.005,41.6317,-0.0151723,-1.35249,-0.136166,0.735086,0.0553401,0.350744,9.61615,-0.706859,-7.09642,0.953923,-3.29502,-0.040389,0.322668,-1.3375,-0.14502,1.22485,0.137022,0.342407,-0.0970148,23.408,23.2662,23.1101,23.2236,23.1527,23.2236,23.0676,
133,6.27476,1.52556,3.15086,4.24256,6.27124,2.00041,1.55355,0.0226882,-0.148455,-0.0275845,0.140181,0.00900325,-0.0609367,0,0.187964,-3.5547,0.461797,141.986,1.12935,-146.267,1.71995,-0.0284611,-20,-0.392845,20,-0.0886361,-1.16467,0.0158095,-0.0017752,0.00720113,0.000619682,0.494434,0.000805795,0.0159152,0.0796879,0.000248661,0.0493881,1.46623,-0.00145854,0.005,41.6317,-0.0151723,-1.35249,-0.136166,0.735086,0.0553401,0.263148,9.81937,-0.695633,-6.81412,0.975994,-3.32002,0.0129378,0.354492,-1.32168,-0.0649547,1.20852,0.145075,0.338403,-0.104736,23.4364,23.2662,23.1101,23.2662,23.1669,23.2236,23.0818,
134,6.27476,1.52556,3.15086,4.24256,6.27124,2.00041,1.55355,0.0226882,-0.148455,-0.0275845,0.140181,0.00900325,-0.0609367,0,0.180922,-3.50993,0.596275,141.774,1.12107,-146.029,1.58334,-0.0303971,-20,-0.381054,20,-0.0959827,-1.16525,0.016802,-0.00181107,0.00743179,0.000631558,0.494434,0.000805795,0.0159152,0.0796879,0.000248661,0.0493881,1.46501,-0.00147248,0.005,41.5596,-0.0516344,-1.33164,-0.140066,0.751975,0.0508738,0.263148,9.81937,-0.695633,-6.81412,0.975994,-3.32002,0.0129378,0.354492,-1.32168,-0.0649547,1.20852,0.145075,0.338403,-0.104736,23.4364,23.2662,23.1101,23.2662,23.1669,23.2236,23.0818,
135,6.27476,1.52541,3.15084,4.2427,6.27125,2.00035,1.55355,0.0226882,-0.146514,-0.0280901,0.142882,0.00947994,-0.0615822,0,0.181559,-3.48817,0.597648,141.776,1.1205,-146.01,1.57985,-0.0302319,-20,-0.380635,20,-0.0961166,-1.16663,0.0168133,-0.00181107,0.00743179,0.000631558,0.494434,0.000805795,0.0159152,0.0799374,0.000437687,0.0485138,1.46501,-0.00147248,0.005,41.5596,-0.0516344,-1.33164,-0.140066,0.751975,0.0508738,0.263148,10.1194,-0.788743,-6.62224,1.0156,-3.33027,-0.0145261,0.354492,-1.38577,-0.0725098,1.10564,0.128969,0.326294,-0.100789,23.4364,23.2804,23.1101,23.2236,23.1669,23.2236,23.0676,
136,6.27476,1.52541,3.15084,4.2427,6.27125,2.00035,1.55355,0.0226882,-0.146514,-0.0280901,0.142882,0.00947994,-0.0615822,0,0.179688,-3.4605,0.633714,141.652,1.11753,-145.867,1.54376,-0.0307464,-20,-0.377217,20,-0.0980657,-1.1668,0.0172593,-0.00184576,0.00765604,0.000620084,0.494434,0.000805795,0.0159152,0.0799374,0.000437687,0.0485138,1.46382,-0.00161401,0.005,41.5166,-0.0615508,-1.30541,-0.142864,0.761155,0.0494619,0.263148,10.1194,-0.788743,-6.62224,1.0156,-3.33027,-0.0145261,0.354492,-1.38577,-0.0725098,1.10564,0.128969,0.326294,-0.100789,23.4364,23.2804,23.1101,23.2236,23.1669,23.2236,23.0676,
137,6.27476,1.52541,3.15084,4.2427,6.27125,2.00035,1.55355,0.0226882,-0.146514,-0.0280901,0.142882,0.00947994,-0.0615822,0,0.179688,-3.4605,0.633714,141.652,1.11753,-145.867,1.54376,-0.0307464,-20,-0.377217,20,-0.0980657,-1.1668,0.0172593,-0.00184576,0.00765604,0.000620084,0.494434,0.000805795,0.0159152,0.0799374,0.000437687,0.0485138,1.46382,-0.00161401,0.005,41.5166,-0.0615508,-1.30541,-0.142864,0.761155,0.0494619,0.263148,10.1194,-0.788743,-6.62224,1.0156,-3.33027,-0.0145261,0.354492,-1.38577,-0.0725098,1.10564,0.128969,0.326294,-0.100789,23.4364,23.2804,23.1101,23.2236,23.1669,23.2236,23.0676,
138,6.27479,1.52527,3.15081,4.24285,6.27126,2.00029,1.55355,0.0215661,-0.143152,-0.0291705,0.146514,0.0103577,-0.0607719,0,0.18039,-3.43877,0.632027,141.654,1.1169,-145.847,1.54337,-0.0305092,-20,-0.377158,20,-0.0979329,-1.16819,0.0172556,-0.00184576,0.00765604,0.000620084,0.494434,0.000805795,0.0159152,0.0800708,0.00127348,0.0472124,1.46382,-0.00161401,0.005,41.5166,-0.0615508,-1.30541,-0.142864,0.761155,0.0494619,0.241446,10.379,-0.856291,-6.49164,1.08706,-3.29414,0.00342713,0.378748,-1.45834,-0.0569691,1.12793,0.133178,0.318263,-0.104814,23.4222,23.2804,23.1243,23.2094,23.1527,23.2378,23.0534,
139,6.27479,1.52527,3.15081,4.24285,6.27126,2.00029,1.55355,0.0215661,-0.143152,-0.0291705,0.146514,0.0103577,-0.0607719,0,0.175483,-3.41491,0.725652,141.537,1.11085,-145.719,1.45015,-0.031858,-20,-0.369066,20,-0.103074,-1.16876,0.0181068,-0.00188163,0.00788136,0.000630932,0.494434,0.000805795,0.0159152,0.0800708,0.00127348,0.0472124,1.46264,-0.00162451,0.005,41.4771,-0.0869395,-1.26637,-0.14716,0.772292,0.0458571,0.241446,10.379,-0.856291,-6.49164,1.08706,-3.29414,0.00342713,0.378748,-1.45834,-0.0569691,1.12793,0.133178,0.318263,-0.104814,23.4222,23.2804,23.1243,23.2094,23.1527,23.2378,23.0534,
140,6.27479,1.52527,3.15081,4.24285,6.27126,2.00029,1.55355,0.0215661,-0.143152,-0.0291705,0.146514,0.0103577,-0.0607719,0,0.175483,-3.41491,0.725652,141.537,1.11085,-145.719,1.45015,-0.031858,-20,-0.369066,20,-0.103074,-1.16876,0.0181068,-0.00188163,0.00788136,0.000630932,0.494434,0.000805795,0.0159152,0.0800708,0.00127348,0.0472124,1.46264,-0.00162451,0.005,41.4771,-0.0869395,-1.26637,-0.14716,0.772292,0.0458571,0.241446,10.379,-0.856291,-6.49164,1.08706,-3.29414,0.00342713,0.378748,-1.45834,-0.0569691,1.12793,0.133178,0.318263,-0.104814,23.4222,23.2804,23.1243,23.2094,23.1527,23.2378,23.0534,
141,6.27479,1.52527,3.15081,4.24285,6.27126,2.00029,1.55355,0.0215661,-0.143152,-0.0291705,0.146514,0.0103577,-0.0607719,0,0.175483,-3.41491,0.725652,141.537,1.11085,-145.719,1.45015,-0.031858,-20,-0.369066,20,-0.103074,-1.16876,0.0181068,-0.00188163,0.00788136,0.000630932,0.494434,0.000805795,0.0159152,0.0800708,0.00127348,0.0472124,1.46264,-0.00162451,0.005,41.4771,-0.0869395,-1.26637,-0.14716,0.772292,0.0458571,0.241446,10.379,-0.856291,-6.49164,1.08706,-3.29414,0.00342713,0.378748,-1.45834,-0.0569691,1.12793,0.133178,0.318263,-0.104814,23.4222,23.2804,23.1243,23.2094,23.1527,23.2378,23.0534,
142,6.27481,1.52513,3.15078,4.243,6.27127,2.00023,1.55355,0.0205274,-0.143152,-0.0294406,0.148704,0.0115866,-0.0599616,0,0.176134,-3.39259,0.724185,141.539,1.10986,-145.699,1.44891,-0.0316255,-20,-0.368963,20,-0.102991,-1.17015,0.0181061,-0.00188163,0.00788136,0.000630932,0.494434,0.000805795,0.0159152,0.0806917,0.00188423,0.0472719,1.46264,-0.00162451,0.005,41.4771,-0.0869395,-1.26637,-0.14716,0.772292,0.0458571,0.179324,10.5702,-0.865874,-6.36457,1.07855,-3.21721,-0.0452214,0.411204,-1.56301,-0.0332184,1.11208,0.128906,0.286011,-0.0967636,23.4222,23.2804,23.1101,23.2094,23.1385,23.2094,23.0676,
143,6.27481,1.52513,3.15078,4.243,6.27127,2.00023,1.55355,0.0205274,-0.143152,-0.0294406,0.148704,0.0115866,-0.0599616,0,0.172496,-3.35853,0.794108,141.38,1.10321,-145.522,1.37731,-0.0326255,-20,-0.362653,20,-0.106843,-1.17082,0.0187328,-0.00191867,0.00810945,0.000637131,0.494434,0.000805795,0.0159152,0.0806917,0.00188423,0.0472719,1.46145,-0.00165512,0.005,41.4227,-0.106181,-1.26816,-0.150205,0.787384,0.0416931,0.179324,10.5702,-0.865874,-6.36457,1.07855,-3.21721,-0.0452214,0.411204,-1.56301,-0.0332184,1.11208,0.128906,0.286011,-0.0967636,23.4222,23.2804,23.1101,23.2094,23.1385,23.2094,23.0676,
144,6.27483,1.52498,3.15075,4.24316,6.27129,2.00016,1.55355,0.0183666,-0.144443,-0.0288112,0.151572,0.0136803,-0.0591814,0,0.172938,-3.33369,0.793213,141.383,1.10165,-145.499,1.37482,-0.0323823,-20,-0.362537,20,-0.106758,-1.17235,0.0187327,-0.00191867,0.00810945,0.000637131,0.494434,0.000805795,0.0159152,0.0818519,0.00277225,0.0478183,1.46145,-0.00165512,0.005,41.4227,-0.106181,-1.26816,-0.150205,0.787384,0.0416931,0.219696,10.842,-0.858406,-6.17139,1.1285,-3.17722,-0.0203658,0.427002,-1.57104,-0.0490066,1.15213,0.124878,0.269928,-0.108839,23.4364,23.2662,23.1101,23.2236,23.1385,23.2378,23.0818,
145,6.27483,1.52498,3.15075,4.24316,6.27129,2.00016,1.55355,0.0183666,-0.144443,-0.0288112,0.151572,0.0136803,-0.0591814,0,0.167622,-3.28751,0.895297,141.167,1.0898,-145.258,1.26728,-0.0338435,-20,-0.353381,20,-0.112445,-1.1732,0.0194166,-0.00195865,0.00836065,0.000638603,0.494434,0.000805795,0.0159152,0.0818519,0.00277225,0.0478183,1.46014,-0.00170984,0.005,41.3488,-0.134463,-1.28455,-0.152313,0.807274,0.0335885,0.219696,10.842,-0.858406,-6.17139,1.1285,-3.17722,-0.0203658,0.427002,-1.57104,-0.0490066,1.15213,0.124878,0.269928,-0.108839,23.4364,23.2662,23.1101,23.2236,23.1385,23.2378,23.0818,
146,6.27484,1.52484,3.15072,4.24331,6.27131,2.00011,1.55355,0.0172687,-0.145312,-0.0286303,0.153145,0.0170075,-0.0588216,0,0.16798,-3.2647,0.893983,141.169,1.0878,-145.238,1.26425,-0.0336182,-20,-0.353283,20,-0.112387,-1.17466,0.0194182,-0.00195865,0.00836065,0.000638603,0.494434,0.000805795,0.0159152,0.0825297,0.00348084,0.0481846,1.46014,-0.00170984,0.005,41.3488,-0.134463,-1.28455,-0.152313,0.807274,0.0335885,0.186908,11.2018,-0.932111,-5.95452,1.1387,-3.17629,-0.0271702,0.467355,-1.52347,-0.0402832,1.16832,0.104736,0.241733,-0.104736,23.4222,23.2804,23.1101,23.2094,23.1527,23.2094,23.0534,
147,6.27484,1.52484,3.15072,4.24331,6.27131,2.00011,1.55355,0.0172687,-0.145312,-0.0286303,0.153145,0.0170075,-0.0588216,0,0.163723,-3.22918,0.97574,141.003,1.07634,-145.052,1.17964,-0.0347885,-20,-0.345973,20,-0.116995,-1.17528,0.0201949,-0.00199671,0.00859641,0.000637692,0.494434,0.000805795,0.0159152,0.0825297,0.00348084,0.0481846,1.45892,-0.00176239,0.005,41.2918,-0.157297,-1.29554,-0.156225,0.822237,0.0252593,0.186908,11.2018,-0.932111,-5.95452,1.1387,-3.17629,-0.0271702,0.467355,-1.52347,-0.0402832,1.16832,0.104736,0.241733,-0.104736,23.4222,23.2804,23.1101,23.2094,23.1527,23.2094,23.0534,
148,6.27484,1.52484,3.15072,4.24331,6.27131,2.00011,1.55355,0.0172687,-0.145312,-0.0286303,0.153145,0.0170075,-0.0588216,0,0.163723,-3.22918,0.97574,141.003,1.07634,-145.052,1.17964,-0.0347885,-20,-0.345973,20,-0.116995,-1.17528,0.0201949,-0.00199671,0.00859641,0.000637692,0.494434,0.000805795,0.0159152,0.0825297,0.00348084,0.0481846,1.45892,-0.00176239,0.005,41.2918,-0.157297,-1.29554,-0.156225,0.822237,0.0252593,0.186908,11.2018,-0.932111,-5.95452,1.1387,-3.17629,-0.0271702,0.467355,-1.52347,-0.0402832,1.16832,0.104736,0.241733,-0.104736,23.4222,23.2804,23.1101,23.2094,23.1527,23.2094,23.0534,
149,6.27486,1.52469,3.15069,4.24346,6.27133,2.00005,1.55355,0.0165663,-0.145853,-0.0270097,0.156116,0.0192549,-0.0588813,0,0.16419,-3.20585,0.973889,141.005,1.07443,-145.031,1.17683,-0.0345791,-20,-0.345869,20,-0.116987,-1.17674,0.0201989,-0.00199671,0.00859641,0.000637692,0.494434,0.000805795,0.0159152,0.083524,0.00352004,0.0483319,1.45892,-0.00176239,0.005,41.2918,-0.157297,-1.29554,-0.156225,0.822237,0.0252593,0.242789,11.3978,-0.989155,-5.79991,1.18238,-3.18151,-0.0100266,0.475615,-1.51473,-0.0649547,1.18654,0.080667,0.221704,-0.100789,23.408,23.2662,23.1101,23.1952,23.1385,23.2094,23.0534,
150,6.27486,1.52469,3.15069,4.24346,6.27133,2.00005,1.55355,0.0165663,-0.145853,-0.0270097,0.156116,0.0192549,-0.0588813,0,0.163915,-3.16215,0.980378,140.812,1.0668,-144.811,1.16487,-0.0346549,-20,-0.34462,20,-0.117417,-1.17718,0.020268,-0.00203496,0.0088356,0.000633469,0.494434,0.000805795,0.0159152,0.083524,0.00352004,0.0483319,1.45769,-0.00181119,0.005,41.2249,-0.159937,-1.29996,-0.156398,0.838685,0.0196751,0.242789,11.3978,-0.989155,-5.79991,1.18238,-3.18151,-0.0100266,0.475615,-1.51473,-0.0649547,1.18654,0.080667,0.221704,-0.100789,23.408,23.2662,23.1101,23.1952,23.1385,23.2094,23.0534,
151,6.27488,1.52455,3.15067,4.24362,6.27135,1.99998,1.55355,0.0151101,-0.145705,-0.0270097,0.160168,0.0226652,-0.0601844,0,0.164125,-3.13841,0.979457,140.815,1.0643,-144.79,1.1606,-0.0344466,-20,-0.34452,20,-0.117408,-1.1786,0.0202726,-0.00203496,0.0088356,0.000633469,0.494434,0.000805795,0.0159152,0.0846397,0.00443134,0.0480639,1.45769,-0.00181119,0.005,41.2249,-0.159937,-1.29996,-0.156398,0.838685,0.0196751,0.252086,11.7155,-0.941036,-5.69006,1.11872,-3.06702,-0.0280912,0.483466,-1.5229,-0.088623,1.16018,0.0644531,0.205484,-0.108765,23.4222,23.2662,23.0959,23.2236,23.1385,23.2236,23.0534,
152,6.27488,1.52455,3.15067,4.24362,6.27135,1.99998,1.55355,0.0151101,-0.145705,-0.0270097,0.160168,0.0226652,-0.0601844,0,0.158613,-3.09379,1.0849,140.608,1.05086,-144.554,1.05146,-0.0359616,-20,-0.335111,20,-0.123319,-1.17889,0.0212029,-0.00207347,0.00907291,0.000626139,0.494434,0.000805795,0.0159152,0.0846397,0.00443134,0.0480639,1.45644,-0.00187659,0.005,41.1539,-0.189238,-1.29192,-0.160783,0.853302,0.0102031,0.252086,11.7155,-0.941036,-5.69006,1.11872,-3.06702,-0.0280912,0.483466,-1.5229,-0.088623,1.16018,0.0644531,0.205484,-0.108765,23.4222,23.2662,23.0959,23.2236,23.1385,23.2236,23.0534,
153,6.27489,1.52441,3.15064,4.2438,6.27138,1.99992,1.55355,0.0151255,-0.14546,-0.0263307,0.16651,0.0253892,-0.0615822,0,0.159077,-3.06801,1.08328,140.61,1.04855,-144.531,1.04734,-0.0357544,-20,-0.334944,20,-0.123382,-1.18042,0.0212118,-0.00207347,0.00907291,0.000626139,0.494434,0.000805795,0.0159152,0.0863884,0.00450291,0.0476918,1.45644,-0.00187659,0.005,41.1539,-0.189238,-1.29192,-0.160783,0.853302,0.0102031,0.247342,12.0765,-0.915483,-5.47943,1.1371,-3.06739,-0.0153574,0.515688,-1.54696,-0.0966797,1.15235,0.0281982,0.193359,-0.104814,23.408,23.252,23.0959,23.2094,23.1527,23.2094,23.0534,
154,6.27489,1.52441,3.15064,4.2438,6.27138,1.99992,1.55355,0.0151255,-0.14546,-0.0263307,0.16651,0.0253892,-0.0615822,0,0.158474,-3.00747,1.0961,140.344,1.0405,-144.224,1.03035,-0.0359201,-20,-0.3329,20,-0.12412,-1.18068,0.0215544,-0.00211455,0.00933161,0.00061609,0.494434,0.000805795,0.0159152,0.0863884,0.00450291,0.0476918,1.45511,-0.00195212,0.005,41.0615,-0.193651,-1.28075,-0.163382,0.873,0.00484,0.247342,12.0765,-0.915483,-5.47943,1.1371,-3.06739,-0.0153574,0.515688,-1.54696,-0.0966797,1.15235,0.0281982,0.193359,-0.104814,23.408,23.252,23.0959,23.2094,23.1527,23.2094,23.0534,
155,6.27489,1.52441,3.15064,4.2438,6.27138,1.99992,1.55355,0.0151255,-0.14546,-0.0263307,0.16651,0.0253892,-0.0615822,0,0.158474,-3.00747,1.0961,140.344,1.0405,-144.224,1.03035,-0.0359201,-20,-0.3329,20,-0.12412,-1.18068,0.0215544,-0.00211455,0.00933161,0.00061609,0.494434,0.000805795,0.0159152,0.0863884,0.00450291,0.0476918,1.45511,-0.00195212,0.005,41.0615,-0.193651,-1.28075,-0.163382,0.873,0.00484,0.247342,12.0765,-0.915483,-5.47943,1.1371,-3.06739,-0.0153574,0.515688,-1.54696,-0.0966797,1.15235,0.0281982,0.193359,-0.104814,23.408,23.252,23.0959,23.2094,23.1527,23.2094,23.0534,
156,6.2749,1.52425,3.15061,4.24397,6.2714,1.99986,1.55355,0.0140451,-0.145559,-0.0264696,0.172957,0.0259294,-0.0626626,0,0.158949,-2.98118,1.09555,140.347,1.03855,-144.201,1.02625,-0.0357364,-20,-0.332693,20,-0.124216,-1.18223,0.0215651,-0.00211455,0.00933161,0.00061609,0.494434,0.000805795,0.0159152,0.088255,0.00503407,0.0474996,1.45511,-0.00195212,0.005,41.0615,-0.193651,-1.28075,-0.163382,0.873,0.00484,0.22237,12.4904,-0.96436,-5.26354,1.11281,-3.11161,0.000435323,0.499512,-1.55495,-0.11308,1.10402,-0.00402832,0.185347,-0.104736,23.408,23.252,23.0959,23.2094,23.1243,23.2094,23.0534,
157,6.2749,1.52425,3.15061,4.24397,6.2714,1.99986,1.55355,0.0140451,-0.145559,-0.0264696,0.172957,0.0259294,-0.0626626,0,0.155568,-2.9192,1.16087,140.067,1.03146,-143.882,0.956848,-0.0366658,-20,-0.326301,20,-0.127758,-1.18267,0.0221084,-0.00215403,0.00959472,0.000604629,0.494434,0.000805795,0.0159152,0.088255,0.00503407,0.0474996,1.45375,-0.00202697,0.005,40.965,-0.211831,-1.27499,-0.165765,0.894443,0.00112488,0.22237,12.4904,-0.96436,-5.26354,1.11281,-3.11161,0.000435323,0.499512,-1.55495,-0.11308,1.10402,-0.00402832,0.185347,-0.104736,23.408,23.252,23.0959,23.2094,23.1243,23.2094,23.0534,
158,6.27492,1.52411,3.15059,4.24414,6.27143,1.9998,1.55355,0.0145446,-0.143152,-0.0261995,0.179345,0.0253634,-0.063743,0,0.156392,-2.89431,1.1594,140.07,1.03021,-143.859,0.954132,-0.0364922,-20,-0.326063,20,-0.127892,-1.18417,0.0221205,-0.00215403,0.00959472,0.000604629,0.494434,0.000805795,0.0159152,0.0894402,0.00470849,0.0463098,1.45375,-0.00202697,0.005,40.965,-0.211831,-1.27499,-0.165765,0.894443,0.00112488,0.281787,12.7346,-1.00579,-5.11071,1.11937,-3.12366,-0.00750959,0.539855,-1.53129,-0.129909,1.03153,-0.00805664,0.177292,-0.100789,23.408,23.2662,23.1101,23.2094,23.1385,23.2236,23.0534,
159,6.27492,1.52411,3.15059,4.24414,6.27143,1.9998,1.55355,0.0145446,-0.143152,-0.0261995,0.179345,0.0253634,-0.063743,0,0.158049,-2.84424,1.12898,139.854,1.03079,-143.609,0.982527,-0.0360366,-20,-0.327752,20,-0.126106,-1.1843,0.0220532,-0.00219294,0.00984919,0.000595224,0.494434,0.000805795,0.0159152,0.0894402,0.00470849,0.0463098,1.45243,-0.00209006,0.005,40.8897,-0.203956,-1.2393,-0.16636,0.91044,0.0027105,0.281787,12.7346,-1.00579,-5.11071,1.11937,-3.12366,-0.00750959,0.539855,-1.53129,-0.129909,1.03153,-0.00805664,0.177292,-0.100789,23.408,23.2662,23.1101,23.2094,23.1385,23.2236,23.0534,
160,6.27493,1.52397,3.15056,4.24433,6.27145,1.99973,1.55355,0.0151255,-0.141531,-0.0272798,0.183936,0.0240738,-0.0644475,0,0.158974,-2.81949,1.1281,139.857,1.02968,-143.587,0.97949,-0.0358638,-20,-0.327463,20,-0.12629,-1.18578,0.0220684,-0.00219294,0.00984919,0.000595224,0.494434,0.000805795,0.0159152,0.0903181,0.00466399,0.0455282,1.45243,-0.00209006,0.005,40.8897,-0.203956,-1.2393,-0.16636,0.91044,0.0027105,0.299597,13.0946,-0.92011,-5.0042,1.05085,-3.06375,0.00589728,0.515625,-1.58716,-0.121118,0.943866,-0.00569691,0.177246,-0.100708,23.4222,23.252,23.1101,23.2094,23.1385,23.2236,23.0676,
161,6.27493,1.52397,3.15056,4.24433,6.27145,1.99973,1.55355,0.0151255,-0.141531,-0.0272798,0.183936,0.0240738,-0.0644475,0,0.158852,-2.77601,1.13114,139.666,1.03145,-143.367,0.977426,-0.0358973,-20,-0.326504,20,-0.126296,-1.18598,0.0223563,-0.00223316,0.0101011,0.000584792,0.494434,0.000805795,0.0159152,0.0903181,0.00466399,0.0455282,1.4511,-0.00216159,0.005,40.8233,-0.204767,-1.21585,-0.169096,0.925064,0.00563526,0.299597,13.0946,-0.92011,-5.0042,1.05085,-3.06375,0.00589728,0.515625,-1.58716,-0.121118,0.943866,-0.00569691,0.177246,-0.100708,23.4222,23.252,23.1101,23.2094,23.1385,23.2236,23.0676,
