LWingKi/MAS_RnD/main/log/us2/contactless/7/grasp_log_12_08_2023_14_59_47.csv
Index,joint_angle_0,joint_angle_1,joint_angle_2,joint_angle_3,joint_angle_4,joint_angle_5,joint_angle_6,joint_velocity_0,joint_velocity_1,joint_velocity_2,joint_velocity_3,joint_velocity_4,joint_velocity_5,joint_velocity_6,joint_accel_0,joint_accel_1,joint_accel_2,joint_accel_3,joint_accel_4,joint_accel_5,joint_accel_6,constraint_tau_0,constraint_tau_1,constraint_tau_2,constraint_tau_3,constraint_tau_4,constraint_tau_5,constraint_tau_6,current_pos_x,current_pos_y,current_pos_z,target_pos_x,target_pos_y,target_pos_z,current_vel_x,current_vel_y,current_vel_z,target_vel_x,target_vel_y,target_vel_z,control_signal_linear_x,control_signal_linear_y,control_signal_linear_z,control_signal_angular_x,control_signal_angular_y,control_signal_angular_z,joint_torque_0,joint_torque_1,joint_torque_2,joint_torque_3,joint_torque_4,joint_torque_5,joint_torque_6,actuar_current_0,actuar_current_1,actuar_current_2,actuar_current_3,actuar_current_4,actuar_current_5,actuar_current_6,actuar_voltage_0,actuar_voltage_1,actuar_voltage_2,actuar_voltage_3,actuar_voltage_4,actuar_voltage_5,actuar_voltage_6
0,6.27282,1.38564,3.15334,4.11717,6.27424,1.97499,1.55574,0.00384142,0.0298134,0.000126985,0.114521,0.000158969,0.0119338,1.85324e-05,0.37564,-6.20377,-0.418234,1.69342,0.502859,-22.7591,0.930084,0.00134411,-20,-0.425449,0.574108,-0.0412232,0.657066,0.0206803,-8.91705e-05,0.00550784,-5.78936e-05,0.494201,0.00127053,0.0732287,0.0267917,-0.00133466,-0.0127105,1.98293,-0.00122155,0.005,1.78463,-0.00109939,0.0045,-0.24076,14.8712,-0.156313,1.58355,0.127747,-0.190851,4.78751,0.18482,6.19257,0.278027,0.193359,0.314312,0.0725098,-0.0644531,-0.100708,-0.55188,-0.137022,23.4932,23.3655,23.1952,23.3087,23.2378,23.2946,23.1669,
1,6.27283,1.38567,3.15334,4.11728,6.27424,1.975,1.55574,0.003717,0.0283602,0.000126983,0.114405,0.000169696,0.0159277,1.0574e-05,0.333222,-2.87983,-0.308425,4.068,0.481264,-9.83742,0.574311,-0.00993897,-18.9808,-0.373557,0.984232,-0.0399039,1.93233,-0.0022042,0,0,0,0.494201,0.00127053,0.0732287,0.0270674,-0.0012754,-0.0117104,2,0,0.005,1.77589,0.00120119,0.0159395,-0.0165257,2.89889,0.0665281,1.55198,0.168044,-0.203848,4.70217,0.186501,6.28497,0.246512,0.193527,0.34681,0.0569691,-0.072956,-0.093001,-0.543823,-0.145075,23.4648,23.3513,23.1811,23.3229,23.2378,23.2946,23.1669,
2,6.27283,1.3857,3.15334,4.1174,6.27424,1.97503,1.55574,0.00384237,0.0275499,0.000127079,0.112093,0.000169696,0.0195056,1.05901e-05,0.334684,-2.99773,-0.310913,3.97962,0.486748,-10.3021,0.583042,-0.00955293,-19.0527,-0.375321,0.96959,-0.0399063,1.8857,-0.00182576,-1.06124e-06,0.000101973,6.58937e-07,0.494201,0.00127053,0.0732287,0.0265726,-0.00132252,-0.0109651,1.99947,1.89512e-05,0.005,1.77516,0.00116491,0.0150394,-0.0201727,3.33412,0.0625125,1.5306,0.185544,-0.188894,4.68035,0.187267,6.33621,0.257444,0.201577,0.362549,0.0569691,-0.0649547,-0.0967636,-0.56805,-0.157156,23.5074,23.3513,23.1811,23.3371,23.2378,23.2946,23.1527,
3,6.27284,1.3857,3.15334,4.11751,6.27424,1.97505,1.55574,0.00384142,0.0275499,0.000127079,0.11128,0.000180163,0.024849,0,0.335614,-3.09968,-0.307098,3.90534,0.508308,-10.7017,0.589811,-0.00931253,-19.115,-0.376429,0.95779,-0.0398015,1.84586,-0.00166109,-1.75596e-06,0.000216742,3.73357e-06,0.494201,0.00127053,0.0732287,0.0263403,-0.0013145,-0.0103807,1.99889,5.20943e-05,0.005,1.77509,0.00123715,0.0143685,-0.0217134,3.70628,0.0737552,1.50351,0.185544,-0.184524,4.67401,0.180707,6.36761,0.247157,0.201577,0.362549,0.0649547,-0.0241699,-0.0889885,-0.572021,-0.149102,23.479,23.3513,23.1669,23.3229,23.2378,23.2946,23.1527,
4,6.27284,1.38572,3.15334,4.11751,6.27424,1.97508,1.55574,0.00370895,0.0264696,0.000126983,0.11128,0.000180302,0.0259294,0,0.337161,-3.2373,-0.307851,3.80421,0.520487,-11.2367,0.602351,-0.008895,-19.1979,-0.378317,0.939899,-0.0397683,1.79276,-0.00101069,-4.01166e-06,0.00035107,4.85288e-06,0.494201,0.00127053,0.0732287,0.0265688,-0.00125822,-0.00984101,1.99826,7.39239e-05,0.005,1.77473,0.00124959,0.0138427,-0.0280332,4.20485,0.0743245,1.50432,0.205348,-0.161255,4.67401,0.183126,6.37801,0.268542,0.209628,0.370693,0.0649547,-0.0241699,-0.093001,-0.588149,-0.153129,23.5074,23.3513,23.1669,23.3229,23.2378,23.2804,23.1527,
5,6.27284,1.38575,3.15334,4.11762,6.27424,1.97511,1.55574,0.00357471,0.0260799,0.000124432,0.109389,0.000174999,0.0285876,0,0.337274,-3.25325,-0.306516,3.79176,0.525588,-11.3039,0.602716,-0.00886327,-19.2084,-0.378461,0.938544,-0.0397448,1.78573,-0.0010489,-3.7408e-06,0.000350669,7.66038e-06,0.494201,0.00127053,0.0732287,0.0261056,-0.00120418,-0.0093674,1.99837,9.94438e-05,0.005,1.77462,0.00122189,0.0133569,-0.0276323,4.26859,0.0774371,1.49366,0.228093,-0.132359,4.74364,0.17234,6.36231,0.255383,0.225586,0.386719,0.0509547,0.0180152,-0.0887145,-0.572149,-0.153129,23.4932,23.3513,23.1811,23.3087,23.2378,23.3087,23.1527,
6,6.27284,1.38578,3.15334,4.11773,6.27424,1.97514,1.55574,0.0031791,0.0256593,0.000124432,0.109279,0.000174999,0.0296806,0,0.338336,-3.34474,-0.307736,3.72477,0.53137,-11.6621,0.60848,-0.00857533,-19.2644,-0.379796,0.927768,-0.0397386,1.75002,-0.000854893,-4.55102e-06,0.000461436,8.66301e-06,0.494201,0.00127053,0.0732287,0.026162,-0.00104588,-0.00908168,1.99786,0.000119213,0.005,1.77458,0.00119105,0.0129307,-0.0294773,4.60237,0.0756995,1.48424,0.274412,-0.121051,4.82796,0.127828,6.3604,0.253448,0.233643,0.217678,0.0490066,0.0649547,-0.093001,-0.572036,-0.153288,23.5074,23.3655,23.1669,23.3229,23.2378,23.2946,23.1385,
7,6.27285,1.3858,3.15334,4.11784,6.27424,1.97517,1.55574,0.0029149,0.0221256,0.000119138,0.110442,0.000185184,0.0291705,0,0.339633,-3.43862,-0.312099,3.6537,0.528301,-12.0294,0.613681,-0.00822897,-19.3222,-0.38139,0.916191,-0.0397992,1.71322,-0.000668346,-5.17225e-06,0.000573409,9.63759e-06,0.494201,0.00127053,0.0732287,0.0272446,-0.000929943,-0.00776226,1.99734,0.000135756,0.005,1.77406,0.00106347,0.0126735,-0.0312489,4.94678,0.0660062,1.42881,0.303134,-0.119832,4.93655,0.127858,6.34914,0.25526,0.249886,-0.00805664,0.0490066,0.0569691,-0.088623,-0.551939,-0.149048,23.5074,23.3655,23.1669,23.3087,23.252,23.2946,23.1527,
8,6.27285,1.38581,3.15334,4.11795,6.27424,1.9752,1.55574,0.00278241,0.0159358,0.000119047,0.111707,0.000195914,0.0318715,0,0.341284,-3.56131,-0.316551,3.55804,0.528685,-12.5163,0.624827,-0.00779421,-19.3975,-0.383367,0.899921,-0.03984,1.66398,-3.35604e-05,-6.85198e-06,0.000697212,9.44203e-06,0.494201,0.00127053,0.0732287,0.0289205,-0.0008562,-0.00505696,1.99676,0.000146719,0.005,1.77256,0.000968996,0.011486,-0.0374363,5.40665,0.057075,1.41511,0.336217,-0.0898167,5.02029,0.139888,6.32758,0.255073,0.249886,-0.201577,0.0433863,0.0586532,-0.0849775,-0.511597,-0.157104,23.4932,23.3513,23.1811,23.3087,23.2378,23.2946,23.1811,
9,6.27285,1.38582,3.15334,4.11807,6.27424,1.97523,1.55574,0.00264925,0.00601844,0.000113756,0.115332,0.000206506,0.0341045,0,0.343462,-3.73133,-0.320335,3.42541,0.53655,-13.1979,0.637764,-0.00722199,-19.5016,-0.385932,0.877028,-0.0398425,1.59492,0.000535858,-8.01577e-06,0.000823018,9.38403e-06,0.494201,0.00127053,0.0732287,0.0320667,-0.000768317,-0.000975453,1.99619,0.000160612,0.005,1.77054,0.00091513,0.00905127,-0.0429287,6.05097,0.0509899,1.39563,0.388208,-0.0502446,5.17712,0.119569,6.29269,0.262845,0.257938,-0.338475,0.0322266,0.0644531,-0.080667,-0.507584,-0.132996,23.5074,23.3513,23.1811,23.3371,23.2662,23.2946,23.1669,
10,6.27285,1.38582,3.15334,4.11807,6.27424,1.97523,1.55574,0.00264925,0.00601844,0.000113756,0.115332,0.000206506,0.0341045,0,0.346322,-3.95807,-0.324844,3.24922,0.548202,-14.1091,0.655468,-0.00646138,-19.638,-0.389253,0.845373,-0.0398395,1.50254,0.00133644,-9.30382e-06,0.000966532,9.21181e-06,0.494201,0.00127053,0.0732287,0.0320667,-0.000768317,-0.000975453,1.99556,0.000173793,0.005,1.76714,0.0008479,0.00537791,-0.0506408,6.91166,0.0439488,1.39563,0.388208,-0.0502446,5.17712,0.119569,6.29269,0.262845,0.257938,-0.338475,0.0322266,0.0644531,-0.080667,-0.507584,-0.132996,23.5074,23.3513,23.1811,23.3371,23.2662,23.2946,23.1669,
11,6.27286,1.38582,3.15334,4.11819,6.27425,1.97527,1.55574,0.00278172,-0.00486175,0.000108547,0.118613,0.000216932,0.0375435,0,0.346381,-3.95679,-0.325019,3.24737,0.548273,-14.1059,0.655495,-0.00646028,-19.6393,-0.38929,0.845887,-0.0398373,1.50257,0.00133527,-9.30382e-06,0.000966532,9.21181e-06,0.494201,0.00127053,0.0732287,0.0353185,-0.000781988,0.00362184,1.99556,0.000173793,0.005,1.76714,0.0008479,0.00537791,-0.0506408,6.91166,0.0439488,1.40833,0.527687,-0.0577892,5.32144,0.102478,6.26212,0.257284,0.273926,-0.362638,0.0322266,0,-0.0849775,-0.495483,-0.141049,23.4932,23.3513,23.1811,23.3229,23.2236,23.2946,23.1811,
12,6.27286,1.3858,3.15334,4.11832,6.27425,1.97531,1.55574,0.00276582,-0.00891322,0.0001059,0.122354,0.000222223,0.041595,0,0.349469,-4.21484,-0.326645,3.04617,0.572252,-15.1431,0.677494,-0.0056489,-19.7962,-0.392861,0.810905,-0.0397545,1.3973,0.00235851,-1.13292e-05,0.00113414,9.32133e-06,0.494201,0.00127053,0.0732287,0.0372575,-0.000751295,0.00558252,1.99481,0.000187159,0.005,1.76354,0.000872232,0.00124034,-0.0605473,7.8922,0.0452178,1.35105,0.616355,-0.0637047,5.48547,0.132983,6.22866,0.249318,0.274399,-0.362549,0.0322266,-0.0254773,-0.0846906,-0.491455,-0.132935,23.5074,23.3513,23.1811,23.3229,23.252,23.3087,23.1669,
13,6.27286,1.3858,3.15334,4.11832,6.27425,1.97531,1.55574,0.00276582,-0.00891322,0.0001059,0.122354,0.000222223,0.041595,0,0.352146,-4.43806,-0.32969,2.87576,0.587317,-16.022,0.694009,-0.00493694,-19.9305,-0.396039,0.780588,-0.0397313,1.30904,0.00304438,-1.29206e-05,0.00130855,9.43686e-06,0.494201,0.00127053,0.0732287,0.0372575,-0.000751295,0.00558252,1.99406,0.000198603,0.005,1.76112,0.000854908,-0.000524269,-0.0671401,8.71837,0.0417684,1.35105,0.616355,-0.0637047,5.48547,0.132983,6.22866,0.249318,0.274399,-0.362549,0.0322266,-0.0254773,-0.0846906,-0.491455,-0.132935,23.5074,23.3513,23.1811,23.3229,23.252,23.3087,23.1669,
14,6.27286,1.38579,3.15334,4.11844,6.27425,1.97536,1.55574,0.00265944,-0.0186367,0.000100529,0.125325,0.000227512,0.0453304,0,0.352167,-4.43679,-0.329786,2.87376,0.587376,-16.0187,0.693981,-0.00494145,-19.9317,-0.396077,0.781066,-0.0397274,1.30906,0.00304218,-1.29206e-05,0.00130855,9.43686e-06,0.494201,0.00127053,0.0732287,0.0401738,-0.00067392,0.00976314,1.99406,0.000198603,0.005,1.76112,0.000854908,-0.000524269,-0.0671401,8.71837,0.0417684,1.35881,0.737169,-0.0167865,5.56549,0.155012,6.15449,0.231819,0.273926,-0.499577,0.0360304,-0.0569691,-0.0805664,-0.507584,-0.137022,23.4932,23.3513,23.1811,23.3229,23.2378,23.2946,23.1669,
15,6.27286,1.38576,3.15333,4.11856,6.27425,1.9754,1.55574,0.00251489,-0.0250768,9.26621e-05,0.127087,0.000238274,0.0464568,0,0.355517,-4.69972,-0.33533,2.6689,0.600404,-17.0731,0.713928,-0.00405735,-20,-0.400001,0.745594,-0.0397206,1.20213,0.00390617,-1.45439e-05,0.00149507,8.49211e-06,0.494201,0.00127053,0.0732287,0.0420443,-0.000594174,0.0123964,1.99327,0.000205821,0.005,1.75778,0.000791767,-0.00428683,-0.0754685,9.71484,0.0331377,1.2836,0.918885,0.0300039,5.70995,0.149162,6.05328,0.250721,0.274044,-0.475342,0.00805664,-0.105969,-0.0846906,-0.511597,-0.132935,23.5074,23.3371,23.1669,23.3087,23.2378,23.2946,23.1811,
16,6.27287,1.38573,3.15333,4.11869,6.27425,1.97545,1.55574,0.00255306,-0.0296806,8.73671e-05,0.130319,0.000259258,0.0491506,0,0.358295,-4.91656,-0.340546,2.50083,0.60919,-17.9354,0.732144,-0.00333135,-20,-0.40329,0.716861,-0.0397338,1.11498,0.0048162,-1.67907e-05,0.00169277,7.41234e-06,0.494201,0.00127053,0.0732287,0.0439515,-0.00058464,0.014444,1.99243,0.000209579,0.005,1.75535,0.000723378,-0.00665673,-0.0843065,10.5285,0.0244341,1.29331,1.18207,0.030287,5.82886,0.143883,5.97512,0.224017,0.282097,-0.539795,0.0113938,-0.1372,-0.076961,-0.495483,-0.137022,23.479,23.3513,23.1669,23.3229,23.252,23.2946,23.1527,
17,6.27287,1.38569,3.15333,4.11883,6.27425,1.9755,1.55574,0.00231115,-0.0348426,8.20721e-05,0.130026,0.000264552,0.0513185,0,0.361211,-5.1538,-0.344891,2.31744,0.62267,-18.8722,0.751232,-0.00256136,-20,-0.406795,0.685655,-0.0397117,1.02048,0.00569655,-1.89896e-05,0.00190285,5.8515e-06,0.494201,0.00127053,0.0732287,0.0449576,-0.000473207,0.0167243,1.99156,0.000217998,0.005,1.75285,0.000722374,-0.00849957,-0.0928473,11.4115,0.0184256,1.22789,1.33894,0.0536299,5.8986,0.152435,5.91496,0.224868,0.281982,-0.620414,0.0241699,-0.169189,-0.0765381,-0.503556,-0.141049,23.5074,23.3655,23.1811,23.3371,23.2236,23.3087,23.1527,
18,6.27287,1.38565,3.15333,4.11896,6.27425,1.97556,1.55574,0.00213302,-0.0410548,7.67192e-05,0.129917,0.000275339,0.0540195,1.0582e-05,0.364062,-5.37177,-0.351783,2.15031,0.626445,-19.7363,0.766658,-0.00181068,-20,-0.410224,0.657337,-0.0397569,0.93339,0.00635304,-2.06847e-05,0.00212586,4.07296e-06,0.494201,0.00127053,0.0732287,0.0462387,-0.000382896,0.0194724,1.99062,0.000216342,0.005,1.75109,0.000620594,-0.0105519,-0.099157,12.2247,0.00531607,1.26623,1.54579,0.118578,5.85956,0.167082,5.84236,0.211794,0.298531,-0.66875,0.00805664,-0.128906,-0.076961,-0.507584,-0.128969,23.4932,23.3513,23.1811,23.3371,23.252,23.3087,23.1669,
19,6.27287,1.38561,3.15333,4.11909,6.27425,1.97562,1.55574,0.00213302,-0.0464568,7.40737e-05,0.129647,0.000285932,0.0556706,1.0582e-05,0.367017,-5.60215,-0.35753,1.97342,0.635042,-20.6526,0.780974,-0.00103883,-20,-0.413727,0.627388,-0.0397792,0.840879,0.00681745,-2.16385e-05,0.00234766,2.94151e-06,0.494201,0.00127053,0.0732287,0.0473012,-0.000367367,0.0217933,1.98971,0.000222137,0.005,1.74912,0.00054453,-0.0130252,-0.103577,13.0877,-0.00458958,1.26623,1.77956,0.129807,5.84234,0.180877,5.78129,0.214713,0.298531,-0.700928,0.0113938,-0.0966797,-0.076644,-0.507632,-0.128969,23.4932,23.3371,23.1811,23.3229,23.2378,23.2804,23.1527,
20,6.27287,1.38555,3.15333,4.11922,6.27425,1.97567,1.55574,0.00184302,-0.0531629,6.35397e-05,0.130457,0.000296295,0.0567205,1.059e-05,0.369868,-5.8248,-0.363394,1.80226,0.642792,-21.5359,0.797731,-0.000284361,-20,-0.417155,0.598449,-0.0397866,0.75181,0.00754584,-2.35805e-05,0.00258039,-3.99316e-07,0.494201,0.00127053,0.0732287,0.0489506,-0.00023102,0.0245462,1.98877,0.000210705,0.005,1.74732,0.000520265,-0.015114,-0.110624,13.9195,-0.0145644,1.1645,2.08199,0.15084,5.76746,0.182922,5.72268,0.221176,0.298205,-0.757496,0.0113938,-0.0644531,-0.072956,-0.511613,-0.124943,23.4932,23.3513,23.1669,23.3229,23.2378,23.2946,23.1527,
21,6.27287,1.38549,3.15333,4.11936,6.27425,1.97573,1.55574,0.00175526,-0.0583411,5.55978e-05,0.132155,0.000301586,0.0577423,1.05901e-05,0.373089,-6.06692,-0.371694,1.61504,0.645306,-22.4988,0.817463,0.000560638,-20,-0.42101,0.566739,-0.0398489,0.654521,0.00854336,-2.61594e-05,0.00282149,-2.73707e-06,0.494201,0.00127053,0.0732287,0.0505331,-0.000177227,0.0266776,1.98779,0.000204296,0.005,1.74496,0.000391785,-0.0175916,-0.120282,14.8275,-0.0306664,1.1782,2.24203,0.144044,5.67742,0.184145,5.68208,0.230786,0.298096,-0.741255,0.0113938,-0.0649547,-0.0726216,-0.515625,-0.124943,23.4932,23.3513,23.1811,23.3087,23.252,23.3087,23.1527,
22,6.27287,1.38549,3.15333,4.11936,6.27425,1.97573,1.55574,0.00175526,-0.0583411,5.55978e-05,0.132155,0.000301586,0.0577423,1.05901e-05,0.376167,-6.31712,-0.376588,1.42471,0.657942,-23.4835,0.835905,0.00137935,-20,-0.42468,0.53302,-0.0398516,0.555721,0.00932891,-2.81068e-05,0.00307633,-4.10732e-06,0.494201,0.00127053,0.0732287,0.0505331,-0.000177227,0.0266776,1.98674,0.000205545,0.005,1.74258,0.000344495,-0.0195098,-0.127836,15.7524,-0.0382328,1.1782,2.24203,0.144044,5.67742,0.184145,5.68208,0.230786,0.298096,-0.741255,0.0113938,-0.0649547,-0.0726216,-0.515625,-0.124943,23.4932,23.3513,23.1811,23.3087,23.252,23.3087,23.1527,
23,6.27287,1.38543,3.15333,4.11949,6.27426,1.97579,1.55574,0.00159976,-0.0626626,5.02643e-05,0.134912,0.00032275,0.0578009,1.05901e-05,0.376164,-6.31526,-0.376623,1.42328,0.657984,-23.4802,0.835815,0.00137066,-20,-0.424715,0.534284,-0.0398448,0.555571,0.00932406,-2.81068e-05,0.00307633,-4.10732e-06,0.494201,0.00127053,0.0732287,0.0522396,-9.69846e-05,0.0283494,1.98674,0.000205545,0.005,1.74258,0.000344495,-0.0195098,-0.127836,15.7524,-0.0382328,1.11078,2.53902,0.157107,5.56954,0.181088,5.65664,0.228828,0.298205,-0.773815,0,-0.0725098,-0.0774863,-0.519669,-0.116821,23.4932,23.3229,23.1811,23.3087,23.2236,23.3087,23.1669,
24,6.27287,1.38543,3.15333,4.11949,6.27426,1.97579,1.55574,0.00159976,-0.0626626,5.02643e-05,0.134912,0.00032275,0.0578009,1.05901e-05,0.379322,-6.55796,-0.384604,1.23806,0.661258,-24.4325,0.855341,0.00221055,-20,-0.428506,0.501407,-0.0399009,0.460047,0.0102911,-3.06779e-05,0.00332848,-7.39301e-06,0.494201,0.00127053,0.0732287,0.0522396,-9.69846e-05,0.0283494,1.9857,0.00019959,0.005,1.74012,0.000266917,-0.0210145,-0.137187,16.6473,-0.0533556,1.11078,2.53902,0.157107,5.56954,0.181088,5.65664,0.228828,0.298205,-0.773815,0,-0.0725098,-0.0774863,-0.519669,-0.116821,23.4932,23.3229,23.1811,23.3087,23.2236,23.3087,23.1669,
25,6.27287,1.38536,3.15333,4.11962,6.27426,1.97585,1.55574,0.00133314,-0.0690749,4.50073e-05,0.135589,0.000333583,0.0581783,1.05821e-05,0.379301,-6.55588,-0.384597,1.23627,0.661304,-24.4287,0.855256,0.00220151,-20,-0.428538,0.502518,-0.0398911,0.45988,0.0102879,-3.06779e-05,0.00332848,-7.39301e-06,0.494201,0.00127053,0.0732287,0.0537866,2.67406e-05,0.0309206,1.9857,0.00019959,0.005,1.74012,0.000266917,-0.0210145,-0.137187,16.6473,-0.0533556,1.13885,2.78482,0.177618,5.39123,0.195278,5.62796,0.235311,0.314209,-0.813761,0.00805664,-0.105046,-0.0684814,-0.50354,-0.128969,23.4932,23.3513,23.1811,23.3087,23.2378,23.2946,23.1527,
26,6.27287,1.38536,3.15333,4.11962,6.27426,1.97585,1.55574,0.00133314,-0.0690749,4.50073e-05,0.135589,0.000333583,0.0581783,1.05821e-05,0.382578,-6.80785,-0.392526,1.04464,0.665469,-25.4244,0.874174,0.00307304,-20,-0.432447,0.468577,-0.0399511,0.359872,0.0111609,-3.28921e-05,0.00359196,-9.77778e-06,0.494201,0.00127053,0.0732287,0.0537866,2.67406e-05,0.0309206,1.98464,0.000195272,0.005,1.73777,0.000151678,-0.0233286,-0.145584,17.5827,-0.0685195,1.13885,2.78482,0.177618,5.39123,0.195278,5.62796,0.235311,0.314209,-0.813761,0.00805664,-0.105046,-0.0684814,-0.50354,-0.128969,23.4932,23.3513,23.1811,23.3087,23.2378,23.2946,23.1527,
27,6.27288,1.38528,3.15333,4.11975,6.27426,1.97591,1.55574,0.00142177,-0.0757321,3.97123e-05,0.134238,0.000333583,0.0578009,1.059e-05,0.382616,-6.80557,-0.392654,1.04307,0.665555,-25.4205,0.874185,0.0030612,-20,-0.432465,0.469875,-0.0399477,0.359636,0.0111613,-3.28921e-05,0.00359196,-9.77778e-06,0.494201,0.00127053,0.0732287,0.0547993,4.05887e-06,0.0335476,1.98464,0.000195272,0.005,1.73777,0.000151678,-0.0233286,-0.145584,17.5827,-0.0685195,1.03082,3.13067,0.176032,5.23004,0.195278,5.53779,0.233124,0.330322,-0.797648,0.0113938,-0.0970148,-0.0684814,-0.499512,-0.120917,23.4932,23.3513,23.1811,23.3087,23.2378,23.2662,23.1385,
28,6.27288,1.38528,3.15333,4.11975,6.27426,1.97591,1.55574,0.00142177,-0.0757321,3.97123e-05,0.134238,0.000333583,0.0578009,1.059e-05,0.385346,-7.04152,-0.393967,0.864501,0.687032,-26.3539,0.892005,0.00378732,-20,-0.435692,0.438376,-0.0398864,0.265941,0.0118879,-3.47964e-05,0.00386171,-1.05667e-05,0.494201,0.00127053,0.0732287,0.0547993,4.05887e-06,0.0335476,1.98354,0.000196911,0.005,1.73587,0.000173567,-0.0256928,-0.15259,18.4589,-0.0673765,1.03082,3.13067,0.176032,5.23004,0.195278,5.53779,0.233124,0.330322,-0.797648,0.0113938,-0.0970148,-0.0684814,-0.499512,-0.120917,23.4932,23.3513,23.1811,23.3087,23.2378,23.2662,23.1385,
29,6.27288,1.38521,3.15333,4.1199,6.27426,1.97596,1.55575,0.00135876,-0.0788685,3.70648e-05,0.132657,0.000343914,0.0588813,1.85324e-05,0.385369,-7.03963,-0.394039,0.863381,0.687115,-26.3509,0.891977,0.00377568,-20,-0.435713,0.440125,-0.0398796,0.265626,0.0118853,-3.47964e-05,0.00386171,-1.05667e-05,0.494201,0.00127053,0.0732287,0.0550007,3.57409e-05,0.0349432,1.98354,0.000196911,0.005,1.73587,0.000173567,-0.0256928,-0.15259,18.4589,-0.0673765,1.08573,3.39467,0.171835,5.07798,0.198529,5.47228,0.21789,0.314312,-0.773438,0,-0.0360304,-0.0726216,-0.491455,-0.116821,23.5074,23.3513,23.1811,23.3087,23.2236,23.2946,23.1527,
30,6.27288,1.38521,3.15333,4.1199,6.27426,1.97596,1.55575,0.00135876,-0.0788685,3.70648e-05,0.132657,0.000343914,0.0588813,1.85324e-05,0.388162,-7.26508,-0.399236,0.694849,0.696267,-27.2334,0.906112,0.00451843,-20,-0.43908,0.410578,-0.0398958,0.177547,0.0123516,-3.62348e-05,0.00413824,-1.29813e-05,0.494201,0.00127053,0.0732287,0.0550007,3.57409e-05,0.0349432,1.9824,0.000191991,0.005,1.73466,0.000140625,-0.0269489,-0.157002,19.2846,-0.076022,1.08573,3.39467,0.171835,5.07798,0.198529,5.47228,0.21789,0.314312,-0.773438,0,-0.0360304,-0.0726216,-0.491455,-0.116821,23.5074,23.3513,23.1811,23.3087,23.2236,23.2946,23.1527,
31,6.27288,1.38521,3.15333,4.1199,6.27426,1.97596,1.55575,0.00135876,-0.0788685,3.70648e-05,0.132657,0.000343914,0.0588813,1.85324e-05,0.388162,-7.26508,-0.399236,0.694849,0.696267,-27.2334,0.906112,0.00451843,-20,-0.43908,0.410578,-0.0398958,0.177547,0.0123516,-3.62348e-05,0.00413824,-1.29813e-05,0.494201,0.00127053,0.0732287,0.0550007,3.57409e-05,0.0349432,1.9824,0.000191991,0.005,1.73466,0.000140625,-0.0269489,-0.157002,19.2846,-0.076022,1.08573,3.39467,0.171835,5.07798,0.198529,5.47228,0.21789,0.314312,-0.773438,0,-0.0360304,-0.0726216,-0.491455,-0.116821,23.5074,23.3513,23.1811,23.3087,23.2236,23.2946,23.1527,
32,6.27288,1.38513,3.15333,4.12002,6.27426,1.97602,1.55575,0.00128345,-0.0796788,3.17462e-05,0.129917,0.00035979,0.0599616,1.85324e-05,0.388188,-7.26345,-0.399305,0.694282,0.696347,-27.2312,0.906106,0.00450694,-20,-0.439094,0.41259,-0.0398877,0.177156,0.0123491,-3.62348e-05,0.00413824,-1.29813e-05,0.494201,0.00127053,0.0732287,0.0543758,6.60021e-05,0.0354404,1.9824,0.000191991,0.005,1.73466,0.000140625,-0.0269489,-0.157002,19.2846,-0.076022,1.06312,3.76714,0.162618,4.88282,0.188119,5.40788,0.230764,0.314209,-0.838046,0,-0.0113938,-0.0685998,-0.479438,-0.117445,23.479,23.3371,23.1669,23.3087,23.2236,23.2946,23.1385,
33,6.27288,1.38513,3.15333,4.12002,6.27426,1.97602,1.55575,0.00128345,-0.0796788,3.17462e-05,0.129917,0.00035979,0.0599616,1.85324e-05,0.390552,-7.45457,-0.40409,0.553526,0.702844,-27.9732,0.920856,0.00513561,-20,-0.441978,0.388116,-0.0399119,0.103517,0.0130342,-3.87204e-05,0.00440384,-1.5215e-05,0.494201,0.00127053,0.0732287,0.0543758,6.60021e-05,0.0354404,1.98133,0.000190723,0.005,1.73425,0.000112249,-0.0273964,-0.163619,19.9762,-0.0843146,1.06312,3.76714,0.162618,4.88282,0.188119,5.40788,0.230764,0.314209,-0.838046,0,-0.0113938,-0.0685998,-0.479438,-0.117445,23.479,23.3371,23.1669,23.3087,23.2236,23.2946,23.1385,
34,6.27288,1.38505,3.15333,4.12015,6.27426,1.97608,1.55575,0.00137375,-0.0788685,2.11639e-05,0.129246,0.000381878,0.0591257,1.85184e-05,0.390602,-7.45278,-0.404216,0.553268,0.702944,-27.9711,0.92089,0.00512387,-20,-0.441991,0.390335,-0.0399073,0.103123,0.0130329,-3.87204e-05,0.00440384,-1.5215e-05,0.494201,0.00127053,0.0732287,0.0540058,3.07594e-05,0.035056,1.98133,0.000190723,0.005,1.73425,0.000112249,-0.0273964,-0.163619,19.9762,-0.0843146,1.09925,4.08226,0.164475,4.64712,0.193416,5.30755,0.225564,0.314312,-0.93457,0.0113938,0.0742786,-0.0644531,-0.491472,-0.112865,23.479,23.3513,23.1811,23.2946,23.2236,23.2804,23.1527,
35,6.27288,1.38505,3.15333,4.12015,6.27426,1.97608,1.55575,0.00137375,-0.0788685,2.11639e-05,0.129246,0.000381878,0.0591257,1.85184e-05,0.392716,-7.63518,-0.406529,0.418011,0.715566,-28.6719,0.935208,0.00568589,-20,-0.444586,0.366752,-0.0398865,0.0336998,0.0136764,-4.09794e-05,0.00467172,-1.701e-05,0.494201,0.00127053,0.0732287,0.0540058,3.07594e-05,0.035056,1.98026,0.00019044,0.005,1.73363,0.000143713,-0.0270504,-0.16986,20.63,-0.0865059,1.09925,4.08226,0.164475,4.64712,0.193416,5.30755,0.225564,0.314312,-0.93457,0.0113938,0.0742786,-0.0644531,-0.491472,-0.112865,23.479,23.3513,23.1811,23.2946,23.2236,23.2804,23.1527,
36,6.27288,1.38496,3.15333,4.12028,6.27426,1.97614,1.55575,0.00133743,-0.081249,1.32575e-05,0.130457,0.000418476,0.0588813,1.85184e-05,0.392757,-7.63318,-0.406636,0.416922,0.715624,-28.6688,0.935165,0.00567948,-20,-0.444613,0.368485,-0.0398796,0.0334383,0.0136714,-4.09794e-05,0.00467172,-1.701e-05,0.494201,0.00127053,0.0732287,0.0548536,5.81418e-05,0.0359612,1.98026,0.00019044,0.005,1.73363,0.000143713,-0.0270504,-0.16986,20.63,-0.0865059,1.01751,4.42177,0.160355,4.45241,0.206686,5.18352,0.223827,0.322266,-1.03125,0.0180152,0.0970148,-0.0685998,-0.491455,-0.112793,23.4932,23.3371,23.1811,23.3087,23.2236,23.2946,23.1527,
37,6.27288,1.38496,3.15333,4.12028,6.27426,1.97614,1.55575,0.00133743,-0.081249,1.32575e-05,0.130457,0.000418476,0.0588813,1.85184e-05,0.395655,-7.8623,-0.413084,0.243636,0.72179,-29.5619,0.955542,0.00645011,-20,-0.44812,0.337939,-0.0399119,-0.0557884,0.0147631,-4.42837e-05,0.00494464,-2.0354e-05,0.494201,0.00127053,0.0732287,0.0548536,5.81418e-05,0.0359612,1.97915,0.000180614,0.005,1.73187,0.000110225,-0.0278651,-0.180467,21.4672,-0.0979765,1.01751,4.42177,0.160355,4.45241,0.206686,5.18352,0.223827,0.322266,-1.03125,0.0180152,0.0970148,-0.0685998,-0.491455,-0.112793,23.4932,23.3371,23.1811,23.3087,23.2236,23.2946,23.1527,
38,6.27288,1.38488,3.15333,4.12042,6.27426,1.9762,1.55575,0.00132463,-0.0855342,7.94254e-06,0.130149,0.000452361,0.0578009,1.85326e-05,0.395675,-7.85994,-0.413175,0.242345,0.721862,-29.5582,0.955528,0.00643779,-20,-0.448142,0.339606,-0.0399054,-0.0560683,0.0147627,-4.42837e-05,0.00494464,-2.0354e-05,0.494201,0.00127053,0.0732287,0.0556644,7.47651e-05,0.0375594,1.97915,0.000180614,0.005,1.73187,0.000110225,-0.0278651,-0.180467,21.4672,-0.0979765,1.08765,4.63453,0.139673,4.26909,0.216307,5.06623,0.209461,0.314312,-1.07156,0.0241699,0.072956,-0.0735099,-0.471313,-0.108765,23.479,23.3371,23.1669,23.3087,23.2094,23.2946,23.1385,
39,6.27288,1.38488,3.15333,4.12042,6.27426,1.9762,1.55575,0.00132463,-0.0855342,7.94254e-06,0.130149,0.000452361,0.0578009,1.85326e-05,0.398421,-8.08871,-0.416646,0.0691861,0.73626,-30.4555,0.973357,0.00716806,-20,-0.451431,0.309099,-0.0398893,-0.145904,0.0155629,-4.64865e-05,0.00522424,-2.16965e-05,0.494201,0.00127053,0.0732287,0.0556644,7.47651e-05,0.0375594,1.978,0.000180805,0.005,1.7301,9.54359e-05,-0.0293035,-0.188202,22.309,-0.102349,1.08765,4.63453,0.139673,4.26909,0.216307,5.06623,0.209461,0.314312,-1.07156,0.0241699,0.072956,-0.0735099,-0.471313,-0.108765,23.479,23.3371,23.1669,23.3087,23.2094,23.2946,23.1385,
40,6.27288,1.38479,3.15333,4.12055,6.27426,1.97626,1.55575,0.00132479,-0.0899425,0,0.132348,0.000501511,0.0588813,2.64749e-05,0.398441,-8.08665,-0.416753,0.0673453,0.736332,-30.4516,0.973313,0.00715588,-20,-0.451463,0.310413,-0.0398836,-0.146072,0.0155603,-4.64865e-05,0.00522424,-2.16965e-05,0.494201,0.00127053,0.0732287,0.0572252,9.75852e-05,0.0393898,1.978,0.000180805,0.005,1.7301,9.54359e-05,-0.0293035,-0.188202,22.309,-0.102349,1.0836,4.92547,0.138028,4.09737,0.201077,4.97511,0.185286,0.338379,-1.04764,0,0.0889885,-0.0685998,-0.467303,-0.112793,23.479,23.3229,23.1669,23.2662,23.2236,23.2946,23.1527,
41,6.27288,1.38479,3.15333,4.12055,6.27426,1.97626,1.55575,0.00132479,-0.0899425,0,0.132348,0.000501511,0.0588813,2.64749e-05,0.401723,-8.3523,-0.422383,-0.135051,0.74877,-31.4938,0.991316,0.00802856,-20,-0.455396,0.274634,-0.0398875,-0.250558,0.0162317,-4.79502e-05,0.00550143,-2.39901e-05,0.494201,0.00127053,0.0732287,0.0572252,9.75852e-05,0.0393898,1.97687,0.000175863,0.005,1.72768,7.04498e-05,-0.0309508,-0.194612,23.2881,-0.111179,1.0836,4.92547,0.138028,4.09737,0.201077,4.97511,0.185286,0.338379,-1.04764,0,0.0889885,-0.0685998,-0.467303,-0.112793,23.479,23.3229,23.1669,23.2662,23.2236,23.2946,23.1527,
42,6.27288,1.3847,3.15333,4.12068,6.27427,1.97632,1.55575,0.00129795,-0.0950743,-1.0606e-05,0.133158,0.000574874,0.0578009,2.64552e-05,0.401732,-8.34983,-0.422471,-0.136648,0.748817,-31.4897,0.991249,0.00801579,-20,-0.455422,0.276093,-0.039881,-0.250781,0.0162291,-4.79502e-05,0.00550143,-2.39901e-05,0.494201,0.00127053,0.0732287,0.0585369,0.000129331,0.0413036,1.97687,0.000175863,0.005,1.72768,7.04498e-05,-0.0309508,-0.194612,23.2881,-0.111179,1.12118,5.12927,0.132425,3.85117,0.221282,4.85539,0.190288,0.33042,-1.03238,0,0.0649547,-0.0565402,-0.475342,-0.104814,23.479,23.3513,23.1669,23.2946,23.2236,23.2946,23.1385,
43,6.27288,1.3847,3.15333,4.12068,6.27427,1.97632,1.55575,0.00129795,-0.0950743,-1.0606e-05,0.133158,0.000574874,0.0578009,2.64552e-05,0.404786,-8.59547,-0.427936,-0.323794,0.75958,-32.4553,1.0115,0.00882793,-20,-0.459077,0.24302,-0.03989,-0.347645,0.0172176,-5.04026e-05,0.00578342,-2.62758e-05,0.494201,0.00127053,0.0732287,0.0585369,0.000129331,0.0413036,1.97571,0.000170705,0.005,1.72546,3.72364e-05,-0.0326733,-0.204182,24.1952,-0.120023,1.12118,5.12927,0.132425,3.85117,0.221282,4.85539,0.190288,0.33042,-1.03238,0,0.0649547,-0.0565402,-0.475342,-0.104814,23.479,23.3513,23.1669,23.2946,23.2236,23.2946,23.1385,
44,6.27288,1.3847,3.15333,4.12068,6.27427,1.97632,1.55575,0.00129795,-0.0950743,-1.0606e-05,0.133158,0.000574874,0.0578009,2.64552e-05,0.404786,-8.59547,-0.427936,-0.323794,0.75958,-32.4553,1.0115,0.00882793,-20,-0.459077,0.24302,-0.03989,-0.347645,0.0172176,-5.04026e-05,0.00578342,-2.62758e-05,0.494201,0.00127053,0.0732287,0.0585369,0.000129331,0.0413036,1.97571,0.000170705,0.005,1.72546,3.72364e-05,-0.0326733,-0.204182,24.1952,-0.120023,1.12118,5.12927,0.132425,3.85117,0.221282,4.85539,0.190288,0.33042,-1.03238,0,0.0649547,-0.0565402,-0.475342,-0.104814,23.479,23.3513,23.1669,23.2946,23.2236,23.2946,23.1385,
45,6.27289,1.38459,3.15333,4.12081,6.27427,1.97637,1.55575,0.0013571,-0.0995551,-2.1212e-05,0.132348,0.00067747,0.0536645,2.64549e-05,0.404819,-8.59255,-0.428068,-0.324642,0.75962,-32.4515,1.01147,0.00881633,-20,-0.459093,0.244978,-0.039884,-0.347989,0.0172167,-5.04026e-05,0.00578342,-2.62758e-05,0.494201,0.00127053,0.0732287,0.0592424,0.00012012,0.0426669,1.97571,0.000170705,0.005,1.72546,3.72364e-05,-0.0326733,-0.204182,24.1952,-0.120023,1.0717,5.39413,0.136665,3.64278,0.222445,4.68115,0.192925,0.314312,-0.98291,-0.00805664,0.0254773,-0.0644531,-0.471313,-0.112793,23.479,23.3371,23.1669,23.2946,23.2236,23.252,23.1243,
46,6.27289,1.38459,3.15333,4.12081,6.27427,1.97637,1.55575,0.0013571,-0.0995551,-2.1212e-05,0.132348,0.00067747,0.0536645,2.64549e-05,0.407355,-8.80407,-0.431249,-0.485187,0.773198,-33.2803,1.03121,0.00949058,-20,-0.462133,0.21668,-0.0398637,-0.430985,0.0182771,-5.32326e-05,0.00607673,-2.80678e-05,0.494201,0.00127053,0.0732287,0.0592424,0.00012012,0.0426669,1.97451,0.000167776,0.005,1.72374,4.28898e-05,-0.0339002,-0.21452,24.9732,-0.12382,1.0717,5.39413,0.136665,3.64278,0.222445,4.68115,0.192925,0.314312,-0.98291,-0.00805664,0.0254773,-0.0644531,-0.471313,-0.112793,23.479,23.3371,23.1669,23.2946,23.2236,23.252,23.1243,
47,6.27289,1.38459,3.15333,4.12081,6.27427,1.97637,1.55575,0.0013571,-0.0995551,-2.1212e-05,0.132348,0.00067747,0.0536645,2.64549e-05,0.407355,-8.80407,-0.431249,-0.485187,0.773198,-33.2803,1.03121,0.00949058,-20,-0.462133,0.21668,-0.0398637,-0.430985,0.0182771,-5.32326e-05,0.00607673,-2.80678e-05,0.494201,0.00127053,0.0732287,0.0592424,0.00012012,0.0426669,1.97451,0.000167776,0.005,1.72374,4.28898e-05,-0.0339002,-0.21452,24.9732,-0.12382,1.0717,5.39413,0.136665,3.64278,0.222445,4.68115,0.192925,0.314312,-0.98291,-0.00805664,0.0254773,-0.0644531,-0.471313,-0.112793,23.479,23.3371,23.1669,23.2946,23.2236,23.252,23.1243,
48,6.27289,1.38449,3.15333,4.12095,6.27427,1.97642,1.55575,0.00131983,-0.105608,-2.65149e-05,0.132155,0.000807756,0.0510484,2.64749e-05,0.40735,-8.80114,-0.431331,-0.486624,0.773223,-33.2759,1.03113,0.00947614,-20,-0.462156,0.218337,-0.0398558,-0.43125,0.0182759,-5.32326e-05,0.00607673,-2.80678e-05,0.494201,0.00127053,0.0732287,0.060458,0.00015743,0.0448028,1.97451,0.000167776,0.005,1.72374,4.28898e-05,-0.0339002,-0.21452,24.9732,-0.12382,1.10053,5.59221,0.126258,3.44659,0.240308,4.51343,0.196725,0.314209,-0.98291,0,0.0483398,-0.0563965,-0.418945,-0.108839,23.479,23.3229,23.1669,23.2946,23.2236,23.2946,23.1527,
49,6.27289,1.38449,3.15333,4.12095,6.27427,1.97642,1.55575,0.00131983,-0.105608,-2.65149e-05,0.132155,0.000807756,0.0510484,2.64749e-05,0.410347,-9.0423,-0.436538,-0.670633,0.784234,-34.2262,1.05168,0.0102729,-20,-0.465734,0.185816,-0.0398626,-0.526669,0.0193118,-5.56543e-05,0.0063715,-2.98664e-05,0.494201,0.00127053,0.0732287,0.060458,0.00015743,0.0448028,1.97326,0.000163032,0.005,1.72153,5.04213e-06,-0.0358226,-0.224562,25.8663,-0.132163,1.10053,5.59221,0.126258,3.44659,0.240308,4.51343,0.196725,0.314209,-0.98291,0,0.0483398,-0.0563965,-0.418945,-0.108839,23.479,23.3229,23.1669,23.2946,23.2236,23.2946,23.1527,
50,6.27289,1.38449,3.15333,4.12095,6.27427,1.97642,1.55575,0.00131983,-0.105608,-2.65149e-05,0.132155,0.000807756,0.0510484,2.64749e-05,0.410347,-9.0423,-0.436538,-0.670633,0.784234,-34.2262,1.05168,0.0102729,-20,-0.465734,0.185816,-0.0398626,-0.526669,0.0193118,-5.56543e-05,0.0063715,-2.98664e-05,0.494201,0.00127053,0.0732287,0.060458,0.00015743,0.0448028,1.97326,0.000163032,0.005,1.72153,5.04213e-06,-0.0358226,-0.224562,25.8663,-0.132163,1.10053,5.59221,0.126258,3.44659,0.240308,4.51343,0.196725,0.314209,-0.98291,0,0.0483398,-0.0563965,-0.418945,-0.108839,23.479,23.3229,23.1669,23.2946,23.2236,23.2946,23.1527,
51,6.27289,1.38438,3.15333,4.12108,6.27427,1.97647,1.55575,0.00126704,-0.107499,-4.23914e-05,0.131674,0.000945145,0.0480286,3.70648e-05,0.410375,-9.03972,-0.436638,-0.671146,0.784264,-34.2231,1.05163,0.0102641,-20,-0.465753,0.188078,-0.0398529,-0.527042,0.0193096,-5.56543e-05,0.0063715,-2.98664e-05,0.494201,0.00127053,0.0732287,0.0607117,0.000194252,0.0452548,1.97326,0.000163032,0.005,1.72153,5.04213e-06,-0.0358226,-0.224562,25.8663,-0.132163,1.05163,5.86537,0.109789,3.23921,0.234874,4.36825,0.204568,0.33042,-0.918775,0,0.0402832,-0.0644531,-0.398804,-0.0966797,23.479,23.3229,23.1527,23.2946,23.2236,23.2946,23.1669,
52,6.27289,1.38438,3.15333,4.12108,6.27427,1.97647,1.55575,0.00126704,-0.107499,-4.23914e-05,0.131674,0.000945145,0.0480286,3.70648e-05,0.412857,-9.23688,-0.442149,-0.819856,0.78946,-34.9888,1.06802,0.010924,-20,-0.468771,0.161956,-0.0398851,-0.603416,0.0201421,-5.78142e-05,0.00665509,-3.2091e-05,0.494201,0.00127053,0.0732287,0.0607117,0.000194252,0.0452548,1.97207,0.000154712,0.005,1.72022,-3.55854e-05,-0.0362293,-0.23262,26.5836,-0.142095,1.05163,5.86537,0.109789,3.23921,0.234874,4.36825,0.204568,0.33042,-0.918775,0,0.0402832,-0.0644531,-0.398804,-0.0966797,23.479,23.3229,23.1527,23.2946,23.2236,23.2946,23.1669,
53,6.27289,1.38428,3.15333,4.12121,6.27427,1.97651,1.55575,0.00127666,-0.10658,-4.5075e-05,0.129917,0.000908804,0.044296,3.71209e-05,0.41291,-9.23447,-0.442246,-0.819609,0.789563,-34.9866,1.06808,0.0109078,-20,-0.468775,0.16476,-0.0398796,-0.603902,0.0201434,-5.78142e-05,0.00665509,-3.2091e-05,0.494201,0.00127053,0.0732287,0.0600047,0.000175819,0.0445428,1.97207,0.000154712,0.005,1.72022,-3.55854e-05,-0.0362293,-0.23262,26.5836,-0.142095,1.09229,6.08432,0.0893285,3.01858,0.231243,4.17008,0.207916,0.33042,-0.950991,-0.00805664,0.0322266,-0.0604248,-0.354492,-0.100789,23.4932,23.3229,23.1669,23.3087,23.2094,23.2946,23.1527,
54,6.27289,1.38428,3.15333,4.12121,6.27427,1.97651,1.55575,0.00127666,-0.10658,-4.5075e-05,0.129917,0.000908804,0.044296,3.71209e-05,0.414644,-9.3905,-0.443057,-0.935274,0.803244,-35.5828,1.07962,0.0113687,-20,-0.470915,0.14466,-0.039851,-0.662853,0.0206223,-5.99344e-05,0.00693217,-3.31608e-05,0.494201,0.00127053,0.0732287,0.0600047,0.000175819,0.0445428,1.97088,0.000151697,0.005,1.71979,-2.17093e-05,-0.0355885,-0.237265,27.1395,-0.141415,1.09229,6.08432,0.0893285,3.01858,0.231243,4.17008,0.207916,0.33042,-0.950991,-0.00805664,0.0322266,-0.0604248,-0.354492,-0.100789,23.4932,23.3229,23.1669,23.3087,23.2094,23.2946,23.1527,
55,6.27289,1.38416,3.15333,4.12135,6.27427,1.97656,1.55575,0.00121064,-0.106827,-5.56814e-05,0.131152,0.000906907,0.0431322,3.71206e-05,0.414696,-9.3881,-0.443164,-0.93604,0.803318,-35.5796,1.0796,0.0113578,-20,-0.470938,0.147102,-0.0398428,-0.663207,0.0206185,-5.99344e-05,0.00693217,-3.31608e-05,0.494201,0.00127053,0.0732287,0.0604071,0.000205947,0.0445117,1.97088,0.000151697,0.005,1.71979,-2.17093e-05,-0.0355885,-0.237265,27.1395,-0.141415,0.993624,6.37799,0.11644,2.89223,0.222334,3.96657,0.190873,0.346529,-1.03931,-0.00805664,0.0563965,-0.0685998,-0.326319,-0.104814,23.4932,23.3229,23.1527,23.2804,23.2236,23.2804,23.1527,
56,6.27289,1.38416,3.15333,4.12135,6.27427,1.97656,1.55575,0.00121064,-0.106827,-5.56814e-05,0.131152,0.000906907,0.0431322,3.71206e-05,0.417476,-9.61326,-0.448692,-1.10608,0.811242,-36.4494,1.09856,0.0120967,-20,-0.474332,0.11724,-0.0398692,-0.749843,0.0215889,-6.31769e-05,0.00723039,-3.59948e-05,0.494201,0.00127053,0.0732287,0.0604071,0.000205947,0.0445117,1.9696,0.000138516,0.005,1.71827,-6.06876e-05,-0.0355605,-0.246673,27.9543,-0.150951,0.993624,6.37799,0.11644,2.89223,0.222334,3.96657,0.190873,0.346529,-1.03931,-0.00805664,0.0563965,-0.0685998,-0.326319,-0.104814,23.4932,23.3229,23.1527,23.2804,23.2236,23.2804,23.1527,
57,6.27289,1.38406,3.15333,4.12148,6.27427,1.9766,1.55575,0.00115413,-0.107499,-6.09844e-05,0.130727,0.000892279,0.0405146,3.71209e-05,0.417507,-9.61081,-0.448766,-1.10646,0.811324,-36.4466,1.09858,0.0120808,-20,-0.474345,0.119653,-0.0398619,-0.750229,0.0215901,-6.31769e-05,0.00723039,-3.59948e-05,0.494201,0.00127053,0.0732287,0.0604204,0.000224613,0.044523,1.9696,0.000138516,0.005,1.71827,-6.06876e-05,-0.0355605,-0.246673,27.9543,-0.150951,1.02108,6.62108,0.0817925,2.79111,0.225991,3.79542,0.184009,0.322668,-1.08768,-0.0241699,0.0402832,-0.0604248,-0.306179,-0.0927389,23.479,23.3229,23.1527,23.3087,23.2094,23.2804,23.1243,
58,6.27289,1.38406,3.15333,4.12148,6.27427,1.9766,1.55575,0.00115413,-0.107499,-6.09844e-05,0.130727,0.000892279,0.0405146,3.71209e-05,0.419678,-9.79644,-0.451163,-1.24614,0.823715,-37.1637,1.11247,0.0126579,-20,-0.47699,0.0951904,-0.0398512,-0.821602,0.0221939,-6.53122e-05,0.00750534,-3.70154e-05,0.494201,0.00127053,0.0732287,0.0604204,0.000224613,0.044523,1.96841,0.000135554,0.005,1.71719,-8.0153e-05,-0.0355707,-0.25251,28.6256,-0.1537,1.02108,6.62108,0.0817925,2.79111,0.225991,3.79542,0.184009,0.322668,-1.08768,-0.0241699,0.0402832,-0.0604248,-0.306179,-0.0927389,23.479,23.3229,23.1527,23.3087,23.2094,23.2804,23.1243,
59,6.27289,1.38395,3.15333,4.1216,6.27427,1.97664,1.55575,0.00105795,-0.106959,-6.62372e-05,0.129377,0.000894121,0.0378136,4.77269e-05,0.419717,-9.79412,-0.451232,-1.24621,0.823797,-37.1613,1.11249,0.0126448,-20,-0.477001,0.0978334,-0.0398428,-0.822043,0.0221937,-6.53122e-05,0.00750534,-3.70154e-05,0.494201,0.00127053,0.0732287,0.0599111,0.000255873,0.0440621,1.96841,0.000135554,0.005,1.71719,-8.0153e-05,-0.0355707,-0.25251,28.6256,-0.1537,0.936535,6.84647,0.0908223,2.67665,0.235815,3.61449,0.167851,0.33042,-1.13601,-0.0113938,0.0241699,-0.0525229,-0.277983,-0.0967636,23.479,23.3371,23.1669,23.2946,23.2236,23.2662,23.1243,
60,6.27289,1.38395,3.15333,4.1216,6.27427,1.97664,1.55575,0.00105795,-0.106959,-6.62372e-05,0.129377,0.000894121,0.0378136,4.77269e-05,0.4217,-9.95931,-0.454568,-1.36928,0.83128,-37.7954,1.12237,0.0131718,-20,-0.479442,0.0763943,-0.0398579,-0.884897,0.0225023,-6.66295e-05,0.00777563,-3.85615e-05,0.494201,0.00127053,0.0732287,0.0599111,0.000255873,0.0440621,1.96723,0.000127052,0.005,1.71658,-0.000115939,-0.0351559,-0.255418,29.2176,-0.159152,0.936535,6.84647,0.0908223,2.67665,0.235815,3.61449,0.167851,0.33042,-1.13601,-0.0113938,0.0241699,-0.0525229,-0.277983,-0.0967636,23.479,23.3371,23.1669,23.2946,23.2236,23.2662,23.1243,
61,6.27289,1.38384,3.15333,4.12173,6.27427,1.97667,1.55575,0.00105795,-0.10966,-7.15904e-05,0.127756,0.000899066,0.0345725,4.77269e-05,0.421752,-9.95669,-0.454683,-1.36975,0.831323,-37.7923,1.12235,0.0131615,-20,-0.479453,0.078612,-0.0398519,-0.885269,0.0225007,-6.66295e-05,0.00777563,-3.85615e-05,0.494201,0.00127053,0.0732287,0.0600073,0.000254945,0.0448317,1.96723,0.000127052,0.005,1.71658,-0.000115939,-0.0351559,-0.255418,29.2176,-0.159152,0.974408,7.05767,0.0932141,2.61629,0.293659,3.39679,0.185227,0.346529,-1.20852,-0.0180152,0.0161133,-0.0525229,-0.249756,-0.0927389,23.479,23.3371,23.1527,23.2946,23.2236,23.2662,23.1385,
62,6.27289,1.38384,3.15333,4.12173,6.27427,1.97667,1.55575,0.00105795,-0.10966,-7.15904e-05,0.127756,0.000899066,0.0345725,4.77269e-05,0.423903,-10.137,-0.457432,-1.50587,0.842572,-38.4956,1.13923,0.0137334,-20,-0.482052,0.0547456,-0.0398405,-0.955512,0.0234182,-6.97054e-05,0.00804377,-4.05365e-05,0.494201,0.00127053,0.0732287,0.0600073,0.000254945,0.0448317,1.96604,0.000119258,0.005,1.71543,-0.000122118,-0.0358485,-0.264366,29.8767,-0.162624,0.974408,7.05767,0.0932141,2.61629,0.293659,3.39679,0.185227,0.346529,-1.20852,-0.0180152,0.0161133,-0.0525229,-0.249756,-0.0927389,23.479,23.3371,23.1527,23.2946,23.2236,23.2662,23.1385,
63,6.27289,1.38373,3.15333,4.12185,6.27427,1.97671,1.55575,0.00101563,-0.113171,-7.15896e-05,0.125325,0.000874168,0.0340724,4.77269e-05,0.423933,-10.1348,-0.457513,-1.50681,0.842654,-38.4924,1.13923,0.0137165,-20,-0.482062,0.0567122,-0.0398346,-0.955857,0.0234183,-6.97054e-05,0.00804377,-4.05365e-05,0.494201,0.00127053,0.0732287,0.0600391,0.000270773,0.0462267,1.96604,0.000119258,0.005,1.71543,-0.000122118,-0.0358485,-0.264366,29.8767,-0.162624,0.868607,7.3765,0.0981835,2.63079,0.262908,3.19462,0.17518,0.346436,-1.19241,-0.0241699,0.0402832,-0.0569691,-0.213653,-0.0966797,23.479,23.3229,23.1527,23.2946,23.2236,23.2662,23.1385,
64,6.27289,1.38373,3.15333,4.12185,6.27427,1.97671,1.55575,0.00101563,-0.113171,-7.15896e-05,0.125325,0.000874168,0.0340724,4.77269e-05,0.426363,-10.3389,-0.460347,-1.66021,0.856084,-39.2927,1.15419,0.0143624,-20,-0.484983,0.0298895,-0.0398202,-1.03585,0.0240394,-7.18543e-05,0.00831499,-4.19697e-05,0.494201,0.00127053,0.0732287,0.0600391,0.000270773,0.0462267,1.96486,0.0001122,0.005,1.71434,-0.000142716,-0.037104,-0.270351,30.6265,-0.166009,0.868607,7.3765,0.0981835,2.63079,0.262908,3.19462,0.17518,0.346436,-1.19241,-0.0241699,0.0402832,-0.0569691,-0.213653,-0.0966797,23.479,23.3229,23.1527,23.2946,23.2236,23.2662,23.1385,
65,6.27289,1.38361,3.15333,4.12198,6.27427,1.97674,1.55575,0.000971554,-0.116247,-7.68933e-05,0.121873,0.000874168,0.0299808,5.83329e-05,0.426413,-10.3361,-0.46045,-1.66032,0.856122,-39.2898,1.15417,0.0143499,-20,-0.484989,0.0324239,-0.0398132,-1.0363,0.0240382,-7.18543e-05,0.00831499,-4.19697e-05,0.494201,0.00127053,0.0732287,0.0596848,0.000282328,0.047088,1.96486,0.0001122,0.005,1.71434,-0.000142716,-0.037104,-0.270351,30.6265,-0.166009,0.886225,7.61639,0.0759137,2.66079,0.238823,3.00911,0.171183,0.354492,-1.1528,-0.0180152,0.0970148,-0.0529843,-0.197388,-0.0849775,23.479,23.3229,23.1669,23.2946,23.2236,23.2804,23.1385,
66,6.27289,1.38361,3.15333,4.12198,6.27427,1.97674,1.55575,0.000971554,-0.116247,-7.68933e-05,0.121873,0.000874168,0.0299808,5.83329e-05,0.428467,-10.508,-0.463128,-1.78921,0.866563,-39.9612,1.16791,0.0148958,-20,-0.487471,0.00992275,-0.0398069,-1.10329,0.0246811,-7.41838e-05,0.00859737,-4.39153e-05,0.494201,0.00127053,0.0732287,0.0596848,0.000282328,0.047088,1.96359,0.000103743,0.005,1.71352,-0.000160727,-0.0378792,-0.276578,31.2549,-0.169571,0.886225,7.61639,0.0759137,2.66079,0.238823,3.00911,0.171183,0.354492,-1.1528,-0.0180152,0.0970148,-0.0529843,-0.197388,-0.0849775,23.479,23.3229,23.1669,23.2946,23.2236,23.2804,23.1385,
67,6.27289,1.38349,3.15333,4.1221,6.27427,1.97677,1.55575,0.000971473,-0.117763,-8.21342e-05,0.120611,0.000865805,0.0289004,5.83329e-05,0.42853,-10.5058,-0.463262,-1.78978,0.866627,-39.9584,1.16794,0.0148842,-20,-0.487483,0.0121661,-0.0397999,-1.10365,0.0246813,-7.41838e-05,0.00859737,-4.39153e-05,0.494201,0.00127053,0.0732287,0.0596335,0.000281739,0.0476109,1.96359,0.000103743,0.005,1.71352,-0.000160727,-0.0378792,-0.276578,31.2549,-0.169571,0.773232,7.88653,0.106522,2.65484,0.284923,2.79793,0.144727,0.338475,-1.1361,-0.0180152,0.169381,-0.0529843,-0.153129,-0.0966797,23.4932,23.3229,23.1669,23.2946,23.2236,23.2662,23.1527,
68,6.27289,1.38349,3.15333,4.1221,6.27427,1.97677,1.55575,0.000971473,-0.117763,-8.21342e-05,0.120611,0.000865805,0.0289004,5.83329e-05,0.430746,-10.6947,-0.465615,-1.93182,0.87973,-40.6924,1.18425,0.0154729,-20,-0.490169,-0.0126588,-0.0397823,-1.17683,0.0255037,-7.70754e-05,0.00886113,-4.52349e-05,0.494201,0.00127053,0.0732287,0.0596335,0.000281739,0.0476109,1.96241,9.71147e-05,0.005,1.7125,-0.000166161,-0.0383498,-0.284585,31.9422,-0.172008,0.773232,7.88653,0.106522,2.65484,0.284923,2.79793,0.144727,0.338475,-1.1361,-0.0180152,0.169381,-0.0529843,-0.153129,-0.0966797,23.4932,23.3229,23.1669,23.2946,23.2236,23.2662,23.1527,
69,6.2729,1.38337,3.15333,4.12222,6.27427,1.97679,1.55575,0.000927315,-0.119653,-8.21342e-05,0.117763,0.000865805,0.0260799,5.83335e-05,0.430777,-10.6923,-0.465693,-1.93195,0.879776,-40.6899,1.18421,0.0154551,-20,-0.490174,-0.0102566,-0.0397765,-1.17725,0.0255012,-7.70754e-05,0.00886113,-4.52349e-05,0.494201,0.00127053,0.0732287,0.0592035,0.000292621,0.0481254,1.96241,9.71147e-05,0.005,1.7125,-0.000166161,-0.0383498,-0.284585,31.9422,-0.172008,0.833058,8.23886,0.126967,2.74496,0.337876,2.54406,0.184275,0.330322,-1.16018,-0.0254773,0.177429,-0.0483398,-0.132935,-0.0966797,23.4648,23.3371,23.1669,23.2946,23.2094,23.2662,23.1385,
70,6.2729,1.38337,3.15333,4.12222,6.27427,1.97679,1.55575,0.000927315,-0.119653,-8.21342e-05,0.117763,0.000865805,0.0260799,5.83335e-05,0.432754,-10.8553,-0.468918,-2.05382,0.887767,-41.3241,1.19809,0.0159805,-20,-0.492577,-0.0314916,-0.0397816,-1.24041,0.0262054,-7.965e-05,0.00912275,-4.74313e-05,0.494201,0.00127053,0.0732287,0.0592035,0.000292621,0.0481254,1.96125,8.83033e-05,0.005,1.71184,-0.000183886,-0.0388128,-0.291419,32.5353,-0.177007,0.833058,8.23886,0.126967,2.74496,0.337876,2.54406,0.184275,0.330322,-1.16018,-0.0254773,0.177429,-0.0483398,-0.132935,-0.0966797,23.4648,23.3371,23.1669,23.2946,23.2094,23.2662,23.1385,
71,6.2729,1.38326,3.15333,4.12233,6.27427,1.97682,1.55575,0.000883157,-0.119383,-8.48478e-05,0.117222,0.00086941,0.0251191,6.62372e-05,0.432806,-10.8533,-0.46903,-2.05422,0.887823,-41.3216,1.1981,0.0159659,-20,-0.49259,-0.0290525,-0.0397737,-1.24077,0.0262045,-7.965e-05,0.00912275,-4.74313e-05,0.494201,0.00127053,0.0732287,0.0589847,0.000307825,0.0479408,1.96125,8.83033e-05,0.005,1.71184,-0.000183886,-0.0388128,-0.291419,32.5353,-0.177007,0.729519,8.65043,0.0722812,2.90404,0.296561,2.3469,0.152659,0.346436,-1.14407,-0.0322266,0.22573,-0.0525229,-0.112865,-0.0846906,23.479,23.3229,23.1669,23.2946,23.2094,23.2804,23.1385,
72,6.2729,1.38326,3.15333,4.12233,6.27427,1.97682,1.55575,0.000883157,-0.119383,-8.48478e-05,0.117222,0.00086941,0.0251191,6.62372e-05,0.434948,-11.0317,-0.472479,-2.18805,0.896626,-42.0093,1.21051,0.0165353,-20,-0.495217,-0.0524062,-0.0397806,-1.30912,0.0267011,-8.1543e-05,0.00938063,-4.90964e-05,0.494201,0.00127053,0.0732287,0.0589847,0.000307825,0.0479408,1.96008,8.23481e-05,0.005,1.71099,-0.000202929,-0.0386467,-0.296183,33.1784,-0.18232,0.729519,8.65043,0.0722812,2.90404,0.296561,2.3469,0.152659,0.346436,-1.14407,-0.0322266,0.22573,-0.0525229,-0.112865,-0.0846906,23.479,23.3229,23.1669,23.2946,23.2094,23.2804,23.1385,
73,6.2729,1.38326,3.15333,4.12233,6.27427,1.97682,1.55575,0.000883157,-0.119383,-8.48478e-05,0.117222,0.00086941,0.0251191,6.62372e-05,0.434948,-11.0317,-0.472479,-2.18805,0.896626,-42.0093,1.21051,0.0165353,-20,-0.495217,-0.0524062,-0.0397806,-1.30912,0.0267011,-8.1543e-05,0.00938063,-4.90964e-05,0.494201,0.00127053,0.0732287,0.0589847,0.000307825,0.0479408,1.96008,8.23481e-05,0.005,1.71099,-0.000202929,-0.0386467,-0.296183,33.1784,-0.18232,0.729519,8.65043,0.0722812,2.90404,0.296561,2.3469,0.152659,0.346436,-1.14407,-0.0322266,0.22573,-0.0525229,-0.112865,-0.0846906,23.479,23.3229,23.1669,23.2946,23.2094,23.2804,23.1385,
74,6.2729,1.38313,3.15333,4.12245,6.27428,1.97684,1.55575,0.000839,-0.118363,-9.01508e-05,0.118303,0.000895756,0.0232284,6.62874e-05,0.43501,-11.0294,-0.472607,-2.18837,0.896665,-42.0066,1.2105,0.0165225,-20,-0.495233,-0.0498021,-0.0397722,-1.30948,0.0266983,-8.1543e-05,0.00938063,-4.90964e-05,0.494201,0.00127053,0.0732287,0.0590762,0.000326377,0.0473331,1.96008,8.23481e-05,0.005,1.71099,-0.000202929,-0.0386467,-0.296183,33.1784,-0.18232,0.778533,8.97575,0.0136875,3.07748,0.275318,2.16562,0.166188,0.354492,-1.20068,-0.0332184,0.210091,-0.0444942,-0.0970148,-0.0845947,23.479,23.3229,23.1527,23.2946,23.2094,23.252,23.1527,
75,6.2729,1.38313,3.15333,4.12245,6.27428,1.97684,1.55575,0.000839,-0.118363,-9.01508e-05,0.118303,0.000895756,0.0232284,6.62874e-05,0.437264,-11.2135,-0.477047,-2.3275,0.903272,-42.7131,1.22728,0.0171215,-20,-0.498007,-0.0741764,-0.0397939,-1.3797,0.0276233,-8.47254e-05,0.00964598,-5.13254e-05,0.494201,0.00127053,0.0732287,0.0590762,0.000326377,0.0473331,1.95888,7.03363e-05,0.005,1.70982,-0.000230436,-0.0380998,-0.305177,33.8399,-0.189939,0.778533,8.97575,0.0136875,3.07748,0.275318,2.16562,0.166188,0.354492,-1.20068,-0.0332184,0.210091,-0.0444942,-0.0970148,-0.0845947,23.479,23.3229,23.1527,23.2946,23.2094,23.252,23.1527,
76,6.2729,1.38313,3.15333,4.12245,6.27428,1.97684,1.55575,0.000839,-0.118363,-9.01508e-05,0.118303,0.000895756,0.0232284,6.62874e-05,0.437264,-11.2135,-0.477047,-2.3275,0.903272,-42.7131,1.22728,0.0171215,-20,-0.498007,-0.0741764,-0.0397939,-1.3797,0.0276233,-8.47254e-05,0.00964598,-5.13254e-05,0.494201,0.00127053,0.0732287,0.0590762,0.000326377,0.0473331,1.95888,7.03363e-05,0.005,1.70982,-0.000230436,-0.0380998,-0.305177,33.8399,-0.189939,0.778533,8.97575,0.0136875,3.07748,0.275318,2.16562,0.166188,0.354492,-1.20068,-0.0332184,0.210091,-0.0444942,-0.0970148,-0.0845947,23.479,23.3229,23.1527,23.2946,23.2094,23.252,23.1527,
77,6.2729,1.38301,3.15333,4.12258,6.27428,1.97686,1.55575,0.000794842,-0.117643,-9.53816e-05,0.1175,0.000929695,0.0210463,6.62874e-05,0.437322,-11.2112,-0.477166,-2.3277,0.903312,-42.7106,1.22726,0.0171092,-20,-0.49802,-0.0714873,-0.0397857,-1.38011,0.0276203,-8.47254e-05,0.00964598,-5.13254e-05,0.494201,0.00127053,0.0732287,0.0586878,0.000341813,0.0468459,1.95888,7.03363e-05,0.005,1.70982,-0.000230436,-0.0380998,-0.305177,33.8399,-0.189939,0.667244,9.24299,0.053454,3.12006,0.296478,1.96164,0.141614,0.338475,-1.27295,-0.0360304,0.169381,-0.0443115,-0.0726216,-0.088623,23.4932,23.3087,23.1527,23.2946,23.2236,23.2662,23.1243,
78,6.2729,1.38301,3.15333,4.12258,6.27428,1.97686,1.55575,0.000794842,-0.117643,-9.53816e-05,0.1175,0.000929695,0.0210463,6.62874e-05,0.439361,-11.3772,-0.481315,-2.45213,0.908861,-43.3481,1.24289,0.0176508,-20,-0.500533,-0.093183,-0.0398082,-1.44338,0.028507,-8.78746e-05,0.00990786,-5.36197e-05,0.494201,0.00127053,0.0732287,0.0586878,0.000341813,0.0468459,1.95767,5.84556e-05,0.005,1.70908,-0.000255021,-0.0376613,-0.313806,34.4359,-0.197163,0.667244,9.24299,0.053454,3.12006,0.296478,1.96164,0.141614,0.338475,-1.27295,-0.0360304,0.169381,-0.0443115,-0.0726216,-0.088623,23.4932,23.3087,23.1527,23.2946,23.2236,23.2662,23.1243,
79,6.2729,1.38301,3.15333,4.12258,6.27428,1.97686,1.55575,0.000794842,-0.117643,-9.53816e-05,0.1175,0.000929695,0.0210463,6.62874e-05,0.439361,-11.3772,-0.481315,-2.45213,0.908861,-43.3481,1.24289,0.0176508,-20,-0.500533,-0.093183,-0.0398082,-1.44338,0.028507,-8.78746e-05,0.00990786,-5.36197e-05,0.494201,0.00127053,0.0732287,0.0586878,0.000341813,0.0468459,1.95767,5.84556e-05,0.005,1.70908,-0.000255021,-0.0376613,-0.313806,34.4359,-0.197163,0.667244,9.24299,0.053454,3.12006,0.296478,1.96164,0.141614,0.338475,-1.27295,-0.0360304,0.169381,-0.0443115,-0.0726216,-0.088623,23.4932,23.3087,23.1527,23.2946,23.2236,23.2662,23.1243,
80,6.2729,1.3829,3.15333,4.12269,6.27428,1.97688,1.55575,0.000706526,-0.119383,-9.53816e-05,0.117763,0.00094573,0.0210676,7.42418e-05,0.439381,-11.3751,-0.481387,-2.45311,0.90891,-43.3449,1.24284,0.0176331,-20,-0.500551,-0.0911532,-0.0398009,-1.44366,0.0285045,-8.78746e-05,0.00990786,-5.36197e-05,0.494201,0.00127053,0.0732287,0.0591238,0.000382674,0.0475481,1.95767,5.84556e-05,0.005,1.70908,-0.000255021,-0.0376613,-0.313806,34.4359,-0.197163,0.717381,9.58045,0.0813831,3.21671,0.363016,1.72725,0.167729,0.346529,-1.31326,-0.0254773,0.193359,-0.0525229,-0.0485074,-0.076644,23.479,23.3229,23.1527,23.2804,23.2094,23.2662,23.1385,
81,6.2729,1.3829,3.15333,4.12269,6.27428,1.97688,1.55575,0.000706526,-0.119383,-9.53816e-05,0.117763,0.00094573,0.0210676,7.42418e-05,0.441934,-11.5798,-0.486525,-2.60842,0.915904,-44.1423,1.25594,0.0183115,-20,-0.503647,-0.118404,-0.0398261,-1.52335,0.0289695,-8.9303e-05,0.0101624,-5.576e-05,0.494201,0.00127053,0.0732287,0.0591238,0.000382674,0.0475481,1.9565,4.66942e-05,0.005,1.70764,-0.000302382,-0.0382933,-0.318201,35.1839,-0.206132,0.717381,9.58045,0.0813831,3.21671,0.363016,1.72725,0.167729,0.346529,-1.31326,-0.0254773,0.193359,-0.0525229,-0.0485074,-0.076644,23.479,23.3229,23.1527,23.2804,23.2094,23.2662,23.1385,
82,6.2729,1.3829,3.15333,4.12269,6.27428,1.97688,1.55575,0.000706526,-0.119383,-9.53816e-05,0.117763,0.00094573,0.0210676,7.42418e-05,0.441934,-11.5798,-0.486525,-2.60842,0.915904,-44.1423,1.25594,0.0183115,-20,-0.503647,-0.118404,-0.0398261,-1.52335,0.0289695,-8.9303e-05,0.0101624,-5.576e-05,0.494201,0.00127053,0.0732287,0.0591238,0.000382674,0.0475481,1.9565,4.66942e-05,0.005,1.70764,-0.000302382,-0.0382933,-0.318201,35.1839,-0.206132,0.717381,9.58045,0.0813831,3.21671,0.363016,1.72725,0.167729,0.346529,-1.31326,-0.0254773,0.193359,-0.0525229,-0.0485074,-0.076644,23.479,23.3229,23.1527,23.2804,23.2094,23.2662,23.1385,
83,6.2729,1.38278,3.15333,4.12281,6.27428,1.9769,1.55575,0.000706526,-0.117222,-9.54529e-05,0.120193,0.000969437,0.0195599,7.41857e-05,0.441981,-11.5775,-0.486646,-2.60891,0.915937,-44.1396,1.25586,0.0182935,-20,-0.503665,-0.115828,-0.0398199,-1.52368,0.0289636,-8.9303e-05,0.0101624,-5.576e-05,0.494201,0.00127053,0.0732287,0.0593664,0.000383065,0.0465056,1.9565,4.66942e-05,0.005,1.70764,-0.000302382,-0.0382933,-0.318201,35.1839,-0.206132,0.609313,10.0375,0.033397,3.3117,0.332408,1.52379,0.146956,0.338475,-1.28164,-0.0332184,0.20206,-0.0498276,-0.0404841,-0.0765381,23.479,23.3229,23.1669,23.2946,23.2094,23.2662,23.1243,
84,6.2729,1.38278,3.15333,4.12281,6.27428,1.9769,1.55575,0.000706526,-0.117222,-9.54529e-05,0.120193,0.000969437,0.0195599,7.41857e-05,0.444245,-11.7597,-0.491815,-2.7471,0.920508,-44.8352,1.27182,0.0188951,-20,-0.506468,-0.140068,-0.0398487,-1.59276,0.0298161,-9.22928e-05,0.0104175,-5.88619e-05,0.494201,0.00127053,0.0732287,0.0593664,0.000383065,0.0465056,1.95533,3.60242e-05,0.005,1.70637,-0.000312337,-0.037355,-0.326468,35.8355,-0.215324,0.609313,10.0375,0.033397,3.3117,0.332408,1.52379,0.146956,0.338475,-1.28164,-0.0332184,0.20206,-0.0498276,-0.0404841,-0.0765381,23.479,23.3229,23.1669,23.2946,23.2094,23.2662,23.1243,
85,6.2729,1.38266,3.15333,4.12293,6.27428,1.97692,1.55575,0.000649304,-0.115353,-0.000100757,0.118303,0.000971473,0.0172862,7.4185e-05,0.444316,-11.7576,-0.491932,-2.74697,0.92056,-44.8332,1.27181,0.0188817,-20,-0.506474,-0.137156,-0.0398412,-1.59322,0.029812,-9.22928e-05,0.0104175,-5.88619e-05,0.494201,0.00127053,0.0732287,0.0584223,0.000395684,0.045571,1.95533,3.60242e-05,0.005,1.70637,-0.000312337,-0.037355,-0.326468,35.8355,-0.215324,0.600225,10.3515,0.0382086,3.34846,0.312596,1.35917,0.145248,0.33042,-1.34556,-0.041081,0.153288,-0.0404841,-0.0270228,-0.080667,23.479,23.3229,23.1385,23.2804,23.2094,23.2662,23.1101,
86,6.2729,1.38266,3.15333,4.12293,6.27428,1.97692,1.55575,0.000649304,-0.115353,-0.000100757,0.118303,0.000971473,0.0172862,7.4185e-05,0.44609,-11.9017,-0.495954,-2.85359,0.924038,-45.382,1.28543,0.0193532,-20,-0.508687,-0.155599,-0.0398712,-1.6474,0.0305981,-9.54432e-05,0.0106739,-6.15374e-05,0.494201,0.00127053,0.0732287,0.0584223,0.000395684,0.045571,1.95414,2.01143e-05,0.005,1.70615,-0.000338012,-0.0365139,-0.334114,36.3469,-0.222673,0.600225,10.3515,0.0382086,3.34846,0.312596,1.35917,0.145248,0.33042,-1.34556,-0.041081,0.153288,-0.0404841,-0.0270228,-0.080667,23.479,23.3229,23.1385,23.2804,23.2094,23.2662,23.1101,
87,6.2729,1.38266,3.15333,4.12293,6.27428,1.97692,1.55575,0.000649304,-0.115353,-0.000100757,0.118303,0.000971473,0.0172862,7.4185e-05,0.44609,-11.9017,-0.495954,-2.85359,0.924038,-45.382,1.28543,0.0193532,-20,-0.508687,-0.155599,-0.0398712,-1.6474,0.0305981,-9.54432e-05,0.0106739,-6.15374e-05,0.494201,0.00127053,0.0732287,0.0584223,0.000395684,0.045571,1.95414,2.01143e-05,0.005,1.70615,-0.000338012,-0.0365139,-0.334114,36.3469,-0.222673,0.600225,10.3515,0.0382086,3.34846,0.312596,1.35917,0.145248,0.33042,-1.34556,-0.041081,0.153288,-0.0404841,-0.0270228,-0.080667,23.479,23.3229,23.1385,23.2804,23.2094,23.2662,23.1101,
88,6.2729,1.38266,3.15333,4.12293,6.27428,1.97692,1.55575,0.000649304,-0.115353,-0.000100757,0.118303,0.000971473,0.0172862,7.4185e-05,0.44609,-11.9017,-0.495954,-2.85359,0.924038,-45.382,1.28543,0.0193532,-20,-0.508687,-0.155599,-0.0398712,-1.6474,0.0305981,-9.54432e-05,0.0106739,-6.15374e-05,0.494201,0.00127053,0.0732287,0.0584223,0.000395684,0.045571,1.95414,2.01143e-05,0.005,1.70615,-0.000338012,-0.0365139,-0.334114,36.3469,-0.222673,0.600225,10.3515,0.0382086,3.34846,0.312596,1.35917,0.145248,0.33042,-1.34556,-0.041081,0.153288,-0.0404841,-0.0270228,-0.080667,23.479,23.3229,23.1385,23.2804,23.2094,23.2662,23.1101,
89,6.2729,1.38255,3.15333,4.12305,6.27428,1.97694,1.55575,0.000612315,-0.115062,-0.000100681,0.11761,0.000983582,0.0153956,8.48478e-05,0.446128,-11.8994,-0.496049,-2.85396,0.924086,-45.3793,1.2854,0.0193348,-20,-0.508699,-0.153027,-0.0398646,-1.64778,0.0305961,-9.54432e-05,0.0106739,-6.15374e-05,0.494201,0.00127053,0.0732287,0.0581567,0.000406315,0.0452816,1.95414,2.01143e-05,0.005,1.70615,-0.000338012,-0.0365139,-0.334114,36.3469,-0.222673,0.491956,10.6069,0.112962,3.30861,0.346635,1.19936,0.103739,0.322668,-1.41799,-0.0490066,0.169189,-0.0433863,-0.00402832,-0.0849775,23.479,23.3087,23.1669,23.2946,23.2236,23.2662,23.1243,
90,6.2729,1.38255,3.15333,4.12305,6.27428,1.97694,1.55575,0.000612315,-0.115062,-0.000100681,0.11761,0.000983582,0.0153956,8.48478e-05,0.448145,-12.0654,-0.49974,-2.97881,0.930984,-46.0182,1.29652,0.0198709,-20,-0.511179,-0.174811,-0.0398776,-1.71129,0.0310195,-9.71061e-05,0.0109273,-6.3649e-05,0.494201,0.00127053,0.0732287,0.0581567,0.000406315,0.0452816,1.95295,1.15309e-05,0.005,1.70531,-0.000355305,-0.0362535,-0.338155,36.9447,-0.228727,0.491956,10.6069,0.112962,3.30861,0.346635,1.19936,0.103739,0.322668,-1.41799,-0.0490066,0.169189,-0.0433863,-0.00402832,-0.0849775,23.479,23.3087,23.1669,23.2946,23.2236,23.2662,23.1243,
91,6.2729,1.38243,3.15333,4.12317,6.27428,1.97695,1.55575,0.000571494,-0.112901,-0.00010333,0.118303,0.000966363,0.0135415,8.48478e-05,0.448202,-12.0632,-0.499846,-2.97906,0.931045,-46.0158,1.29651,0.0198558,-20,-0.511191,-0.172168,-0.0398709,-1.71166,0.0310172,-9.71061e-05,0.0109273,-6.3649e-05,0.494201,0.00127053,0.0732287,0.0578983,0.000415411,0.0442311,1.95295,1.15309e-05,0.005,1.70531,-0.000355305,-0.0362535,-0.338155,36.9447,-0.228727,0.518997,10.9177,0.117091,3.2672,0.371861,1.0083,0.12899,0.338762,-1.4502,-0.0490066,0.185303,-0.041081,0.0090076,-0.0726216,23.4648,23.3087,23.1527,23.2804,23.1952,23.2662,23.1243,
92,6.2729,1.38243,3.15333,4.12317,6.27428,1.97695,1.55575,0.000571494,-0.112901,-0.00010333,0.118303,0.000966363,0.0135415,8.48478e-05,0.450076,-12.2188,-0.503328,-3.09614,0.937235,-46.6081,1.30934,0.0203537,-20,-0.513519,-0.192595,-0.0398874,-1.77034,0.0316654,-9.9666e-05,0.0111693,-6.57429e-05,0.494201,0.00127053,0.0732287,0.0578983,0.000415411,0.0442311,1.9518,-1.25897e-06,0.005,1.70452,-0.000375003,-0.035308,-0.344439,37.4986,-0.23455,0.518997,10.9177,0.117091,3.2672,0.371861,1.0083,0.12899,0.338762,-1.4502,-0.0490066,0.185303,-0.041081,0.0090076,-0.0726216,23.4648,23.3087,23.1527,23.2804,23.1952,23.2662,23.1243,
93,6.2729,1.38232,3.15333,4.12329,6.27428,1.97696,1.55575,0.000489852,-0.11128,-0.000103408,0.118303,0.000968422,0.0116142,8.47837e-05,0.450112,-12.2166,-0.503403,-3.09637,0.937256,-46.6057,1.30923,0.0203358,-20,-0.513531,-0.189997,-0.039881,-1.77071,0.0316578,-9.9666e-05,0.0111693,-6.57429e-05,0.494201,0.00127053,0.0732287,0.0575539,0.000441424,0.0433982,1.9518,-1.25897e-06,0.005,1.70452,-0.000375003,-0.035308,-0.344439,37.4986,-0.23455,0.449784,11.2489,0.133702,3.21168,0.395252,0.855901,0.12749,0.322366,-1.51484,-0.041081,0.170907,-0.0332184,0.0490066,-0.0726216,23.4648,23.3087,23.1527,23.2804,23.1952,23.2662,23.1385,
94,6.2729,1.38232,3.15333,4.12329,6.27428,1.97696,1.55575,0.000489852,-0.11128,-0.000103408,0.118303,0.000968422,0.0116142,8.47837e-05,0.452048,-12.3666,-0.509021,-3.20907,0.937075,-47.1786,1.32276,0.0208502,-20,-0.515936,-0.209649,-0.0399319,-1.8275,0.0324225,-0.00010258,0.0114071,-6.92141e-05,0.494201,0.00127053,0.0732287,0.0575539,0.000441424,0.0433982,1.95067,-1.55111e-05,0.005,1.7038,-0.000411242,-0.0345584,-0.351831,38.0341,-0.245563,0.449784,11.2489,0.133702,3.21168,0.395252,0.855901,0.12749,0.322366,-1.51484,-0.041081,0.170907,-0.0332184,0.0490066,-0.0726216,23.4648,23.3087,23.1527,23.2804,23.1952,23.2662,23.1385,
95,6.2729,1.38232,3.15333,4.12329,6.27428,1.97696,1.55575,0.000489852,-0.11128,-0.000103408,0.118303,0.000968422,0.0116142,8.47837e-05,0.452048,-12.3666,-0.509021,-3.20907,0.937075,-47.1786,1.32276,0.0208502,-20,-0.515936,-0.209649,-0.0399319,-1.8275,0.0324225,-0.00010258,0.0114071,-6.92141e-05,0.494201,0.00127053,0.0732287,0.0575539,0.000441424,0.0433982,1.95067,-1.55111e-05,0.005,1.7038,-0.000411242,-0.0345584,-0.351831,38.0341,-0.245563,0.449784,11.2489,0.133702,3.21168,0.395252,0.855901,0.12749,0.322366,-1.51484,-0.041081,0.170907,-0.0332184,0.0490066,-0.0726216,23.4648,23.3087,23.1527,23.2804,23.1952,23.2662,23.1385,
96,6.2729,1.38221,3.15333,4.1234,6.27429,1.97697,1.55575,0.000487015,-0.11084,-0.000100758,0.116294,0.000971473,0.00971366,8.47837e-05,0.452096,-12.3645,-0.509132,-3.2092,0.937121,-47.1763,1.32275,0.0208308,-20,-0.515942,-0.207036,-0.0399262,-1.8279,0.0324212,-0.00010258,0.0114071,-6.92141e-05,0.494201,0.00127053,0.0732287,0.0568773,0.000433757,0.0430699,1.95067,-1.55111e-05,0.005,1.7038,-0.000411242,-0.0345584,-0.351831,38.0341,-0.245563,0.454671,11.5226,0.125917,3.08675,0.385259,0.695231,0.136001,0.314312,-1.57912,-0.0509547,0.161936,-0.0322266,0.0525229,-0.0726216,23.4648,23.3229,23.1385,23.2662,23.1811,23.252,23.1243,
97,6.2729,1.38221,3.15333,4.1234,6.27429,1.97697,1.55575,0.000487015,-0.11084,-0.000100758,0.116294,0.000971473,0.00971366,8.47837e-05,0.453824,-12.51,-0.511743,-3.31769,0.944924,-47.7356,1.33525,0.0212899,-20,-0.518072,-0.225853,-0.0399266,-1.88337,0.0330609,-0.000105135,0.0116489,-7.11227e-05,0.494201,0.00127053,0.0732287,0.0568773,0.000433757,0.0430699,1.94951,-2.36594e-05,0.005,1.70337,-0.000411675,-0.0342629,-0.358054,38.5565,-0.249323,0.454671,11.5226,0.125917,3.08675,0.385259,0.695231,0.136001,0.314312,-1.57912,-0.0509547,0.161936,-0.0322266,0.0525229,-0.0726216,23.4648,23.3229,23.1385,23.2662,23.1811,23.252,23.1243,
98,6.2729,1.3821,3.15333,4.12352,6.27429,1.97698,1.55575,0.00040821,-0.109818,-0.000100681,0.119653,0.000968422,0.00756273,9.54538e-05,0.453849,-12.5075,-0.511813,-3.31834,0.94496,-47.7325,1.33519,0.0212724,-20,-0.518093,-0.223522,-0.0399197,-1.88363,0.0330589,-0.000105135,0.0116489,-7.11227e-05,0.494201,0.00127053,0.0732287,0.0576298,0.000466275,0.0423952,1.94951,-2.36594e-05,0.005,1.70337,-0.000411675,-0.0342629,-0.358054,38.5565,-0.249323,0.358591,11.745,0.177817,2.9524,0.408231,0.519451,0.106522,0.306258,-1.57138,-0.0490066,0.225586,-0.0324774,0.076961,-0.0725098,23.4932,23.3229,23.1385,23.2804,23.1952,23.2662,23.1101,
99,6.2729,1.3821,3.15333,4.12352,6.27429,1.97698,1.55575,0.00040821,-0.109818,-0.000100681,0.119653,0.000968422,0.00756273,9.54538e-05,0.456028,-12.6843,-0.516245,-3.45424,0.950799,-48.4105,1.34639,0.0218512,-20,-0.520771,-0.247487,-0.0399442,-1.95126,0.0334581,-0.000106483,0.0118828,-7.30834e-05,0.494201,0.00127053,0.0732287,0.0576298,0.000466275,0.0423952,1.94838,-3.46782e-05,0.005,1.70167,-0.000450858,-0.0336557,-0.36183,39.1937,-0.257089,0.358591,11.745,0.177817,2.9524,0.408231,0.519451,0.106522,0.306258,-1.57138,-0.0490066,0.225586,-0.0324774,0.076961,-0.0725098,23.4932,23.3229,23.1385,23.2804,23.1952,23.2662,23.1101,
100,6.2729,1.3821,3.15333,4.12352,6.27429,1.97698,1.55575,0.00040821,-0.109818,-0.000100681,0.119653,0.000968422,0.00756273,9.54538e-05,0.456028,-12.6843,-0.516245,-3.45424,0.950799,-48.4105,1.34639,0.0218512,-20,-0.520771,-0.247487,-0.0399442,-1.95126,0.0334581,-0.000106483,0.0118828,-7.30834e-05,0.494201,0.00127053,0.0732287,0.0576298,0.000466275,0.0423952,1.94838,-3.46782e-05,0.005,1.70167,-0.000450858,-0.0336557,-0.36183,39.1937,-0.257089,0.358591,11.745,0.177817,2.9524,0.408231,0.519451,0.106522,0.306258,-1.57138,-0.0490066,0.225586,-0.0324774,0.076961,-0.0725098,23.4932,23.3229,23.1385,23.2804,23.1952,23.2662,23.1101,
101,6.2729,1.38199,3.15333,4.12365,6.27429,1.97698,1.55575,0.000326568,-0.109119,-0.00010606,0.120369,0.000968422,0.00551691,9.54538e-05,0.456078,-12.6819,-0.516341,-3.45476,0.950819,-48.4076,1.34632,0.0218392,-20,-0.520789,-0.244955,-0.0399366,-1.95159,0.0334537,-0.000106483,0.0118828,-7.30834e-05,0.494201,0.00127053,0.0732287,0.0576867,0.000496954,0.0419041,1.94838,-3.46782e-05,0.005,1.70167,-0.000450858,-0.0336557,-0.36183,39.1937,-0.257089,0.392025,11.9973,0.193249,2.80805,0.427134,0.293259,0.142866,0.322366,-1.60345,-0.0649547,0.145243,-0.0324774,0.100789,-0.0684814,23.4648,23.3229,23.1527,23.2804,23.1952,23.2662,23.1243,
102,6.2729,1.38199,3.15333,4.12365,6.27429,1.97698,1.55575,0.000326568,-0.109119,-0.00010606,0.120369,0.000968422,0.00551691,9.54538e-05,0.458133,-12.8457,-0.521145,-3.57912,0.954289,-49.0368,1.36157,0.022385,-20,-0.52332,-0.266739,-0.0399714,-2.01421,0.0343234,-0.000109566,0.0121238,-7.57157e-05,0.494201,0.00127053,0.0732287,0.0576867,0.000496954,0.0419041,1.94719,-5.00483e-05,0.005,1.70055,-0.000492302,-0.0332137,-0.370268,39.7835,-0.266003,0.392025,11.9973,0.193249,2.80805,0.427134,0.293259,0.142866,0.322366,-1.60345,-0.0649547,0.145243,-0.0324774,0.100789,-0.0684814,23.4648,23.3229,23.1527,23.2804,23.1952,23.2662,23.1243,
103,6.2729,1.38199,3.15333,4.12365,6.27429,1.97698,1.55575,0.000326568,-0.109119,-0.00010606,0.120369,0.000968422,0.00551691,9.54538e-05,0.458133,-12.8457,-0.521145,-3.57912,0.954289,-49.0368,1.36157,0.022385,-20,-0.52332,-0.266739,-0.0399714,-2.01421,0.0343234,-0.000109566,0.0121238,-7.57157e-05,0.494201,0.00127053,0.0732287,0.0576867,0.000496954,0.0419041,1.94719,-5.00483e-05,0.005,1.70055,-0.000492302,-0.0332137,-0.370268,39.7835,-0.266003,0.392025,11.9973,0.193249,2.80805,0.427134,0.293259,0.142866,0.322366,-1.60345,-0.0649547,0.145243,-0.0324774,0.100789,-0.0684814,23.4648,23.3229,23.1527,23.2804,23.1952,23.2662,23.1243,
104,6.2729,1.38188,3.15333,4.12377,6.27429,1.97699,1.55575,0.000285769,-0.10966,-0.00010606,0.121814,0.000969437,0.00216078,9.53816e-05,0.458157,-12.843,-0.521218,-3.57956,0.954297,-49.0337,1.36147,0.0223669,-20,-0.523336,-0.264397,-0.0399661,-2.0145,0.0343198,-0.000109566,0.0121238,-7.57157e-05,0.494201,0.00127053,0.0732287,0.0582157,0.000512175,0.0417535,1.94719,-5.00483e-05,0.005,1.70055,-0.000492302,-0.0332137,-0.370268,39.7835,-0.266003,0.368448,12.3729,0.212319,2.75175,0.41931,0.0430393,0.0929844,0.322266,-1.61135,-0.0563965,0.105046,-0.0293266,0.116891,-0.0725098,23.4648,23.2946,23.1385,23.2804,23.2094,23.252,23.1101,
105,6.2729,1.38188,3.15333,4.12377,6.27429,1.97699,1.55575,0.000285769,-0.10966,-0.00010606,0.121814,0.000969437,0.00216078,9.53816e-05,0.460135,-13.003,-0.525134,-3.70257,0.96006,-49.6514,1.37557,0.0228923,-20,-0.525752,-0.28607,-0.0399823,-2.07624,0.0350718,-0.000112072,0.0123541,-7.81063e-05,0.494201,0.00127053,0.0732287,0.0582157,0.000512175,0.0417535,1.94604,-6.20122e-05,0.005,1.69904,-0.000516769,-0.0330782,-0.377564,40.3642,-0.272702,0.368448,12.3729,0.212319,2.75175,0.41931,0.0430393,0.0929844,0.322266,-1.61135,-0.0563965,0.105046,-0.0293266,0.116891,-0.0725098,23.4648,23.2946,23.1385,23.2804,23.2094,23.252,23.1101,
106,6.2729,1.38188,3.15333,4.12377,6.27429,1.97699,1.55575,0.000285769,-0.10966,-0.00010606,0.121814,0.000969437,0.00216078,9.53816e-05,0.460135,-13.003,-0.525134,-3.70257,0.96006,-49.6514,1.37557,0.0228923,-20,-0.525752,-0.28607,-0.0399823,-2.07624,0.0350718,-0.000112072,0.0123541,-7.81063e-05,0.494201,0.00127053,0.0732287,0.0582157,0.000512175,0.0417535,1.94604,-6.20122e-05,0.005,1.69904,-0.000516769,-0.0330782,-0.377564,40.3642,-0.272702,0.368448,12.3729,0.212319,2.75175,0.41931,0.0430393,0.0929844,0.322266,-1.61135,-0.0563965,0.105046,-0.0293266,0.116891,-0.0725098,23.4648,23.2946,23.1385,23.2804,23.2094,23.252,23.1101,
107,6.2729,1.38177,3.15333,4.12389,6.27429,1.97698,1.55575,0.000202923,-0.10783,-0.00010606,0.125325,0.0009715,-0.00108039,9.53816e-05,0.460163,-13.0004,-0.525206,-3.70296,0.960072,-49.6484,1.37548,0.0228731,-20,-0.525773,-0.283438,-0.0399752,-2.07653,0.0350682,-0.000112072,0.0123541,-7.81063e-05,0.494201,0.00127053,0.0732287,0.058844,0.000543712,0.0406417,1.94604,-6.20122e-05,0.005,1.69904,-0.000516769,-0.0330782,-0.377564,40.3642,-0.272702,0.370779,12.6731,0.241019,2.68389,0.397442,-0.161439,0.0650689,0.306258,-1.60345,-0.0490066,0.0586532,-0.0166092,0.157156,-0.0644531,23.4506,23.3229,23.1385,23.2946,23.1952,23.2662,23.1385,
108,6.2729,1.38177,3.15333,4.12389,6.27429,1.97698,1.55575,0.000202923,-0.10783,-0.00010606,0.125325,0.0009715,-0.00108039,9.53816e-05,0.462225,-13.1658,-0.529955,-3.83041,0.963809,-50.2791,1.38966,0.0234208,-20,-0.528324,-0.305918,-0.0400087,-2.13935,0.0358249,-0.000114668,0.012591,-8.04907e-05,0.494201,0.00127053,0.0732287,0.058844,0.000543712,0.0406417,1.94484,-7.42919e-05,0.005,1.6974,-0.000556203,-0.0320775,-0.384884,40.957,-0.281441,0.370779,12.6731,0.241019,2.68389,0.397442,-0.161439,0.0650689,0.306258,-1.60345,-0.0490066,0.0586532,-0.0166092,0.157156,-0.0644531,23.4506,23.3229,23.1385,23.2946,23.1952,23.2662,23.1385,
109,6.2729,1.38167,3.15333,4.12401,6.27429,1.97698,1.55575,0.000163284,-0.104258,-0.00010598,0.126406,0.000953318,-0.00189068,9.53816e-05,0.462275,-13.1639,-0.530055,-3.83077,0.963859,-50.2768,1.38962,0.0234022,-20,-0.528338,-0.30317,-0.0400023,-2.1397,0.0358214,-0.000114668,0.012591,-8.04907e-05,0.494201,0.00127053,0.0732287,0.0584031,0.000550998,0.0391344,1.94484,-7.42919e-05,0.005,1.6974,-0.000556203,-0.0320775,-0.384884,40.957,-0.281441,0.338615,13.0071,0.307445,2.58346,0.424195,-0.345477,0.0717279,0.298205,-1.65163,-0.0490066,0.0180152,-0.0245033,0.181274,-0.0685998,23.479,23.2946,23.1527,23.2804,23.1952,23.252,23.1243,
110,6.2729,1.38167,3.15333,4.12401,6.27429,1.97698,1.55575,0.000163284,-0.104258,-0.00010598,0.126406,0.000953318,-0.00189068,9.53816e-05,0.464034,-13.3078,-0.534002,-3.93889,0.967532,-50.8202,1.40124,0.0238695,-20,-0.530546,-0.321983,-0.0400296,-2.19338,0.0364064,-0.000117155,0.0128157,-8.28616e-05,0.494201,0.00127053,0.0732287,0.0584031,0.000550998,0.0391344,1.94369,-8.6069e-05,0.005,1.69676,-0.000573361,-0.0307209,-0.390536,41.4647,-0.28854,0.338615,13.0071,0.307445,2.58346,0.424195,-0.345477,0.0717279,0.298205,-1.65163,-0.0490066,0.0180152,-0.0245033,0.181274,-0.0685998,23.479,23.2946,23.1527,23.2804,23.1952,23.252,23.1243,
111,6.2729,1.38167,3.15333,4.12401,6.27429,1.97698,1.55575,0.000163284,-0.104258,-0.00010598,0.126406,0.000953318,-0.00189068,9.53816e-05,0.464034,-13.3078,-0.534002,-3.93889,0.967532,-50.8202,1.40124,0.0238695,-20,-0.530546,-0.321983,-0.0400296,-2.19338,0.0364064,-0.000117155,0.0128157,-8.28616e-05,0.494201,0.00127053,0.0732287,0.0584031,0.000550998,0.0391344,1.94369,-8.6069e-05,0.005,1.69676,-0.000573361,-0.0307209,-0.390536,41.4647,-0.28854,0.338615,13.0071,0.307445,2.58346,0.424195,-0.345477,0.0717279,0.298205,-1.65163,-0.0490066,0.0180152,-0.0245033,0.181274,-0.0685998,23.479,23.2946,23.1527,23.2804,23.1952,23.252,23.1243,
112,6.2729,1.38167,3.15333,4.12401,6.27429,1.97698,1.55575,0.000163284,-0.104258,-0.00010598,0.126406,0.000953318,-0.00189068,9.53816e-05,0.464034,-13.3078,-0.534002,-3.93889,0.967532,-50.8202,1.40124,0.0238695,-20,-0.530546,-0.321983,-0.0400296,-2.19338,0.0364064,-0.000117155,0.0128157,-8.28616e-05,0.494201,0.00127053,0.0732287,0.0584031,0.000550998,0.0391344,1.94369,-8.6069e-05,0.005,1.69676,-0.000573361,-0.0307209,-0.390536,41.4647,-0.28854,0.338615,13.0071,0.307445,2.58346,0.424195,-0.345477,0.0717279,0.298205,-1.65163,-0.0490066,0.0180152,-0.0245033,0.181274,-0.0685998,23.479,23.2946,23.1527,23.2804,23.1952,23.252,23.1243,
113,6.2729,1.38156,3.15333,4.12414,6.27429,1.97698,1.55575,0.000122463,-0.102803,-0.00010598,0.12251,0.000923054,-0.00261006,0.000103408,0.464085,-13.3059,-0.534095,-3.93909,0.967616,-50.8182,1.40126,0.0238501,-20,-0.53055,-0.3192,-0.0400237,-2.19383,0.0364073,-0.000117155,0.0128157,-8.28616e-05,0.494201,0.00127053,0.0732287,0.0569696,0.000551626,0.0385583,1.94369,-8.6069e-05,0.005,1.69676,-0.000573361,-0.0307209,-0.390536,41.4647,-0.28854,0.335057,13.3784,0.326787,2.45147,0.457675,-0.596676,0.0932965,0.298096,-1.7242,-0.0490066,-0.0360304,-0.0205405,0.197388,-0.0644531,23.4648,23.3087,23.1527,23.2804,23.2236,23.2804,23.1101,
114,6.2729,1.38156,3.15333,4.12414,6.27429,1.97698,1.55575,0.000122463,-0.102803,-0.00010598,0.12251,0.000923054,-0.00261006,0.000103408,0.465502,-13.4278,-0.535999,-4.02809,0.97467,-51.2841,1.40761,0.0242266,-20,-0.532317,-0.334422,-0.0400259,-2.23974,0.0365328,-0.000118319,0.0130436,-8.43016e-05,0.494201,0.00127053,0.0732287,0.0569696,0.000551626,0.0385583,1.94251,-9.59168e-05,0.005,1.69699,-0.000582788,-0.0302024,-0.391686,41.8978,-0.291148,0.335057,13.3784,0.326787,2.45147,0.457675,-0.596676,0.0932965,0.298096,-1.7242,-0.0490066,-0.0360304,-0.0205405,0.197388,-0.0644531,23.4648,23.3087,23.1527,23.2804,23.2236,23.2804,23.1101,
115,6.2729,1.38156,3.15333,4.12414,6.27429,1.97698,1.55575,0.000122463,-0.102803,-0.00010598,0.12251,0.000923054,-0.00261006,0.000103408,0.465502,-13.4278,-0.535999,-4.02809,0.97467,-51.2841,1.40761,0.0242266,-20,-0.532317,-0.334422,-0.0400259,-2.23974,0.0365328,-0.000118319,0.0130436,-8.43016e-05,0.494201,0.00127053,0.0732287,0.0569696,0.000551626,0.0385583,1.94251,-9.59168e-05,0.005,1.69699,-0.000582788,-0.0302024,-0.391686,41.8978,-0.291148,0.335057,13.3784,0.326787,2.45147,0.457675,-0.596676,0.0932965,0.298096,-1.7242,-0.0490066,-0.0360304,-0.0205405,0.197388,-0.0644531,23.4648,23.3087,23.1527,23.2804,23.2236,23.2804,23.1101,
116,6.2729,1.38147,3.15333,4.12426,6.27429,1.97697,1.55575,0.000122463,-0.0999361,-0.000100756,0.119383,0.000907896,-0.00284795,0.000103408,0.465562,-13.4262,-0.536114,-4.0282,0.974743,-51.2824,1.40762,0.0242079,-20,-0.53232,-0.331698,-0.0400206,-2.24017,0.0365316,-0.000118319,0.0130436,-8.43016e-05,0.494201,0.00127053,0.0732287,0.0554615,0.000535416,0.0374583,1.94251,-9.59168e-05,0.005,1.69699,-0.000582788,-0.0302024,-0.391686,41.8978,-0.291148,0.24957,13.7984,0.350172,2.41972,0.455337,-0.760478,0.0891293,0.306258,-1.76448,-0.0490066,0.0161133,-0.012085,0.197388,-0.0604248,23.479,23.3087,23.1385,23.2804,23.1952,23.252,23.1101,
117,6.2729,1.38147,3.15333,4.12426,6.27429,1.97697,1.55575,0.000122463,-0.0999361,-0.000100756,0.119383,0.000907896,-0.00284795,0.000103408,0.466853,-13.5368,-0.538225,-4.10834,0.980102,-51.6999,1.4162,0.0245507,-20,-0.533952,-0.345346,-0.0400271,-2.2811,0.0369332,-0.000120496,0.0132562,-8.60893e-05,0.494201,0.00127053,0.0732287,0.0554615,0.000535416,0.0374583,1.94142,-0.000106147,0.005,1.69736,-0.000577407,-0.0292125,-0.39558,42.2849,-0.294341,0.24957,13.7984,0.350172,2.41972,0.455337,-0.760478,0.0891293,0.306258,-1.76448,-0.0490066,0.0161133,-0.012085,0.197388,-0.0604248,23.479,23.3087,23.1385,23.2804,23.1952,23.252,23.1101,
118,6.2729,1.38147,3.15333,4.12426,6.27429,1.97697,1.55575,0.000122463,-0.0999361,-0.000100756,0.119383,0.000907896,-0.00284795,0.000103408,0.466853,-13.5368,-0.538225,-4.10834,0.980102,-51.6999,1.4162,0.0245507,-20,-0.533952,-0.345346,-0.0400271,-2.2811,0.0369332,-0.000120496,0.0132562,-8.60893e-05,0.494201,0.00127053,0.0732287,0.0554615,0.000535416,0.0374583,1.94142,-0.000106147,0.005,1.69736,-0.000577407,-0.0292125,-0.39558,42.2849,-0.294341,0.24957,13.7984,0.350172,2.41972,0.455337,-0.760478,0.0891293,0.306258,-1.76448,-0.0490066,0.0161133,-0.012085,0.197388,-0.0604248,23.479,23.3087,23.1385,23.2804,23.1952,23.252,23.1101,
119,6.2729,1.38136,3.15333,4.12438,6.27429,1.97697,1.55575,0.000113246,-0.0977997,-0.000100757,0.117763,0.000892764,-0.00287219,0.00010333,0.466905,-13.535,-0.538334,-4.1087,0.980153,-51.6978,1.41617,0.0245318,-20,-0.53396,-0.342784,-0.0400219,-2.28147,0.0369299,-0.000120496,0.0132562,-8.60893e-05,0.494201,0.00127053,0.0732287,0.0545418,0.000529486,0.0366464,1.94142,-0.000106147,0.005,1.69736,-0.000577407,-0.0292125,-0.39558,42.2849,-0.294341,0.304331,14.1398,0.357934,2.32887,0.433105,-0.89681,0.0931261,0.290039,-1.82109,-0.0483398,0.113938,-0.0127387,0.197552,-0.0684814,23.479,23.2804,23.1385,23.2662,23.2094,23.2662,23.1101,
120,6.2729,1.38136,3.15333,4.12438,6.27429,1.97697,1.55575,0.000113246,-0.0977997,-0.000100757,0.117763,0.000892764,-0.00287219,0.00010333,0.468513,-13.6679,-0.541538,-4.20716,0.984911,-52.2044,1.42711,0.0249589,-20,-0.535968,-0.359765,-0.0400375,-2.3315,0.0374785,-0.000122921,0.0134731,-8.83601e-05,0.494201,0.00127053,0.0732287,0.0545418,0.000529486,0.0366464,1.94031,-0.000117589,0.005,1.69719,-0.000582367,-0.0284818,-0.400892,42.7571,-0.299762,0.304331,14.1398,0.357934,2.32887,0.433105,-0.89681,0.0931261,0.290039,-1.82109,-0.0483398,0.113938,-0.0127387,0.197552,-0.0684814,23.479,23.2804,23.1385,23.2662,23.2094,23.2662,23.1101,
121,6.2729,1.38136,3.15333,4.12438,6.27429,1.97697,1.55575,0.000113246,-0.0977997,-0.000100757,0.117763,0.000892764,-0.00287219,0.00010333,0.468513,-13.6679,-0.541538,-4.20716,0.984911,-52.2044,1.42711,0.0249589,-20,-0.535968,-0.359765,-0.0400375,-2.3315,0.0374785,-0.000122921,0.0134731,-8.83601e-05,0.494201,0.00127053,0.0732287,0.0545418,0.000529486,0.0366464,1.94031,-0.000117589,0.005,1.69719,-0.000582367,-0.0284818,-0.400892,42.7571,-0.299762,0.304331,14.1398,0.357934,2.32887,0.433105,-0.89681,0.0931261,0.290039,-1.82109,-0.0483398,0.113938,-0.0127387,0.197552,-0.0684814,23.479,23.2804,23.1385,23.2662,23.2094,23.2662,23.1101,
122,6.2729,1.38127,3.15333,4.12449,6.27429,1.97697,1.55576,7.54918e-05,-0.0950743,-9.53816e-05,0.113171,0.000923054,-0.00284402,0.00010606,0.46854,-13.6665,-0.541611,-4.20722,0.984951,-52.2029,1.427,0.0249349,-20,-0.535968,-0.357135,-0.0400329,-2.33194,0.0374716,-0.000122921,0.0134731,-8.83601e-05,0.494201,0.00127053,0.0732287,0.0526405,0.000530225,0.0356523,1.94031,-0.000117589,0.005,1.69719,-0.000582367,-0.0284818,-0.400892,42.7571,-0.299762,0.269721,14.4639,0.407086,2.25037,0.447829,-1.00917,0.0653545,0.290151,-1.83707,-0.0649547,0.139079,-0.012085,0.193401,-0.0644531,23.4648,23.2946,23.1385,23.2804,23.1952,23.2662,23.1101,
123,6.2729,1.38127,3.15333,4.12449,6.27429,1.97697,1.55576,7.54918e-05,-0.0950743,-9.53816e-05,0.113171,0.000923054,-0.00284402,0.00010606,0.469774,-13.7608,-0.545944,-4.27396,0.982568,-52.5586,1.43197,0.0252625,-20,-0.537541,-0.368352,-0.0400788,-2.36662,0.0376037,-0.000124038,0.0136756,-9.1462e-05,0.494201,0.00127053,0.0732287,0.0526405,0.000530225,0.0356523,1.93927,-0.000127492,0.005,1.69797,-0.000591945,-0.0275871,-0.402055,43.0852,-0.308506,0.269721,14.4639,0.407086,2.25037,0.447829,-1.00917,0.0653545,0.290151,-1.83707,-0.0649547,0.139079,-0.012085,0.193401,-0.0644531,23.4648,23.2946,23.1385,23.2804,23.1952,23.2662,23.1101,
124,6.2729,1.38127,3.15333,4.12449,6.27429,1.97697,1.55576,7.54918e-05,-0.0950743,-9.53816e-05,0.113171,0.000923054,-0.00284402,0.00010606,0.469774,-13.7608,-0.545944,-4.27396,0.982568,-52.5586,1.43197,0.0252625,-20,-0.537541,-0.368352,-0.0400788,-2.36662,0.0376037,-0.000124038,0.0136756,-9.1462e-05,0.494201,0.00127053,0.0732287,0.0526405,0.000530225,0.0356523,1.93927,-0.000127492,0.005,1.69797,-0.000591945,-0.0275871,-0.402055,43.0852,-0.308506,0.269721,14.4639,0.407086,2.25037,0.447829,-1.00917,0.0653545,0.290151,-1.83707,-0.0649547,0.139079,-0.012085,0.193401,-0.0644531,23.4648,23.2946,23.1385,23.2804,23.1952,23.2662,23.1101,
125,6.2729,1.38127,3.15333,4.12449,6.27429,1.97697,1.55576,7.54918e-05,-0.0950743,-9.53816e-05,0.113171,0.000923054,-0.00284402,0.00010606,0.469774,-13.7608,-0.545944,-4.27396,0.982568,-52.5586,1.43197,0.0252625,-20,-0.537541,-0.368352,-0.0400788,-2.36662,0.0376037,-0.000124038,0.0136756,-9.1462e-05,0.494201,0.00127053,0.0732287,0.0526405,0.000530225,0.0356523,1.93927,-0.000127492,0.005,1.69797,-0.000591945,-0.0275871,-0.402055,43.0852,-0.308506,0.269721,14.4639,0.407086,2.25037,0.447829,-1.00917,0.0653545,0.290151,-1.83707,-0.0649547,0.139079,-0.012085,0.193401,-0.0644531,23.4648,23.2946,23.1385,23.2804,23.1952,23.2662,23.1101,
126,6.2729,1.38117,3.15333,4.12461,6.27429,1.97697,1.55576,7.5906e-05,-0.0939939,-9.53816e-05,0.111843,0.000925397,-0.00311506,0.00010606,0.469815,-13.7589,-0.546043,-4.27452,0.982606,-52.5561,1.43191,0.0252451,-20,-0.537552,-0.366011,-0.0400741,-2.36695,0.0376001,-0.000124038,0.0136756,-9.1462e-05,0.494201,0.00127053,0.0732287,0.0520276,0.000524688,0.0352276,1.93927,-0.000127492,0.005,1.69797,-0.000591945,-0.0275871,-0.402055,43.0852,-0.308506,0.275398,14.8336,0.437539,2.09448,0.461344,-1.11614,0.0507261,0.281982,-1.88527,-0.0490066,0.210091,-0.00402832,0.185347,-0.0605589,23.4648,23.2946,23.1385,23.2804,23.2094,23.2378,23.1101,
127,6.2729,1.38117,3.15333,4.12461,6.27429,1.97697,1.55576,7.5906e-05,-0.0939939,-9.53816e-05,0.111843,0.000925397,-0.00311506,0.00010606,0.471465,-13.8937,-0.549394,-4.37528,0.98729,-53.0733,1.44331,0.025683,-20,-0.539594,-0.383466,-0.0400887,-2.41824,0.0381849,-0.000126372,0.0138843,-9.37657e-05,0.494201,0.00127053,0.0732287,0.0520276,0.000524688,0.0352276,1.9382,-0.000138583,0.005,1.69755,-0.000596944,-0.0272048,-0.407721,43.5684,-0.3142,0.275398,14.8336,0.437539,2.09448,0.461344,-1.11614,0.0507261,0.281982,-1.88527,-0.0490066,0.210091,-0.00402832,0.185347,-0.0605589,23.4648,23.2946,23.1385,23.2804,23.2094,23.2378,23.1101,
128,6.2729,1.38108,3.15333,4.12472,6.27429,1.97696,1.55576,7.09231e-05,-0.0950743,-0.000100757,0.11182,0.000900876,-0.00335962,0.00010606,0.471517,-13.8916,-0.549504,-4.37609,0.987321,-53.0705,1.44331,0.0256725,-20,-0.53961,-0.381519,-0.0400834,-2.41848,0.0381853,-0.000126372,0.0138843,-9.37657e-05,0.494201,0.00127053,0.0732287,0.0522451,0.000527694,0.0356428,1.9382,-0.000138583,0.005,1.69755,-0.000596944,-0.0272048,-0.407721,43.5684,-0.3142,0.212453,15.2005,0.472803,2.02235,0.468238,-1.24049,0.0479307,0.281982,-1.87727,-0.0490066,0.217678,-0.0090076,0.185478,-0.0523682,23.4648,23.2804,23.1243,23.252,23.1811,23.252,23.1101,
129,6.2729,1.38108,3.15333,4.12472,6.27429,1.97696,1.55576,7.09231e-05,-0.0950743,-0.000100757,0.11182,0.000900876,-0.00335962,0.00010606,0.473345,-14.0455,-0.551779,-4.4934,0.997015,-53.6688,1.45662,0.0261577,-20,-0.541827,-0.40205,-0.0400747,-2.47831,0.0388637,-0.000128749,0.0140834,-9.50591e-05,0.494201,0.00127053,0.0732287,0.0522451,0.000527694,0.0356428,1.93717,-0.000150197,0.005,1.69643,-0.000610102,-0.0275786,-0.414333,44.1303,-0.317076,0.212453,15.2005,0.472803,2.02235,0.468238,-1.24049,0.0479307,0.281982,-1.87727,-0.0490066,0.217678,-0.0090076,0.185478,-0.0523682,23.4648,23.2804,23.1243,23.252,23.1811,23.252,23.1101,
130,6.2729,1.38108,3.15333,4.12472,6.27429,1.97696,1.55576,7.09231e-05,-0.0950743,-0.000100757,0.11182,0.000900876,-0.00335962,0.00010606,0.473345,-14.0455,-0.551779,-4.4934,0.997015,-53.6688,1.45662,0.0261577,-20,-0.541827,-0.40205,-0.0400747,-2.47831,0.0388637,-0.000128749,0.0140834,-9.50591e-05,0.494201,0.00127053,0.0732287,0.0522451,0.000527694,0.0356428,1.93717,-0.000150197,0.005,1.69643,-0.000610102,-0.0275786,-0.414333,44.1303,-0.317076,0.212453,15.2005,0.472803,2.02235,0.468238,-1.24049,0.0479307,0.281982,-1.87727,-0.0490066,0.217678,-0.0090076,0.185478,-0.0523682,23.4648,23.2804,23.1243,23.252,23.1811,23.252,23.1101,
131,6.2729,1.38098,3.15333,4.12483,6.2743,1.97696,1.55576,3.5283e-05,-0.0927843,-0.000100757,0.112361,0.000859731,-0.00364272,0.000113928,0.473388,-14.0436,-0.551871,-4.49391,0.997067,-53.6664,1.4566,0.0261397,-20,-0.54184,-0.39968,-0.0400693,-2.47861,0.0388628,-0.000128749,0.0140834,-9.50591e-05,0.494201,0.00127053,0.0732287,0.0519183,0.000533647,0.0347061,1.93717,-0.000150197,0.005,1.69643,-0.000610102,-0.0275786,-0.414333,44.1303,-0.317076,0.218428,15.4563,0.472518,1.93474,0.433833,-1.36992,0.0446217,0.281982,-1.83693,-0.0563965,0.217678,-0.00569691,0.181274,-0.0569691,23.4648,23.3229,23.1385,23.2804,23.1952,23.2378,23.1243,
132,6.2729,1.38098,3.15333,4.12483,6.2743,1.97696,1.55576,3.5283e-05,-0.0927843,-0.000100757,0.112361,0.000859731,-0.00364272,0.000113928,0.475028,-14.1809,-0.554701,-4.5974,1.00321,-54.1892,1.4643,0.026575,-20,-0.54388,-0.417675,-0.0400797,-2.53042,0.0390674,-0.000129936,0.0142871,-9.67359e-05,0.494201,0.00127053,0.0732287,0.0519183,0.000533647,0.0347061,1.93611,-0.000160067,0.005,1.69578,-0.000624342,-0.0267355,-0.41624,44.6193,-0.321594,0.218428,15.4563,0.472518,1.93474,0.433833,-1.36992,0.0446217,0.281982,-1.83693,-0.0563965,0.217678,-0.00569691,0.181274,-0.0569691,23.4648,23.3229,23.1385,23.2804,23.1952,23.2378,23.1243,
133,6.2729,1.38098,3.15333,4.12483,6.2743,1.97696,1.55576,3.5283e-05,-0.0927843,-0.000100757,0.112361,0.000859731,-0.00364272,0.000113928,0.475028,-14.1809,-0.554701,-4.5974,1.00321,-54.1892,1.4643,0.026575,-20,-0.54388,-0.417675,-0.0400797,-2.53042,0.0390674,-0.000129936,0.0142871,-9.67359e-05,0.494201,0.00127053,0.0732287,0.0519183,0.000533647,0.0347061,1.93611,-0.000160067,0.005,1.69578,-0.000624342,-0.0267355,-0.41624,44.6193,-0.321594,0.218428,15.4563,0.472518,1.93474,0.433833,-1.36992,0.0446217,0.281982,-1.83693,-0.0563965,0.217678,-0.00569691,0.181274,-0.0569691,23.4648,23.3229,23.1385,23.2804,23.1952,23.2378,23.1243,
134,6.2729,1.38089,3.15333,4.12494,6.2743,1.97695,1.55576,3.5283e-05,-0.0912005,-9.54548e-05,0.11182,0.000845402,-0.00430684,0.000113928,0.475045,-14.1791,-0.554769,-4.59782,1.00328,-54.187,1.46429,0.0265513,-20,-0.543888,-0.415397,-0.0400756,-2.53072,0.039069,-0.000129936,0.0142871,-9.67359e-05,0.494201,0.00127053,0.0732287,0.0514284,0.00052515,0.034026,1.93611,-0.000160067,0.005,1.69578,-0.000624342,-0.0267355,-0.41624,44.6193,-0.321594,0.195837,15.7119,0.505963,1.82667,0.418817,-1.49783,0.0687792,0.273926,-1.8693,-0.0402832,0.169381,-0.00402832,0.177292,-0.0604248,23.4648,23.2946,23.1385,23.2804,23.1952,23.2236,23.1101,
135,6.2729,1.38089,3.15333,4.12494,6.2743,1.97695,1.55576,3.5283e-05,-0.0912005,-9.54548e-05,0.11182,0.000845402,-0.00430684,0.000113928,0.476444,-14.3,-0.556413,-4.68864,1.01112,-54.6486,1.47205,0.0269226,-20,-0.545624,-0.431149,-0.0400689,-2.57646,0.0393334,-0.000131228,0.0144779,-9.77657e-05,0.494201,0.00127053,0.0732287,0.0514284,0.00052515,0.034026,1.9351,-0.000165396,0.005,1.6953,-0.000621491,-0.0261234,-0.418782,45.0509,-0.323467,0.195837,15.7119,0.505963,1.82667,0.418817,-1.49783,0.0687792,0.273926,-1.8693,-0.0402832,0.169381,-0.00402832,0.177292,-0.0604248,23.4648,23.2946,23.1385,23.2804,23.1952,23.2236,23.1101,
136,6.2729,1.3808,3.15333,4.12506,6.2743,1.97693,1.55576,3.31198e-05,-0.0899425,-9.53807e-05,0.112239,0.000845402,-0.00584012,0.000114015,0.476478,-14.2979,-0.556504,-4.68911,1.01113,-54.646,1.47197,0.0269053,-20,-0.545639,-0.428818,-0.0400644,-2.57675,0.03933,-0.000131228,0.0144779,-9.77657e-05,0.494201,0.00127053,0.0732287,0.0512847,0.000521773,0.0333686,1.9351,-0.000165396,0.005,1.6953,-0.000621491,-0.0261234,-0.418782,45.0509,-0.323467,0.207551,15.9676,0.513361,1.62701,0.394844,-1.68161,0.0746717,0.265991,-1.88532,-0.041081,0.185478,0.00805664,0.173265,-0.0523682,23.4648,23.3087,23.1101,23.2804,23.2094,23.252,23.1243,
137,6.2729,1.3808,3.15333,4.12506,6.2743,1.97693,1.55576,3.31198e-05,-0.0899425,-9.53807e-05,0.112239,0.000845402,-0.00584012,0.000114015,0.47801,-14.4232,-0.559596,-4.78437,1.01553,-55.125,1.48319,0.0273119,-20,-0.547536,-0.445456,-0.0400774,-2.62436,0.0399379,-0.000133524,0.0146705,-9.98877e-05,0.494201,0.00127053,0.0732287,0.0512847,0.000521773,0.0333686,1.93404,-0.000175936,0.005,1.69448,-0.000627939,-0.0255317,-0.424686,45.4998,-0.328719,0.207551,15.9676,0.513361,1.62701,0.394844,-1.68161,0.0746717,0.265991,-1.88532,-0.041081,0.185478,0.00805664,0.173265,-0.0523682,23.4648,23.3087,23.1101,23.2804,23.2094,23.252,23.1243,
138,6.2729,1.3808,3.15333,4.12506,6.2743,1.97693,1.55576,3.31198e-05,-0.0899425,-9.53807e-05,0.112239,0.000845402,-0.00584012,0.000114015,0.47801,-14.4232,-0.559596,-4.78437,1.01553,-55.125,1.48319,0.0273119,-20,-0.547536,-0.445456,-0.0400774,-2.62436,0.0399379,-0.000133524,0.0146705,-9.98877e-05,0.494201,0.00127053,0.0732287,0.0512847,0.000521773,0.0333686,1.93404,-0.000175936,0.005,1.69448,-0.000627939,-0.0255317,-0.424686,45.4998,-0.328719,0.207551,15.9676,0.513361,1.62701,0.394844,-1.68161,0.0746717,0.265991,-1.88532,-0.041081,0.185478,0.00805664,0.173265,-0.0523682,23.4648,23.3087,23.1101,23.2804,23.2094,23.252,23.1243,
139,6.2729,1.38072,3.15333,4.12517,6.2743,1.97691,1.55576,3.31177e-05,-0.0875116,-9.28023e-05,0.11074,0.00082192,-0.0106399,0.000114014,0.47804,-14.4211,-0.559665,-4.78403,1.01556,-55.1232,1.48318,0.0272913,-20,-0.547537,-0.44286,-0.0400738,-2.62472,0.0399397,-0.000133524,0.0146705,-9.98877e-05,0.494201,0.00127053,0.0732287,0.0503449,0.000502723,0.0319281,1.93404,-0.000175936,0.005,1.69448,-0.000627939,-0.0255317,-0.424686,45.4998,-0.328719,0.151253,16.1911,0.544662,1.48863,0.382232,-1.88,0.0729288,0.265991,-1.90144,-0.0509547,0.169381,-0.00805664,0.173405,-0.0529843,23.4648,23.3087,23.1243,23.2804,23.2094,23.2662,23.1243,
140,6.2729,1.38072,3.15333,4.12517,6.2743,1.97691,1.55576,3.31177e-05,-0.0875116,-9.28023e-05,0.11074,0.00082192,-0.0106399,0.000114014,0.478704,-14.4847,-0.559757,-4.83112,1.02156,-55.3567,1.48851,0.0274677,-20,-0.548399,-0.450951,-0.0400622,-2.6475,0.040205,-0.000135032,0.0148479,-0.000100824,0.494201,0.00127053,0.0732287,0.0503449,0.000502723,0.0319281,1.93304,-0.000182281,0.005,1.69443,-0.000616503,-0.0242353,-0.427306,45.7169,-0.327914,0.151253,16.1911,0.544662,1.48863,0.382232,-1.88,0.0729288,0.265991,-1.90144,-0.0509547,0.169381,-0.00805664,0.173405,-0.0529843,23.4648,23.3087,23.1243,23.2804,23.2094,23.2662,23.1243,
141,6.2729,1.38072,3.15333,4.12517,6.2743,1.97691,1.55576,3.31177e-05,-0.0875116,-9.28023e-05,0.11074,0.00082192,-0.0106399,0.000114014,0.478704,-14.4847,-0.559757,-4.83112,1.02156,-55.3567,1.48851,0.0274677,-20,-0.548399,-0.450951,-0.0400622,-2.6475,0.040205,-0.000135032,0.0148479,-0.000100824,0.494201,0.00127053,0.0732287,0.0503449,0.000502723,0.0319281,1.93304,-0.000182281,0.005,1.69443,-0.000616503,-0.0242353,-0.427306,45.7169,-0.327914,0.151253,16.1911,0.544662,1.48863,0.382232,-1.88,0.0729288,0.265991,-1.90144,-0.0509547,0.169381,-0.00805664,0.173405,-0.0529843,23.4648,23.3087,23.1243,23.2804,23.2094,23.2662,23.1243,
142,6.2729,1.38072,3.15333,4.12517,6.2743,1.97691,1.55576,3.31177e-05,-0.0875116,-9.28023e-05,0.11074,0.00082192,-0.0106399,0.000114014,0.478704,-14.4847,-0.559757,-4.83112,1.02156,-55.3567,1.48851,0.0274677,-20,-0.548399,-0.450951,-0.0400622,-2.6475,0.040205,-0.000135032,0.0148479,-0.000100824,0.494201,0.00127053,0.0732287,0.0503449,0.000502723,0.0319281,1.93304,-0.000182281,0.005,1.69443,-0.000616503,-0.0242353,-0.427306,45.7169,-0.327914,0.151253,16.1911,0.544662,1.48863,0.382232,-1.88,0.0729288,0.265991,-1.90144,-0.0509547,0.169381,-0.00805664,0.173405,-0.0529843,23.4648,23.3087,23.1243,23.2804,23.2094,23.2662,23.1243,
143,6.2729,1.38063,3.15333,4.12527,6.2743,1.97689,1.55576,0,-0.0830044,-9.28023e-05,0.107769,0.000794059,-0.018521,0.000121877,0.478754,-14.4826,-0.559833,-4.83006,1.02159,-55.3556,1.48852,0.0274497,-20,-0.548392,-0.447954,-0.0400578,-2.64796,0.0402071,-0.000135032,0.0148479,-0.000100824,0.494201,0.00127053,0.0732287,0.0485478,0.000484623,0.0293583,1.93304,-0.000182281,0.005,1.69443,-0.000616503,-0.0242353,-0.427306,45.7169,-0.327914,0.168556,16.4384,0.561239,1.32006,0.352751,-2.04254,0.0392888,0.265869,-1.93361,-0.0490066,0.185478,0.0090076,0.221594,-0.0565402,23.4648,23.2946,23.1385,23.2804,23.1811,23.2662,23.1101,
144,6.2729,1.38063,3.15333,4.12527,6.2743,1.97689,1.55576,0,-0.0830044,-9.28023e-05,0.107769,0.000794059,-0.018521,0.000121877,0.478718,-14.4902,-0.558984,-4.83311,1.02401,-55.3629,1.48828,0.0274404,-20,-0.548441,-0.448219,-0.0400549,-2.64771,0.0401635,-0.000135866,0.0150195,-0.000101703,0.494201,0.00127053,0.0732287,0.0485478,0.000484623,0.0293583,1.93206,-0.000189929,0.005,1.69516,-0.000607097,-0.0219225,-0.426909,45.7195,-0.32595,0.168556,16.4384,0.561239,1.32006,0.352751,-2.04254,0.0392888,0.265869,-1.93361,-0.0490066,0.185478,0.0090076,0.221594,-0.0565402,23.4648,23.2946,23.1385,23.2804,23.1811,23.2662,23.1101,
145,6.2729,1.38055,3.15333,4.12538,6.2743,1.97687,1.55576,-3.12047e-05,-0.0794087,-8.74993e-05,0.104528,0.000767743,-0.0251191,0.000121877,0.478738,-14.4883,-0.559023,-4.83233,1.02404,-55.3617,1.48824,0.0274172,-20,-0.548433,-0.44555,-0.0400523,-2.64812,0.0401632,-0.000135866,0.0150195,-0.000101703,0.494201,0.00127053,0.0732287,0.0468632,0.000467862,0.0272896,1.93206,-0.000189929,0.005,1.69516,-0.000607097,-0.0219225,-0.426909,45.7195,-0.32595,0.0996913,16.5962,0.61998,1.1824,0.377245,-2.1717,0.0395887,0.265869,-2.00636,-0.0322266,0.225586,0.012085,0.273955,-0.0525229,23.4506,23.2946,23.1385,23.2662,23.1952,23.2236,23.1243,
146,6.2729,1.38055,3.15333,4.12538,6.2743,1.97687,1.55576,-3.12047e-05,-0.0794087,-8.74993e-05,0.104528,0.000767743,-0.0251191,0.000121877,0.478788,-14.4994,-0.558824,-4.83807,1.02519,-55.3865,1.48924,0.0274306,-20,-0.548573,-0.446295,-0.0400557,-2.64976,0.0402308,-0.000136983,0.015176,-0.000102952,0.494201,0.00127053,0.0732287,0.0468632,0.000467862,0.0272896,1.93114,-0.00019819,0.005,1.69585,-0.000599447,-0.0200606,-0.427592,45.739,-0.325428,0.0996913,16.5962,0.61998,1.1824,0.377245,-2.1717,0.0395887,0.265869,-2.00636,-0.0322266,0.225586,0.012085,0.273955,-0.0525229,23.4506,23.2946,23.1385,23.2662,23.1952,23.2236,23.1243,
147,6.2729,1.38055,3.15333,4.12538,6.2743,1.97687,1.55576,-3.12047e-05,-0.0794087,-8.74993e-05,0.104528,0.000767743,-0.0251191,0.000121877,0.478788,-14.4994,-0.558824,-4.83807,1.02519,-55.3865,1.48924,0.0274306,-20,-0.548573,-0.446295,-0.0400557,-2.64976,0.0402308,-0.000136983,0.015176,-0.000102952,0.494201,0.00127053,0.0732287,0.0468632,0.000467862,0.0272896,1.93114,-0.00019819,0.005,1.69585,-0.000599447,-0.0200606,-0.427592,45.739,-0.325428,0.0996913,16.5962,0.61998,1.1824,0.377245,-2.1717,0.0395887,0.265869,-2.00636,-0.0322266,0.225586,0.012085,0.273955,-0.0525229,23.4506,23.2946,23.1385,23.2662,23.1952,23.2236,23.1243,
148,6.2729,1.38048,3.15333,4.12549,6.2743,1.97684,1.55576,-2.95005e-05,-0.0767077,-9.27312e-05,0.103567,0.000781682,-0.0240738,0.000121969,0.478827,-14.498,-0.55892,-4.83852,1.02519,-55.3846,1.48917,0.0274146,-20,-0.548585,-0.444124,-0.0400511,-2.65002,0.0402274,-0.000136983,0.015176,-0.000102952,0.494201,0.00127053,0.0732287,0.0460179,0.000463819,0.0263504,1.93114,-0.00019819,0.005,1.69585,-0.000599447,-0.0200606,-0.427592,45.739,-0.325428,0.110243,16.8316,0.640445,1.01367,0.385994,-2.30854,0.0306925,0.265869,-2.03833,-0.0332184,0.282097,0.0113938,0.334375,-0.0444942,23.4648,23.3087,23.1243,23.252,23.1952,23.252,23.1101,
149,6.2729,1.38048,3.15333,4.12549,6.2743,1.97684,1.55576,-2.95005e-05,-0.0767077,-9.27312e-05,0.103567,0.000781682,-0.0240738,0.000121969,0.480065,-14.5983,-0.561938,-4.91282,1.0271,-55.7642,1.49822,0.0277432,-20,-0.550145,-0.456908,-0.0400727,-2.68743,0.0407305,-0.000139071,0.015336,-0.000104812,0.494201,0.00127053,0.0732287,0.0460179,0.000463819,0.0263504,1.93018,-0.000207447,0.005,1.69575,-0.000604139,-0.0192154,-0.432466,46.0926,-0.330952,0.110243,16.8316,0.640445,1.01367,0.385994,-2.30854,0.0306925,0.265869,-2.03833,-0.0332184,0.282097,0.0113938,0.334375,-0.0444942,23.4648,23.3087,23.1243,23.252,23.1952,23.252,23.1101,
150,6.2729,1.3804,3.15333,4.12559,6.2743,1.97682,1.55576,-2.95005e-05,-0.0772479,-9.28014e-05,0.0999361,0.000760496,-0.0232048,0.000132575,0.480097,-14.597,-0.562018,-4.91322,1.02713,-55.7625,1.49822,0.0277276,-20,-0.550152,-0.455038,-0.0400691,-2.68768,0.040732,-0.000139071,0.015336,-0.000104812,0.494201,0.00127053,0.0732287,0.0450797,0.000456514,0.0267221,1.93018,-0.000207447,0.005,1.69575,-0.000604139,-0.0192154,-0.432466,46.0926,-0.330952,0.058617,17.1039,0.643837,0.958263,0.374353,-2.42636,0.0279762,0.249886,-2.04639,-0.041081,0.274044,0.00805664,0.314209,-0.0569691,23.4648,23.2946,23.1101,23.252,23.1811,23.2378,23.1101,
151,6.2729,1.3804,3.15333,4.12559,6.2743,1.97682,1.55576,-2.95005e-05,-0.0772479,-9.28014e-05,0.0999361,0.000760496,-0.0232048,0.000132575,0.481189,-14.6915,-0.562981,-4.98289,1.03427,-56.1308,1.50284,0.0280174,-20,-0.551485,-0.466973,-0.0400578,-2.72427,0.0407847,-0.000139719,0.0154879,-0.000105602,0.494201,0.00127053,0.0732287,0.0450797,0.000456514,0.0267221,1.92929,-0.000214248,0.005,1.69579,-0.000603686,-0.0195499,-0.432932,46.4361,-0.331633,0.058617,17.1039,0.643837,0.958263,0.374353,-2.42636,0.0279762,0.249886,-2.04639,-0.041081,0.274044,0.00805664,0.314209,-0.0569691,23.4648,23.2946,23.1101,23.252,23.1811,23.2378,23.1101,
152,6.2729,1.3804,3.15333,4.12559,6.2743,1.97682,1.55576,-2.95005e-05,-0.0772479,-9.28014e-05,0.0999361,0.000760496,-0.0232048,0.000132575,0.481189,-14.6915,-0.562981,-4.98289,1.03427,-56.1308,1.50284,0.0280174,-20,-0.551485,-0.466973,-0.0400578,-2.72427,0.0407847,-0.000139719,0.0154879,-0.000105602,0.494201,0.00127053,0.0732287,0.0450797,0.000456514,0.0267221,1.92929,-0.000214248,0.005,1.69579,-0.000603686,-0.0195499,-0.432932,46.4361,-0.331633,0.058617,17.1039,0.643837,0.958263,0.374353,-2.42636,0.0279762,0.249886,-2.04639,-0.041081,0.274044,0.00805664,0.314209,-0.0569691,23.4648,23.2946,23.1101,23.252,23.1811,23.2378,23.1101,
153,6.2729,1.38032,3.15333,4.12568,6.2743,1.97679,1.55576,-2.79729e-05,-0.0769135,-9.28014e-05,0.0992952,0.000760515,-0.0232284,0.000132476,0.481218,-14.6899,-0.563065,-4.98331,1.03426,-56.1288,1.50276,0.0280014,-20,-0.551497,-0.465054,-0.0400541,-2.72449,0.0407816,-0.000139719,0.0154879,-0.000105602,0.494201,0.00127053,0.0732287,0.0448232,0.000453793,0.0266052,1.92929,-0.000214248,0.005,1.69579,-0.000603686,-0.0195499,-0.432932,46.4361,-0.331633,0.0753295,17.3168,0.637344,0.93121,0.358976,-2.50827,0.034207,0.241833,-2.01418,-0.0322266,0.314209,0.0127387,0.310207,-0.0525229,23.4648,23.2946,23.1243,23.252,23.1811,23.2378,23.0959,
154,6.2729,1.38032,3.15333,4.12568,6.2743,1.97679,1.55576,-2.79729e-05,-0.0769135,-9.28014e-05,0.0992952,0.000760515,-0.0232284,0.000132476,0.482556,-14.7988,-0.565726,-5.0657,1.03824,-56.5487,1.5127,0.0283566,-20,-0.553143,-0.479388,-0.0400638,-2.76631,0.0413249,-0.000141771,0.0156448,-0.000107365,0.494201,0.00127053,0.0732287,0.0448232,0.000453793,0.0266052,1.92838,-0.000223335,0.005,1.69521,-0.000609416,-0.0194447,-0.43821,46.8296,-0.336118,0.0753295,17.3168,0.637344,0.93121,0.358976,-2.50827,0.034207,0.241833,-2.01418,-0.0322266,0.314209,0.0127387,0.310207,-0.0525229,23.4648,23.2946,23.1243,23.252,23.1811,23.2378,23.0959,
155,6.2729,1.38024,3.15333,4.12578,6.2743,1.97677,1.55576,-2.78602e-05,-0.0753572,-9.28023e-05,0.099666,0.000741864,-0.0240387,0.000132474,0.482587,-14.7972,-0.565804,-5.06604,1.03825,-56.5468,1.51268,0.0283414,-20,-0.553154,-0.477434,-0.0400597,-2.76653,0.0413262,-0.000141771,0.0156448,-0.000107365,0.494201,0.00127053,0.0732287,0.0446043,0.000448128,0.0259029,1.92838,-0.000223335,0.005,1.69521,-0.000609416,-0.0194447,-0.43821,46.8296,-0.336118,0.0823352,17.5604,0.679389,0.905394,0.359436,-2.58722,0.0358351,0.249886,-1.982,-0.0322266,0.306258,0.012085,0.302151,-0.045038,23.4506,23.2804,23.1385,23.2662,23.1811,23.2378,23.0959,
