LWingKi/MAS_RnD/main/log/us2/contactless/43/grasp_log_12_08_2023_16_19_55.csv
Index,joint_angle_0,joint_angle_1,joint_angle_2,joint_angle_3,joint_angle_4,joint_angle_5,joint_angle_6,joint_velocity_0,joint_velocity_1,joint_velocity_2,joint_velocity_3,joint_velocity_4,joint_velocity_5,joint_velocity_6,joint_accel_0,joint_accel_1,joint_accel_2,joint_accel_3,joint_accel_4,joint_accel_5,joint_accel_6,constraint_tau_0,constraint_tau_1,constraint_tau_2,constraint_tau_3,constraint_tau_4,constraint_tau_5,constraint_tau_6,current_pos_x,current_pos_y,current_pos_z,target_pos_x,target_pos_y,target_pos_z,current_vel_x,current_vel_y,current_vel_z,target_vel_x,target_vel_y,target_vel_z,control_signal_linear_x,control_signal_linear_y,control_signal_linear_z,control_signal_angular_x,control_signal_angular_y,control_signal_angular_z,joint_torque_0,joint_torque_1,joint_torque_2,joint_torque_3,joint_torque_4,joint_torque_5,joint_torque_6,actuar_current_0,actuar_current_1,actuar_current_2,actuar_current_3,actuar_current_4,actuar_current_5,actuar_current_6,actuar_voltage_0,actuar_voltage_1,actuar_voltage_2,actuar_voltage_3,actuar_voltage_4,actuar_voltage_5,actuar_voltage_6
0,6.27279,1.37799,3.15342,4.11153,6.27439,1.97285,1.55585,0.00971366,0.0280861,0.000109936,0.114601,2.64749e-05,0.00842384,1.0582e-05,0.380876,-6.31204,-0.496203,1.67805,0.301824,-23.1826,0.997164,0.00124857,-20,-0.430452,0.58195,-0.0425655,0.622019,0.0279164,-0.000116161,0.00562949,-0.000123421,0.494178,0.00127828,0.0761263,0.0272974,-0.00365976,-0.0123354,1.98282,-0.00187512,0.005,1.78454,-0.00168761,0.0045,-0.313634,15.1996,-0.333236,1.71996,-0.377973,-0.117255,5.40979,0.286495,5.73863,0.128219,0.201577,0.370605,0.225586,-0.0563965,-0.128969,-0.696911,-0.116891,23.479,23.3655,23.1952,23.2946,23.2378,23.3087,23.1385,
1,6.2728,1.37802,3.15342,4.11165,6.2744,1.97287,1.55585,0.0102637,0.0302509,0.000109703,0.116952,3.70369e-05,0.0111269,1.0574e-05,0.329845,-2.86769,-0.241205,4.10001,0.684431,-9.80414,0.585761,-0.0122888,-18.9192,-0.367034,1.00394,-0.0385549,1.93811,-0.00225025,0,0,0,0.494178,0.00127828,0.0761263,0.0275274,-0.00387135,-0.0129446,2,0,0.005,1.77543,0.00329378,0.0156019,-0.0159994,2.84786,0.247613,1.69926,-0.298886,-0.138744,5.40695,0.300504,5.77701,0.131395,0.209473,0.338762,0.217529,-0.0644531,-0.129158,-0.684814,-0.108839,23.479,23.3797,23.1952,23.2946,23.2094,23.3087,23.1385,
2,6.27281,1.37805,3.15342,4.11176,6.2744,1.97289,1.55585,0.0095292,0.0312996,0.000109933,0.115872,4.76188e-05,0.0187843,1.05821e-05,0.330215,-2.97224,-0.227925,4.02308,0.732618,-10.1997,0.595114,-0.0121874,-18.9827,-0.367528,0.991191,-0.0382635,1.899,-0.00195493,-1.05178e-06,0.000104369,7.51918e-06,0.494178,0.00127828,0.0761263,0.0269991,-0.00357366,-0.0125247,1.99946,7.34722e-05,0.005,1.77474,0.00355034,0.0161501,-0.0188481,3.21632,0.282082,1.65011,-0.242689,-0.129957,5.38124,0.316918,5.80219,0.111987,0.217678,0.265869,0.209473,-0.112793,-0.128969,-0.688843,-0.104736,23.479,23.3797,23.1952,23.3087,23.2378,23.2804,23.1527,
3,6.27281,1.37805,3.15342,4.11176,6.2744,1.97289,1.55585,0.0095292,0.0312996,0.000109933,0.115872,4.76188e-05,0.0187843,1.05821e-05,0.331718,-3.09979,-0.230248,3.93207,0.737213,-10.6943,0.602077,-0.0117887,-19.0591,-0.369378,0.975295,-0.0383181,1.85022,-0.00171209,-2.08449e-06,0.000212599,1.49623e-05,0.494178,0.00127828,0.0761263,0.0269991,-0.00357366,-0.0125247,1.99892,0.000146853,0.005,1.77473,0.00334846,0.0157722,-0.0211493,3.67436,0.276763,1.65011,-0.242689,-0.129957,5.38124,0.316918,5.80219,0.111987,0.217678,0.265869,0.209473,-0.112793,-0.128969,-0.688843,-0.104736,23.479,23.3797,23.1952,23.3087,23.2378,23.2804,23.1527,
4,6.27282,1.37808,3.15342,4.11187,6.2744,1.97292,1.55585,0.00972351,0.0321416,0.000107029,0.115872,4.76188e-05,0.0318715,1.05821e-05,0.331778,-3.10049,-0.230413,3.93226,0.737312,-10.6952,0.602132,-0.0117888,-19.0605,-0.369415,0.976108,-0.0383107,1.85015,-0.00171273,-2.08449e-06,0.000212599,1.49623e-05,0.494178,0.00127828,0.0761263,0.0268305,-0.00363084,-0.0114685,1.99892,0.000146853,0.005,1.77473,0.00334846,0.0157722,-0.0211493,3.67436,0.276763,1.63942,-0.16687,-0.11927,5.37897,0.309219,5.79292,0.0940156,0.233643,0.225586,0.209473,-0.0970148,-0.129158,-0.725109,-0.116821,23.479,23.3939,23.1811,23.3087,23.2378,23.3087,23.1527,
5,6.27283,1.37812,3.15342,4.112,6.2744,1.97296,1.55585,0.00918331,0.0323491,9.96905e-05,0.114994,4.23602e-05,0.0330703,1.0582e-05,0.333373,-3.28664,-0.223012,3.79764,0.777004,-11.4213,0.612885,-0.0113562,-19.1731,-0.371401,0.953476,-0.0381136,1.77805,-0.00155394,-2.68436e-06,0.000326569,2.27501e-05,0.494178,0.00127828,0.0761263,0.0265324,-0.00341717,-0.0114048,1.9984,0.000217948,0.005,1.77441,0.00346391,0.0148217,-0.0225804,4.34939,0.297681,1.59828,-0.0975775,-0.125821,5.39038,0.326841,5.77031,0.0903078,0.241833,0.19403,0.217678,-0.072956,-0.125461,-0.821787,-0.117099,23.479,23.3655,23.1811,23.3229,23.2236,23.3087,23.1527,
6,6.27283,1.37815,3.15342,4.11211,6.2744,1.97299,1.55585,0.00864312,0.0321416,9.96932e-05,0.113171,4.76193e-05,0.0307911,1.0582e-05,0.334276,-3.37946,-0.221851,3.7296,0.78797,-11.7816,0.618835,-0.0111028,-19.2297,-0.372591,0.942406,-0.0380923,1.74218,-0.00131641,-3.58212e-06,0.00044959,2.98054e-05,0.494178,0.00127828,0.0761263,0.0260454,-0.00321115,-0.0115285,1.99783,0.000283016,0.005,1.77417,0.00333017,0.0147644,-0.0248515,4.68497,0.300391,1.60117,-0.0352031,-0.145122,5.47655,0.301163,5.74193,0.0809087,0.249886,0.177977,0.201416,-0.0613575,-0.125461,-0.797618,-0.120917,23.479,23.3797,23.1811,23.2946,23.2094,23.2946,23.1527,
7,6.27284,1.37818,3.15342,4.11222,6.2744,1.97302,1.55585,0.00851811,0.0307911,9.71324e-05,0.113711,4.76188e-05,0.0270097,1.0582e-05,0.33474,-3.4295,-0.220721,3.69264,0.794863,-11.9758,0.622465,-0.0109744,-19.2608,-0.373209,0.936823,-0.0380855,1.72282,-0.00113058,-4.36976e-06,0.000559957,3.60841e-05,0.494178,0.00127828,0.0761263,0.0264804,-0.00316355,-0.0114047,1.99732,0.000344833,0.005,1.77414,0.00320039,0.0148756,-0.0266327,4.86611,0.302659,1.55521,0.0471514,-0.127517,5.51693,0.26703,5.72818,0.0939973,0.273926,0.0332184,0.201577,0,-0.116891,-0.74525,-0.108839,23.479,23.3797,23.1811,23.2946,23.2236,23.3087,23.1527,
8,6.27284,1.37818,3.15342,4.11222,6.2744,1.97302,1.55585,0.00851811,0.0307911,9.71324e-05,0.113711,4.76188e-05,0.0270097,1.0582e-05,0.335057,-3.49458,-0.213589,3.64307,0.820598,-12.2269,0.628128,-0.0108903,-19.2998,-0.373569,0.92793,-0.0379654,1.69773,-0.00090157,-4.96304e-06,0.000668335,4.34363e-05,0.494178,0.00127828,0.0761263,0.0264804,-0.00316355,-0.0114047,1.9968,0.000411942,0.005,1.77328,0.00321794,0.0147642,-0.0288289,5.10202,0.320268,1.55521,0.0471514,-0.127517,5.51693,0.26703,5.72818,0.0939973,0.273926,0.0332184,0.201577,0,-0.116891,-0.74525,-0.108839,23.479,23.3797,23.1811,23.2946,23.2236,23.3087,23.1527,
9,6.27285,1.3782,3.15342,4.11233,6.2744,1.97305,1.55585,0.00702253,0.0264696,8.32541e-05,0.115872,4.76188e-05,0.0297107,1.05821e-05,0.335036,-3.49393,-0.213522,3.64241,0.820629,-12.2256,0.628126,-0.0108886,-19.3008,-0.373613,0.92865,-0.0379448,1.69768,-0.000903644,-4.96304e-06,0.000668335,4.34363e-05,0.494178,0.00127828,0.0761263,0.028006,-0.00255203,-0.00945247,1.9968,0.000411942,0.005,1.77328,0.00321794,0.0147642,-0.0288289,5.10202,0.320268,1.54112,0.153772,-0.0964585,5.61827,0.263824,5.70753,0.0912608,0.274044,-0.169381,0.209628,0.0241699,-0.116821,-0.67677,-0.112793,23.4932,23.3797,23.1811,23.2946,23.2236,23.2946,23.1527,
10,6.27286,1.37822,3.15342,4.11246,6.2744,1.97308,1.55585,0.00648234,0.0180553,8.32563e-05,0.11761,5.82008e-05,0.0329519,1.0582e-05,0.337594,-3.65222,-0.227058,3.52096,0.796541,-12.8556,0.636448,-0.010221,-19.3973,-0.376695,0.90768,-0.0382005,1.63415,-0.000483983,-5.61774e-06,0.000785901,4.85912e-05,0.494178,0.00127828,0.0761263,0.0302655,-0.00231135,-0.00582037,1.99624,0.000461891,0.005,1.77141,0.00271253,0.0130072,-0.0328477,5.69492,0.287267,1.48068,0.215956,-0.0884964,5.70406,0.250995,5.7028,0.0949444,0.322366,-0.394775,0.193527,0.00805664,-0.11308,-0.66875,-0.11308,23.479,23.3655,23.1811,23.2946,23.2378,23.3087,23.1527,
11,6.27286,1.37823,3.15342,4.11258,6.2744,1.97312,1.55585,0.00594214,0.0056663,6.7641e-05,0.120611,5.82008e-05,0.0403357,1.05821e-05,0.34026,-3.85684,-0.232022,3.36302,0.803886,-13.6764,0.651396,-0.00953313,-19.5219,-0.379785,0.87995,-0.0382336,1.55114,0.000185058,-6.85103e-06,0.000923822,5.2068e-05,0.494178,0.00127828,0.0761263,0.0337217,-0.00204945,-0.000204127,1.9956,0.000504733,0.005,1.7688,0.00253447,0.00973834,-0.0393105,6.46909,0.27809,1.4844,0.315387,-0.113005,5.80854,0.230966,5.71341,0.0979095,0.33042,-0.467355,0.193527,0,-0.116891,-0.664685,-0.11308,23.479,23.3655,23.1669,23.3087,23.2236,23.2946,23.1527,
12,6.27287,1.37822,3.15342,4.1127,6.2744,1.97316,1.55585,0.00501537,-0.00594214,6.7641e-05,0.123705,5.82013e-05,0.044296,0,0.343899,-4.14793,-0.237995,3.1391,0.817105,-14.8487,0.672523,-0.00857042,-19.6984,-0.384104,0.840414,-0.0382506,1.43249,0.00110371,-8.27902e-06,0.00108013,5.57978e-05,0.494178,0.00127828,0.0761263,0.0370393,-0.0016464,0.0047413,1.99493,0.000541792,0.005,1.76509,0.00233212,0.00468371,-0.0481652,7.57427,0.267488,1.45944,0.499401,-0.0826089,5.83863,0.225768,5.72769,0.109239,0.346529,-0.427078,0.169189,-0.0332184,-0.116891,-0.713024,-0.108765,23.479,23.3513,23.1952,23.3087,23.2236,23.2804,23.1527,
13,6.27287,1.37821,3.15342,4.11282,6.2744,1.97321,1.55585,0.00540195,-0.00999361,5.27907e-05,0.125325,5.82447e-05,0.0491577,0,0.347621,-4.4181,-0.248417,2.93184,0.815594,-15.9348,0.690556,-0.00760923,-19.8619,-0.388418,0.804142,-0.0383802,1.32254,0.00188237,-9.32722e-06,0.00125175,5.90509e-05,0.494178,0.00127828,0.0761263,0.0383551,-0.00177519,0.00682984,1.9942,0.000576995,0.005,1.76145,0.00200106,0.000232827,-0.0556273,8.59748,0.245607,1.5017,0.742767,-0.0750589,5.86974,0.207882,5.74675,0.088926,0.370693,-0.427002,0.161334,-0.0649547,-0.108839,-0.704968,-0.112793,23.479,23.3797,23.1811,23.3087,23.252,23.3229,23.1669,
14,6.27287,1.37821,3.15342,4.11282,6.2744,1.97321,1.55585,0.00540195,-0.00999361,5.27907e-05,0.125325,5.82447e-05,0.0491577,0,0.349782,-4.64061,-0.243171,2.76608,0.853937,-16.8094,0.708099,-0.007036,-19.9952,-0.39099,0.774662,-0.0382054,1.23515,0.00256112,-1.09917e-05,0.00143775,6.21096e-05,0.494178,0.00127828,0.0761263,0.0383551,-0.00177519,0.00682984,1.99343,0.000608655,0.005,1.75957,0.00214546,-0.00164685,-0.0621731,9.41565,0.26262,1.5017,0.742767,-0.0750589,5.86974,0.207882,5.74675,0.088926,0.370693,-0.427002,0.161334,-0.0649547,-0.108839,-0.704968,-0.112793,23.479,23.3797,23.1811,23.3087,23.252,23.3229,23.1669,
15,6.27288,1.37819,3.15342,4.11295,6.2744,1.97326,1.55585,0.00458933,-0.0195599,3.29322e-05,0.125325,6.88347e-05,0.0521288,0,0.349785,-4.63912,-0.243161,2.76407,0.853976,-16.8059,0.708055,-0.00703151,-19.9961,-0.391032,0.775228,-0.0381881,1.23508,0.00255528,-1.09917e-05,0.00143775,6.21096e-05,0.494178,0.00127828,0.0761263,0.0403507,-0.001423,0.0109246,1.99343,0.000608655,0.005,1.75957,0.00214546,-0.00164685,-0.0621731,9.41565,0.26262,1.45283,0.929612,-0.0843665,5.85159,0.215308,5.72113,0.0908635,0.354492,-0.563965,0.185478,-0.0649547,-0.100789,-0.717041,-0.116891,23.4932,23.3939,23.1811,23.2946,23.2378,23.2946,23.1669,
16,6.27288,1.37816,3.15342,4.11308,6.2744,1.97332,1.55585,0.00404941,-0.0237686,2.63458e-05,0.126638,5.82008e-05,0.0546675,0,0.353101,-4.87865,-0.254553,2.58204,0.846007,-17.7676,0.727277,-0.00615071,-20,-0.395048,0.743924,-0.0383283,1.13792,0.0036032,-1.34103e-05,0.00163332,6.24999e-05,0.494178,0.00127828,0.0761263,0.0416072,-0.00119361,0.0128366,1.99263,0.000623764,0.005,1.75705,0.00184209,-0.00533215,-0.0723502,10.3198,0.237555,1.45998,1.19465,-0.0844396,5.88156,0.203612,5.67498,0.0760379,0.394775,-0.531738,0.153076,-0.0490066,-0.104736,-0.713024,-0.117099,23.4648,23.3513,23.1811,23.2946,23.2378,23.3087,23.1527,
17,6.27288,1.37814,3.15342,4.11321,6.2744,1.97338,1.55585,0.00390111,-0.0259294,1.31974e-05,0.126676,5.82008e-05,0.0550999,0,0.355944,-5.10171,-0.260914,2.41414,0.850618,-18.6473,0.741504,-0.00540319,-20,-0.398483,0.715426,-0.0383868,1.04962,0.00415084,-1.47385e-05,0.00184914,6.43282e-05,0.494178,0.00127828,0.0761263,0.0420671,-0.00112628,0.0137411,1.99175,0.000648847,0.005,1.75513,0.00165821,-0.00705298,-0.0775927,11.1443,0.224948,1.35966,1.47908,-0.0515084,5.82887,0.189472,5.62981,0.0956968,0.410889,-0.660841,0.1372,-0.0490066,-0.10103,-0.704956,-0.104814,23.479,23.3797,23.1952,23.2946,23.2236,23.3087,23.1527,
18,6.27289,1.37811,3.15342,4.11333,6.2744,1.97343,1.55585,0.00364104,-0.0291705,-1.31974e-05,0.128436,5.82008e-05,0.0559102,0,0.357935,-5.27414,-0.262436,2.28468,0.864055,-19.3223,0.754908,-0.00487912,-20,-0.400919,0.693822,-0.0383598,0.982061,0.00475674,-1.65349e-05,0.00205405,6.56878e-05,0.494178,0.00127828,0.0761263,0.0432504,-0.00100455,0.0150809,1.99092,0.000667169,0.005,1.75397,0.00161411,-0.00786696,-0.0834815,11.7765,0.223892,1.39396,1.7814,0.00437322,5.76481,0.18665,5.59124,0.0951543,0.410968,-0.797648,0.153288,-0.0241699,-0.108839,-0.672778,-0.109063,23.479,23.3939,23.1669,23.2946,23.2236,23.2946,23.1527,
19,6.27289,1.37807,3.15342,4.11347,6.2744,1.97349,1.55585,0.00351127,-0.0340724,-1.2859e-05,0.132029,6.88354e-05,0.0558535,0,0.36036,-5.47553,-0.265882,2.13146,0.875098,-20.1138,0.770554,-0.00424553,-20,-0.403878,0.667907,-0.0383652,0.902617,0.00549178,-1.83786e-05,0.00226481,6.7014e-05,0.494178,0.00127828,0.0761263,0.0453097,-0.000934656,0.016952,1.99007,0.000685255,0.005,1.75214,0.00152083,-0.00907277,-0.090636,12.5198,0.218546,1.34385,1.99508,0.0323891,5.70758,0.181602,5.53755,0.0852443,0.402913,-0.894323,0.1372,-0.0569691,-0.0967636,-0.652588,-0.116821,23.4648,23.3655,23.1811,23.2946,23.2378,23.2946,23.1527,
20,6.27289,1.37803,3.15342,4.11361,6.2744,1.97356,1.55585,0.00324117,-0.0397043,-1.92889e-05,0.133563,6.87834e-05,0.0588398,0,0.363229,-5.71259,-0.270044,1.94939,0.888412,-21.0465,0.788511,-0.00349123,-20,-0.407357,0.636524,-0.0383518,0.808743,0.00628277,-2.03045e-05,0.0024962,6.67768e-05,0.494178,0.00127828,0.0761263,0.0469263,-0.000806427,0.0194718,1.98911,0.000699176,0.005,1.74942,0.00147045,-0.0107568,-0.0983095,13.3977,0.212503,1.3772,2.2044,0.055582,5.60291,0.193445,5.48147,0.0549892,0.418945,-0.93457,0.145243,-0.0889885,-0.0926514,-0.624507,-0.10103,23.479,23.3513,23.1811,23.2804,23.2236,23.2946,23.1527,
21,6.2729,1.37799,3.15342,4.11374,6.2744,1.97362,1.55585,0.00286082,-0.0464568,-1.88405e-05,0.133968,6.87827e-05,0.0607719,0,0.366367,-5.97094,-0.275172,1.75316,0.900705,-22.0673,0.806411,-0.00266107,-20,-0.41119,0.602818,-0.0383588,0.706132,0.00700254,-2.20327e-05,0.00273853,6.73179e-05,0.494178,0.00127828,0.0761263,0.0484497,-0.000638221,0.0223437,1.98818,0.00071339,0.005,1.74713,0.00136783,-0.0130246,-0.105244,14.3565,0.203948,1.28863,2.45151,0.104704,5.48958,0.197612,5.43821,0.0685461,0.427078,-0.958774,0.129909,-0.0966797,-0.0967636,-0.620361,-0.108765,23.4932,23.3513,23.1811,23.2946,23.2236,23.2946,23.1527,
22,6.2729,1.37799,3.15342,4.11374,6.2744,1.97362,1.55585,0.00286082,-0.0464568,-1.88405e-05,0.133968,6.87827e-05,0.0607719,0,0.369455,-6.21784,-0.281473,1.56843,0.908207,-23.0442,0.822948,-0.00184219,-20,-0.414897,0.569891,-0.038406,0.608264,0.00766307,-2.35701e-05,0.00297632,6.75468e-05,0.494178,0.00127828,0.0761263,0.0484497,-0.000638221,0.0223437,1.98723,0.000724965,0.005,1.7449,0.00122687,-0.0156094,-0.111538,15.2713,0.192149,1.28863,2.45151,0.104704,5.48958,0.197612,5.43821,0.0685461,0.427078,-0.958774,0.129909,-0.0966797,-0.0967636,-0.620361,-0.108765,23.4932,23.3513,23.1811,23.2946,23.2236,23.2946,23.1527,
23,6.2729,1.37794,3.15342,4.11387,6.2744,1.97368,1.55585,0.00259947,-0.0532092,-1.88405e-05,0.135049,6.87827e-05,0.0625991,0,0.36945,-6.21604,-0.281511,1.56643,0.90826,-23.0404,0.8229,-0.00184981,-20,-0.414931,0.570801,-0.0383955,0.608141,0.00765796,-2.35701e-05,0.00297632,6.75468e-05,0.494178,0.00127828,0.0761263,0.0501677,-0.000515607,0.0251934,1.98723,0.000724965,0.005,1.7449,0.00122687,-0.0156094,-0.111538,15.2713,0.192149,1.32441,2.71826,0.130925,5.29726,0.193271,5.42101,0.0647727,0.443188,-0.950684,0.128906,-0.090076,-0.0926514,-0.616451,-0.108839,23.4932,23.3513,23.1669,23.2946,23.2236,23.2946,23.1385,
24,6.2729,1.37794,3.15342,4.11387,6.2744,1.97368,1.55585,0.00259947,-0.0532092,-1.88405e-05,0.135049,6.87827e-05,0.0625991,0,0.372603,-6.47491,-0.286643,1.37232,0.920501,-24.0631,0.840593,-0.00101365,-20,-0.418715,0.536184,-0.0384127,0.505673,0.00835719,-2.5184e-05,0.00322384,6.77334e-05,0.494178,0.00127828,0.0761263,0.0501677,-0.000515607,0.0251934,1.98624,0.000736151,0.005,1.74246,0.00112658,-0.0181741,-0.118213,16.2293,0.183616,1.32441,2.71826,0.130925,5.29726,0.193271,5.42101,0.0647727,0.443188,-0.950684,0.128906,-0.090076,-0.0926514,-0.616451,-0.108839,23.4932,23.3513,23.1669,23.2946,23.2236,23.2946,23.1385,
25,6.2729,1.37787,3.15342,4.114,6.2744,1.97373,1.55585,0.00269961,-0.061689,-1.84123e-05,0.134779,7.93647e-05,0.0638648,0,0.372648,-6.4728,-0.286814,1.37012,0.920557,-24.0588,0.840549,-0.00102381,-20,-0.41874,0.537038,-0.0384097,0.505544,0.00835115,-2.5184e-05,0.00322384,6.77334e-05,0.494178,0.00127828,0.0761263,0.0518552,-0.00053488,0.0286917,1.98624,0.000736151,0.005,1.74246,0.00112658,-0.0181741,-0.118213,16.2293,0.183616,1.27971,2.94825,0.158138,5.09049,0.190436,5.39208,0.0701414,0.443188,-0.942661,0.12085,-0.0725098,-0.0966797,-0.600233,-0.104814,23.4648,23.3513,23.1811,23.3087,23.2236,23.2804,23.1385,
26,6.2729,1.37787,3.15342,4.114,6.2744,1.97373,1.55585,0.00269961,-0.061689,-1.84123e-05,0.134779,7.93647e-05,0.0638648,0,0.375631,-6.7318,-0.288571,1.17573,0.943203,-25.0872,0.860852,-0.00023292,-20,-0.422287,0.50239,-0.0383452,0.402331,0.00923102,-2.73526e-05,0.00347561,6.70758e-05,0.494178,0.00127828,0.0761263,0.0518552,-0.00053488,0.0286917,1.98519,0.000744989,0.005,1.74,0.00115188,-0.0213225,-0.126705,17.1934,0.184085,1.27971,2.94825,0.158138,5.09049,0.190436,5.39208,0.0701414,0.443188,-0.942661,0.12085,-0.0725098,-0.0966797,-0.600233,-0.104814,23.4648,23.3513,23.1811,23.3087,23.2236,23.2804,23.1385,
27,6.2729,1.3778,3.15342,4.11415,6.2744,1.9738,1.55585,0.00263245,-0.0688051,-3.06865e-05,0.134787,8.46565e-05,0.0652974,0,0.375652,-6.72968,-0.288679,1.17361,0.943268,-25.083,0.860801,-0.000243048,-20,-0.422316,0.503463,-0.038338,0.402156,0.00922469,-2.73526e-05,0.00347561,6.70758e-05,0.494178,0.00127828,0.0761263,0.0533375,-0.000487131,0.0316656,1.98519,0.000744989,0.005,1.74,0.00115188,-0.0213225,-0.126705,17.1934,0.184085,1.31817,3.21956,0.192608,4.92654,0.23836,5.31696,0.0976209,0.427078,-0.886267,0.137907,-0.072956,-0.10103,-0.588149,-0.100789,23.4648,23.3655,23.1811,23.2946,23.2094,23.2804,23.1527,
28,6.2729,1.3778,3.15342,4.11415,6.2744,1.9738,1.55585,0.00263245,-0.0688051,-3.06865e-05,0.134787,8.46565e-05,0.0652974,0,0.378846,-7.0004,-0.292239,0.97116,0.961554,-26.1523,0.880884,0.000604009,-20,-0.426147,0.467448,-0.0383137,0.295093,0.0100738,-2.94167e-05,0.00375134,6.66163e-05,0.494178,0.00127828,0.0761263,0.0533375,-0.000487131,0.0316656,1.98408,0.000753973,0.005,1.73767,0.00111699,-0.0239991,-0.13487,18.1945,0.17997,1.31817,3.21956,0.192608,4.92654,0.23836,5.31696,0.0976209,0.427078,-0.886267,0.137907,-0.072956,-0.10103,-0.588149,-0.100789,23.4648,23.3655,23.1811,23.2946,23.2094,23.2804,23.1527,
29,6.27291,1.37773,3.15342,4.11428,6.2744,1.97388,1.55585,0.00245776,-0.0729263,-3.00047e-05,0.135049,8.46557e-05,0.0667437,0,0.378853,-6.99853,-0.292296,0.969517,0.961636,-26.1487,0.880851,0.000594325,-20,-0.426175,0.468808,-0.0383037,0.294847,0.0100671,-2.94167e-05,0.00375134,6.66163e-05,0.494178,0.00127828,0.0761263,0.0542677,-0.000406878,0.0334538,1.98408,0.000753973,0.005,1.73767,0.00111699,-0.0239991,-0.13487,18.1945,0.17997,1.20408,3.53194,0.210831,4.75397,0.247576,5.23015,0.0941506,0.435059,-0.878322,0.1372,-0.090076,-0.093001,-0.563979,-0.108839,23.479,23.3513,23.1811,23.2946,23.2236,23.2946,23.1527,
30,6.27291,1.37773,3.15342,4.11428,6.2744,1.97388,1.55585,0.00245776,-0.0729263,-3.00047e-05,0.135049,8.46557e-05,0.0667437,0,0.381959,-7.25756,-0.297148,0.777235,0.974649,-27.1628,0.898104,0.0014179,-20,-0.429946,0.434737,-0.0383148,0.193738,0.0107163,-3.1231e-05,0.00403747,6.5984e-05,0.494178,0.00127828,0.0761263,0.0542677,-0.000406878,0.0334538,1.98301,0.000759521,0.005,1.73587,0.00104976,-0.0256084,-0.141056,19.142,0.172287,1.20408,3.53194,0.210831,4.75397,0.247576,5.23015,0.0941506,0.435059,-0.878322,0.1372,-0.090076,-0.093001,-0.563979,-0.108839,23.479,23.3513,23.1811,23.2946,23.2236,23.2946,23.1527,
31,6.27291,1.37765,3.15342,4.11441,6.2744,1.97394,1.55585,0.00245776,-0.0767077,-3.60057e-05,0.131808,9.52376e-05,0.0653636,0,0.381988,-7.25532,-0.297249,0.776343,0.974706,-27.1597,0.89807,0.00140697,-20,-0.429957,0.436494,-0.0383079,0.193364,0.01071,-3.1231e-05,0.00403747,6.5984e-05,0.494178,0.00127828,0.0761263,0.0541139,-0.000405379,0.0348714,1.98301,0.000759521,0.005,1.73587,0.00104976,-0.0256084,-0.141056,19.142,0.172287,1.24512,3.8636,0.236891,4.54099,0.249806,5.17256,0.100791,0.451459,-0.910436,0.104736,-0.0649547,-0.0927389,-0.559937,-0.104814,23.479,23.3513,23.1811,23.2946,23.2236,23.2946,23.1669,
32,6.27291,1.37757,3.15342,4.11454,6.2744,1.97401,1.55585,0.00225186,-0.0787413,-3.52231e-05,0.133968,9.52376e-05,0.0648234,0,0.384189,-7.44631,-0.298944,0.63367,0.990178,-27.9124,0.913338,0.00197927,-20,-0.432659,0.413341,-0.038266,0.117925,0.0113985,-3.34775e-05,0.00430775,6.51902e-05,0.494178,0.00127828,0.0761263,0.0551569,-0.000316408,0.0355917,1.98194,0.000767703,0.005,1.73505,0.00105577,-0.0268843,-0.147785,19.8465,0.171574,1.22368,4.14587,0.287387,4.38455,0.269592,5.03146,0.0936616,0.451172,-0.910436,0.12085,0,-0.088623,-0.519653,-0.104814,23.4648,23.3513,23.1669,23.3087,23.2236,23.3087,23.1527,
33,6.27291,1.37749,3.15342,4.11469,6.2744,1.97408,1.55585,0.00216023,-0.0837302,-4.68866e-05,0.135415,0.00010574,0.0646374,0,0.387101,-7.68197,-0.304306,0.454046,0.99974,-28.8326,0.92955,0.00273686,-20,-0.436216,0.383185,-0.0382854,0.0256579,0.0120487,-3.5402e-05,0.00458722,6.42968e-05,0.494178,0.00127828,0.0761263,0.0566093,-0.000262722,0.0375314,1.98083,0.000769148,0.005,1.73311,0.000977001,-0.0275326,-0.154084,20.7107,0.162487,1.24294,4.48266,0.271871,4.27419,0.272491,4.87663,0.071763,0.459299,-0.974887,0.136963,-0.0227876,-0.0887145,-0.491455,-0.100789,23.479,23.3513,23.1669,23.2946,23.2236,23.2946,23.1243,
34,6.27291,1.37749,3.15342,4.11469,6.2744,1.97408,1.55585,0.00216023,-0.0837302,-4.68866e-05,0.135415,0.00010574,0.0646374,0,0.390331,-7.95017,-0.309441,0.253005,1.01324,-29.8837,0.951412,0.00359347,-20,-0.440128,0.347417,-0.0382904,-0.0793837,0.0131135,-3.83537e-05,0.00488225,6.26489e-05,0.494178,0.00127828,0.0761263,0.0566093,-0.000262722,0.0375314,1.97965,0.000769137,0.005,1.73074,0.000928673,-0.0292783,-0.164383,21.6947,0.154523,1.24294,4.48266,0.271871,4.27419,0.272491,4.87663,0.071763,0.459299,-0.974887,0.136963,-0.0227876,-0.0887145,-0.491455,-0.100789,23.479,23.3513,23.1669,23.2946,23.2236,23.2946,23.1243,
35,6.27292,1.3774,3.15342,4.11482,6.2744,1.97414,1.55585,0.0021194,-0.0888621,-4.58909e-05,0.135049,0.000116402,0.0615822,0,0.390346,-7.94744,-0.309531,0.251758,1.01327,-29.8797,0.951333,0.00358136,-20,-0.440148,0.349044,-0.0382841,-0.0796696,0.0131061,-3.83537e-05,0.00488225,6.26489e-05,0.494178,0.00127828,0.0761263,0.0575669,-0.000240742,0.039256,1.97965,0.000769137,0.005,1.73074,0.000928673,-0.0292783,-0.164383,21.6947,0.154523,1.13571,4.85023,0.314376,4.11958,0.277892,4.73626,0.0506198,0.451244,-0.958876,0.1372,-0.0490066,-0.080667,-0.467303,-0.104814,23.4648,23.3513,23.1811,23.2804,23.2378,23.2804,23.1243,
36,6.27292,1.3774,3.15342,4.11482,6.2744,1.97414,1.55585,0.0021194,-0.0888621,-4.58909e-05,0.135049,0.000116402,0.0615822,0,0.392943,-8.16842,-0.312541,0.0862637,1.02789,-30.7466,0.969071,0.0042698,-20,-0.443286,0.319632,-0.0382652,-0.166322,0.0139365,-4.07464e-05,0.00516384,6.13421e-05,0.494178,0.00127828,0.0761263,0.0575669,-0.000240742,0.039256,1.97852,0.000772602,0.005,1.72886,0.000912009,-0.0308304,-0.172415,22.5063,0.150994,1.13571,4.85023,0.314376,4.11958,0.277892,4.73626,0.0506198,0.451244,-0.958876,0.1372,-0.0490066,-0.080667,-0.467303,-0.104814,23.4648,23.3513,23.1811,23.2804,23.2378,23.2804,23.1243,
37,6.27292,1.3774,3.15342,4.11482,6.2744,1.97414,1.55585,0.0021194,-0.0888621,-4.58909e-05,0.135049,0.000116402,0.0615822,0,0.392943,-8.16842,-0.312541,0.0862637,1.02789,-30.7466,0.969071,0.0042698,-20,-0.443286,0.319632,-0.0382652,-0.166322,0.0139365,-4.07464e-05,0.00516384,6.13421e-05,0.494178,0.00127828,0.0761263,0.0575669,-0.000240742,0.039256,1.97852,0.000772602,0.005,1.72886,0.000912009,-0.0308304,-0.172415,22.5063,0.150994,1.13571,4.85023,0.314376,4.11958,0.277892,4.73626,0.0506198,0.451244,-0.958876,0.1372,-0.0490066,-0.080667,-0.467303,-0.104814,23.4648,23.3513,23.1811,23.2804,23.2378,23.2804,23.1243,
38,6.27292,1.37731,3.15342,4.11495,6.27441,1.97419,1.55585,0.00185448,-0.0899425,-5.73611e-05,0.135859,0.000121693,0.0567205,0,0.392923,-8.16572,-0.312522,0.0859558,1.02791,-30.7436,0.968975,0.00425787,-20,-0.443307,0.321924,-0.0382534,-0.166691,0.013929,-4.07464e-05,0.00516384,6.13421e-05,0.494178,0.00127828,0.0761263,0.0580201,-0.000136218,0.0391677,1.97852,0.000772602,0.005,1.72886,0.000912009,-0.0308304,-0.172415,22.5063,0.150994,1.18692,5.17003,0.348021,3.97094,0.290757,4.61455,0.0719906,0.451172,-0.942765,0.121118,-0.0490066,-0.080667,-0.422993,-0.104814,23.4506,23.3655,23.1669,23.3087,23.2378,23.2946,23.1527,
39,6.27292,1.37722,3.15342,4.11509,6.27441,1.97425,1.55585,0.00198743,-0.0894401,-5.61682e-05,0.135049,0.00014275,0.0540195,0,0.395251,-8.34762,-0.317764,-0.0516706,1.03215,-31.4512,0.983256,0.00484522,-20,-0.446118,0.300056,-0.0382961,-0.237649,0.0146312,-4.29463e-05,0.00544251,6.00549e-05,0.494178,0.00127828,0.0761263,0.0576758,-0.00019438,0.0387114,1.97737,0.000772972,0.005,1.72742,0.000818271,-0.0307509,-0.179271,23.1696,0.141276,1.1505,5.47681,0.377861,3.87145,0.310698,4.43255,0.0503243,0.459299,-1.00711,0.1372,-0.0569691,-0.0845947,-0.358543,-0.0966797,23.479,23.3655,23.1669,23.2946,23.2236,23.2946,23.1385,
40,6.27292,1.37713,3.15342,4.11523,6.27441,1.9743,1.55585,0.00188654,-0.0918331,-6.75115e-05,0.133033,0.000163898,0.0521108,0,0.397279,-8.52439,-0.319632,-0.184043,1.04586,-32.1349,0.998763,0.00536627,-20,-0.448641,0.279091,-0.0382567,-0.305942,0.0154049,-4.5835e-05,0.00572395,5.78843e-05,0.494178,0.00127828,0.0761263,0.0575857,-0.000151629,0.0395052,1.97621,0.000774294,0.005,1.72668,0.000871806,-0.0303403,-0.186917,23.8091,0.140336,1.19141,5.74108,0.372895,3.78557,0.317001,4.26033,0.0517161,0.467355,-1.12793,0.12085,-0.041081,-0.076644,-0.314209,-0.0927389,23.4506,23.3655,23.1811,23.2804,23.2094,23.2946,23.1527,
41,6.27292,1.37713,3.15342,4.11523,6.27441,1.9743,1.55585,0.00188654,-0.0918331,-6.75115e-05,0.133033,0.000163898,0.0521108,0,0.399762,-8.72535,-0.325058,-0.332187,1.05148,-32.9167,1.0159,0.00602433,-20,-0.451688,0.25299,-0.0382888,-0.383626,0.0163003,-4.87427e-05,0.00601098,5.50553e-05,0.494178,0.00127828,0.0761263,0.0575857,-0.000151629,0.0395052,1.97501,0.000771196,0.005,1.72569,0.000830542,-0.0310547,-0.19559,24.5382,0.130589,1.19141,5.74108,0.372895,3.78557,0.317001,4.26033,0.0517161,0.467355,-1.12793,0.12085,-0.041081,-0.076644,-0.314209,-0.0927389,23.4506,23.3655,23.1811,23.2804,23.2094,23.2946,23.1527,
42,6.27292,1.37703,3.15342,4.11536,6.27441,1.97435,1.55585,0.00188654,-0.0961547,-6.60302e-05,0.132348,0.000179893,0.0492076,0,0.399784,-8.72266,-0.325164,-0.333189,1.05152,-32.9131,1.01585,0.00601067,-20,-0.451704,0.254795,-0.0382825,-0.383931,0.0162951,-4.87427e-05,0.00601098,5.50553e-05,0.494178,0.00127828,0.0761263,0.0582822,-0.000147564,0.0409327,1.97501,0.000771196,0.005,1.72569,0.000830542,-0.0310547,-0.19559,24.5382,0.130589,1.09832,6.02897,0.40079,3.65245,0.310178,4.09874,0.027473,0.47541,-1.12793,0.129158,-0.00805664,-0.0765381,-0.269928,-0.10103,23.4648,23.3513,23.1811,23.2946,23.1952,23.2946,23.1243,
43,6.27292,1.37703,3.15342,4.11536,6.27441,1.97435,1.55585,0.00188654,-0.0961547,-6.60302e-05,0.132348,0.000179893,0.0492076,0,0.402154,-8.93029,-0.326829,-0.488548,1.06846,-33.7259,1.0324,0.00663887,-20,-0.454572,0.227242,-0.0382457,-0.465109,0.01705,-5.0972e-05,0.00628459,5.44554e-05,0.494178,0.00127828,0.0761263,0.0582822,-0.000147564,0.0409327,1.97387,0.000775923,0.005,1.72402,0.000831137,-0.0323394,-0.202902,25.2989,0.13009,1.09832,6.02897,0.40079,3.65245,0.310178,4.09874,0.027473,0.47541,-1.12793,0.129158,-0.00805664,-0.0765381,-0.269928,-0.10103,23.4648,23.3513,23.1811,23.2946,23.1952,23.2946,23.1243,
44,6.27292,1.37693,3.15342,4.11549,6.27441,1.9744,1.55585,0.00175526,-0.099666,-7.70352e-05,0.129377,0.000201057,0.0464097,0,0.402159,-8.92774,-0.326869,-0.489142,1.06847,-33.7228,1.03225,0.00662496,-20,-0.454583,0.229304,-0.038238,-0.465501,0.0170385,-5.0972e-05,0.00628459,5.44554e-05,0.494178,0.00127828,0.0761263,0.0581487,-9.38942e-05,0.0420909,1.97387,0.000775923,0.005,1.72402,0.000831137,-0.0323394,-0.202902,25.2989,0.13009,1.1408,6.33831,0.398675,3.54422,0.324775,3.94506,0.0524942,0.467285,-1.08007,0.153076,0.0180152,-0.076961,-0.22965,-0.0967636,23.4648,23.3371,23.1669,23.2662,23.2094,23.2804,23.1243,
45,6.27292,1.37693,3.15342,4.11549,6.27441,1.9744,1.55585,0.00175526,-0.099666,-7.70352e-05,0.129377,0.000201057,0.0464097,0,0.404459,-9.11001,-0.332471,-0.62363,1.0717,-34.4357,1.04856,0.00723465,-20,-0.457394,0.20561,-0.038279,-0.536473,0.0179363,-5.38488e-05,0.00655605,5.13988e-05,0.494178,0.00127828,0.0761263,0.0581487,-9.38942e-05,0.0420909,1.97272,0.000769173,0.005,1.72311,0.000776761,-0.0333818,-0.211603,25.9641,0.119552,1.1408,6.33831,0.398675,3.54422,0.324775,3.94506,0.0437279,0.467285,-1.08007,0.153076,0.0180152,-0.076961,-0.22965,-0.0967636,23.4648,23.3371,23.1669,23.2662,23.2094,23.2804,23.1527,
46,6.27293,1.37682,3.15342,4.11561,6.27441,1.97444,1.55585,0.00168864,-0.102815,-7.54956e-05,0.128296,0.00022734,0.044296,0,0.404478,-9.1075,-0.332558,-0.624402,1.07171,-34.4325,1.04842,0.00721949,-20,-0.45741,0.207663,-0.0382719,-0.536817,0.0179249,-5.38488e-05,0.00655605,5.13988e-05,0.494178,0.00127828,0.0761263,0.0584858,-6.45497e-05,0.0431462,1.97272,0.000769173,0.005,1.72311,0.000776761,-0.0333818,-0.211603,25.9641,0.119552,1.07445,6.63416,0.373272,3.44336,0.358079,3.73386,0.0437279,0.459299,-1.06348,0.128906,0.041081,-0.0726216,-0.181274,-0.0967636,23.4648,23.3655,23.1669,23.2804,23.2236,23.2804,23.1527,
47,6.27293,1.37672,3.15342,4.11575,6.27442,1.97448,1.55585,0.00159976,-0.106959,-7.54971e-05,0.129146,0.000248488,0.040123,0,0.407032,-9.31104,-0.337999,-0.778976,1.07825,-35.2345,1.06661,0.00788073,-20,-0.460549,0.182484,-0.0382903,-0.617413,0.0188993,-5.7037e-05,0.00683549,4.84262e-05,0.494178,0.00127828,0.0761263,0.0595881,-2.35165e-05,0.0443443,1.97153,0.000765242,0.005,1.72174,0.000746812,-0.0343316,-0.221172,26.7172,0.110145,1.13018,6.82135,0.353563,3.37144,0.345861,3.53844,0.0482257,0.467285,-1.04739,0.129909,0.072956,-0.0684814,-0.149265,-0.104814,23.4648,23.3655,23.1669,23.2946,23.2094,23.2946,23.1385,
48,6.27293,1.37672,3.15342,4.11575,6.27442,1.97448,1.55585,0.00159976,-0.106959,-7.54971e-05,0.129146,0.000248488,0.040123,0,0.409728,-9.52823,-0.343714,-0.94286,1.08496,-36.083,1.08573,0.00859543,-20,-0.463831,0.153298,-0.0383173,-0.702237,0.0199201,-6.00643e-05,0.00712093,4.53026e-05,0.494178,0.00127828,0.0761263,0.0595881,-2.35165e-05,0.0443443,1.9703,0.000757875,0.005,1.71964,0.000703252,-0.0354098,-0.231068,27.5125,0.100052,1.13018,6.82135,0.353563,3.37144,0.345861,3.53844,0.0482257,0.467285,-1.04739,0.129909,0.072956,-0.0684814,-0.149265,-0.104814,23.4648,23.3655,23.1669,23.2946,23.2094,23.2946,23.1385,
49,6.27293,1.37661,3.15342,4.11588,6.27442,1.97452,1.55585,0.00149197,-0.109548,-7.39078e-05,0.130997,0.000264549,0.0378136,0,0.409736,-9.52558,-0.343782,-0.94383,1.08497,-36.0794,1.08561,0.00858023,-20,-0.463856,0.155278,-0.038309,-0.702498,0.0199116,-6.00643e-05,0.00712093,4.53026e-05,0.494178,0.00127828,0.0761263,0.0606565,2.58093e-05,0.045108,1.9703,0.000757875,0.005,1.71964,0.000703252,-0.0354098,-0.231068,27.5125,0.100052,1.05937,7.10627,0.34572,3.26419,0.326365,3.34255,0.0132656,0.499577,-1.01517,0.14502,0.0490066,-0.0645789,-0.088623,-0.0966797,23.4506,23.3513,23.1669,23.2946,23.2094,23.2946,23.1385,
50,6.27293,1.37661,3.15342,4.11588,6.27442,1.97452,1.55585,0.00149197,-0.109548,-7.39078e-05,0.130997,0.000264549,0.0378136,0,0.412421,-9.74644,-0.348791,-1.1102,1.09379,-36.9383,1.10385,0.00929205,-20,-0.467138,0.125689,-0.038328,-0.788207,0.0208272,-6.28388e-05,0.00739519,4.33777e-05,0.494178,0.00127828,0.0761263,0.0606565,2.58093e-05,0.045108,1.9691,0.000756177,0.005,1.7176,0.000657331,-0.0360972,-0.239926,28.317,0.0915885,1.05937,7.10627,0.34572,3.26419,0.326365,3.34255,0.0132656,0.499577,-1.01517,0.14502,0.0490066,-0.0645789,-0.088623,-0.0966797,23.4506,23.3513,23.1669,23.2946,23.2094,23.2946,23.1385,
51,6.27293,1.37661,3.15342,4.11588,6.27442,1.97452,1.55585,0.00149197,-0.109548,-7.39078e-05,0.130997,0.000264549,0.0378136,0,0.412421,-9.74644,-0.348791,-1.1102,1.09379,-36.9383,1.10385,0.00929205,-20,-0.467138,0.125689,-0.038328,-0.788207,0.0208272,-6.28388e-05,0.00739519,4.33777e-05,0.494178,0.00127828,0.0761263,0.0606565,2.58093e-05,0.045108,1.9691,0.000756177,0.005,1.7176,0.000657331,-0.0360972,-0.239926,28.317,0.0915885,1.05937,7.10627,0.34572,3.26419,0.326365,3.34255,0.0132656,0.499577,-1.01517,0.14502,0.0490066,-0.0645789,-0.088623,-0.0966797,23.4506,23.3513,23.1669,23.2946,23.2094,23.2946,23.1385,
52,6.27293,1.3765,3.15342,4.11601,6.27442,1.97455,1.55585,0.00142201,-0.109119,-7.91853e-05,0.132483,0.000285713,0.0345725,0,0.412444,-9.74387,-0.34887,-1.1105,1.0938,-36.9354,1.10371,0.00927621,-20,-0.467157,0.128228,-0.0383207,-0.788564,0.0208161,-6.28388e-05,0.00739519,4.33777e-05,0.494178,0.00127828,0.0761263,0.0609916,5.39447e-05,0.0445851,1.9691,0.000756177,0.005,1.7176,0.000657331,-0.0360972,-0.239926,28.317,0.0915885,1.06703,7.37901,0.363032,3.21972,0.330043,3.14434,0.0149358,0.475342,-1.03934,0.1372,-0.00805664,-0.0644531,-0.0565402,-0.0926514,23.4648,23.3513,23.1811,23.2946,23.2236,23.2804,23.1385,
53,6.27293,1.3765,3.15342,4.11601,6.27442,1.97455,1.55585,0.00142201,-0.109119,-7.91853e-05,0.132483,0.000285713,0.0345725,0,0.414744,-9.93086,-0.354176,-1.2502,1.0982,-37.6526,1.12021,0.00988576,-20,-0.470015,0.10349,-0.0383553,-0.859705,0.021713,-6.5832e-05,0.00766758,4.04565e-05,0.494178,0.00127828,0.0761263,0.0609916,5.39447e-05,0.0445851,1.9679,0.000749278,0.005,1.71622,0.0006258,-0.0356266,-0.248628,28.9869,0.0819346,1.06703,7.37901,0.363032,3.21972,0.330043,3.14434,0.0149358,0.475342,-1.03934,0.1372,-0.00805664,-0.0644531,-0.0565402,-0.0926514,23.4648,23.3513,23.1811,23.2946,23.2236,23.2804,23.1385,
54,6.27293,1.37639,3.15342,4.11614,6.27442,1.97459,1.55585,0.00124426,-0.108081,-8.8023e-05,0.134238,0.000312171,0.033728,0,0.414778,-9.92861,-0.354253,-1.25081,1.0982,-37.6498,1.12006,0.00987513,-20,-0.470042,0.106027,-0.0383438,-0.860048,0.0216999,-6.5832e-05,0.00766758,4.04565e-05,0.494178,0.00127828,0.0761263,0.061277,0.000129357,0.0440711,1.9679,0.000749278,0.005,1.71622,0.0006258,-0.0356266,-0.248628,28.9869,0.0819346,0.964668,7.67548,0.377541,3.22495,0.370981,2.88664,0.00644629,0.483398,-1.11193,0.136963,-0.0290486,-0.0604248,-0.0205405,-0.0970148,23.4648,23.3513,23.1669,23.2946,23.2094,23.2946,23.1243,
55,6.27293,1.37639,3.15342,4.11614,6.27442,1.97459,1.55585,0.00124426,-0.108081,-8.8023e-05,0.134238,0.000312171,0.033728,0,0.417473,-10.1388,-0.362199,-1.40724,1.09744,-38.4567,1.13949,0.0105893,-20,-0.473394,0.0783789,-0.0384213,-0.940045,0.02283,-6.96455e-05,0.00794794,3.69406e-05,0.494178,0.00127828,0.0761263,0.061277,0.000129357,0.0440711,1.96666,0.000738007,0.005,1.71484,0.000547784,-0.035164,-0.259583,29.74,0.0661034,0.964668,7.67548,0.377541,3.22495,0.370981,2.88664,0.00644629,0.483398,-1.11193,0.136963,-0.0290486,-0.0604248,-0.0205405,-0.0970148,23.4648,23.3513,23.1669,23.2946,23.2094,23.2946,23.1243,
56,6.27293,1.37639,3.15342,4.11614,6.27442,1.97459,1.55585,0.00124426,-0.108081,-8.8023e-05,0.134238,0.000312171,0.033728,0,0.417473,-10.1388,-0.362199,-1.40724,1.09744,-38.4567,1.13949,0.0105893,-20,-0.473394,0.0783789,-0.0384213,-0.940045,0.02283,-6.96455e-05,0.00794794,3.69406e-05,0.494178,0.00127828,0.0761263,0.061277,0.000129357,0.0440711,1.96666,0.000738007,0.005,1.71484,0.000547784,-0.035164,-0.259583,29.74,0.0661034,0.964668,7.67548,0.377541,3.22495,0.370981,2.88664,0.00644629,0.483398,-1.11193,0.136963,-0.0290486,-0.0604248,-0.0205405,-0.0970148,23.4648,23.3513,23.1669,23.2946,23.2094,23.2946,23.1243,
57,6.27293,1.37628,3.15342,4.11628,6.27443,1.97459,1.55585,0.00133336,-0.108579,-8.63673e-05,0.131653,0.000343654,0.033728,0,0.417529,-10.1368,-0.362363,-1.40759,1.09743,-38.4543,1.13936,0.010571,-20,-0.473405,0.0809371,-0.0384167,-0.940433,0.0228194,-6.96455e-05,0.00794794,3.69406e-05,0.494178,0.00127828,0.0761263,0.0606286,9.21276e-05,0.0443284,1.96666,0.000738007,0.005,1.71484,0.000547784,-0.035164,-0.259583,29.74,0.0661034,0.991409,7.87418,0.359671,3.21104,0.334186,2.88664,0.000735372,0.483466,-1.20852,0.136963,-0.0569691,-0.0649547,-0.0205405,-0.0967636,23.4648,23.3513,23.1669,23.2946,23.2094,23.2946,23.1385,
58,6.27293,1.37618,3.15342,4.11641,6.27443,1.97462,1.55585,0.00122128,-0.106418,-8.66185e-05,0.130457,0.000359515,0.0320984,0,0.419558,-10.3022,-0.365953,-1.53046,1.10534,-39.1002,1.15581,0.0110846,-20,-0.475888,0.0622277,-0.0384066,-1.0051,0.0237536,-7.31226e-05,0.00819462,3.39832e-05,0.494178,0.00127828,0.0761263,0.0598283,0.000128299,0.0433356,1.96541,0.000733984,0.005,1.7143,0.000577671,-0.0353955,-0.268806,30.3434,0.0608338,0.924467,8.13335,0.373001,3.11445,0.302908,2.66197,-0.00180155,0.467285,-1.23309,0.1372,-0.041081,-0.0604248,0.0166092,-0.0927389,23.4506,23.3513,23.1527,23.2946,23.2094,23.2946,23.1243,
59,6.27293,1.37618,3.15342,4.11641,6.27443,1.97462,1.55585,0.00122128,-0.106418,-8.66185e-05,0.130457,0.000359515,0.0320984,0,0.421576,-10.4642,-0.371419,-1.64869,1.10647,-39.717,1.16901,0.0116193,-20,-0.47843,0.0415745,-0.0384575,-1.06582,0.0244401,-7.58605e-05,0.00846222,3.1043e-05,0.494178,0.00127828,0.0761263,0.0598283,0.000128299,0.0433356,1.96423,0.000724116,0.005,1.71396,0.000536235,-0.0345021,-0.275434,30.9164,0.0502453,0.924467,8.13335,0.373001,3.11445,0.302908,2.66197,-0.00180155,0.467285,-1.23309,0.1372,-0.041081,-0.0604248,0.0166092,-0.0927389,23.4506,23.3513,23.1527,23.2946,23.2094,23.2946,23.1243,
60,6.27293,1.37607,3.15342,4.11654,6.27443,1.97465,1.55585,0.00120795,-0.104258,-8.50131e-05,0.128026,0.000403703,0.0307911,0,0.421621,-10.4623,-0.371534,-1.64867,1.10649,-39.715,1.1689,0.0116032,-20,-0.478438,0.0443803,-0.0384499,-1.0663,0.0244286,-7.58605e-05,0.00846222,3.1043e-05,0.494178,0.00127828,0.0761263,0.0586716,0.000125465,0.042397,1.96423,0.000724116,0.005,1.71396,0.000536235,-0.0345021,-0.275434,30.9164,0.0502453,0.908942,8.42364,0.378245,3.09424,0.322338,2.4364,0.023086,0.491521,-1.31323,0.1372,-0.0180152,-0.0609595,0.038216,-0.0846906,23.4648,23.3655,23.1527,23.2804,23.2094,23.2804,23.1527,
61,6.27293,1.37597,3.15342,4.11666,6.27443,1.97468,1.55585,0.00113246,-0.105231,-8.50131e-05,0.123975,0.000473407,0.0289004,0,0.423476,-10.6087,-0.376436,-1.75615,1.10833,-40.2775,1.18308,0.0120731,-20,-0.480761,0.0281973,-0.0384785,-1.12223,0.0252562,-7.91835e-05,0.00872168,2.77837e-05,0.494178,0.00127828,0.0761263,0.057698,0.000152572,0.0426645,1.96307,0.000719878,0.005,1.71396,0.000534972,-0.0336573,-0.283615,31.44,0.0412702,0.784338,8.71238,0.36645,3.13184,0.375037,2.20897,0.00332382,0.47541,-1.37771,0.145243,0,-0.0490066,0.0609595,-0.104814,23.4648,23.3371,23.1527,23.2804,23.2094,23.2804,23.1243,
62,6.27293,1.37597,3.15342,4.11679,6.27444,1.97471,1.55585,0.00113246,-0.105231,-8.34677e-05,0.124515,0.000624431,0.0259294,0,0.4254,-10.756,-0.382542,-1.8654,1.10687,-40.8535,1.19747,0.0125843,-20,-0.483198,0.0107661,-0.0385312,-1.1797,0.0261188,-8.22776e-05,0.00897609,2.40248e-05,0.494178,0.00127828,0.0761263,0.0578545,0.000163271,0.0423493,1.96193,0.000708436,0.005,1.71381,0.000500277,-0.033898,-0.29211,31.9778,0.0291936,0.784338,8.71238,0.328592,3.17546,0.330527,1.92943,-0.00101419,0.47541,-1.37771,0.145243,0.0809682,-0.0523682,0.0927389,-0.0887145,23.4648,23.3371,23.1527,23.2804,23.2094,23.2662,23.1243,
63,6.27294,1.37586,3.15342,4.11679,6.27444,1.97471,1.55585,0.00106847,-0.10783,-8.34677e-05,0.124515,0.000624431,0.0259294,0,0.426834,-10.8538,-0.389031,-1.93948,1.09953,-41.2309,1.20841,0.0129457,-20,-0.48496,-0.00162679,-0.0385939,-1.21734,0.0268433,-8.41804e-05,0.0091341,2.01457e-05,0.494178,0.00127828,0.0761263,0.0583895,0.000194003,0.0433856,1.96117,0.000697883,0.005,1.71298,0.000481151,-0.0336144,-0.299105,32.3314,0.0157079,0.829382,8.88768,0.328592,3.17546,0.330527,1.92943,-0.00101419,0.475615,-1.40188,0.145243,0.0809682,-0.0523682,0.0927389,-0.0887145,23.4506,23.3371,23.1527,23.2804,23.2094,23.2662,23.1243,
64,6.27294,1.37575,3.15342,4.11691,6.27444,1.97473,1.55585,0.000992151,-0.109119,-0.000102963,0.125055,0.000876436,0.0233215,0,0.428015,-10.9559,-0.389359,-2.01893,1.10948,-41.6403,1.21673,0.0132461,-20,-0.486387,-0.0133736,-0.0385611,-1.259,0.0272343,-8.53491e-05,0.00924848,2.12128e-05,0.494178,0.00127828,0.0761263,0.0588089,0.000253896,0.0436254,1.96069,0.000701461,0.005,1.71207,0.000456712,-0.034547,-0.303043,32.7182,0.0166709,0.782079,9.18827,0.34288,3.15454,0.320691,1.70255,-0.0286664,0.47541,-1.37806,0.129158,0.0809682,-0.0529843,0.128969,-0.100789,23.4506,23.3513,23.1527,23.2662,23.1952,23.2662,23.1243,
65,6.27294,1.37575,3.15342,4.11691,6.27444,1.97473,1.55585,0.000992151,-0.109119,-0.000102963,0.125055,0.000876436,0.0233215,0,0.430509,-11.1399,-0.398426,-2.15678,1.10342,-42.3527,1.23804,0.0139069,-20,-0.48947,-0.0377936,-0.0386537,-1.32992,0.0286656,-8.90113e-05,0.00950395,1.73967e-05,0.494178,0.00127828,0.0761263,0.0588089,0.000253896,0.0436254,1.95953,0.000686949,0.005,1.71065,0.000389747,-0.0347629,-0.316972,33.3845,-0.00200745,0.782079,9.18827,0.34288,3.15454,0.320691,1.70255,-0.0286664,0.47541,-1.37806,0.129158,0.0809682,-0.0529843,0.128969,-0.100789,23.4506,23.3513,23.1527,23.2662,23.1952,23.2662,23.1243,
66,6.27294,1.37575,3.15342,4.11691,6.27444,1.97473,1.55585,0.000992151,-0.109119,-0.000102963,0.125055,0.000876436,0.0233215,0,0.430509,-11.1399,-0.398426,-2.15678,1.10342,-42.3527,1.23804,0.0139069,-20,-0.48947,-0.0377936,-0.0386537,-1.32992,0.0286656,-8.90113e-05,0.00950395,1.73967e-05,0.494178,0.00127828,0.0761263,0.0588089,0.000253896,0.0436254,1.95953,0.000686949,0.005,1.71065,0.000389747,-0.0347629,-0.316972,33.3845,-0.00200745,0.782079,9.18827,0.34288,3.15454,0.320691,1.70255,-0.0286664,0.47541,-1.37806,0.129158,0.0809682,-0.0529843,0.128969,-0.100789,23.4506,23.3513,23.1527,23.2662,23.1952,23.2662,23.1243,
67,6.27294,1.37564,3.15342,4.11704,6.27444,1.97475,1.55585,0.000830351,-0.1102,-0.000101127,0.125325,0.00114074,0.0202573,0,0.430485,-11.1373,-0.398468,-2.15723,1.10336,-42.3497,1.23778,0.0138911,-20,-0.48949,-0.0354642,-0.038642,-1.33025,0.0286528,-8.90113e-05,0.00950395,1.73967e-05,0.494178,0.00127828,0.0761263,0.0591072,0.000341177,0.0437389,1.95953,0.000686949,0.005,1.71065,0.000389747,-0.0347629,-0.316972,33.3845,-0.00200745,0.784187,9.53768,0.34235,3.16862,0.357227,1.4958,-0.0156521,0.467355,-1.41,0.14502,0.0649547,-0.0523682,0.157104,-0.088623,23.4506,23.3513,23.1527,23.2946,23.2094,23.2804,23.1101,
68,6.27294,1.37564,3.15342,4.11704,6.27444,1.97475,1.55585,0.000830351,-0.1102,-0.000101127,0.125325,0.00114074,0.0202573,0,0.432912,-11.3113,-0.408295,-2.28762,1.094,-43.0231,1.25597,0.014534,-20,-0.492497,-0.0585558,-0.0387547,-1.39726,0.0298294,-9.19582e-05,0.00975623,1.37071e-05,0.494178,0.00127828,0.0761263,0.0591072,0.000341177,0.0437389,1.95837,0.000672327,0.005,1.70933,0.000298035,-0.034865,-0.328358,34.0142,-0.0228298,0.784187,9.53768,0.34235,3.16862,0.357227,1.4958,-0.0156521,0.467355,-1.41,0.14502,0.0649547,-0.0523682,0.157104,-0.088623,23.4506,23.3513,23.1527,23.2946,23.2094,23.2804,23.1101,
69,6.27294,1.37553,3.15341,4.11716,6.27444,1.97477,1.55585,0.000679378,-0.112361,-0.000106089,0.126676,0.00145021,0.0172687,0,0.432888,-11.3086,-0.408357,-2.28835,1.09391,-43.0197,1.25573,0.0145212,-20,-0.492523,-0.0564174,-0.0387412,-1.39753,0.0298201,-9.19582e-05,0.00975623,1.37071e-05,0.494178,0.00127828,0.0761263,0.0599422,0.000435156,0.0442711,1.95837,0.000672327,0.005,1.70933,0.000298035,-0.034865,-0.328358,34.0142,-0.0228298,0.719291,9.89828,0.281028,3.23951,0.403432,1.28635,-0.0337596,0.483398,-1.40994,0.136963,0.041081,-0.0485074,0.197388,-0.100789,23.4506,23.3371,23.1385,23.2804,23.1811,23.2804,23.1101,
70,6.27294,1.37553,3.15341,4.11716,6.27444,1.97477,1.55585,0.000679378,-0.112361,-0.000106089,0.126676,0.00145021,0.0172687,0,0.435492,-11.5,-0.417736,-2.43309,1.08763,-43.7639,1.27627,0.0152112,-20,-0.495728,-0.0821564,-0.0388409,-1.47183,0.0311507,-9.49835e-05,0.0100088,1.10179e-05,0.494178,0.00127828,0.0761263,0.0599422,0.000435156,0.0442711,1.95718,0.000661428,0.005,1.70752,0.000203645,-0.035344,-0.341264,34.7116,-0.0423238,0.719291,9.89828,0.281028,3.23951,0.403432,1.28635,-0.0337596,0.483398,-1.40994,0.136963,0.041081,-0.0485074,0.197388,-0.100789,23.4506,23.3371,23.1385,23.2804,23.1811,23.2804,23.1101,
71,6.27294,1.37541,3.15341,4.1173,6.27444,1.97478,1.55585,0.000679378,-0.111341,-0.000104226,0.125886,0.00179405,0.0152969,0,0.435505,-11.4976,-0.417874,-2.43336,1.08759,-43.7612,1.27608,0.0151928,-20,-0.495744,-0.0793331,-0.0388296,-1.47225,0.0311403,-9.49835e-05,0.0100088,1.10179e-05,0.494178,0.00127828,0.0761263,0.0594976,0.000461084,0.043687,1.95718,0.000661428,0.005,1.70752,0.000203645,-0.035344,-0.341264,34.7116,-0.0423238,0.729747,10.1776,0.246735,3.26456,0.365791,1.05371,-0.035934,0.483398,-1.38658,0.112793,0.0254773,-0.0523682,0.22965,-0.0887145,23.4364,23.3229,23.1527,23.2662,23.2094,23.2804,23.1243,
72,6.27294,1.37541,3.15341,4.1173,6.27444,1.97478,1.55585,0.000679378,-0.111341,-0.000104226,0.125886,0.00179405,0.0152969,0,0.437791,-11.6685,-0.426231,-2.55951,1.08216,-44.416,1.29484,0.0157985,-20,-0.498608,-0.101482,-0.0389126,-1.53702,0.0323613,-9.81032e-05,0.0102768,7.79963e-06,0.494178,0.00127828,0.0761263,0.0594976,0.000461084,0.043687,1.95592,0.000650325,0.005,1.70678,0.000170316,-0.0348183,-0.35313,35.3217,-0.0593449,0.729747,10.1776,0.246735,3.26456,0.365791,1.05371,-0.035934,0.483398,-1.38658,0.112793,0.0254773,-0.0523682,0.22965,-0.0887145,23.4364,23.3229,23.1527,23.2662,23.2094,23.2804,23.1243,
73,6.27294,1.3753,3.15341,4.11742,6.27445,1.9748,1.55585,0.000662313,-0.109389,-0.000113705,0.122894,0.00208963,0.0145853,0,0.437837,-11.6667,-0.42638,-2.55957,1.08218,-44.4142,1.29478,0.0157871,-20,-0.498617,-0.098707,-0.0389006,-1.53747,0.0323567,-9.81032e-05,0.0102768,7.79963e-06,0.494178,0.00127828,0.0761263,0.0582231,0.000487643,0.0429012,1.95592,0.000650325,0.005,1.70678,0.000170316,-0.0348183,-0.35313,35.3217,-0.0593449,0.673885,10.5683,0.268516,3.18833,0.356045,0.847631,-0.0566426,0.483398,-1.43444,0.129909,0.0254773,-0.0483398,0.261841,-0.0887145,23.4648,23.3371,23.1527,23.2804,23.1952,23.2804,23.1385,
74,6.27294,1.3753,3.15341,4.11742,6.27445,1.9748,1.55585,0.000662313,-0.109389,-0.000113705,0.122894,0.00208963,0.0145853,0,0.439619,-11.8047,-0.432275,-2.65901,1.07983,-44.9398,1.3103,0.0162592,-20,-0.500871,-0.115929,-0.0389614,-1.5891,0.0333809,-0.000100911,0.01052,6.12425e-06,0.494178,0.00127828,0.0761263,0.0582231,0.000487643,0.0429012,1.95477,0.000640374,0.005,1.70689,0.000137458,-0.0341111,-0.363104,35.8087,-0.0712462,0.673885,10.5683,0.268516,3.18833,0.356045,0.847631,-0.0566426,0.483398,-1.43444,0.129909,0.0254773,-0.0483398,0.261841,-0.0887145,23.4648,23.3371,23.1527,23.2804,23.1952,23.2804,23.1385,
75,6.27294,1.37519,3.15341,4.11754,6.27445,1.97481,1.55585,0.000601844,-0.11074,-0.000120894,0.121274,0.00211967,0.0124245,0,0.439665,-11.8023,-0.432375,-2.6594,1.07985,-44.937,1.31024,0.0162477,-20,-0.500883,-0.113606,-0.0389534,-1.58945,0.0333767,-0.000100911,0.01052,6.12425e-06,0.494178,0.00127828,0.0761263,0.058031,0.000512478,0.0432486,1.95477,0.000640374,0.005,1.70689,0.000137458,-0.0341111,-0.363104,35.8087,-0.0712462,0.700678,10.9362,0.264845,3.12649,0.365622,0.683764,-0.0228186,0.47541,-1.49854,0.129158,0.072956,-0.0565402,0.274044,-0.0926514,23.4506,23.3229,23.1527,23.2804,23.1952,23.252,23.1243,
76,6.27294,1.37508,3.15341,4.11765,6.27445,1.97482,1.55585,0.000596156,-0.110628,-0.000118848,0.118033,0.00202977,0.0105338,0,0.441637,-11.96,-0.435787,-2.77812,1.08705,-45.5544,1.3257,0.0167359,-20,-0.503241,-0.131893,-0.0389611,-1.65145,0.0342653,-0.000103927,0.0107613,4.53851e-06,0.494178,0.00127828,0.0761263,0.057067,0.000495255,0.0430706,1.95363,0.000633675,0.005,1.70604,0.000109077,-0.0344237,-0.371818,36.3871,-0.0766808,0.661222,11.3225,0.226292,3.05985,0.405607,0.537975,-0.0316701,0.467285,-1.47456,0.121919,0.121118,-0.0485074,0.298123,-0.0887145,23.4506,23.3371,23.1527,23.252,23.2094,23.2804,23.1101,
77,6.27294,1.37508,3.15341,4.11765,6.27445,1.97482,1.55585,0.000596156,-0.110628,-0.000118848,0.118033,0.00202977,0.0105338,0,0.443145,-12.0943,-0.437123,-2.8759,1.09703,-46.0705,1.33627,0.0171354,-20,-0.505122,-0.148884,-0.0389462,-1.70241,0.0347513,-0.000106395,0.0109972,2.58789e-06,0.494178,0.00127828,0.0761263,0.057067,0.000495255,0.0430706,1.9525,0.000625946,0.005,1.70589,0.000117622,-0.0342635,-0.37655,36.8668,-0.0776493,0.661222,11.3225,0.226292,3.05985,0.405607,0.537975,-0.0316701,0.467285,-1.47456,0.121919,0.121118,-0.0485074,0.298123,-0.0887145,23.4506,23.3371,23.1527,23.252,23.2094,23.2804,23.1101,
78,6.27294,1.37497,3.15341,4.11778,6.27445,1.97483,1.55585,0.000463619,-0.112093,-0.00012799,0.116748,0.00196322,0.00802459,0,0.443192,-12.0918,-0.43719,-2.87628,1.09706,-46.0676,1.33616,0.0171222,-20,-0.505134,-0.146425,-0.0389394,-1.70277,0.0347432,-0.000106395,0.0109972,2.58789e-06,0.494178,0.00127828,0.0761263,0.0569958,0.000540284,0.043422,1.9525,0.000625946,0.005,1.70589,0.000117622,-0.0342635,-0.37655,36.8668,-0.0776493,0.67392,11.6072,0.201433,3.00031,0.418299,0.350645,-0.0332353,0.451244,-1.49854,0.121118,0.193359,-0.0569691,0.322366,-0.0889885,23.4364,23.3371,23.1527,23.2662,23.1952,23.252,23.1101,
79,6.27294,1.37485,3.15341,4.11789,6.27445,1.97484,1.55585,0.000463619,-0.113171,-0.000130355,0.116952,0.00192083,0.0067456,0,0.445302,-12.2578,-0.441585,-3.00243,1.10228,-46.7175,1.35125,0.0176528,-20,-0.507688,-0.166341,-0.038963,-1.768,0.0355778,-0.000109552,0.011249,-5.94765e-08,0.494178,0.00127828,0.0761263,0.0572742,0.000537447,0.0437247,1.95129,0.000610316,0.005,1.70487,6.30291e-05,-0.0345798,-0.3847,37.4768,-0.085415,0.61813,12.0082,0.210503,2.89431,0.418299,0.172237,-0.0594676,0.483398,-1.48244,0.11308,0.217529,-0.0523682,0.342407,-0.088623,23.4648,23.3371,23.1385,23.2662,23.1811,23.2662,23.1243,
80,6.27294,1.37485,3.15341,4.11789,6.27445,1.97484,1.55585,0.000463619,-0.113171,-0.000130355,0.116952,0.00192083,0.0067456,0,0.447337,-12.4318,-0.44429,-3.1329,1.11274,-47.3915,1.36612,0.0181919,-20,-0.510191,-0.18937,-0.0389552,-1.83511,0.0363329,-0.000112297,0.0114825,-1.99209e-06,0.494178,0.00127828,0.0761263,0.0572742,0.000537447,0.0437247,1.95016,0.000601157,0.005,1.7036,5.73388e-05,-0.0348522,-0.392051,38.1074,-0.088974,0.61813,12.0082,0.210503,2.89431,0.418299,0.172237,-0.0594676,0.483398,-1.48244,0.11308,0.217529,-0.0523682,0.342407,-0.088623,23.4648,23.3371,23.1385,23.2662,23.1811,23.2662,23.1243,
81,6.27294,1.37474,3.15341,4.11801,6.27445,1.97484,1.55585,0.000409537,-0.113171,-0.000128058,0.117763,0.00182159,0.00378136,0,0.447376,-12.4294,-0.44436,-3.1332,1.11279,-47.3887,1.36605,0.0181731,-20,-0.510202,-0.186952,-0.0389508,-1.83542,0.0363276,-0.000112297,0.0114825,-1.99209e-06,0.494178,0.00127828,0.0761263,0.0575057,0.000545576,0.043412,1.95016,0.000601157,0.005,1.7036,5.73388e-05,-0.0348522,-0.392051,38.1074,-0.088974,0.648825,12.3983,0.195473,2.71381,0.449172,0.0242135,-0.0435002,0.475342,-1.47439,0.121919,0.185478,-0.0485074,0.354492,-0.0887145,23.4506,23.3087,23.1527,23.252,23.1952,23.252,23.1243,
82,6.27294,1.37474,3.15341,4.11801,6.27445,1.97484,1.55585,0.000409537,-0.113171,-0.000128058,0.117763,0.00182159,0.00378136,0,0.449177,-12.5852,-0.44661,-3.25041,1.12237,-47.9875,1.37783,0.01865,-20,-0.512434,-0.207664,-0.0389465,-1.89493,0.0368568,-0.00011458,0.0117139,-3.88259e-06,0.494178,0.00127828,0.0761263,0.0575057,0.000545576,0.043412,1.94903,0.000590363,0.005,1.70237,4.03085e-05,-0.0345708,-0.397178,38.6676,-0.0918978,0.648825,12.3983,0.195473,2.71381,0.449172,0.0242135,-0.0435002,0.475342,-1.47439,0.121919,0.185478,-0.0485074,0.354492,-0.0887145,23.4506,23.3087,23.1527,23.252,23.1952,23.252,23.1243,
83,6.27294,1.37463,3.15341,4.11813,6.27445,1.97484,1.55585,0.000472035,-0.11074,-0.000136889,0.118303,0.00172212,0.00378136,0,0.449272,-12.5833,-0.446775,-3.2509,1.12244,-47.9851,1.37784,0.0186371,-20,-0.512446,-0.205113,-0.0389422,-1.89527,0.0368512,-0.00011458,0.0117139,-3.88259e-06,0.494178,0.00127828,0.0761263,0.0571537,0.000509511,0.0424532,1.94903,0.000590363,0.005,1.70237,4.03085e-05,-0.0345708,-0.397178,38.6676,-0.0918978,0.599132,12.7786,0.245278,2.56102,0.447681,-0.119712,-0.061188,0.475342,-1.47492,0.112793,0.153288,-0.0443115,0.378662,-0.0889885,23.4506,23.3371,23.1527,23.2662,23.1952,23.2662,23.1101,
84,6.27294,1.37463,3.15341,4.11813,6.27445,1.97484,1.55585,0.000472035,-0.11074,-0.000136889,0.118303,0.00172212,0.00378136,0,0.451042,-12.7421,-0.448293,-3.36848,1.13445,-48.5896,1.39128,0.0191057,-20,-0.514669,-0.225704,-0.0389213,-1.95497,0.0375202,-0.000117572,0.0119435,-5.83908e-06,0.494178,0.00127828,0.0761263,0.0571537,0.000509511,0.0424532,1.9479,0.000579845,0.005,1.70167,6.33009e-05,-0.0337078,-0.403722,39.231,-0.0927972,0.599132,12.7786,0.245278,2.56102,0.447681,-0.119712,-0.061188,0.475342,-1.47492,0.112793,0.153288,-0.0443115,0.378662,-0.0889885,23.4506,23.3371,23.1527,23.2662,23.1952,23.2662,23.1101,
85,6.27294,1.37463,3.15341,4.11813,6.27445,1.97484,1.55585,0.000472035,-0.11074,-0.000136889,0.118303,0.00172212,0.00378136,0,0.451042,-12.7421,-0.448293,-3.36848,1.13445,-48.5896,1.39128,0.0191057,-20,-0.514669,-0.225704,-0.0389213,-1.95497,0.0375202,-0.000117572,0.0119435,-5.83908e-06,0.494178,0.00127828,0.0761263,0.0571537,0.000509511,0.0424532,1.9479,0.000579845,0.005,1.70167,6.33009e-05,-0.0337078,-0.403722,39.231,-0.0927972,0.599132,12.7786,0.245278,2.56102,0.447681,-0.119712,-0.061188,0.475342,-1.47492,0.112793,0.153288,-0.0443115,0.378662,-0.0889885,23.4506,23.3371,23.1527,23.2662,23.1952,23.2662,23.1101,
86,6.27294,1.37452,3.15341,4.11825,6.27445,1.97484,1.55585,0.000478747,-0.10783,-0.000134687,0.118864,0.00165599,0.00234067,0,0.451105,-12.7399,-0.448417,-3.36874,1.13449,-48.5872,1.39119,0.0190857,-20,-0.514681,-0.22285,-0.0389165,-1.95535,0.0375109,-0.000117572,0.0119435,-5.83908e-06,0.494178,0.00127828,0.0761263,0.0567097,0.000492474,0.041152,1.9479,0.000579845,0.005,1.70167,6.33009e-05,-0.0337078,-0.403722,39.231,-0.0927972,0.604046,13.1191,0.257632,2.37889,0.455788,-0.274552,-0.0595795,0.459299,-1.52273,0.112793,0.153076,-0.0404841,0.386719,-0.0845947,23.4506,23.3371,23.1527,23.2662,23.1952,23.2662,23.1243,
87,6.27294,1.37452,3.15341,4.11825,6.27445,1.97484,1.55585,0.000478747,-0.10783,-0.000134687,0.118864,0.00165599,0.00234067,0,0.4529,-12.8926,-0.451742,-3.48178,1.14083,-49.1652,1.40417,0.019561,-20,-0.51695,-0.242655,-0.0389275,-2.01234,0.0381833,-0.000120588,0.012185,-8.74148e-06,0.494178,0.00127828,0.0761263,0.0567097,0.000492474,0.041152,1.9467,0.00056971,0.005,1.70099,6.95122e-05,-0.0325368,-0.410258,39.7694,-0.0981438,0.604046,13.1191,0.257632,2.37889,0.455788,-0.274552,-0.0595795,0.459299,-1.52273,0.112793,0.153076,-0.0404841,0.386719,-0.0845947,23.4506,23.3371,23.1527,23.2662,23.1952,23.2662,23.1243,
88,6.27294,1.37441,3.15341,4.11837,6.27445,1.97484,1.55585,0.00043583,-0.10739,-0.000143377,0.120611,0.00162277,0,0,0.452954,-12.8901,-0.451846,-3.48227,1.14084,-49.1622,1.40406,0.0195491,-20,-0.516967,-0.240292,-0.0389216,-2.01262,0.0381754,-0.000120588,0.012185,-8.74148e-06,0.494178,0.00127828,0.0761263,0.0571212,0.000507747,0.0407156,1.9467,0.00056971,0.005,1.70099,6.95122e-05,-0.0325368,-0.410258,39.7694,-0.0981438,0.522795,13.5148,0.318176,2.18683,0.461904,-0.443015,-0.070373,0.451244,-1.57113,0.105046,0.128906,-0.041081,0.394775,-0.0846906,23.4364,23.3229,23.1527,23.2662,23.1952,23.2662,23.1101,
89,6.27294,1.37431,3.15341,4.11849,6.27446,1.97484,1.55585,0.00043583,-0.106418,-0.000140935,0.119653,0.00152342,-0.000614441,0,0.454938,-13.048,-0.455758,-3.6034,1.14662,-49.7732,1.41887,0.0200409,-20,-0.519372,-0.259198,-0.038937,-2.07395,0.0390086,-0.00012357,0.0124092,-1.11866e-05,0.494178,0.00127828,0.0761263,0.0566396,0.000492313,0.0402938,1.94557,0.000555146,0.005,1.6996,4.26599e-05,-0.032144,-0.418453,40.3438,-0.104723,0.522795,13.8856,0.313643,1.99834,0.470572,-0.580492,-0.0573827,0.451244,-1.57107,0.105046,0.0805664,-0.0404841,0.414937,-0.0966797,23.4364,23.3229,23.1527,23.2662,23.1385,23.252,23.1243,
90,6.27294,1.37431,3.15341,4.11849,6.27446,1.97484,1.55585,0.00043579,-0.106418,-0.000140935,0.119653,0.00152342,-0.000614441,0,0.45665,-13.1937,-0.458561,-3.71112,1.15382,-50.332,1.4305,0.0204943,-20,-0.521511,-0.278037,-0.0389396,-2.12924,0.039566,-0.000126219,0.0126304,-1.39945e-05,0.494178,0.00127828,0.0761263,0.0566396,0.000492299,0.0402938,1.94445,0.000542654,0.005,1.69903,4.53066e-05,-0.0317645,-0.423839,40.8646,-0.108938,0.548715,13.8856,0.313643,1.99834,0.470572,-0.580492,-0.0573827,0.451172,-1.57107,0.105046,0.0805664,-0.0404841,0.414937,-0.0966797,23.4506,23.3229,23.1527,23.2662,23.1385,23.252,23.1243,
91,6.27294,1.37431,3.15341,4.11849,6.27446,1.97484,1.55585,0.00043579,-0.106418,-0.000140935,0.119653,0.00152342,-0.000614441,0,0.456616,-13.1937,-0.457954,-3.71114,1.15547,-50.332,1.43054,0.0204854,-20,-0.521468,-0.278037,-0.0389303,-2.12924,0.0395632,-0.000126215,0.0126304,-1.34618e-05,0.494178,0.00127828,0.0761263,0.0566396,0.000492299,0.0402938,1.94445,0.000546883,0.005,1.69903,4.91254e-05,-0.0317645,-0.423826,40.8646,-0.107501,0.548715,13.8856,0.313643,1.99834,0.470572,-0.580492,-0.0573827,0.451172,-1.57107,0.105046,0.0805664,-0.0404841,0.414937,-0.0966797,23.4506,23.3229,23.1527,23.2662,23.1385,23.252,23.1243,
92,6.27294,1.3742,3.15341,4.11861,6.27446,1.97484,1.55585,0.000384711,-0.106689,-0.000145383,0.118303,0.0014903,-0.00119246,0,0.456663,-13.1917,-0.458045,-3.71166,1.15547,-50.3294,1.43038,0.0204701,-20,-0.52148,-0.275729,-0.0389253,-2.12956,0.0395517,-0.000126215,0.0126304,-1.34618e-05,0.494178,0.00127828,0.0761263,0.0563017,0.000507388,0.0403747,1.94445,0.000546883,0.005,1.69903,4.91254e-05,-0.0317645,-0.423826,40.8646,-0.107501,0.517119,14.2096,0.325242,1.86497,0.48565,-0.694637,-0.0508277,0.459299,-1.59524,0.0966797,0.0809682,-0.0322266,0.427002,-0.0927389,23.4648,23.3229,23.1243,23.252,23.1952,23.2662,23.1243,
93,6.27294,1.3742,3.15341,4.11861,6.27446,1.97484,1.55585,0.000384711,-0.106689,-0.000145383,0.118303,0.0014903,-0.00119246,0,0.458541,-13.3418,-0.46278,-3.82294,1.1578,-50.9094,1.44453,0.0209676,-20,-0.523812,-0.295233,-0.0389593,-2.18713,0.0403654,-0.000129324,0.0128492,-1.67786e-05,0.494178,0.00127828,0.0761263,0.0563017,0.000507388,0.0403747,1.94334,0.000531943,0.005,1.69833,2.20998e-05,-0.0318372,-0.431717,41.4058,-0.116372,0.517119,14.2096,0.325242,1.86497,0.48565,-0.694637,-0.0508277,0.459299,-1.59524,0.0966797,0.0809682,-0.0322266,0.427002,-0.0927389,23.4648,23.3229,23.1243,23.252,23.1952,23.2662,23.1243,
94,6.27294,1.37409,3.15341,4.11873,6.27446,1.97484,1.55585,0.000336622,-0.106827,-0.000143115,0.11761,0.00145718,-0.00146702,0,0.458579,-13.3396,-0.462868,-3.82363,1.15783,-50.9065,1.44439,0.0209476,-20,-0.523825,-0.292799,-0.0389539,-2.18745,0.040356,-0.000129324,0.0128492,-1.67786e-05,0.494178,0.00127828,0.0761263,0.0561263,0.000521001,0.0404261,1.94334,0.000531943,0.005,1.69833,2.20998e-05,-0.0318372,-0.431717,41.4058,-0.116372,0.517601,14.5506,0.313092,1.74179,0.50131,-0.836498,-0.0635006,0.451172,-1.57912,0.104736,0.090076,-0.0322266,0.418965,-0.0887145,23.4364,23.3513,23.1527,23.252,23.1952,23.252,23.1101,
95,6.27294,1.37409,3.15341,4.11873,6.27446,1.97484,1.55585,0.000336622,-0.106827,-0.000143115,0.11761,0.00145718,-0.00146702,0,0.460652,-13.5089,-0.467339,-3.94974,1.16285,-51.5608,1.45847,0.0214966,-20,-0.526395,-0.314936,-0.0389783,-2.25244,0.0410741,-0.000132113,0.0130848,-1.96529e-05,0.494178,0.00127828,0.0761263,0.0561263,0.000521001,0.0404261,1.94215,0.000518832,0.005,1.69742,-1.95175e-06,-0.0318835,-0.438659,42.0168,-0.124286,0.517601,14.5506,0.313092,1.74179,0.50131,-0.836498,-0.0635006,0.451172,-1.57912,0.104736,0.090076,-0.0322266,0.418965,-0.0887145,23.4364,23.3513,23.1527,23.252,23.1952,23.252,23.1101,
96,6.27294,1.37399,3.15341,4.11884,6.27446,1.97483,1.55585,0.000240444,-0.102907,-0.000143115,0.113981,0.00135791,-0.0018869,0,0.460714,-13.5075,-0.467415,-3.94961,1.16293,-51.5595,1.45844,0.0214776,-20,-0.526395,-0.31206,-0.0389727,-2.2529,0.0410674,-0.000132113,0.0130848,-1.96529e-05,0.494178,0.00127828,0.0761263,0.054262,0.000532877,0.0388944,1.94215,0.000518832,0.005,1.69742,-1.95175e-06,-0.0318835,-0.438659,42.0168,-0.124286,0.444698,14.9987,0.385978,1.57438,0.483552,-0.993529,-0.0416475,0.443188,-1.58716,0.0889885,0.090076,-0.0245033,0.410889,-0.0889885,23.4364,23.3371,23.1527,23.2804,23.1811,23.2804,23.1101,
97,6.27294,1.37389,3.15341,4.11895,6.27446,1.97483,1.55585,0.000193684,-0.0966949,-0.000140752,0.11128,0.00135791,-0.00215167,0,0.4619,-13.6021,-0.470043,-4.01652,1.16525,-51.915,1.46532,0.0217561,-20,-0.527858,-0.320461,-0.0389933,-2.2879,0.0413821,-0.000134469,0.0132947,-2.18765e-05,0.494178,0.00127828,0.0761263,0.0521922,0.000531504,0.0364529,1.94108,0.000507829,0.005,1.69813,-2.25433e-05,-0.0305049,-0.44179,42.3447,-0.128984,0.477266,15.3853,0.386692,1.369,0.486794,-1.11144,-0.0362894,0.435059,-1.66868,0.0980133,0.153076,-0.0216932,0.414917,-0.0887145,23.4506,23.3371,23.1527,23.2662,23.2094,23.2804,23.1101,
98,6.27294,1.37389,3.15341,4.11895,6.27446,1.97483,1.55585,0.000193684,-0.0966949,-0.000140752,0.11128,0.00135791,-0.00215167,0,0.462939,-13.6838,-0.474296,-4.07253,1.16136,-52.2093,1.47305,0.0220311,-20,-0.529254,-0.329848,-0.0390483,-2.31595,0.0418624,-0.00013716,0.0134961,-2.50512e-05,0.494178,0.00127828,0.0761263,0.0521922,0.000531504,0.0364529,1.94005,0.000495113,0.005,1.69907,-3.27518e-05,-0.0283076,-0.446424,42.6132,-0.137893,0.477266,15.3853,0.386692,1.369,0.486794,-1.11144,-0.0362894,0.435059,-1.66868,0.0980133,0.153076,-0.0216932,0.414917,-0.0887145,23.4506,23.3371,23.1527,23.2662,23.2094,23.2804,23.1101,
99,6.27294,1.3738,3.15341,4.11906,6.27446,1.97482,1.55585,0.000193702,-0.0906928,-0.000140755,0.11047,0.00131067,-0.00258334,0,0.463009,-13.6824,-0.474414,-4.07248,1.16144,-52.2079,1.47305,0.0220128,-20,-0.529259,-0.327017,-0.0390432,-2.31635,0.0418581,-0.00013716,0.0134961,-2.50512e-05,0.494178,0.00127828,0.0761263,0.0507132,0.000511802,0.0340471,1.94005,0.000495113,0.005,1.69907,-3.27518e-05,-0.0283076,-0.446424,42.6132,-0.137893,0.483906,15.7526,0.423904,1.24996,0.483558,-1.22196,-0.0560577,0.443188,-1.76442,0.0970148,0.19403,-0.0216932,0.414937,-0.0887145,23.4364,23.3229,23.1385,23.2662,23.1811,23.2662,23.0959,
100,6.27294,1.37371,3.15341,4.11918,6.27446,1.97482,1.55585,0.000220789,-0.0869714,-0.00013863,0.109733,0.00127947,-0.00306823,0,0.464125,-13.7766,-0.476296,-4.14098,1.1659,-52.5552,1.47992,0.0222767,-20,-0.530677,-0.336148,-0.039049,-2.3504,0.0421614,-0.000139227,0.0136957,-2.6717e-05,0.494178,0.00127828,0.0761263,0.0497283,0.00048719,0.0325399,1.93902,0.000485567,0.005,1.69947,-2.36113e-05,-0.0261424,-0.44941,42.9348,-0.140612,0.451433,16.1239,0.41165,1.18178,0.465907,-1.38716,-0.058094,0.443115,-1.89338,0.0970148,0.185478,-0.0161133,0.410908,-0.0926514,23.4364,23.3087,23.1385,23.252,23.1811,23.2662,23.1101,
101,6.27294,1.37371,3.15341,4.11918,6.27446,1.97482,1.55585,0.000220789,-0.0869714,-0.00013863,0.109733,0.00127947,-0.00306823,0,0.465362,-13.8863,-0.478095,-4.22079,1.17195,-52.9655,1.48881,0.0226043,-20,-0.532269,-0.349962,-0.0390496,-2.39054,0.0425979,-0.000141453,0.0138916,-2.84159e-05,0.494178,0.00127828,0.0761263,0.0497283,0.00048719,0.0325399,1.93799,0.000479363,0.005,1.69943,-7.0442e-06,-0.0247859,-0.453666,43.3153,-0.143042,0.451433,16.1239,0.41165,1.18178,0.465907,-1.38716,-0.058094,0.443115,-1.89338,0.0970148,0.185478,-0.0161133,0.410908,-0.0926514,23.4364,23.3087,23.1385,23.252,23.1811,23.2662,23.1101,
102,6.27294,1.37371,3.15341,4.11918,6.27446,1.97482,1.55585,0.000220789,-0.0869714,-0.00013863,0.109733,0.00127947,-0.00306823,0,0.465362,-13.8863,-0.478095,-4.22079,1.17195,-52.9655,1.48881,0.0226043,-20,-0.532269,-0.349962,-0.0390496,-2.39054,0.0425979,-0.000141453,0.0138916,-2.84159e-05,0.494178,0.00127828,0.0761263,0.0497283,0.00048719,0.0325399,1.93799,0.000479363,0.005,1.69943,-7.0442e-06,-0.0247859,-0.453666,43.3153,-0.143042,0.451433,16.1239,0.41165,1.18178,0.465907,-1.38716,-0.058094,0.443115,-1.89338,0.0970148,0.185478,-0.0161133,0.410908,-0.0926514,23.4364,23.3087,23.1385,23.252,23.1811,23.2662,23.1101,
103,6.27294,1.37363,3.15341,4.11928,6.27447,1.97481,1.55585,0.000204105,-0.0842704,-0.000130475,0.107499,0.00121159,-0.00369517,0,0.465412,-13.8848,-0.478181,-4.22094,1.172,-52.9638,1.48875,0.0225878,-20,-0.532274,-0.347612,-0.039046,-2.39089,0.0425916,-0.000141453,0.0138916,-2.84159e-05,0.494178,0.00127828,0.0761263,0.0485218,0.000473492,0.0314447,1.93799,0.000479363,0.005,1.69943,-7.0442e-06,-0.0247859,-0.453666,43.3153,-0.143042,0.37542,16.5683,0.478778,1.06804,0.440591,-1.52052,-0.060331,0.435133,-1.9256,0.105046,0.169381,-0.0205405,0.402852,-0.0966797,23.4364,23.3087,23.1385,23.252,23.1811,23.252,23.1101,
104,6.27294,1.37355,3.15341,4.11939,6.27447,1.9748,1.55585,0.000163284,-0.0810292,-0.000130473,0.108579,0.00118578,-0.00516231,0,0.466504,-13.9745,-0.480174,-4.28691,1.17588,-53.3053,1.49585,0.0228517,-20,-0.533643,-0.356628,-0.0390498,-2.42472,0.0429314,-0.000143569,0.014071,-3.04799e-05,0.494178,0.00127828,0.0761263,0.0481631,0.000480321,0.0299947,1.93703,0.000469589,0.005,1.69966,-3.51225e-06,-0.0238002,-0.456984,43.6331,-0.146135,0.400283,16.9417,0.513578,0.992239,0.438561,-1.6317,-0.060609,0.443188,-1.95778,0.105046,0.201577,-0.0090076,0.402852,-0.0927389,23.4364,23.3229,23.1385,23.252,23.1952,23.252,23.0959,
105,6.27294,1.37355,3.15341,4.11939,6.27447,1.9748,1.55585,0.000163284,-0.0810292,-0.000130473,0.108579,0.00118578,-0.00516231,0,0.467723,-14.0806,-0.482181,-4.3659,1.18081,-53.7028,1.5037,0.0231745,-20,-0.535202,-0.370457,-0.0390597,-2.46381,0.0432907,-0.000145243,0.0142485,-3.15786e-05,0.494178,0.00127828,0.0761263,0.0481631,0.000480321,0.0299947,1.93608,0.000461976,0.005,1.69913,-1.65107e-05,-0.0224953,-0.460462,44.0035,-0.149332,0.400283,16.9417,0.513578,0.992239,0.438561,-1.6317,-0.060609,0.443188,-1.95778,0.105046,0.201577,-0.0090076,0.402852,-0.0927389,23.4364,23.3229,23.1385,23.252,23.1952,23.252,23.0959,
106,6.27294,1.37355,3.15341,4.11939,6.27447,1.9748,1.55585,0.000163284,-0.0810292,-0.000130473,0.108579,0.00118578,-0.00516231,0,0.467723,-14.0806,-0.482181,-4.3659,1.18081,-53.7028,1.5037,0.0231745,-20,-0.535202,-0.370457,-0.0390597,-2.46381,0.0432907,-0.000145243,0.0142485,-3.15786e-05,0.494178,0.00127828,0.0761263,0.0481631,0.000480321,0.0299947,1.93608,0.000461976,0.005,1.69913,-1.65107e-05,-0.0224953,-0.460462,44.0035,-0.149332,0.400283,16.9417,0.513578,0.992239,0.438561,-1.6317,-0.060609,0.443188,-1.95778,0.105046,0.201577,-0.0090076,0.402852,-0.0927389,23.4364,23.3229,23.1385,23.252,23.1952,23.252,23.0959,
107,6.27294,1.37347,3.15341,4.1195,6.27447,1.97478,1.55585,0.000164241,-0.0794087,-0.000130473,0.108849,0.00118578,-0.00790994,0,0.467755,-14.0786,-0.482259,-4.36612,1.18082,-53.7006,1.50359,0.0231591,-20,-0.535212,-0.368277,-0.0390559,-2.46409,0.0432842,-0.000145243,0.0142485,-3.15786e-05,0.494178,0.00127828,0.0761263,0.0479068,0.000472753,0.0290652,1.93608,0.000461976,0.005,1.69913,-1.65107e-05,-0.0224953,-0.460462,44.0035,-0.149332,0.364095,17.2462,0.547751,0.971487,0.442349,-1.72698,-0.055876,0.418945,-2.00617,0.107489,0.136963,-0.00805664,0.402913,-0.088623,23.4364,23.3087,23.1243,23.252,23.1811,23.252,23.1243,
108,6.27294,1.37347,3.15341,4.1195,6.27447,1.97478,1.55585,0.000164241,-0.0794087,-0.000130473,0.108849,0.00118578,-0.00790994,0,0.468923,-14.1762,-0.484759,-4.43916,1.18383,-54.0695,1.51283,0.0234683,-20,-0.536691,-0.381111,-0.0390692,-2.50052,0.0438152,-0.000147319,0.0144216,-3.36163e-05,0.494178,0.00127828,0.0761263,0.0479068,0.000472753,0.0290652,1.93514,0.000452441,0.005,1.69851,-1.82808e-05,-0.0216587,-0.465633,44.3478,-0.153671,0.364095,17.2462,0.547751,0.971487,0.442349,-1.72698,-0.055876,0.418945,-2.00617,0.107489,0.136963,-0.00805664,0.402913,-0.088623,23.4364,23.3087,23.1243,23.252,23.1811,23.252,23.1243,
109,6.27294,1.37338,3.15341,4.11961,6.27447,1.97477,1.55585,0.000151812,-0.0792428,-0.000128533,0.106577,0.00118002,-0.0111805,0,0.468954,-14.1741,-0.484832,-4.43931,1.18383,-54.0672,1.51271,0.0234516,-20,-0.536697,-0.378825,-0.0390656,-2.50085,0.0438088,-0.000147319,0.0144216,-3.36163e-05,0.494178,0.00127828,0.0761263,0.0472166,0.000466265,0.0286975,1.93514,0.000452441,0.005,1.69851,-1.82808e-05,-0.0216587,-0.465633,44.3478,-0.153671,0.325214,17.4887,0.54497,0.942444,0.440838,-1.84289,-0.0816794,0.435059,-2.01431,0.112793,0.12085,-0.00569691,0.40688,-0.088623,23.4364,23.3371,23.1243,23.252,23.1811,23.2662,23.1101,
110,6.27294,1.37338,3.15341,4.11961,6.27447,1.97477,1.55585,0.000151812,-0.0792428,-0.000128533,0.106577,0.00118002,-0.0111805,0,0.470035,-14.2647,-0.486948,-4.50611,1.18723,-54.4136,1.52171,0.0237377,-20,-0.538054,-0.390466,-0.0390746,-2.53508,0.0443394,-0.000149501,0.0146045,-3.56939e-05,0.494178,0.00127828,0.0761263,0.0472166,0.000466265,0.0286975,1.93413,0.00044247,0.005,1.69823,-2.14154e-05,-0.0213278,-0.470811,44.6705,-0.157231,0.325214,17.4887,0.54497,0.942444,0.440838,-1.84289,-0.0816794,0.435059,-2.01431,0.112793,0.12085,-0.00569691,0.40688,-0.088623,23.4364,23.3371,23.1243,23.252,23.1811,23.2662,23.1101,
111,6.27294,1.37331,3.15341,4.11971,6.27447,1.97475,1.55585,0.000113859,-0.07663,-0.000128533,0.101827,0.0011457,-0.0138688,0,0.470079,-14.2632,-0.487018,-4.50585,1.18727,-54.4124,1.52167,0.0237219,-20,-0.538051,-0.388084,-0.0390709,-2.53547,0.0443358,-0.000149501,0.0146045,-3.56939e-05,0.494178,0.00127828,0.0761263,0.0453037,0.000458184,0.0274549,1.93413,0.00044247,0.005,1.69823,-2.14154e-05,-0.0213278,-0.470811,44.6705,-0.157231,0.270488,17.7695,0.601669,0.901335,0.405179,-1.98645,-0.0862881,0.443188,-1.96582,0.0970148,0.161936,-0.00402832,0.422993,-0.0926514,23.4506,23.3371,23.1527,23.2662,23.1811,23.252,23.1101,
112,6.27294,1.37331,3.15341,4.11971,6.27447,1.97475,1.55585,0.000113859,-0.07663,-0.000128533,0.101827,0.0011457,-0.0138688,0,0.470515,-14.3042,-0.487735,-4.53245,1.18906,-54.5595,1.52579,0.0238375,-20,-0.538652,-0.392373,-0.0390795,-2.54932,0.0445902,-0.000151288,0.0147654,-3.71175e-05,0.494178,0.00127828,0.0761263,0.0453037,0.000458184,0.0274549,1.93324,0.000434459,0.005,1.69914,-2.13518e-05,-0.0202094,-0.473307,44.8033,-0.158412,0.270488,17.7695,0.601669,0.901335,0.405179,-1.98645,-0.0862881,0.443188,-1.96582,0.0970148,0.161936,-0.00402832,0.422993,-0.0926514,23.4506,23.3371,23.1527,23.2662,23.1811,23.252,23.1101,
113,6.27294,1.37324,3.15341,4.11981,6.27447,1.97474,1.55585,7.59006e-05,-0.0740067,-0.000126507,0.100644,0.00108694,-0.0159358,0,0.470553,-14.3026,-0.4878,-4.53253,1.18911,-54.5578,1.52576,0.0238225,-20,-0.538658,-0.390222,-0.0390755,-2.54961,0.0445886,-0.000151288,0.0147654,-3.71175e-05,0.494178,0.00127828,0.0761263,0.0444201,0.00045568,0.0262194,1.93324,0.000434459,0.005,1.69914,-2.13518e-05,-0.0202094,-0.473307,44.8033,-0.158412,0.251834,17.9888,0.62975,0.860068,0.415858,-2.11216,-0.088597,0.419023,-1.99806,0.0966797,0.250275,-0.00402832,0.447162,-0.0889885,23.4364,23.3513,23.1385,23.252,23.1669,23.252,23.1101,
114,6.27294,1.37324,3.15341,4.11981,6.27447,1.97474,1.55585,7.59006e-05,-0.0740067,-0.000126507,0.100644,0.00108694,-0.0159358,0,0.471325,-14.374,-0.488491,-4.58444,1.19412,-54.8229,1.53105,0.024027,-20,-0.539662,-0.399183,-0.0390742,-2.57546,0.0448277,-0.000152828,0.0149216,-3.80268e-05,0.494178,0.00127828,0.0761263,0.0444201,0.00045568,0.0262194,1.93236,0.000427675,0.005,1.69915,-2.5205e-05,-0.0190974,-0.475642,45.0488,-0.159034,0.251834,17.9888,0.62975,0.860068,0.415858,-2.11216,-0.088597,0.419023,-1.99806,0.0966797,0.250275,-0.00402832,0.447162,-0.0889885,23.4364,23.3513,23.1385,23.252,23.1669,23.252,23.1101,
115,6.27294,1.37317,3.15341,4.11991,6.27447,1.97472,1.55585,7.59006e-05,-0.0688749,-0.000126651,0.0977753,0.00109158,-0.0168811,0,0.471375,-14.3729,-0.488582,-4.58435,1.19415,-54.8218,1.531,0.0240125,-20,-0.539664,-0.396889,-0.0390704,-2.5758,0.0448218,-0.000152828,0.0149216,-3.80268e-05,0.494178,0.00127828,0.0761263,0.0425294,0.000437772,0.0241297,1.93236,0.000427675,0.005,1.69915,-2.5205e-05,-0.0190974,-0.475642,45.0488,-0.159034,0.190609,18.1772,0.678484,0.843365,0.411508,-2.26143,-0.0947565,0.418945,-2.02247,0.112793,0.249886,-0.00402832,0.443134,-0.080667,23.4364,23.3371,23.1385,23.252,23.1669,23.252,23.1101,
116,6.27294,1.37317,3.15341,4.11991,6.27447,1.97472,1.55585,7.59006e-05,-0.0688749,-0.000126651,0.0977753,0.00109158,-0.0168811,0,0.47186,-14.4148,-0.490394,-4.6115,1.19301,-54.9655,1.53544,0.0241411,-20,-0.540357,-0.401263,-0.039095,-2.58907,0.0451174,-0.000154711,0.0150687,-3.98664e-05,0.494178,0.00127828,0.0761263,0.0425294,0.000437772,0.0241297,1.93153,0.000419187,0.005,1.7001,-1.67273e-05,-0.0172168,-0.47852,45.1777,-0.162714,0.190609,18.1772,0.678484,0.843365,0.411508,-2.26143,-0.0947565,0.418945,-2.02247,0.112793,0.249886,-0.00402832,0.443134,-0.080667,23.4364,23.3371,23.1385,23.252,23.1669,23.252,23.1101,
117,6.27294,1.3731,3.15341,4.12001,6.27447,1.9747,1.55585,3.52807e-05,-0.064949,-0.00012092,0.0937874,0.001035,-0.0183573,0,0.471894,-14.4135,-0.490449,-4.61142,1.19307,-54.9643,1.53541,0.0241227,-20,-0.540356,-0.398997,-0.0390921,-2.58941,0.045114,-0.000154711,0.0150687,-3.98664e-05,0.494178,0.00127828,0.0761263,0.0405652,0.000427761,0.0224797,1.93153,0.000419187,0.005,1.7001,-1.67273e-05,-0.0172168,-0.47852,45.1777,-0.162714,0.187328,18.3086,0.706684,0.836805,0.378384,-2.43688,-0.0991704,0.402913,-2.09497,0.104736,0.298531,0.00569691,0.439161,-0.088623,23.4506,23.2804,23.1385,23.2378,23.1811,23.252,23.0959,
118,6.27294,1.3731,3.15341,4.12001,6.27447,1.9747,1.55585,3.52807e-05,-0.064949,-0.00012092,0.0937874,0.001035,-0.0183573,0,0.4723,-14.4527,-0.49117,-4.63643,1.19457,-55.1009,1.53729,0.0242302,-20,-0.540935,-0.402981,-0.039103,-2.60208,0.0451554,-0.000155956,0.0152183,-4.12192e-05,0.494178,0.00127828,0.0761263,0.0405652,0.000427761,0.0224797,1.93066,0.000409906,0.005,1.70109,-1.60695e-05,-0.0157317,-0.478905,45.3001,-0.163943,0.187328,18.3086,0.706684,0.836805,0.378384,-2.43688,-0.0991704,0.402913,-2.09497,0.104736,0.298531,0.00569691,0.439161,-0.088623,23.4506,23.2804,23.1385,23.2378,23.1811,23.252,23.0959,
119,6.27294,1.3731,3.15341,4.12001,6.27447,1.9747,1.55585,3.52807e-05,-0.064949,-0.00012092,0.0937874,0.001035,-0.0183573,0,0.4723,-14.4527,-0.49117,-4.63643,1.19457,-55.1009,1.53729,0.0242302,-20,-0.540935,-0.402981,-0.039103,-2.60208,0.0451554,-0.000155956,0.0152183,-4.12192e-05,0.494178,0.00127828,0.0761263,0.0405652,0.000427761,0.0224797,1.93066,0.000409906,0.005,1.70109,-1.60695e-05,-0.0157317,-0.478905,45.3001,-0.163943,0.187328,18.3086,0.706684,0.836805,0.378384,-2.43688,-0.0991704,0.402913,-2.09497,0.104736,0.298531,0.00569691,0.439161,-0.088623,23.4506,23.2804,23.1385,23.2378,23.1811,23.252,23.0959,
120,6.27294,1.37304,3.15341,4.1201,6.27447,1.97468,1.55585,0,-0.0632028,-0.00012092,0.0931836,0.00100302,-0.0215661,0,0.472326,-14.4511,-0.491224,-4.63644,1.19458,-55.0992,1.53725,0.0242168,-20,-0.540941,-0.401095,-0.0390994,-2.60232,0.0451543,-0.000155956,0.0152183,-4.12192e-05,0.494178,0.00127828,0.0761263,0.0400322,0.000428656,0.0214612,1.93066,0.000409906,0.005,1.70109,-1.60695e-05,-0.0157317,-0.478905,45.3001,-0.163943,0.166957,18.3985,0.725718,0.817961,0.347091,-2.57557,-0.0787402,0.402913,-2.1189,0.104736,0.346529,0.00569691,0.443134,-0.0887145,23.4364,23.3087,23.1101,23.252,23.1811,23.252,23.0959,
121,6.27294,1.37297,3.15341,4.12019,6.27447,1.97466,1.55585,0,-0.0626626,-0.000111508,0.0939939,0.000947298,-0.0251191,0,0.472915,-14.5038,-0.491766,-4.6771,1.19844,-55.2994,1.54208,0.0243536,-20,-0.541714,-0.406406,-0.0390965,-2.6223,0.0454252,-0.000157329,0.0153497,-4.19403e-05,0.494178,0.00127828,0.0761263,0.0401581,0.000415565,0.0208647,1.92987,0.000404096,0.005,1.70086,-2.21038e-05,-0.0148151,-0.48157,45.4882,-0.164419,0.143947,18.5467,0.758867,0.852632,0.348847,-2.68692,-0.076295,0.411204,-2.12701,0.11308,0.338762,0.0180152,0.45119,-0.0805664,23.4364,23.2946,23.1385,23.2378,23.1952,23.2662,23.0959,
122,6.27294,1.37297,3.15341,4.12019,6.27447,1.97466,1.55585,0,-0.0626626,-0.000111508,0.0939939,0.000947298,-0.0251191,0,0.473667,-14.5747,-0.491729,-4.73151,1.20572,-55.5678,1.54658,0.0245525,-20,-0.542656,-0.416068,-0.0390762,-2.64899,0.0455689,-0.000158181,0.0154796,-4.2542e-05,0.494178,0.00127828,0.0761263,0.0401581,0.000415565,0.0208647,1.92908,0.000401323,0.005,1.70003,-1.28175e-05,-0.0142782,-0.482984,45.7403,-0.163139,0.143947,18.5467,0.758867,0.852632,0.348847,-2.68692,-0.076295,0.411204,-2.12701,0.11308,0.338762,0.0180152,0.45119,-0.0805664,23.4364,23.2946,23.1385,23.2378,23.1952,23.2662,23.0959,
123,6.27294,1.37291,3.15341,4.12028,6.27447,1.97463,1.55585,0,-0.0621224,-0.000111386,0.0937238,0.000895133,-0.0259294,0,0.473691,-14.5732,-0.491789,-4.73183,1.20571,-55.566,1.54647,0.0245393,-20,-0.542666,-0.414381,-0.0390738,-2.64917,0.0455632,-0.000158181,0.0154796,-4.2542e-05,0.494178,0.00127828,0.0761263,0.0399687,0.000407481,0.0205747,1.92908,0.000401323,0.005,1.70003,-1.28175e-05,-0.0142782,-0.482984,45.7403,-0.163139,0.0751525,18.687,0.747666,0.900826,0.361715,-2.77194,-0.081536,0.402913,-2.09474,0.129158,0.274044,0.0180152,0.467303,-0.0887145,23.4364,23.3513,23.1385,23.252,23.1811,23.252,23.1243,
124,6.27294,1.37285,3.15341,4.12038,6.27447,1.9746,1.55585,0,-0.057873,-9.99728e-05,0.0919454,0.00089518,-0.0289004,0,0.474682,-14.6545,-0.493514,-4.7938,1.20959,-55.8819,1.55386,0.0247775,-20,-0.543891,-0.423144,-0.0390739,-2.68093,0.0459656,-0.000159962,0.0156074,-4.42076e-05,0.494178,0.00127828,0.0761263,0.0385792,0.000386861,0.0186027,1.92829,0.000393558,0.005,1.69949,-1.25304e-05,-0.0140173,-0.486955,46.0367,-0.165737,0.0791453,18.7098,0.736201,0.929807,0.3639,-2.84787,-0.0884844,0.386803,-2.07861,0.0970148,0.265991,0.0161133,0.459246,-0.0845947,23.4506,23.3087,23.1243,23.252,23.1952,23.252,23.0959,
125,6.27294,1.37285,3.15341,4.12038,6.27447,1.9746,1.55585,0,-0.057873,-9.99728e-05,0.0919454,0.00089518,-0.0289004,0,0.474995,-14.6829,-0.494668,-4.81264,1.20899,-55.9745,1.55637,0.0248604,-20,-0.544357,-0.426221,-0.0390891,-2.68936,0.0461163,-0.000161266,0.0157381,-4.57926e-05,0.494178,0.00127828,0.0761263,0.0385792,0.000386861,0.0186027,1.92747,0.00038863,0.005,1.7,1.59239e-06,-0.0122424,-0.488418,46.1198,-0.168008,0.0791453,18.7098,0.736201,0.929807,0.3639,-2.84787,-0.0884844,0.386803,-2.07861,0.0970148,0.265991,0.0161133,0.459246,-0.0845947,23.4506,23.3087,23.1243,23.252,23.1952,23.252,23.0959,
126,6.27294,1.3728,3.15341,4.12047,6.27447,1.97457,1.55585,0,-0.0550999,-9.99728e-05,0.0926434,0.000847845,-0.0305938,0,0.475022,-14.6816,-0.494729,-4.81276,1.20899,-55.973,1.55633,0.0248477,-20,-0.544366,-0.424451,-0.039086,-2.68954,0.0461155,-0.000161266,0.0157381,-4.57926e-05,0.494178,0.00127828,0.0761263,0.0382099,0.000375226,0.0173159,1.92747,0.00038863,0.005,1.7,1.59239e-06,-0.0122424,-0.488418,46.1198,-0.168008,0.047455,18.7917,0.782931,0.939767,0.336572,-2.88276,-0.0925728,0.378748,-2.14308,0.129909,0.298096,0.0201416,0.47541,-0.0887145,23.4506,23.3229,23.1527,23.2378,23.1811,23.2662,23.1101,
127,6.27294,1.37274,3.15341,4.12057,6.27447,1.97454,1.55585,0,-0.0540195,-9.85696e-05,0.0953444,0.000794855,-0.0337622,0,0.475628,-14.7361,-0.495026,-4.85517,1.21377,-56.1776,1.56082,0.0249915,-20,-0.545151,-0.430183,-0.039076,-2.7099,0.0463395,-0.000162551,0.0158513,-4.63658e-05,0.494178,0.00127828,0.0761263,0.0387713,0.000368144,0.016517,1.92672,0.000383488,0.005,1.69966,7.4354e-06,-0.0110843,-0.490658,46.3124,-0.167732,0.0186216,18.9227,0.793977,0.990943,0.351545,-2.88693,-0.0880833,0.386719,-2.15114,0.128906,0.27499,0.0161133,0.467303,-0.0967636,23.4648,23.3229,23.1385,23.2662,23.1811,23.2662,23.1101,
128,6.27294,1.37274,3.15341,4.12057,6.27447,1.97454,1.55585,0,-0.0540195,-9.85696e-05,0.0953444,0.000794855,-0.0337622,0,0.47646,-14.8096,-0.495937,-4.91276,1.2187,-56.4548,1.56766,0.0252117,-20,-0.546195,-0.440515,-0.0390697,-2.73753,0.0467197,-0.000164056,0.0159653,-4.74463e-05,0.494178,0.00127828,0.0761263,0.0387713,0.000368144,0.016517,1.92596,0.000377263,0.005,1.69847,8.20705e-06,-0.0103653,-0.494388,46.5737,-0.168696,0.0186216,18.9227,0.793977,0.990943,0.351545,-2.88693,-0.0880833,0.386719,-2.15114,0.128906,0.27499,0.0161133,0.467303,-0.0967636,23.4648,23.3229,23.1385,23.2662,23.1811,23.2662,23.1101,
129,6.27294,1.37269,3.15341,4.12066,6.27447,1.9745,1.55585,0,-0.0534793,-9.4676e-05,0.094264,0.000741864,-0.0345374,0,0.476469,-14.8082,-0.495978,-4.913,1.21869,-56.4532,1.56754,0.0251958,-20,-0.546204,-0.438872,-0.039068,-2.73771,0.0467145,-0.000164056,0.0159653,-4.74463e-05,0.494178,0.00127828,0.0761263,0.0383482,0.000357261,0.0162418,1.92596,0.000377263,0.005,1.69847,8.20705e-06,-0.0103653,-0.494388,46.5737,-0.168696,-0.0250889,19.0318,0.783454,1.02294,0.357662,-2.90325,-0.0758768,0.386719,-2.13507,0.136963,0.201577,0.0205405,0.487493,-0.104814,23.4364,23.3229,23.1385,23.252,23.1952,23.252,23.0959,
130,6.27294,1.37263,3.15341,4.12076,6.27447,1.97446,1.55585,-2.40455e-05,-0.0548666,-9.4676e-05,0.0925336,0.000715369,-0.0376153,0,0.477234,-14.8706,-0.49725,-4.96084,1.22183,-56.6968,1.57283,0.0253809,-20,-0.547156,-0.445479,-0.0390669,-2.76219,0.0469874,-0.000165494,0.0160767,-4.89403e-05,0.494178,0.00127828,0.0761263,0.0381377,0.000358696,0.0164997,1.9252,0.000371593,0.005,1.69817,1.2899e-05,-0.0101176,-0.49712,46.8027,-0.17052,-0.017787,19.086,0.771023,1.06756,0.349958,-2.88964,-0.0590202,0.370605,-2.1028,0.129909,0.210091,0.0324774,0.459229,-0.0927389,23.4364,23.3229,23.1527,23.252,23.1811,23.252,23.1101,
131,6.27294,1.37263,3.15341,4.12076,6.27447,1.97446,1.55585,-2.40455e-05,-0.0548666,-9.4676e-05,0.0925336,0.000715369,-0.0376153,0,0.477971,-14.9286,-0.499134,-5.00492,1.22267,-56.9229,1.57986,0.025576,-20,-0.548061,-0.453267,-0.0390792,-2.78482,0.0474575,-0.000167297,0.0161933,-5.09933e-05,0.494178,0.00127828,0.0761263,0.0381377,0.000358696,0.0164997,1.92439,0.000359906,0.005,1.69763,1.08897e-06,-0.0103497,-0.501707,47.015,-0.174074,-0.017787,19.086,0.771023,1.06756,0.349958,-2.88964,-0.0590202,0.370605,-2.1028,0.129909,0.210091,0.0324774,0.459229,-0.0927389,23.4364,23.3229,23.1527,23.252,23.1811,23.252,23.1101,
132,6.27294,1.37258,3.15341,4.12085,6.27448,1.97442,1.55585,-2.28706e-05,-0.0545597,-9.33656e-05,0.091563,0.000715369,-0.0386239,0,0.477989,-14.9272,-0.499192,-5.00508,1.22262,-56.9214,1.57973,0.0255634,-20,-0.548071,-0.451642,-0.0390767,-2.78499,0.0474524,-0.000167297,0.0161933,-5.09933e-05,0.494178,0.00127828,0.0761263,0.0377948,0.000353591,0.0162907,1.92439,0.000359906,0.005,1.69763,1.08897e-06,-0.0103497,-0.501707,47.015,-0.174074,-0.0142072,19.184,0.787614,1.07575,0.359382,-2.87198,-0.0703584,0.354584,-2.03034,0.128906,0.233781,0.0245033,0.475359,-0.0846906,23.4648,23.3371,23.1385,23.2378,23.1811,23.252,23.1101,
133,6.27294,1.37253,3.15341,4.12094,6.27448,1.97438,1.55585,-2.29454e-05,-0.0521288,-8.5988e-05,0.0929135,0.000732401,-0.0386239,0,0.47873,-14.9867,-0.50096,-5.05084,1.22408,-57.1526,1.58634,0.0257415,-20,-0.549016,-0.457956,-0.0390836,-2.80823,0.0478774,-0.000168985,0.0162993,-5.24491e-05,0.494178,0.00127828,0.0761263,0.0376836,0.000350973,0.0153093,1.92364,0.000352929,0.005,1.69726,-5.95949e-07,-0.0101616,-0.505901,47.2325,-0.177176,-0.00285566,19.3062,0.80074,1.11441,0.36417,-2.83129,-0.0715075,0.354584,-2.02228,0.145243,0.217678,0.0290486,0.459229,-0.0927389,23.4364,23.3371,23.1385,23.2662,23.1952,23.252,23.1101,
134,6.27294,1.37253,3.15341,4.12094,6.27448,1.97438,1.55585,-2.29454e-05,-0.0521288,-8.5988e-05,0.0929135,0.000732401,-0.0386239,0,0.479614,-15.0583,-0.503408,-5.10493,1.22461,-57.421,1.59194,0.0259757,-20,-0.550147,-0.467476,-0.0391024,-2.83471,0.0481543,-0.000170137,0.0164042,-5.38198e-05,0.494178,0.00127828,0.0761263,0.0376836,0.000350973,0.0153093,1.9229,0.000348988,0.005,1.6967,-1.78672e-06,-0.00927836,-0.508558,47.4834,-0.181781,-0.00285566,19.3062,0.80074,1.11441,0.36417,-2.83129,-0.0715075,0.354584,-2.02228,0.145243,0.217678,0.0290486,0.459229,-0.0927389,23.4364,23.3371,23.1385,23.2662,23.1952,23.252,23.1101,
135,6.27294,1.37248,3.15341,4.12103,6.27448,1.97435,1.55585,-2.19416e-05,-0.0488876,-7.84282e-05,0.0920099,0.000723816,-0.0383538,0,0.479641,-15.0573,-0.503476,-5.10512,1.2246,-57.4198,1.59187,0.0259634,-20,-0.550156,-0.465768,-0.0390992,-2.83489,0.0481515,-0.000170137,0.0164042,-5.38198e-05,0.494178,0.00127828,0.0761263,0.036753,0.000339313,0.0140664,1.9229,0.000348988,0.005,1.6967,-1.78672e-06,-0.00927836,-0.508558,47.4834,-0.181781,-0.00731647,19.4167,0.78405,1.2,0.370441,-2.81648,-0.0956316,0.346436,-2.06256,0.14502,0.177429,0.0371393,0.439253,-0.088623,23.4506,23.3513,23.1385,23.252,23.1811,23.2378,23.1101,
136,6.27294,1.37248,3.15341,4.12103,6.27448,1.97435,1.55585,-2.19416e-05,-0.0488876,-7.84282e-05,0.0920099,0.000723816,-0.0383538,0,0.480176,-15.1041,-0.504683,-5.13853,1.22583,-57.5898,1.59607,0.0261049,-20,-0.55087,-0.471465,-0.039109,-2.85129,0.0483893,-0.000171564,0.0165053,-5.47937e-05,0.494178,0.00127828,0.0761263,0.036753,0.000339313,0.0140664,1.92218,0.000343256,0.005,1.69688,3.54865e-06,-0.00815973,-0.510875,47.64,-0.183909,-0.00731647,19.4167,0.78405,1.2,0.370441,-2.81648,-0.0956316,0.346436,-2.06256,0.14502,0.177429,0.0371393,0.439253,-0.088623,23.4506,23.3513,23.1385,23.252,23.1811,23.2378,23.1101,
137,6.27294,1.37248,3.15341,4.12103,6.27448,1.97435,1.55585,-2.19416e-05,-0.0488876,-7.84282e-05,0.0920099,0.000723816,-0.0383538,0,0.480176,-15.1041,-0.504683,-5.13853,1.22583,-57.5898,1.59607,0.0261049,-20,-0.55087,-0.471465,-0.039109,-2.85129,0.0483893,-0.000171564,0.0165053,-5.47937e-05,0.494178,0.00127828,0.0761263,0.036753,0.000339313,0.0140664,1.92218,0.000343256,0.005,1.69688,3.54865e-06,-0.00815973,-0.510875,47.64,-0.183909,-0.00731647,19.4167,0.78405,1.2,0.370441,-2.81648,-0.0956316,0.346436,-2.06256,0.14502,0.177429,0.0371393,0.439253,-0.088623,23.4506,23.3513,23.1385,23.252,23.1811,23.2378,23.1101,
138,6.27294,1.37243,3.15341,4.12113,6.27448,1.97431,1.55585,-2.19416e-05,-0.0458906,-7.84282e-05,0.0902766,0.000723849,-0.0396214,0,0.480201,-15.1029,-0.504748,-5.1386,1.22577,-57.5885,1.59589,0.0260923,-20,-0.550879,-0.469652,-0.0391069,-2.8515,0.0483795,-0.000171564,0.0165053,-5.47937e-05,0.494178,0.00127828,0.0761263,0.0356346,0.000327345,0.0127697,1.92218,0.000343256,0.005,1.69688,3.54865e-06,-0.00815973,-0.510875,47.64,-0.183909,0.0179613,19.4878,0.782546,1.26278,0.372645,-2.78877,-0.0967175,0.330322,-2.1028,0.14502,0.193359,0.0284845,0.419023,-0.0887145,23.4506,23.3229,23.1385,23.2662,23.1811,23.252,23.1101,
139,6.27294,1.37243,3.15341,4.12113,6.27448,1.97431,1.55585,-2.19416e-05,-0.0458906,-7.84282e-05,0.0902766,0.000723849,-0.0396214,0,0.48063,-15.1334,-0.507249,-5.15961,1.22187,-57.6952,1.60134,0.0262058,-20,-0.551467,-0.473172,-0.0391396,-2.86157,0.0488242,-0.000173661,0.0166079,-5.72374e-05,0.494178,0.00127828,0.0761263,0.0356346,0.000327345,0.0127697,1.92142,0.0003343,0.005,1.69721,6.25963e-06,-0.00699275,-0.515203,47.7371,-0.189343,0.0179613,19.4878,0.782546,1.26278,0.372645,-2.78877,-0.0967175,0.330322,-2.1028,0.14502,0.193359,0.0284845,0.419023,-0.0887145,23.4506,23.3229,23.1385,23.2662,23.1811,23.252,23.1101,
140,6.27294,1.37239,3.15341,4.12122,6.27448,1.97427,1.55585,-2.10843e-05,-0.0448362,-7.73586e-05,0.0918331,0.000736634,-0.0393943,0,0.480642,-15.1321,-0.507302,-5.15998,1.22182,-57.6935,1.6012,0.0261946,-20,-0.551482,-0.471697,-0.0391369,-2.86168,0.0488188,-0.000173661,0.0166079,-5.72374e-05,0.494178,0.00127828,0.0761263,0.0358672,0.000329425,0.0123567,1.92142,0.0003343,0.005,1.69721,6.25963e-06,-0.00699275,-0.515203,47.7371,-0.189343,0.0193845,19.5537,0.770838,1.29728,0.371673,-2.77858,-0.0890638,0.338475,-2.1275,0.153288,0.209628,0.0404841,0.418945,-0.0926514,23.4506,23.3371,23.1527,23.252,23.1952,23.252,23.1101,
141,6.27294,1.37234,3.15341,4.12131,6.27448,1.97422,1.55585,-4.21687e-05,-0.044296,-6.26236e-05,0.0939939,0.000750684,-0.0424053,0,0.481604,-15.2084,-0.509906,-5.21991,1.22265,-57.9899,1.60869,0.0264357,-20,-0.552719,-0.480746,-0.0391534,-2.8915,0.0492704,-0.000175251,0.0167035,-5.86829e-05,0.494178,0.00127828,0.0761263,0.0363848,0.000333797,0.0117968,1.92071,0.000327749,0.005,1.69636,-1.50823e-06,-0.00662102,-0.519653,48.0171,-0.194214,0.0346024,19.5647,0.764033,1.34191,0.378068,-2.78431,-0.0679362,0.330322,-2.09474,0.1372,0.169189,0.0485074,0.390747,-0.0927389,23.4648,23.3229,23.1385,23.2804,23.1952,23.2662,23.1243,
142,6.27294,1.37234,3.15341,4.12131,6.27448,1.97422,1.55585,-4.21687e-05,-0.044296,-6.26236e-05,0.0939939,0.000750684,-0.0424053,0,0.482389,-15.2679,-0.512586,-5.26707,1.22142,-58.2154,1.61411,0.0266435,-20,-0.553703,-0.489251,-0.039177,-2.91406,0.0495838,-0.000176334,0.0167979,-6.05432e-05,0.494178,0.00127828,0.0761263,0.0363848,0.000333797,0.0117968,1.91999,0.000319968,0.005,1.69525,-1.24468e-05,-0.0061171,-0.522662,48.2302,-0.199579,0.0346024,19.5647,0.764033,1.34191,0.378068,-2.78431,-0.0679362,0.330322,-2.09474,0.1372,0.169189,0.0485074,0.390747,-0.0927389,23.4648,23.3229,23.1385,23.2804,23.1952,23.2662,23.1243,
143,6.27294,1.3723,3.15341,4.1214,6.27448,1.97418,1.55585,-4.04674e-05,-0.0447908,-5.15717e-05,0.0945341,0.000742419,-0.0432156,0,0.482398,-15.2664,-0.512632,-5.26737,1.22137,-58.2136,1.614,0.0266318,-20,-0.553717,-0.487771,-0.0391745,-2.91418,0.0495811,-0.000176334,0.0167979,-6.05432e-05,0.494178,0.00127828,0.0761263,0.0366447,0.000330162,0.0119055,1.91999,0.000319968,0.005,1.69525,-1.24468e-05,-0.0061171,-0.522662,48.2302,-0.199579,0.0413499,19.5758,0.730254,1.3514,0.381553,-2.80236,-0.0521526,0.33042,-2.07057,0.153288,0.137907,0.0444942,0.398885,-0.0887145,23.4506,23.3513,23.1385,23.2378,23.1811,23.252,23.1101,
144,6.27294,1.3723,3.15341,4.1214,6.27448,1.97418,1.55585,-4.04674e-05,-0.0447908,-5.15717e-05,0.0945341,0.000742419,-0.0432156,0,0.483254,-15.3382,-0.513985,-5.32275,1.22512,-58.492,1.62074,0.0268584,-20,-0.554769,-0.49761,-0.0391729,-2.94206,0.0499548,-0.000177738,0.0168924,-6.14735e-05,0.494178,0.00127828,0.0761263,0.0366447,0.000330162,0.0119055,1.91927,0.000314457,0.005,1.69436,-1.41346e-05,-0.00621495,-0.526311,48.4922,-0.201573,0.0413499,19.5758,0.730254,1.3514,0.381553,-2.80236,-0.0521526,0.33042,-2.07057,0.153288,0.137907,0.0444942,0.398885,-0.0887145,23.4506,23.3513,23.1385,23.2378,23.1811,23.252,23.1101,
145,6.27294,1.3723,3.15341,4.1214,6.27448,1.97418,1.55585,-4.04674e-05,-0.0447908,-5.15717e-05,0.0945341,0.000742419,-0.0432156,0,0.483254,-15.3382,-0.513985,-5.32275,1.22512,-58.492,1.62074,0.0268584,-20,-0.554769,-0.49761,-0.0391729,-2.94206,0.0499548,-0.000177738,0.0168924,-6.14735e-05,0.494178,0.00127828,0.0761263,0.0366447,0.000330162,0.0119055,1.91927,0.000314457,0.005,1.69436,-1.41346e-05,-0.00621495,-0.526311,48.4922,-0.201573,0.0413499,19.5758,0.730254,1.3514,0.381553,-2.80236,-0.0521526,0.33042,-2.07057,0.153288,0.137907,0.0444942,0.398885,-0.0887145,23.4506,23.3513,23.1385,23.2378,23.1811,23.252,23.1101,
146,6.27294,1.37226,3.15341,4.12149,6.27448,1.97414,1.55585,-4.04674e-05,-0.0448817,-5.15717e-05,0.0918331,0.00076363,-0.0431322,0,0.483269,-15.3371,-0.51404,-5.32293,1.22507,-58.4907,1.6206,0.0268465,-20,-0.55478,-0.496076,-0.0391706,-2.94222,0.04995,-0.000177738,0.0168924,-6.14735e-05,0.494178,0.00127828,0.0761263,0.0358825,0.000326849,0.0119943,1.91927,0.000314457,0.005,1.69436,-1.41346e-05,-0.00621495,-0.526311,48.4922,-0.201573,0.0688732,19.5315,0.711212,1.35479,0.371919,-2.81892,-0.0467043,0.322366,-2.03839,0.145243,0.105046,0.0443115,0.390768,-0.0889885,23.4506,23.3371,23.1527,23.2804,23.1952,23.252,23.1385,
147,6.27294,1.37226,3.15341,4.12149,6.27448,1.97414,1.55585,-4.04674e-05,-0.0448817,-5.15717e-05,0.0918331,0.00076363,-0.0431322,0,0.483853,-15.3827,-0.515758,-5.356,1.22507,-58.6676,1.62644,0.0270011,-20,-0.55551,-0.501761,-0.039184,-2.9597,0.0503517,-0.000179328,0.0169813,-6.28194e-05,0.494178,0.00127828,0.0761263,0.0358825,0.000326849,0.0119943,1.91857,0.000308114,0.005,1.69441,-1.68621e-05,-0.00629491,-0.53023,48.6565,-0.204897,0.0688732,19.5315,0.711212,1.35479,0.371919,-2.81892,-0.0467043,0.322366,-2.03839,0.145243,0.105046,0.0443115,0.390768,-0.0889885,23.4506,23.3371,23.1527,23.2804,23.1952,23.252,23.1385,
148,6.27294,1.37221,3.15341,4.12159,6.27448,1.97409,1.55585,-3.90064e-05,-0.0435927,-5.08778e-05,0.0906928,0.000773317,-0.0434857,0,0.483871,-15.3815,-0.515817,-5.35625,1.22503,-58.6661,1.6263,0.0269888,-20,-0.555522,-0.500103,-0.0391813,-2.95987,0.0503466,-0.000179328,0.0169813,-6.28194e-05,0.494178,0.00127828,0.0761263,0.0352875,0.000321353,0.0114652,1.91857,0.000308114,0.005,1.69441,-1.68621e-05,-0.00629491,-0.53023,48.6565,-0.204897,0.0848837,19.5146,0.689697,1.34035,0.385006,-2.8528,-0.0695306,0.322668,-2.01418,0.161133,0.161133,0.0563965,0.358543,-0.0846906,23.479,23.3371,23.1527,23.2662,23.1952,23.2662,23.1101,
149,6.27294,1.37221,3.15341,4.12159,6.27448,1.97409,1.55585,-3.90064e-05,-0.0435927,-5.08778e-05,0.0906928,0.000773317,-0.0434857,0,0.484531,-15.4345,-0.517699,-5.39537,1.22524,-58.8664,1.63239,0.0271635,-20,-0.556365,-0.506892,-0.0391965,-2.97959,0.0507474,-0.000180989,0.0170813,-6.42754e-05,0.494178,0.00127828,0.0761263,0.0352875,0.000321353,0.0114652,1.91781,0.000301331,0.005,1.69427,-1.80195e-05,-0.00581869,-0.534135,48.843,-0.208498,0.0848837,19.5146,0.689697,1.34035,0.385006,-2.8528,-0.0695306,0.322668,-2.01418,0.161133,0.161133,0.0563965,0.358543,-0.0846906,23.479,23.3371,23.1527,23.2662,23.1952,23.2662,23.1101,
150,6.27294,1.37217,3.15341,4.12168,6.27448,1.97405,1.55585,-3.90064e-05,-0.0394342,-4.36101e-05,0.0904827,0.000784465,-0.0453304,0,0.484554,-15.4334,-0.517758,-5.39537,1.2252,-58.8653,1.63227,0.0271523,-20,-0.556374,-0.505223,-0.0391939,-2.97976,0.0507425,-0.000180989,0.0170813,-6.42754e-05,0.494178,0.00127828,0.0761263,0.0343711,0.000308301,0.00962123,1.91781,0.000301331,0.005,1.69427,-1.80195e-05,-0.00581869,-0.534135,48.843,-0.208498,0.101804,19.4923,0.687341,1.32206,0.390654,-2.87073,-0.0803536,0.322366,-2.01422,0.161936,0.153288,0.0483398,0.330322,-0.0846906,23.4648,23.3371,23.1527,23.2662,23.2094,23.2804,23.1101,
151,6.27294,1.37213,3.15341,4.12177,6.27449,1.974,1.55585,-3.90064e-05,-0.0361931,-3.63041e-05,0.0888621,0.000813757,-0.0453764,0,0.484766,-15.448,-0.519173,-5.40595,1.22269,-58.9084,1.63531,0.0271927,-20,-0.556692,-0.505402,-0.0392132,-2.9837,0.0510128,-0.000182517,0.0171648,-6.56201e-05,0.494178,0.00127828,0.0761263,0.033234,0.000298782,0.00835263,1.91714,0.000295227,0.005,1.69449,-1.17663e-05,-0.00415911,-0.536848,48.882,-0.211501,0.101804,19.4964,0.666925,1.32209,0.407238,-2.90627,-0.100688,0.322366,-2.06252,0.161334,0.177429,0.0569691,0.330347,-0.088623,23.4648,23.3513,23.1385,23.2662,23.1952,23.2662,23.1101,
152,6.27294,1.37213,3.15341,4.12177,6.27449,1.974,1.55585,-3.90064e-05,-0.0361931,-3.63041e-05,0.0888621,0.000813757,-0.0453764,0,0.485089,-15.4697,-0.521469,-5.42021,1.21843,-58.9814,1.63935,0.0272782,-20,-0.557148,-0.507718,-0.0392456,-2.99041,0.051353,-0.000184206,0.0172436,-6.74388e-05,0.494178,0.00127828,0.0761263,0.033234,0.000298782,0.00835263,1.91648,0.000288283,0.005,1.69492,-9.44922e-06,-0.00301737,-0.540145,48.9475,-0.216602,0.101804,19.4964,0.666925,1.32209,0.407238,-2.90627,-0.100688,0.322366,-2.06252,0.161334,0.177429,0.0569691,0.330347,-0.088623,23.4648,23.3513,23.1385,23.2662,23.1952,23.2662,23.1101,
153,6.27294,1.3721,3.15341,4.12185,6.27449,1.97396,1.55585,-3.76458e-05,-0.0340323,-3.63413e-05,0.0861611,0.000822782,-0.0464568,0,0.485107,-15.4688,-0.521519,-5.42026,1.21839,-58.9804,1.63923,0.0272678,-20,-0.557156,-0.506234,-0.0392437,-2.99057,0.0513482,-0.000184206,0.0172436,-6.74388e-05,0.494178,0.00127828,0.0761263,0.0320085,0.000287156,0.00741973,1.91648,0.000288283,0.005,1.69492,-9.44922e-06,-0.00301737,-0.540145,48.9475,-0.216602,0.153445,19.4933,0.662717,1.3084,0.401313,-2.92922,-0.107977,0.314209,-2.12701,0.14502,0.201577,0.0525229,0.298205,-0.0809682,23.4506,23.3229,23.1527,23.2662,23.1811,23.2662,23.1101,
154,6.27294,1.3721,3.15341,4.12185,6.27449,1.97396,1.55585,-3.76458e-05,-0.0340323,-3.63413e-05,0.0861611,0.000822782,-0.0464568,0,0.485217,-15.4767,-0.522513,-5.42413,1.2163,-59.0028,1.64214,0.0272969,-20,-0.557335,-0.506722,-0.0392598,-2.99233,0.0516215,-0.000185644,0.0173164,-6.87204e-05,0.494178,0.00127828,0.0761263,0.0320085,0.000287156,0.00741973,1.91585,0.000282619,0.005,1.69546,-4.08392e-06,-0.00217776,-0.542824,48.9659,-0.218854,0.153445,19.4933,0.662717,1.3084,0.401313,-2.92922,-0.107977,0.314209,-2.12701,0.14502,0.201577,0.0525229,0.298205,-0.0809682,23.4506,23.3229,23.1527,23.2662,23.1811,23.2662,23.1101,
155,6.27294,1.3721,3.15341,4.12185,6.27449,1.97396,1.55585,-3.76458e-05,-0.0340323,-3.63413e-05,0.0861611,0.000822782,-0.0464568,0,0.485217,-15.4767,-0.522513,-5.42413,1.2163,-59.0028,1.64214,0.0272969,-20,-0.557335,-0.506722,-0.0392598,-2.99233,0.0516215,-0.000185644,0.0173164,-6.87204e-05,0.494178,0.00127828,0.0761263,0.0320085,0.000287156,0.00741973,1.91585,0.000282619,0.005,1.69546,-4.08392e-06,-0.00217776,-0.542824,48.9659,-0.218854,0.153445,19.4933,0.662717,1.3084,0.401313,-2.92922,-0.107977,0.314209,-2.12701,0.14502,0.201577,0.0525229,0.298205,-0.0809682,23.4506,23.3229,23.1527,23.2662,23.1811,23.2662,23.1101,
156,6.27294,1.37207,3.15341,4.12194,6.27449,1.97391,1.55585,-5.64708e-05,-0.0320682,-3.58588e-05,0.0830044,0.000864405,-0.0466429,0,0.485234,-15.4759,-0.522564,-5.42422,1.21622,-59.0019,1.64194,0.0272864,-20,-0.557345,-0.50522,-0.0392581,-2.99248,0.051612,-0.000185644,0.0173164,-6.87204e-05,0.494178,0.00127828,0.0761263,0.0306907,0.000287462,0.00666607,1.91585,0.000282619,0.005,1.69546,-4.08392e-06,-0.00217776,-0.542824,48.9659,-0.218854,0.165234,19.4722,0.625417,1.28055,0.422553,-2.96181,-0.111567,0.314622,-2.16725,0.161334,0.249756,0.0645789,0.286011,-0.0967636,23.4364,23.3371,23.1385,23.2662,23.1952,23.2662,23.1243,
157,6.27294,1.37204,3.15341,4.12202,6.27449,1.97386,1.55585,-5.45692e-05,-0.0313313,-3.22729e-05,0.084185,0.000854152,-0.0472671,0,0.485507,-15.4873,-0.525448,-5.43145,1.20954,-59.0428,1.64636,0.0273473,-20,-0.557732,-0.504947,-0.0392993,-2.99631,0.0520418,-0.000187526,0.0173889,-7.09623e-05,0.494178,0.00127828,0.0761263,0.0308817,0.000284706,0.00629348,1.9152,0.000274847,0.005,1.69606,-1.13535e-05,-0.00149946,-0.54701,49.0025,-0.225447,0.196268,19.4279,0.603446,1.27772,0.435499,-2.96586,-0.0857975,0.298205,-2.17531,0.153076,0.306152,0.0726216,0.261872,-0.0927389,23.4506,23.3371,23.1527,23.2804,23.1811,23.2662,23.1101,
158,6.27294,1.37204,3.15341,4.12202,6.27449,1.97386,1.55585,-5.45692e-05,-0.0313313,-3.22729e-05,0.084185,0.000854152,-0.0472671,0,0.486094,-15.5364,-0.526554,-5.46978,1.21154,-59.2297,1.65146,0.0275026,-20,-0.558467,-0.511786,-0.039302,-3.01497,0.0523518,-0.000188712,0.0174562,-7.1718e-05,0.494178,0.00127828,0.0761263,0.0308817,0.000284706,0.00629348,1.91459,0.000270446,0.005,1.69534,-1.28342e-05,-0.00116413,-0.550043,49.1786,-0.227259,0.196268,19.4279,0.603446,1.27772,0.435499,-2.96586,-0.0857975,0.298205,-2.17531,0.153076,0.306152,0.0726216,0.261872,-0.0927389,23.4506,23.3371,23.1527,23.2804,23.1811,23.2662,23.1101,
