LWingKi/MAS_RnD/log/us1/contactless/52/grasp_log_12_08_2023_16_08_40.csv
Index,joint_angle_0,joint_angle_1,joint_angle_2,joint_angle_3,joint_angle_4,joint_angle_5,joint_angle_6,joint_velocity_0,joint_velocity_1,joint_velocity_2,joint_velocity_3,joint_velocity_4,joint_velocity_5,joint_velocity_6,joint_accel_0,joint_accel_1,joint_accel_2,joint_accel_3,joint_accel_4,joint_accel_5,joint_accel_6,constraint_tau_0,constraint_tau_1,constraint_tau_2,constraint_tau_3,constraint_tau_4,constraint_tau_5,constraint_tau_6,current_pos_x,current_pos_y,current_pos_z,target_pos_x,target_pos_y,target_pos_z,current_vel_x,current_vel_y,current_vel_z,target_vel_x,target_vel_y,target_vel_z,control_signal_linear_x,control_signal_linear_y,control_signal_linear_z,control_signal_angular_x,control_signal_angular_y,control_signal_angular_z,joint_torque_0,joint_torque_1,joint_torque_2,joint_torque_3,joint_torque_4,joint_torque_5,joint_torque_6,actuar_current_0,actuar_current_1,actuar_current_2,actuar_current_3,actuar_current_4,actuar_current_5,actuar_current_6,actuar_voltage_0,actuar_voltage_1,actuar_voltage_2,actuar_voltage_3,actuar_voltage_4,actuar_voltage_5,actuar_voltage_6
0,6.28311,0.261913,3.14181,4.01419,0.000900854,0.9624,1.57038,0,0,0,0,0,-1.05821e-05,0,2.05358,0.453023,-2.46638,-0.15196,-0.399198,0.604455,0.867885,-0.035068,-9.00272,-0.20609,4.34192,0.000827548,2.16714,-0.0038449,0,0,-0,0.395143,0.00138105,0.383922,2.56871e-09,-6.35325e-10,-1.12095e-06,0,0,-0.005,0,0,-0.15,0,0,-0,-0.481342,13.1287,1.31736,-7.05423,0.404166,-2.33495,-0.184352,0.129158,-0.991,0.041081,0.878211,-0.100708,0.45119,-0.0205405,23.479,23.3229,23.1669,23.3087,23.2094,23.3087,23.1385,
1,6.28309,0.279616,3.14304,4.01067,0.000968397,0.962168,1.57038,-0.000121784,0.257682,0.0210676,-0.0893117,0.00253719,-0.0166448,0,1.93137,0.472697,-2.33283,-0.173205,-0.396061,0.646019,0.861592,-0.0364219,-9.22285,-0.210872,4.15417,-8.51796e-05,2.16157,-0.00376749,0,0,-0,0.395143,0.00138105,0.383922,0.0130556,-0.00692263,-0.129154,0,0,-0.005,0,0,-0.15,0,0,-0,-0.642911,11.9286,1.15382,-6.2707,0.423764,-2.42161,-0.163318,-0.153288,-0.652787,0.14502,0.265869,-0.0245033,0.161133,-0.0245033,23.5074,23.3797,23.2378,23.3513,23.2662,23.3371,23.1952,
2,6.28309,0.27987,3.14306,4.01058,0.000969349,0.962148,1.57038,-0.000126985,0.257943,0.0207975,-0.0918331,0.00221266,-0.0189854,0,1.92968,0.473003,-2.33114,-0.174421,-0.396118,0.647546,0.861651,-0.0364471,-9.22626,-0.210957,4.15103,-8.75226e-05,2.16152,-0.0037672,0,0,-0,0.395143,0.00138105,0.383922,0.0123774,-0.00685528,-0.130207,0,0,-0.005,0,0,-0.15,0,0,-0,-0.618464,11.8403,1.16258,-6.26911,0.442391,-2.48449,-0.151888,-0.14502,-0.660694,0.153922,0.290151,-0.012085,0.165161,-0.0127387,23.479,23.3797,23.2236,23.3513,23.252,23.3371,23.1952,
3,6.28309,0.280144,3.14308,4.01048,0.0009703,0.962127,1.57038,-0.000126983,0.25779,0.0210676,-0.092032,0.00179963,-0.0213161,0,1.92758,0.4728,-2.32887,-0.175048,-0.39602,0.647974,0.861358,-0.0364707,-9.22963,-0.211069,4.14805,-0.000105948,2.16144,-0.00376649,0,0,-0,0.395143,0.00138105,0.383922,0.0122555,-0.00698319,-0.130445,0,0,-0.005,0,0,-0.15,0,0,-0,-0.584899,11.8285,1.16529,-6.29378,0.459244,-2.50086,-0.158738,-0.161133,-0.563965,0.169955,0.314209,-0.0145243,0.173265,-0.0113938,23.4932,23.3513,23.2094,23.3513,23.2662,23.3371,23.1952,
4,6.28309,0.2804,3.1431,4.01039,0.000971251,0.962105,1.57038,-0.000127079,0.259294,0.0218779,-0.0921032,0.00147511,-0.022148,0,1.92513,0.472849,-2.32595,-0.175421,-0.395641,0.648403,0.860582,-0.036494,-9.23272,-0.211203,4.14506,-0.000141659,2.16133,-0.00376509,0,0,-0,0.395143,0.00138105,0.383922,0.0124129,-0.00728819,-0.131147,0,0,-0.005,0,0,-0.15,0,0,-0,-0.598965,11.7347,1.15818,-6.29621,0.471122,-2.48959,-0.15802,-0.161334,-0.548088,0.153288,0.282442,0,0.181319,-0.0166092,23.4932,23.3655,23.2094,23.3655,23.252,23.3229,23.1811,
5,6.28309,0.280658,3.14312,4.01029,0.000973154,0.962085,1.57038,-0.000132374,0.261724,0.0225479,-0.0937238,0.00126845,-0.0188076,0,1.92284,0.473807,-2.3232,-0.175073,-0.395316,0.649021,0.859863,-0.0365207,-9.23563,-0.211311,4.14214,-0.000173124,2.16125,-0.00376354,0,0,-0,0.395143,0.00138105,0.383922,0.0122986,-0.00753198,-0.132209,0,0,-0.005,0,0,-0.15,0,0,-0,-0.585766,11.7547,1.17738,-6.32959,0.465761,-2.47209,-0.158476,-0.153288,-0.588135,0.1372,0.273926,-0.00805664,0.181453,-0.0245033,23.4932,23.3655,23.2094,23.3513,23.252,23.3371,23.1952,
6,6.28309,0.280916,3.14315,4.0102,0.000976008,0.962068,1.57038,-0.000132274,0.261724,0.0234985,-0.0972351,0.00126859,-0.0172862,0,1.92054,0.474748,-2.32031,-0.175439,-0.394863,0.650339,0.859181,-0.0365468,-9.23879,-0.211439,4.1393,-0.000209599,2.16123,-0.00376195,0,0,-0,0.395143,0.00138105,0.383922,0.0113424,-0.0078557,-0.133029,0,0,-0.005,0,0,-0.15,0,0,-0,-0.587537,11.6453,1.18426,-6.39381,0.43263,-2.4036,-0.180625,-0.153922,-0.636679,0.129909,0.306152,0.0127387,0.141049,-0.0254773,23.5074,23.3513,23.2094,23.3371,23.2378,23.3087,23.1952,
7,6.28309,0.281454,3.1432,4.01,0.000981715,0.962039,1.57038,-0.000132374,0.262805,0.0253892,-0.0984857,0.00153898,-0.0145853,0,1.91599,0.475518,-2.31468,-0.174973,-0.394163,0.650671,0.857933,-0.0366047,-9.24483,-0.211629,4.13378,-0.000286461,2.16108,-0.00375758,0,0,-0,0.395143,0.00138105,0.383922,0.0110989,-0.00847718,-0.133516,0,0,-0.005,0,0,-0.15,0,0,-0,-0.582111,11.5732,1.17049,-6.42312,0.446831,-2.25489,-0.180833,-0.169381,-0.902488,0.0805664,0.523682,0.0127387,0.116891,-0.0281982,23.4932,23.3655,23.2236,23.3513,23.2662,23.3371,23.1811,
8,6.28309,0.28171,3.14322,4.0099,0.000985521,0.962025,1.57038,-0.000132376,0.259571,0.0267396,-0.0983155,0.00174438,-0.0125384,0,1.91391,0.475522,-2.31204,-0.173959,-0.393804,0.649678,0.857342,-0.0366353,-9.24738,-0.211707,4.13214,-0.000330641,2.16107,-0.00375531,0,0,-0,0.395143,0.00138105,0.383922,0.0106672,-0.00892067,-0.131966,0,0,-0.005,0,0,-0.15,0,0,-0,-0.570574,11.6353,1.1567,-6.4294,0.432843,-2.21435,-0.178574,-0.169381,-0.934709,0.0563965,0.515877,0.0180152,0.116821,-0.0205405,23.4932,23.3655,23.2094,23.3513,23.2662,23.3371,23.2094,
9,6.28309,0.281962,3.14325,4.0098,0.000988375,0.962014,1.57038,-0.000137565,0.255782,0.0263307,-0.0983155,0.00181667,-0.0116142,0,1.91294,0.47543,-2.31134,-0.173218,-0.39424,0.648859,0.857977,-0.0366725,-9.24999,-0.211682,4.13051,-0.000324523,2.16107,-0.00375447,0,0,-0,0.395143,0.00138105,0.383922,0.0100907,-0.00877139,-0.130357,0,0,-0.005,0,0,-0.15,0,0,-0,-0.589685,11.5887,1.1567,-6.38155,0.430283,-2.19624,-0.185282,-0.169189,-0.966931,0.041081,0.531982,0.0127387,0.104736,-0.0245033,23.4932,23.3797,23.2236,23.3655,23.2662,23.3371,23.1952,
10,6.28309,0.282212,3.14328,4.0097,0.00099218,0.962001,1.57038,-0.000137565,0.253351,0.0256333,-0.0947905,0.00196293,-0.0124245,0,1.3347,-12.8982,-5.02076,-2.0804,-4.06236,-7.60597,3.59201,-0.0506245,-16.7175,-0.632475,3.65888,0.14893,3.32791,-0.024813,0.000435197,-0.0248267,0.00130036,0.395143,0.00138105,0.383922,0.010629,-0.00852016,-0.128482,-0.0707727,0.0191444,-0.005,-2.4259,0.837473,3.7607,0.0599207,-3.2141,0.177424,-0.603582,11.5789,1.16585,-6.35795,0.412176,-2.21456,-0.172008,-0.177246,-0.982943,0.0490066,0.540035,0.0205405,0.100789,-0.0306788,23.4932,23.3939,23.2094,23.3655,23.2804,23.3513,23.1811,
11,6.28309,0.282478,3.1433,4.00961,0.000995985,0.961988,1.57038,-0.000142856,0.250533,0.0240387,-0.0902126,0.0020817,-0.0124836,0,1.3354,-12.9004,-5.02266,-2.08312,-4.06379,-7.60544,3.59385,-0.0506623,-16.7201,-0.632302,3.65601,0.148952,3.32759,-0.0248103,0.000435197,-0.0248267,0.00130036,0.395143,0.00138105,0.383922,0.0113829,-0.00796248,-0.126078,-0.0707727,0.0191444,-0.005,-2.4259,0.837473,3.7607,0.0599207,-3.2141,0.177424,-0.581114,11.5621,1.16392,-6.32522,0.397342,-2.23502,-0.166015,-0.161334,-0.942661,0.072956,0.483398,0.0166092,0.109063,-0.0241699,23.4932,23.3939,23.2378,23.3513,23.252,23.3371,23.2094,
12,6.28309,0.282721,3.14332,4.00952,0.00099979,0.961976,1.57038,-0.000142964,0.246579,0.0229583,-0.088772,0.00218591,-0.0124775,0,1.33569,-12.902,-5.02382,-2.08613,-4.06485,-7.60405,3.59526,-0.0506984,-16.7227,-0.632187,3.65328,0.148963,3.32735,-0.0248082,0.000435197,-0.0248267,0.00130036,0.395143,0.00138105,0.383922,0.0111596,-0.00758336,-0.124097,-0.0707727,0.0191444,-0.005,-2.4259,0.837473,3.7607,0.0599207,-3.2141,0.177424,-0.540235,11.5607,1.16982,-6.29882,0.394928,-2.25896,-0.174743,-0.169381,-0.974987,0.0970148,0.386719,0.0166092,0.108839,-0.0205405,23.5074,23.3939,23.2236,23.3513,23.2662,23.3371,23.1952,
13,6.28309,0.282959,3.14335,4.00944,0.0010036,0.961962,1.57038,-0.000148147,0.241197,0.0215661,-0.0876004,0.00234046,-0.0129581,0,1.33623,-12.9037,-5.02537,-2.08912,-4.06605,-7.60274,3.59694,-0.0507368,-16.7253,-0.632049,3.65081,0.148982,3.32715,-0.0248063,0.000435197,-0.0248267,0.00130036,0.395143,0.00138105,0.383922,0.010663,-0.00709118,-0.121674,-0.0707727,0.0191444,-0.005,-2.4259,0.837473,3.7607,0.0599207,-3.2141,0.177424,-0.541259,11.4976,1.17184,-6.27217,0.391716,-2.29041,-0.184238,-0.177246,-0.975153,0.1372,0.378662,0.0201416,0.112865,-0.0284845,23.5074,23.3797,23.2236,23.3513,23.2662,23.3513,23.2094,
14,6.28309,0.283212,3.14337,4.00935,0.0010074,0.961949,1.57038,-0.000148149,0.238006,0.0213377,-0.0856821,0.00275565,-0.0135049,0,1.33615,-12.9054,-5.02579,-2.09242,-4.0668,-7.60119,3.5979,-0.0507671,-16.728,-0.631975,3.64773,0.148969,3.32688,-0.0248025,0.000435197,-0.0248267,0.00130036,0.395143,0.00138105,0.383922,0.0106823,-0.00697696,-0.119923,-0.0707727,0.0191444,-0.005,-2.4259,0.837473,3.7607,0.0599207,-3.2141,0.177424,-0.521803,11.5522,1.16419,-6.30658,0.386296,-2.32091,-0.187091,-0.185303,-0.854156,0.177246,0.394858,0.0284845,0.125138,-0.0284845,23.5074,23.3797,23.2094,23.3797,23.252,23.3371,23.1811,
15,6.28309,0.283442,3.14339,4.00926,0.00101121,0.961935,1.57038,-0.000148149,0.233904,0.0196971,-0.0837302,0.00331184,-0.0140451,0,1.33711,-12.9071,-5.02781,-2.09526,-4.06814,-7.60001,3.59984,-0.0507996,-16.7304,-0.631804,3.64517,0.148996,3.32665,-0.0247997,0.000435197,-0.0248267,0.00130036,0.395143,0.00138105,0.383922,0.0105713,-0.00636731,-0.117797,-0.0707727,0.0191444,-0.005,-2.4259,0.837473,3.7607,0.0599207,-3.2141,0.177424,-0.517837,11.5493,1.17388,-6.34472,0.372758,-2.35908,-0.201949,-0.193359,-0.846101,0.161334,0.370605,0.0205405,0.124878,-0.0324774,23.5074,23.3939,23.2236,23.3371,23.2804,23.3371,23.1811,
16,6.28309,0.283669,3.1434,4.00918,0.00101596,0.961921,1.57037,-0.000148261,0.229583,0.018926,-0.0840003,0.00369662,-0.013914,-1.0598e-05,1.33743,-12.9083,-5.02881,-2.09835,-4.06903,-7.59814,3.60109,-0.0508278,-16.733,-0.631713,3.64252,0.149,3.32646,-0.0247965,0.000435197,-0.0248267,0.00130036,0.395143,0.00138105,0.383922,0.00985511,-0.00606938,-0.116136,-0.0707727,0.0191444,-0.005,-2.4259,0.837473,3.7607,0.0599207,-3.2141,0.177424,-0.489861,11.6164,1.18145,-6.47848,0.371137,-2.38058,-0.185375,-0.185478,-0.894868,0.225586,0.346529,0.0241699,0.132996,-0.0322266,23.4932,23.3797,23.2236,23.3371,23.2662,23.3371,23.1952,
17,6.28309,0.283889,3.14342,4.0091,0.00102072,0.961908,1.57037,-0.000148147,0.223641,0.0187899,-0.0845405,0.00389386,-0.0130037,-1.0606e-05,1.33729,-12.9095,-5.02909,-2.10109,-4.06963,-7.59661,3.60187,-0.0508578,-16.7353,-0.631662,3.64026,0.148987,3.32631,-0.0247936,0.000435197,-0.0248267,0.00130036,0.395143,0.00138105,0.383922,0.00885372,-0.00600502,-0.113826,-0.0707727,0.0191444,-0.005,-2.4259,0.837473,3.7607,0.0599207,-3.2141,0.177424,-0.481329,11.5535,1.21114,-6.6353,0.350328,-2.37471,-0.180386,-0.186002,-0.9104,0.209628,0.346529,0.0161133,0.140991,-0.0404841,23.5074,23.3939,23.2236,23.3371,23.2662,23.3513,23.1811,
18,6.28309,0.284104,3.14344,4.00901,0.00102548,0.961898,1.57037,-0.000148147,0.218509,0.0175563,-0.0847597,0.00413997,-0.0116083,-1.0606e-05,1.33792,-12.9107,-5.03061,-2.10364,-4.07073,-7.59527,3.60334,-0.0508847,-16.7375,-0.631545,3.6379,0.149003,3.32613,-0.0247905,0.000435197,-0.0248267,0.00130036,0.395143,0.00138105,0.383922,0.00803929,-0.00556084,-0.111692,-0.0707727,0.0191444,-0.005,-2.4259,0.837473,3.7607,0.0599207,-3.2141,0.177424,-0.454163,11.6634,1.22912,-6.81339,0.376607,-2.35927,-0.178037,-0.177429,-0.942937,0.225586,0.354858,0.0166092,0.140991,-0.036478,23.4932,23.3797,23.2236,23.3371,23.2662,23.3371,23.2236,
19,6.28309,0.28433,3.14346,4.00892,0.00103023,0.961889,1.57037,-0.000148147,0.212201,0.0178264,-0.0847247,0.00427245,-0.00972351,-1.0598e-05,1.33772,-12.9119,-5.03075,-2.10609,-4.07122,-7.59406,3.60391,-0.0509071,-16.7397,-0.631519,3.63575,0.148984,3.32597,-0.0247869,0.000435197,-0.0248267,0.00130036,0.395143,0.00138105,0.383922,0.00714946,-0.00564116,-0.108975,-0.0707727,0.0191444,-0.005,-2.4259,0.837473,3.7607,0.0599207,-3.2141,0.177424,-0.438355,11.6832,1.20997,-6.93046,0.391528,-2.37004,-0.178368,-0.201577,-0.991785,0.258316,0.378748,0.0201416,0.128969,-0.0362549,23.4932,23.3655,23.2094,23.3371,23.252,23.3229,23.2094,
20,6.28309,0.284533,3.14348,4.00884,0.00103689,0.961881,1.57037,-0.000148261,0.205814,0.0180965,-0.0848106,0.00460365,-0.00832238,-2.11957e-05,1.46819,-11.2361,-5.13336,-3.12999,-4.04117,-4.67541,3.60964,-0.0477389,-15.8075,-0.604341,3.36472,0.147877,3.20487,-0.0249435,0.000514365,-0.0281964,0.00146542,0.395143,0.00138105,0.383922,0.00621916,-0.00570416,-0.106311,-0.0747677,0.0218255,-0.005,-2.45752,0.823999,3.11924,0.0658579,-3.43295,0.173439,-0.416305,11.8513,1.25127,-7.07338,0.384854,-2.40309,-0.169912,-0.185478,-0.958876,0.217529,0.362549,0.0205405,0.128906,-0.036478,23.4932,23.3797,23.2236,23.3655,23.2662,23.3087,23.1811,
21,6.28309,0.284533,3.14348,4.00884,0.00103689,0.961881,1.57037,-0.000148261,0.205814,0.0180965,-0.0848106,0.00460365,-0.00832238,-2.11957e-05,1.46819,-11.2361,-5.13336,-3.12999,-4.04117,-4.67541,3.60964,-0.0477389,-15.8075,-0.604341,3.36472,0.147877,3.20487,-0.0249435,0.000514365,-0.0281964,0.00146542,0.395143,0.00138105,0.383922,0.00621916,-0.00570416,-0.106311,-0.0747677,0.0218255,-0.005,-2.45752,0.823999,3.11924,0.0658579,-3.43295,0.173439,-0.416305,11.8513,1.25127,-7.07338,0.384854,-2.40309,-0.169912,-0.185478,-0.958876,0.217529,0.362549,0.0205405,0.128906,-0.036478,23.4932,23.3797,23.2236,23.3655,23.2662,23.3087,23.1811,
22,6.28309,0.284733,3.1435,4.00876,0.00104355,0.961874,1.57037,-0.000153556,0.202573,0.0178046,-0.0867013,0.00518971,-0.0074085,-2.1212e-05,1.46798,-11.2365,-5.13346,-3.13256,-4.04172,-4.67322,3.61038,-0.0477678,-15.8096,-0.604271,3.36212,0.147866,3.2047,-0.0249399,0.000514365,-0.0281964,0.00146542,0.395143,0.00138105,0.383922,0.00523902,-0.00555006,-0.105448,-0.0747677,0.0218255,-0.005,-2.45752,0.823999,3.11924,0.0658579,-3.43295,0.173439,-0.427185,11.8996,1.26098,-7.20274,0.373832,-2.42892,-0.158368,-0.193359,-0.918457,0.22573,0.354584,0.0205405,0.117099,-0.036478,23.4932,23.3797,23.2094,23.3655,23.252,23.3229,23.1952,
23,6.28309,0.284927,3.14351,4.00866,0.00105116,0.961867,1.57037,-0.000153438,0.197441,0.0186178,-0.087769,0.0057933,-0.00675244,-2.1212e-05,1.4673,-11.2372,-5.13276,-3.13484,-4.04193,-4.67172,3.61056,-0.0477938,-15.8115,-0.604249,3.35985,0.147831,3.20455,-0.0249355,0.000514365,-0.0281964,0.00146542,0.395143,0.00138105,0.383922,0.00422866,-0.00577502,-0.103636,-0.0747677,0.0218255,-0.005,-2.45752,0.823999,3.11924,0.0658579,-3.43295,0.173439,-0.464664,12.1487,1.28151,-7.27359,0.39039,-2.46226,-0.161732,-0.193527,-0.98291,0.22573,0.394775,0.0161133,0.112865,-0.0444942,23.5074,23.3797,23.2094,23.3513,23.252,23.3371,23.1811,
24,6.28309,0.285133,3.14353,4.00858,0.00106067,0.961859,1.57037,-0.000153438,0.193342,0.019447,-0.0856209,0.00658221,-0.00741212,-2.91444e-05,1.46663,-11.2385,-5.1321,-3.13704,-4.04218,-4.67082,3.6108,-0.0478209,-15.8135,-0.604208,3.35754,0.147793,3.20432,-0.0249303,0.000514365,-0.0281964,0.00146542,0.395143,0.00138105,0.383922,0.00421176,-0.00599042,-0.101477,-0.0747677,0.0218255,-0.005,-2.45752,0.823999,3.11924,0.0658579,-3.43295,0.173439,-0.434073,12.3312,1.27625,-7.33315,0.389248,-2.52952,-0.170552,-0.193359,-0.991491,0.19403,0.402913,0.00402832,0.108839,-0.0402832,23.5074,23.3797,23.2236,23.3513,23.2662,23.3371,23.1952,
25,6.28309,0.285318,3.14355,4.00849,0.00107019,0.961851,1.57037,-0.000153554,0.187718,0.019447,-0.0842704,0.00797831,-0.00754884,-3.70929e-05,1.46667,-11.2397,-5.13241,-3.13886,-4.04278,-4.67018,3.61171,-0.0478534,-15.8152,-0.604082,3.35568,0.147776,3.20415,-0.0249256,0.000514365,-0.0281964,0.00146542,0.395143,0.00138105,0.383922,0.00376692,-0.00586905,-0.0988772,-0.0747677,0.0218255,-0.005,-2.45752,0.823999,3.11924,0.0658579,-3.43295,0.173439,-0.425475,12.6186,1.30213,-7.47818,0.386006,-2.58617,-0.169655,-0.185303,-0.974887,0.193527,0.347278,0.0090076,0.124878,-0.0483398,23.4932,23.3797,23.2094,23.3513,23.2662,23.3371,23.1952,
26,6.28309,0.285498,3.14358,4.00841,0.0010797,0.961843,1.57037,-0.000153554,0.182941,0.0213153,-0.0861611,0.00900746,-0.00781529,-3.71213e-05,1.46525,-11.2404,-5.13045,-3.14133,-4.04245,-4.66842,3.61131,-0.0478895,-15.8171,-0.604091,3.35338,0.147715,3.20401,-0.0249211,0.000514365,-0.0281964,0.00146542,0.395143,0.00138105,0.383922,0.00260183,-0.00641763,-0.0975367,-0.0747677,0.0218255,-0.005,-2.45752,0.823999,3.11924,0.0658579,-3.43295,0.173439,-0.416987,12.7008,1.29924,-7.57696,0.390684,-2.63358,-0.181787,-0.20206,-0.934709,0.185478,0.330322,0.00402832,0.128906,-0.0525229,23.4932,23.3655,23.2236,23.3229,23.252,23.3371,23.1952,
27,6.28309,0.285677,3.1436,4.00832,0.00109112,0.961832,1.57037,-0.00015344,0.181235,0.0213377,-0.0885022,0.0100066,-0.00874253,-4.77269e-05,1.46465,-11.2409,-5.12986,-3.14423,-4.04273,-4.66605,3.61173,-0.0479261,-15.8192,-0.604022,3.35051,0.147687,3.20383,-0.0249162,0.000514365,-0.0281964,0.00146542,0.395143,0.00138105,0.383922,0.00171731,-0.00633727,-0.0976044,-0.0747677,0.0218255,-0.005,-2.45752,0.823999,3.11924,0.0658579,-3.43295,0.173439,-0.445381,12.8795,1.33691,-7.67396,0.382033,-2.69827,-0.19191,-0.177429,-0.918457,0.153288,0.346529,-0.0166092,0.132935,-0.0404841,23.4932,23.3939,23.2094,23.3513,23.252,23.3229,23.2094,
28,6.28309,0.285855,3.14362,4.00823,0.00110063,0.961822,1.57037,-0.000153556,0.181235,0.0210676,-0.0885213,0.0100066,-0.00999023,-5.82888e-05,1.46377,-11.2418,-5.12919,-3.14698,-4.0431,-4.66413,3.61189,-0.0479599,-15.8212,-0.603991,3.34746,0.147663,3.20359,-0.0249126,0.000514365,-0.0281964,0.00146542,0.395143,0.00138105,0.383922,0.00168025,-0.00624433,-0.0977344,-0.0747677,0.0218255,-0.005,-2.45752,0.823999,3.11924,0.0658579,-3.43295,0.173439,-0.418357,12.9923,1.33691,-7.80442,0.379932,-2.76693,-0.192425,-0.201416,-0.959282,0.145243,0.386719,-0.0284845,0.141049,-0.0443115,23.4932,23.3797,23.2236,23.3513,23.252,23.3371,23.1952,
29,6.28309,0.286042,3.14364,4.00814,0.00110919,0.96181,1.57037,-0.000153556,0.176039,0.0205066,-0.0888621,0.00974006,-0.0107088,-5.82888e-05,1.46326,-11.2428,-5.12917,-3.14928,-4.04367,-4.66287,3.6124,-0.0479917,-15.8231,-0.603949,3.34523,0.147653,3.20342,-0.02491,0.000514365,-0.0281964,0.00146542,0.395143,0.00138105,0.383922,0.000839503,-0.00607505,-0.0958343,-0.0747677,0.0218255,-0.005,-2.45752,0.823999,3.11924,0.0658579,-3.43295,0.173439,-0.441398,13.1721,1.34584,-7.94676,0.383398,-2.81639,-0.17377,-0.201416,-0.974887,0.161133,0.370693,-0.0216932,0.153076,-0.0404841,23.479,23.3655,23.2094,23.3513,23.252,23.3371,23.1952,
30,6.28309,0.286213,3.14366,4.00805,0.00111585,0.961801,1.57037,-0.000158849,0.172862,0.0193092,-0.0904827,0.00837302,-0.0103577,-6.62874e-05,1.61618,-9.88617,-5.63528,-3.27707,-4.44757,-2.98332,3.95917,-0.0442292,-15.0704,-0.607115,3.30351,0.162356,3.13954,-0.0276553,0.00060232,-0.0307715,0.00157109,0.395143,0.00138105,0.383922,-6.53596e-05,-0.00578102,-0.0949758,-0.075987,0.0239697,-0.005,-2.3048,0.901344,2.72503,0.0820539,-3.6284,0.179986,-0.419433,13.2724,1.36076,-8.07147,0.357708,-2.82597,-0.168647,-0.193527,-0.918492,0.161133,0.346529,-0.0127387,0.16521,-0.0404841,23.479,23.3797,23.2236,23.3513,23.252,23.3513,23.1952,
31,6.28309,0.286379,3.14368,4.00796,0.00112251,0.961791,1.57037,-0.000158729,0.169081,0.0186367,-0.0939939,0.00719536,-0.0100066,-6.62874e-05,1.61526,-9.88644,-5.63484,-3.27932,-4.44806,-2.98138,3.9593,-0.0442546,-15.0722,-0.607136,3.30112,0.162348,3.13942,-0.0276543,0.00060232,-0.0307715,0.00157109,0.395143,0.00138105,0.383922,-0.00154958,-0.00565164,-0.0944047,-0.075987,0.0239697,-0.005,-2.3048,0.901344,2.72503,0.0820539,-3.6284,0.179986,-0.432492,13.4011,1.34944,-8.18515,0.370384,-2.84011,-0.165082,-0.201577,-0.926514,0.201416,0.354492,-0.0090076,0.169189,-0.0529843,23.4932,23.3655,23.1952,23.3371,23.252,23.3229,23.2094,
32,6.28309,0.286546,3.14369,4.00786,0.00112727,0.961783,1.57037,-0.000158729,0.169081,0.0180965,-0.0967056,0.00596885,-0.00936338,-7.68344e-05,1.61411,-9.88657,-5.6341,-3.28176,-4.44853,-2.9791,3.9592,-0.0442782,-15.074,-0.607172,3.29813,0.162336,3.13924,-0.0276535,0.00060232,-0.0307715,0.00157109,0.395143,0.00138105,0.383922,-0.0022991,-0.00557183,-0.095081,-0.075987,0.0239697,-0.005,-2.3048,0.901344,2.72503,0.0820539,-3.6284,0.179986,-0.409645,13.4964,1.36044,-8.24107,0.370637,-2.86563,-0.184638,-0.185478,-0.902919,0.209628,0.435133,0,0.169237,-0.0485074,23.4932,23.3797,23.2236,23.3371,23.2662,23.3513,23.1811,
33,6.28309,0.286727,3.14371,4.00776,0.00113107,0.961773,1.57037,-0.000158851,0.170613,0.0178264,-0.0983155,0.00500165,-0.00912582,-7.68926e-05,1.61289,-9.88672,-5.63317,-3.28441,-4.44892,-2.97662,3.95904,-0.0442999,-15.0761,-0.607212,3.29487,0.162319,3.13901,-0.0276521,0.00060232,-0.0307715,0.00157109,0.395143,0.00138105,0.383922,-0.00254437,-0.00556224,-0.096103,-0.075987,0.0239697,-0.005,-2.3048,0.901344,2.72503,0.0820539,-3.6284,0.179986,-0.4428,13.6532,1.35671,-8.31938,0.360418,-2.87516,-0.193562,-0.201577,-0.950684,0.22573,0.459299,0.0127387,0.161334,-0.0443115,23.479,23.3939,23.1952,23.3513,23.2662,23.3371,23.1811,
34,6.28309,0.286895,3.14373,4.00766,0.00113488,0.961765,1.57037,-0.000158851,0.170432,0.0162058,-0.101016,0.00414149,-0.00877483,-8.48478e-05,1.61254,-9.88684,-5.63362,-3.28685,-4.44985,-2.97431,3.95967,-0.0443229,-15.0779,-0.607174,3.29191,0.162332,3.13883,-0.0276512,0.00060232,-0.0307715,0.00157109,0.395143,0.00138105,0.383922,-0.00333057,-0.00508124,-0.0967311,-0.075987,0.0239697,-0.005,-2.3048,0.901344,2.72503,0.0820539,-3.6284,0.179986,-0.429489,13.7715,1.36881,-8.33347,0.368408,-2.88672,-0.191712,-0.185478,-1.01526,0.22573,0.499577,0.0245033,0.161183,-0.0523682,23.5074,23.3655,23.2094,23.3371,23.2662,23.3229,23.1811,
35,6.28309,0.287063,3.14374,4.00756,0.00113963,0.961753,1.57037,-0.000158849,0.169621,0.0160341,-0.102637,0.00403775,-0.00927552,-9.54538e-05,1.61172,-9.88731,-5.63307,-3.28924,-4.45033,-2.9724,3.95984,-0.0443474,-15.0798,-0.607161,3.28905,0.162316,3.13864,-0.0276489,0.00060232,-0.0307715,0.00157109,0.395143,0.00138105,0.383922,-0.00390132,-0.00503044,-0.0969042,-0.075987,0.0239697,-0.005,-2.3048,0.901344,2.72503,0.0820539,-3.6284,0.179986,-0.438369,13.9154,1.37814,-8.35355,0.369005,-2.88999,-0.191627,-0.193359,-1.04749,0.265991,0.540336,0.0402832,0.16521,-0.0565402,23.4932,23.3513,23.2236,23.3513,23.252,23.3229,23.1952,
36,6.28309,0.28723,3.14376,4.00745,0.00114344,0.961743,1.57037,-0.000158729,0.169621,0.0153956,-0.103317,0.00403642,-0.0095292,-9.53816e-05,1.61128,-9.88784,-5.63309,-3.29151,-4.45109,-2.97067,3.9603,-0.0443691,-15.0815,-0.607111,3.28608,0.162312,3.13842,-0.0276461,0.00060232,-0.0307715,0.00157109,0.395143,0.00138105,0.383922,-0.00411582,-0.0048115,-0.0971089,-0.075987,0.0239697,-0.005,-2.3048,0.901344,2.72503,0.0820539,-3.6284,0.179986,-0.425463,14.0166,1.3871,-8.32394,0.365071,-2.90469,-0.177422,-0.193359,-1.07962,0.281982,0.531738,0.036478,0.165358,-0.0525229,23.4932,23.3797,23.2236,23.3513,23.252,23.3229,23.2236,
37,6.28309,0.287409,3.14378,4.00735,0.00114819,0.961732,1.57037,-0.000158849,0.169018,0.0159358,-0.103447,0.00438742,-0.0101979,-0.00010598,1.61038,-9.88851,-5.63225,-3.29385,-4.45142,-2.969,3.96035,-0.0443892,-15.0834,-0.607104,3.28316,0.162284,3.1382,-0.0276424,0.00060232,-0.0307715,0.00157109,0.395143,0.00138105,0.383922,-0.00425475,-0.00496514,-0.0969704,-0.075987,0.0239697,-0.005,-2.3048,0.901344,2.72503,0.0820539,-3.6284,0.179986,-0.45543,14.1335,1.3724,-8.29028,0.36152,-2.8976,-0.177881,-0.193527,-1.12013,0.281982,0.531799,0.0404841,0.177292,-0.0490066,23.5215,23.3513,23.2094,23.3655,23.2804,23.3513,23.1952,
38,6.28309,0.287572,3.14379,4.00724,0.0011539,0.961723,1.57036,-0.000158849,0.165132,0.0145446,-0.104692,0.00470242,-0.0100066,-0.000114013,1.6106,-9.88918,-5.63324,-3.29563,-4.4525,-2.96791,3.96142,-0.0444147,-15.085,-0.606985,3.28091,0.162296,3.13804,-0.0276395,0.00060232,-0.0307715,0.00157109,0.395143,0.00138105,0.383922,-0.00515862,-0.00446119,-0.0957399,-0.075987,0.0239697,-0.005,-2.3048,0.901344,2.72503,0.0820539,-3.6284,0.179986,-0.43571,14.2132,1.35855,-8.21334,0.36893,-2.90995,-0.175588,-0.193359,-1.09573,0.282097,0.491521,0.0402832,0.185347,-0.0604248,23.4932,23.3655,23.2094,23.3513,23.2662,23.3229,23.1952,
39,6.28309,0.287572,3.14379,4.00724,0.0011539,0.961723,1.57036,-0.000158849,0.165132,0.0145446,-0.104692,0.00470242,-0.0100066,-0.000114013,1.6106,-9.88918,-5.63324,-3.29563,-4.4525,-2.96791,3.96142,-0.0444147,-15.085,-0.606985,3.28091,0.162296,3.13804,-0.0276395,0.00060232,-0.0307715,0.00157109,0.395143,0.00138105,0.383922,-0.00515862,-0.00446119,-0.0957399,-0.075987,0.0239697,-0.005,-2.3048,0.901344,2.72503,0.0820539,-3.6284,0.179986,-0.43571,14.2132,1.35855,-8.21334,0.36893,-2.90995,-0.175588,-0.193359,-1.09573,0.282097,0.491521,0.0402832,0.185347,-0.0604248,23.4932,23.3655,23.2094,23.3513,23.2662,23.3229,23.1952,
40,6.28309,0.287733,3.14381,4.00714,0.00115961,0.961713,1.57036,-0.000158849,0.163139,0.0159358,-0.103717,0.00487259,-0.00999361,-0.000121969,1.64229,-9.44749,-5.70831,-2.72531,-4.49357,-2.83663,4.0068,-0.0436118,-14.8402,-0.603423,3.42459,0.163756,3.1698,-0.0275019,0.000663145,-0.0332865,0.00168149,0.395143,0.00138105,0.383922,-0.00517843,-0.00492184,-0.0946735,-0.0748976,0.0258946,-0.005,-2.09217,0.910672,2.7222,0.0790661,-3.88833,0.188008,-0.450326,14.2771,1.39007,-8.14322,0.34863,-2.92562,-0.177039,-0.201577,-1.01517,0.306258,0.499512,0.036478,0.185478,-0.0684814,23.5074,23.3655,23.2236,23.3371,23.252,23.3513,23.1669,
41,6.28309,0.287891,3.14382,4.00703,0.00116532,0.961705,1.57036,-0.00016402,0.160708,0.0159358,-0.100809,0.00500248,-0.00912582,-0.000121877,1.64172,-9.44867,-5.70812,-2.72645,-4.49424,-2.83668,4.00708,-0.0436339,-14.8414,-0.603368,3.4225,0.16374,3.16958,-0.0274983,0.000663145,-0.0332865,0.00168149,0.395143,0.00138105,0.383922,-0.00475555,-0.00490893,-0.092801,-0.0748976,0.0258946,-0.005,-2.09217,0.910672,2.7222,0.0790661,-3.88833,0.188008,-0.457417,14.2971,1.43208,-8.07023,0.344496,-2.92099,-0.17373,-0.193527,-1.00711,0.274044,0.467355,0.0444942,0.193359,-0.0605589,23.5074,23.3939,23.2094,23.3371,23.252,23.3371,23.1811,
42,6.28309,0.288061,3.14384,4.00693,0.00117103,0.961698,1.57036,-0.000164146,0.159489,0.0161894,-0.101016,0.00524279,-0.00816059,-0.000132474,1.64095,-9.44928,-5.70751,-2.72827,-4.49467,-2.83547,4.00722,-0.0436555,-14.843,-0.603346,3.41995,0.163718,3.16939,-0.0274951,0.000663145,-0.0332865,0.00168149,0.395143,0.00138105,0.383922,-0.00499458,-0.00497398,-0.0922656,-0.0748976,0.0258946,-0.005,-2.09217,0.910672,2.7222,0.0790661,-3.88833,0.188008,-0.511894,14.3139,1.43384,-8.00414,0.344044,-2.90252,-0.167866,-0.193359,-0.983735,0.265869,0.379005,0.0362549,0.181319,-0.0645789,23.5074,23.3655,23.2094,23.3371,23.252,23.3229,23.1811,
43,6.28309,0.288215,3.14385,4.00683,0.00117673,0.961692,1.57036,-0.000164144,0.156386,0.0162058,-0.102097,0.00548517,-0.00693212,-0.000143181,1.64035,-9.44992,-5.70718,-2.72982,-4.49519,-2.83457,4.00748,-0.0436791,-14.8445,-0.603306,3.41777,0.163703,3.16924,-0.0274925,0.000663145,-0.0332865,0.00168149,0.395143,0.00138105,0.383922,-0.00572399,-0.00495746,-0.091196,-0.0748976,0.0258946,-0.005,-2.09217,0.910672,2.7222,0.0790661,-3.88833,0.188008,-0.490416,14.3424,1.42312,-7.87911,0.343895,-2.88649,-0.167594,-0.201577,-0.974854,0.265991,0.386803,0.0483398,0.173218,-0.0689537,23.4932,23.3797,23.2094,23.3513,23.252,23.3229,23.1811,
44,6.28309,0.288368,3.14387,4.00673,0.00118149,0.961688,1.57036,-0.000164144,0.155036,0.017303,-0.102907,0.00548517,-0.00576208,-0.000153787,1.63893,-9.4505,-5.70561,-2.73154,-4.49523,-2.83343,4.00703,-0.0437049,-14.846,-0.603335,3.41534,0.163665,3.16907,-0.0274907,0.000663145,-0.0332865,0.00168149,0.395143,0.00138105,0.383922,-0.00612896,-0.00533141,-0.0907567,-0.0748976,0.0258946,-0.005,-2.09217,0.910672,2.7222,0.0790661,-3.88833,0.188008,-0.483256,14.3746,1.43345,-7.7724,0.334455,-2.88534,-0.169805,-0.209628,-0.918492,0.281982,0.402913,0.0362549,0.16521,-0.0644531,23.4932,23.3655,23.2094,23.3513,23.2662,23.3229,23.1811,
45,6.28309,0.288529,3.14389,4.00662,0.0011872,0.961683,1.57036,-0.00016402,0.151213,0.0191769,-0.103567,0.00548517,-0.00513185,-0.000161619,1.63724,-9.45145,-5.70361,-2.7332,-4.4951,-2.83273,4.00635,-0.0437299,-14.8475,-0.603396,3.41306,0.163614,3.16891,-0.0274885,0.000663145,-0.0332865,0.00168149,0.395143,0.00138105,0.383922,-0.00682467,-0.00597096,-0.0893536,-0.0748976,0.0258946,-0.005,-2.09217,0.910672,2.7222,0.0790661,-3.88833,0.188008,-0.494719,14.3606,1.4354,-7.67646,0.332667,-2.83196,-0.166155,-0.201577,-0.90238,0.225586,0.394858,0.0485074,0.14502,-0.0725098,23.4932,23.3655,23.2236,23.3513,23.252,23.3229,23.1952,
46,6.28309,0.288675,3.14391,4.00652,0.001191,0.961679,1.57036,-0.000164144,0.148403,0.0199872,-0.105878,0.00524367,-0.00438886,-0.000169567,1.63583,-9.45206,-5.70215,-2.735,-4.49519,-2.83154,4.00597,-0.0437596,-14.8491,-0.603426,3.41073,0.163583,3.16877,-0.0274882,0.000663145,-0.0332865,0.00168149,0.395143,0.00138105,0.383922,-0.00783323,-0.00626716,-0.0887944,-0.0748976,0.0258946,-0.005,-2.09217,0.910672,2.7222,0.0790661,-3.88833,0.188008,-0.520132,14.3392,1.39113,-7.57901,0.346485,-2.80771,-0.180905,-0.201577,-0.846101,0.217678,0.410889,0.0443115,0.149102,-0.0689537,23.5074,23.3655,23.2236,23.3371,23.2662,23.3371,23.1952,
47,6.28309,0.28882,3.14393,4.00641,0.00119576,0.961676,1.57036,-0.000164146,0.147203,0.0213377,-0.10793,0.00500248,-0.00377442,-0.0001803,1.63401,-9.45261,-5.70005,-2.73694,-4.49504,-2.83016,4.00523,-0.0437911,-14.8506,-0.603486,3.40817,0.163539,3.16862,-0.0274876,0.000663145,-0.0332865,0.00168149,0.395143,0.00138105,0.383922,-0.00854698,-0.006748,-0.0888178,-0.0748976,0.0258946,-0.005,-2.09217,0.910672,2.7222,0.0790661,-3.88833,0.188008,-0.491648,14.3729,1.37368,-7.46392,0.369543,-2.78744,-0.176485,-0.201577,-0.838239,0.185478,0.443408,0.0616214,0.141049,-0.0725098,23.4932,23.3655,23.1952,23.3513,23.2662,23.3371,23.1811,
48,6.28309,0.288965,3.14396,4.00631,0.00120052,0.961672,1.57036,-0.000169439,0.146393,0.0220469,-0.106689,0.00487164,-0.00342218,-0.000190908,1.63247,-9.45354,-5.69847,-2.7385,-4.49519,-2.82953,4.00479,-0.0438294,-14.8519,-0.603482,3.40579,0.163503,3.16841,-0.0274874,0.000663145,-0.0332865,0.00168149,0.395143,0.00138105,0.383922,-0.00833646,-0.00699922,-0.0881091,-0.0748976,0.0258946,-0.005,-2.09217,0.910672,2.7222,0.0790661,-3.88833,0.188008,-0.50024,14.4,1.35223,-7.38717,0.349539,-2.76754,-0.179314,-0.201577,-0.821777,0.161334,0.483398,0.0523682,0.141049,-0.0684814,23.5074,23.3655,23.1952,23.3513,23.252,23.3229,23.2094,
49,6.28309,0.289111,3.14398,4.00619,0.00120527,0.961669,1.57036,-0.000169439,0.149094,0.0224181,-0.105323,0.00475564,-0.00324007,-0.000201361,1.63095,-9.45424,-5.69696,-2.74047,-4.49543,-2.82827,4.00433,-0.0438652,-14.8534,-0.603474,3.40283,0.163468,3.16817,-0.0274864,0.000663145,-0.0332865,0.00168149,0.395143,0.00138105,0.383922,-0.00762004,-0.00713576,-0.0887762,-0.0748976,0.0258946,-0.005,-2.09217,0.910672,2.7222,0.0790661,-3.88833,0.188008,-0.512333,14.3886,1.37339,-7.29576,0.343494,-2.73892,-0.173847,-0.210091,-0.805704,0.145243,0.451244,0.0605589,0.137022,-0.0805664,23.479,23.3655,23.2236,23.3371,23.2662,23.3371,23.1811,
50,6.28309,0.289272,3.144,4.00609,0.00121003,0.961667,1.57035,-0.000169439,0.150963,0.0224181,-0.105338,0.00475485,-0.00315894,-0.00020931,1.7873,-8.55962,-6.50441,-2.59448,-5.22398,-1.86035,4.61838,-0.0399373,-14.3595,-0.633373,3.43079,0.19119,3.14871,-0.0309486,0.000733513,-0.0359281,0.00181791,0.395143,0.00138105,0.383922,-0.00739165,-0.00713496,-0.0895053,-0.0721801,0.0282383,-0.005,-1.9368,1.06122,2.51329,0.0904689,-4.10814,0.21661,-0.544319,14.336,1.3349,-7.16989,0.349583,-2.70518,-0.177568,-0.20206,-0.886267,0.129158,0.419023,0.0644531,0.132996,-0.080667,23.4932,23.3797,23.2094,23.3513,23.252,23.3371,23.1952,
51,6.28309,0.28942,3.14402,4.00599,0.00121764,0.961664,1.57035,-0.000169439,0.150984,0.0226882,-0.102907,0.00500248,-0.00280887,-0.000217423,1.78609,-8.56053,-6.50335,-2.59586,-5.22444,-1.85989,4.61826,-0.0399726,-14.3608,-0.63332,3.42844,0.191159,3.14849,-0.0309461,0.000733513,-0.0359281,0.00181791,0.395143,0.00138105,0.383922,-0.00675494,-0.00720585,-0.088797,-0.0721801,0.0282383,-0.005,-1.9368,1.06122,2.51329,0.0904689,-4.10814,0.21661,-0.544904,14.324,1.31483,-7.03549,0.360132,-2.68478,-0.180083,-0.209628,-0.966797,0.14502,0.402832,0.0695396,0.124878,-0.0684814,23.479,23.3939,23.2094,23.3371,23.252,23.3371,23.1669,
52,6.28309,0.289568,3.14405,4.00589,0.0012243,0.961661,1.57035,-0.000169439,0.149752,0.023823,-0.0991258,0.00548517,-0.00280887,-0.000228029,1.78451,-8.56176,-6.50166,-2.597,-5.22463,-1.85998,4.61784,-0.0400131,-14.362,-0.633281,3.42638,0.191114,3.14827,-0.0309448,0.000733513,-0.0359281,0.00181791,0.395143,0.00138105,0.383922,-0.00591758,-0.00755235,-0.0872579,-0.0721801,0.0282383,-0.005,-1.9368,1.06122,2.51329,0.0904689,-4.10814,0.21661,-0.549245,14.2566,1.31527,-6.94922,0.34563,-2.66139,-0.184916,-0.217529,-0.983438,0.136963,0.338475,0.0644531,0.128969,-0.080667,23.4648,23.3655,23.2094,23.3371,23.252,23.3371,23.1811,
53,6.28309,0.289715,3.14407,4.00579,0.00123286,0.96166,1.57035,-0.000174734,0.148554,0.0232284,-0.0989604,0.00617686,-0.00238492,-0.000238635,1.78383,-8.56248,-6.50135,-2.59852,-5.22536,-1.85919,4.61827,-0.040053,-14.3634,-0.63317,3.42404,0.1911,3.1481,-0.0309421,0.000733513,-0.0359281,0.00181791,0.395143,0.00138105,0.383922,-0.00606179,-0.00728621,-0.0866817,-0.0721801,0.0282383,-0.005,-1.9368,1.06122,2.51329,0.0904689,-4.10814,0.21661,-0.57554,14.1901,1.32277,-6.84444,0.347681,-2.62716,-0.184345,-0.22573,-0.974887,0.121118,0.265869,0.0689537,0.128969,-0.0725098,23.5074,23.3797,23.1952,23.3513,23.2804,23.3371,23.1811,
54,6.28309,0.289872,3.14409,4.00569,0.00124142,0.961658,1.57035,-0.000176466,0.147953,0.0229583,-0.101016,0.00723367,-0.00216078,-0.000246403,1.78303,-8.56287,-6.50068,-2.60054,-5.22587,-1.85756,4.61862,-0.0400918,-14.3652,-0.633078,3.42139,0.191079,3.14795,-0.030939,0.000733513,-0.0359281,0.00181791,0.395143,0.00138105,0.383922,-0.00671668,-0.00709976,-0.0869803,-0.0721801,0.0282383,-0.005,-1.9368,1.06122,2.51329,0.0904689,-4.10814,0.21661,-0.588251,14.0651,1.31739,-6.80126,0.346436,-2.59946,-0.188941,-0.217529,-0.991,0.121118,0.266357,0.0565402,0.132935,-0.076644,23.4932,23.3797,23.2236,23.3371,23.2662,23.3371,23.1952,
55,6.28309,0.290017,3.14412,4.00559,0.00125189,0.961658,1.57035,-0.000172827,0.147203,0.0224181,-0.102637,0.00854596,-0.00216078,-0.000254543,1.78247,-8.56335,-6.50033,-2.60238,-5.2265,-1.85621,4.61916,-0.0401318,-14.3668,-0.632952,3.41889,0.191062,3.14781,-0.030935,0.000733513,-0.0359281,0.00181791,0.395143,0.00138105,0.383922,-0.00727858,-0.00680119,-0.0871215,-0.0721801,0.0282383,-0.005,-1.9368,1.06122,2.51329,0.0904689,-4.10814,0.21661,-0.588251,14.0417,1.30514,-6.72109,0.358484,-2.59946,-0.184225,-0.233643,-0.98291,0.14502,0.330322,0.0609595,0.132935,-0.0765381,23.479,23.3797,23.2094,23.3371,23.2662,23.3371,23.1952,
56,6.28309,0.290162,3.14414,4.00548,0.0012614,0.961657,1.57035,-0.000172827,0.147203,0.0210447,-0.103447,0.00920615,-0.00165578,-0.000275755,1.78206,-8.56381,-6.50045,-2.60412,-5.2274,-1.85496,4.61984,-0.0401724,-14.3684,-0.632816,3.41637,0.191058,3.14764,-0.0309324,0.000733513,-0.0359281,0.00181791,0.395143,0.00138105,0.383922,-0.00752995,-0.0062735,-0.0872795,-0.0721801,0.0282383,-0.005,-1.9368,1.06122,2.51329,0.0904689,-4.10814,0.21661,-0.565047,13.9645,1.30892,-6.71244,0.365422,-2.58603,-0.173648,-0.233781,-0.98291,0.14502,0.362549,0.0402832,0.124943,-0.088623,23.4932,23.3797,23.1952,23.3371,23.252,23.3229,23.1811,
57,6.28309,0.290307,3.14416,4.00537,0.00126901,0.961657,1.57035,-0.000176464,0.146663,0.0213377,-0.106326,0.00912582,-0.000927238,-0.000286142,1.7807,-8.56413,-6.49916,-2.60609,-5.22771,-1.85333,4.61958,-0.0402051,-14.37,-0.632813,3.41366,0.191029,3.1475,-0.0309301,0.000733513,-0.0359281,0.00181791,0.395143,0.00138105,0.383922,-0.00838838,-0.00637697,-0.087776,-0.0721801,0.0282383,-0.005,-1.9368,1.06122,2.51329,0.0904689,-4.10814,0.21661,-0.569906,13.9076,1.29837,-6.64024,0.36631,-2.57688,-0.162454,-0.233781,-0.991785,0.169189,0.395515,0.0402832,0.128969,-0.080667,23.4932,23.3797,23.2094,23.3229,23.2378,23.3229,23.1811,
58,6.28309,0.290307,3.14416,4.00537,0.00126901,0.961657,1.57035,-0.000176464,0.146663,0.0213377,-0.106326,0.00912582,-0.000927238,-0.000286142,1.7807,-8.56413,-6.49916,-2.60609,-5.22771,-1.85333,4.61958,-0.0402051,-14.37,-0.632813,3.41366,0.191029,3.1475,-0.0309301,0.000733513,-0.0359281,0.00181791,0.395143,0.00138105,0.383922,-0.00838838,-0.00637697,-0.087776,-0.0721801,0.0282383,-0.005,-1.9368,1.06122,2.51329,0.0904689,-4.10814,0.21661,-0.569906,13.9076,1.29837,-6.64024,0.36631,-2.57688,-0.162454,-0.233781,-0.991785,0.169189,0.395515,0.0402832,0.128969,-0.080667,23.4932,23.3797,23.2094,23.3229,23.2378,23.3229,23.1811,
59,6.28309,0.290458,3.14418,4.00527,0.00127662,0.961656,1.57035,-0.000173228,0.142052,0.0210676,-0.105501,0.00837019,-0.000927238,-0.000294313,1.77961,-8.56529,-6.49861,-2.60733,-5.22836,-1.85327,4.6196,-0.0402359,-14.3713,-0.632793,3.41176,0.191015,3.14735,-0.0309289,0.000733513,-0.0359281,0.00181791,0.395143,0.00138105,0.383922,-0.00881464,-0.0063513,-0.0857086,-0.0721801,0.0282383,-0.005,-1.9368,1.06122,2.51329,0.0904689,-4.10814,0.21661,-0.571432,13.7784,1.25768,-6.54752,0.369606,-2.54193,-0.180448,-0.233781,-0.982943,0.169381,0.467563,0.045038,0.120917,-0.0887145,23.479,23.3939,23.2094,23.3513,23.252,23.3229,23.1811,
60,6.28309,0.290594,3.1442,4.00516,0.00128328,0.961656,1.57035,-0.00017823,0.13829,0.0205274,-0.105338,0.00719773,-0.000733509,-0.00030227,1.84444,-8.06903,-6.78746,-2.43656,-5.48501,-1.31757,4.82878,-0.0385951,-14.097,-0.640253,3.45138,0.200266,3.15187,-0.0328845,0.000818124,-0.038216,0.00195128,0.395143,0.00138105,0.383922,-0.00930365,-0.00626604,-0.0841396,-0.0696415,0.0307035,-0.005,-1.82481,1.11164,2.42126,0.101894,-4.31859,0.221264,-0.563276,13.7405,1.25365,-6.42947,0.381445,-2.52002,-0.178097,-0.233781,-0.870117,0.161936,0.427002,0.0444942,0.121118,-0.088623,23.5074,23.3655,23.2236,23.3655,23.252,23.3229,23.1811,
61,6.28309,0.29073,3.14422,4.00506,0.00128994,0.961655,1.57034,-0.000180451,0.13748,0.0215661,-0.104258,0.0069344,-0.000576328,-0.000312876,1.84268,-8.06989,-6.78564,-2.43794,-5.48516,-1.31707,4.82813,-0.0386293,-14.0983,-0.640271,3.44916,0.200225,3.1517,-0.032884,0.000818124,-0.038216,0.00195128,0.395143,0.00138105,0.383922,-0.00912902,-0.00664241,-0.0834986,-0.0696415,0.0307035,-0.005,-1.82481,1.11164,2.42126,0.101894,-4.31859,0.221264,-0.569952,13.6852,1.23192,-6.37394,0.371723,-2.50227,-0.189211,-0.233781,-0.805704,0.193359,0.427078,0.0645789,0.11308,-0.0849775,23.4932,23.3797,23.2094,23.3371,23.2662,23.3229,23.1952,
62,6.28309,0.290864,3.14425,4.00495,0.0012947,0.961655,1.57034,-0.000182297,0.136399,0.022935,-0.10457,0.00596885,-0.000372321,-0.000323238,1.84053,-8.07067,-6.78341,-2.43948,-5.48517,-1.31632,4.82715,-0.0386609,-14.0996,-0.640349,3.4468,0.200182,3.15153,-0.0328845,0.000818124,-0.038216,0.00195128,0.395143,0.00138105,0.383922,-0.00936036,-0.00719204,-0.0831307,-0.0696415,0.0307035,-0.005,-1.82481,1.11164,2.42126,0.101894,-4.31859,0.221264,-0.57501,13.63,1.23109,-6.30065,0.381014,-2.48837,-0.188569,-0.233781,-0.845947,0.153288,0.402832,0.0645789,0.112793,-0.088623,23.4932,23.3797,23.2094,23.3371,23.2378,23.3371,23.1811,
63,6.28308,0.29101,3.14427,4.00485,0.0013004,0.961654,1.57034,-0.000189911,0.137421,0.0232284,-0.102097,0.00576013,-0.000585076,-0.000334088,1.83905,-8.07154,-6.78209,-2.441,-5.48558,-1.31569,4.8268,-0.0386959,-14.1009,-0.640328,3.44433,0.200151,3.15132,-0.0328838,0.000818124,-0.038216,0.00195128,0.395143,0.00138105,0.383922,-0.0085755,-0.00730761,-0.0828689,-0.0696415,0.0307035,-0.005,-1.82481,1.11164,2.42126,0.101894,-4.31859,0.221264,-0.559979,13.5121,1.2114,-6.26945,0.38179,-2.46459,-0.190366,-0.241833,-0.854346,0.137907,0.427078,0.0725098,0.120917,-0.0887145,23.4932,23.3655,23.2236,23.3371,23.2662,23.3087,23.1952,
64,6.28308,0.291144,3.14429,4.00475,0.00130706,0.961654,1.57034,-0.000180626,0.136129,0.0245789,-0.101557,0.00576013,-0.000488816,-0.000342043,1.83718,-8.07237,-6.78003,-2.4424,-5.48559,-1.31514,4.82609,-0.0387333,-14.1022,-0.640346,3.44217,0.200106,3.15116,-0.0328836,0.000818124,-0.038216,0.00195128,0.395143,0.00138105,0.383922,-0.00860632,-0.00777182,-0.0821941,-0.0696415,0.0307035,-0.005,-1.82481,1.11164,2.42126,0.101894,-4.31859,0.221264,-0.588341,13.4435,1.21606,-6.25036,0.391711,-2.44702,-0.183287,-0.233781,-0.886267,0.121118,0.346529,0.0846906,0.132996,-0.088623,23.4932,23.3513,23.2094,23.3513,23.2662,23.3371,23.1952,
65,6.28308,0.291277,3.14432,4.00465,0.00131372,0.961655,1.57034,-0.000180626,0.134102,0.0250768,-0.101557,0.00589459,-0.000175526,-0.000349997,1.83565,-8.07317,-6.77853,-2.44373,-5.48585,-1.31461,4.82577,-0.0387781,-14.1035,-0.640311,3.44011,0.200073,3.15101,-0.0328841,0.000818124,-0.038216,0.00195128,0.395143,0.00138105,0.383922,-0.00888986,-0.00792924,-0.0813509,-0.0696415,0.0307035,-0.005,-1.82481,1.11164,2.42126,0.101894,-4.31859,0.221264,-0.535023,13.2942,1.20868,-6.25978,0.388004,-2.43886,-0.170685,-0.257938,-0.862061,0.0889885,0.378748,0.080667,0.124943,-0.0967636,23.5074,23.3513,23.2236,23.3513,23.2662,23.3371,23.1952,
66,6.28308,0.291408,3.14435,4.00454,0.00132133,0.961655,1.57034,-0.000178699,0.133158,0.0261995,-0.101466,0.00627627,-0.000177751,-0.00036446,1.8339,-8.07399,-6.7766,-2.44522,-5.48596,-1.31394,4.82521,-0.0388208,-14.1048,-0.640296,3.43781,0.200029,3.15085,-0.0328836,0.000818124,-0.038216,0.00195128,0.395143,0.00138105,0.383922,-0.00899732,-0.00827922,-0.0809474,-0.0696415,0.0307035,-0.005,-1.82481,1.11164,2.42126,0.101894,-4.31859,0.221264,-0.574798,13.1869,1.20364,-6.22853,0.384385,-2.42013,-0.167825,-0.242236,-0.854004,0.0725098,0.370956,0.0894432,0.12085,-0.0967636,23.5074,23.3655,23.2094,23.3513,23.2662,23.3229,23.1669,
67,6.28308,0.291549,3.14437,4.00444,0.00132799,0.961655,1.57034,-0.000184463,0.132657,0.0259294,-0.099666,0.00664859,-0.000152617,-0.000390685,1.83278,-8.07486,-6.77576,-2.44658,-5.48654,-1.31346,4.82526,-0.0388648,-14.1061,-0.640211,3.43559,0.200007,3.15066,-0.0328832,0.000818124,-0.038216,0.00195128,0.395143,0.00138105,0.383922,-0.00860279,-0.00815232,-0.080241,-0.0696415,0.0307035,-0.005,-1.82481,1.11164,2.42126,0.101894,-4.31859,0.221264,-0.572248,13.0148,1.20689,-6.22044,0.381252,-2.39366,-0.169175,-0.241699,-0.854042,0.0490066,0.378748,0.0845947,0.128969,-0.100789,23.4932,23.3797,23.1952,23.3371,23.252,23.3229,23.1811,
68,6.28308,0.29168,3.1444,4.00434,0.00133655,0.961655,1.57034,-0.000182365,0.133158,0.0251191,-0.100206,0.00723512,0,-0.000416863,1.83186,-8.07536,-6.77514,-2.4482,-5.48717,-1.31235,4.82548,-0.0389094,-14.1075,-0.64011,3.43319,0.199989,3.15051,-0.032882,0.000818124,-0.038216,0.00195128,0.395143,0.00138105,0.383922,-0.00870649,-0.0078244,-0.0805628,-0.0696415,0.0307035,-0.005,-1.82481,1.11164,2.42126,0.101894,-4.31859,0.221264,-0.567619,12.9535,1.18812,-6.24267,0.364568,-2.38927,-0.16317,-0.233781,-0.894323,0.0483398,0.338475,0.076644,0.128969,-0.104736,23.479,23.3797,23.2094,23.3513,23.2378,23.3371,23.1952,
69,6.28308,0.291812,3.14442,4.00424,0.00134702,0.961655,1.57034,-0.000176812,0.133698,0.0238006,-0.101827,0.00827891,0,-0.000456792,1.83123,-8.07575,-6.77488,-2.44997,-5.48794,-1.31099,4.82602,-0.0389575,-14.109,-0.639968,3.43069,0.199977,3.15036,-0.0328799,0.000818124,-0.038216,0.00195128,0.395143,0.00138105,0.383922,-0.00910209,-0.00728417,-0.0812122,-0.0696415,0.0307035,-0.005,-1.82481,1.11164,2.42126,0.101894,-4.31859,0.221264,-0.592811,12.8873,1.15,-6.27086,0.364822,-2.37855,-0.163456,-0.249886,-0.927074,0.0805664,0.354584,0.0846906,0.137022,-0.088623,23.4932,23.3655,23.2094,23.3229,23.252,23.3371,23.1811,
70,6.28308,0.291942,3.14444,4.00414,0.00135653,0.961655,1.57034,-0.000182516,0.132348,0.0213377,-0.101016,0.00874253,0,-0.000509489,1.94755,-7.44968,-7.39993,-2.31753,-6.05773,-0.605835,5.30194,-0.0360274,-13.764,-0.664127,3.45796,0.221624,3.1458,-0.0357739,0.000913546,-0.0405951,0.00212226,0.395143,0.00138105,0.383922,-0.00911204,-0.00640056,-0.080437,-0.0660689,0.0336888,-0.005,-1.709,1.22919,2.28637,0.11258,-4.5306,0.243726,-0.613649,12.8541,1.13336,-6.2528,0.365025,-2.35819,-0.172882,-0.257812,-0.95082,0.112793,0.386803,0.0685998,0.132996,-0.0966797,23.5074,23.3655,23.2094,23.3371,23.2662,23.3229,23.1952,
71,6.28308,0.292081,3.14446,4.00404,0.00136604,0.961655,1.57034,-0.000180609,0.130901,0.0205274,-0.100714,0.00974006,0,-0.000585096,1.94707,-7.45044,-7.39995,-2.31888,-6.05867,-0.605271,5.30252,-0.0360616,-13.7653,-0.664001,3.45573,0.221614,3.14564,-0.0357701,0.000913546,-0.0405951,0.00212226,0.395143,0.00138105,0.383922,-0.00925285,-0.00603749,-0.0797692,-0.0660689,0.0336888,-0.005,-1.709,1.22919,2.28637,0.11258,-4.5306,0.243726,-0.621002,12.7679,1.12041,-6.26006,0.36007,-2.35246,-0.168224,-0.241699,-0.934709,0.161334,0.378748,0.0689537,0.137022,-0.104814,23.4932,23.3513,23.2094,23.3655,23.2378,23.3087,23.1952,
72,6.28308,0.292081,3.14446,4.00404,0.00136604,0.961655,1.57034,-0.000180609,0.130901,0.0205274,-0.100714,0.00974006,0,-0.000585096,1.94707,-7.45044,-7.39995,-2.31888,-6.05867,-0.605271,5.30252,-0.0360616,-13.7653,-0.664001,3.45573,0.221614,3.14564,-0.0357701,0.000913546,-0.0405951,0.00212226,0.395143,0.00138105,0.383922,-0.00925285,-0.00603749,-0.0797692,-0.0660689,0.0336888,-0.005,-1.709,1.22919,2.28637,0.11258,-4.5306,0.243726,-0.621002,12.7679,1.12041,-6.26006,0.36007,-2.35246,-0.168224,-0.241699,-0.934709,0.161334,0.378748,0.0689537,0.137022,-0.104814,23.4932,23.3513,23.2094,23.3655,23.2378,23.3087,23.1952,
73,6.28308,0.29221,3.14448,4.00394,0.00137556,0.961655,1.57033,-0.000186253,0.129785,0.0202573,-0.100476,0.00963348,0,-0.000691334,1.94604,-7.45115,-7.39932,-2.32018,-6.05931,-0.60471,5.30253,-0.0360923,-13.7666,-0.66396,3.45364,0.221594,3.1455,-0.0357674,0.000913546,-0.0405951,0.00212226,0.395143,0.00138105,0.383922,-0.00935843,-0.00595174,-0.0792526,-0.0660689,0.0336888,-0.005,-1.709,1.22919,2.28637,0.11258,-4.5306,0.243726,-0.635341,12.7318,1.1264,-6.21991,0.375816,-2.34501,-0.174534,-0.257812,-0.918492,0.185303,0.378662,0.0604248,0.1372,-0.105046,23.5074,23.3655,23.2236,23.3371,23.252,23.3229,23.1811,
74,6.28308,0.292337,3.1445,4.00384,0.00138412,0.961655,1.57033,-0.000188221,0.129377,0.0175563,-0.101287,0.00912883,0,-0.000795448,1.94594,-7.45162,-7.40035,-2.32163,-6.06071,-0.603784,5.30342,-0.0361216,-13.7679,-0.66384,3.45139,0.221613,3.14536,-0.0357649,0.000913546,-0.0405951,0.00212226,0.395143,0.00138105,0.383922,-0.00967922,-0.00507194,-0.0792966,-0.0660689,0.0336888,-0.005,-1.709,1.22919,2.28637,0.11258,-4.5306,0.243726,-0.615703,12.7103,1.14253,-6.21456,0.367729,-2.35137,-0.180669,-0.257938,-0.942661,0.185478,0.378662,0.0609595,0.141049,-0.101431,23.4932,23.3513,23.2094,23.3371,23.252,23.3087,23.1669,
75,6.28308,0.292466,3.14452,4.00374,0.00139173,0.961655,1.57033,-0.000184463,0.130457,0.0172867,-0.0980454,0.00842661,0,-0.000863761,1.94474,-7.45246,-7.39963,-2.32278,-6.06139,-0.603507,5.30322,-0.0361471,-13.769,-0.663823,3.44923,0.221594,3.14515,-0.035763,0.000913546,-0.0405951,0.00212226,0.395143,0.00138105,0.383922,-0.00868242,-0.00504338,-0.0788242,-0.0660689,0.0336888,-0.005,-1.709,1.22919,2.28637,0.11258,-4.5306,0.243726,-0.595949,12.6942,1.13919,-6.20503,0.375046,-2.3665,-0.163211,-0.257938,-0.975685,0.241699,0.402913,0.0645789,0.132996,-0.108765,23.479,23.3655,23.1952,23.3371,23.2662,23.3229,23.1811,
76,6.28308,0.292593,3.14453,4.00364,0.00139934,0.961656,1.57033,-0.000184463,0.129377,0.0162058,-0.0955428,0.0078096,7.59006e-05,-0.000900835,1.94409,-7.45338,-7.39975,-2.32379,-6.0624,-0.603463,5.3035,-0.03617,-13.7701,-0.663763,3.44726,0.221592,3.14498,-0.0357601,0.000913546,-0.0405951,0.00212226,0.395143,0.00138105,0.383922,-0.00818277,-0.00472879,-0.0776871,-0.0660689,0.0336888,-0.005,-1.709,1.22919,2.28637,0.11258,-4.5306,0.243726,-0.56547,12.6617,1.13693,-6.20909,0.381917,-2.36222,-0.165828,-0.266357,-1.01526,0.249886,0.306152,0.076644,0.149102,-0.104736,23.479,23.3655,23.2094,23.3371,23.2662,23.3087,23.1669,
77,6.28308,0.292728,3.14455,4.00354,0.001406,0.961656,1.57033,-0.000188219,0.126387,0.0153956,-0.0956145,0.00738017,7.09183e-05,-0.000921268,1.94345,-7.45414,-7.39974,-2.32499,-6.06325,-0.603047,5.30381,-0.036191,-13.7714,-0.663718,3.44536,0.221588,3.14485,-0.0357574,0.000913546,-0.0405951,0.00212226,0.395143,0.00138105,0.383922,-0.00862791,-0.0044876,-0.0765116,-0.0660689,0.0336888,-0.005,-1.709,1.22919,2.28637,0.11258,-4.5306,0.243726,-0.588123,12.6638,1.12995,-6.20149,0.38692,-2.35633,-0.161536,-0.274044,-0.990967,0.281982,0.265991,0.076961,0.14502,-0.100789,23.4932,23.3513,23.2094,23.3371,23.252,23.3371,23.1952,
78,6.28308,0.292849,3.14456,4.00345,0.00141456,0.961656,1.57033,-0.000184465,0.123435,0.0159358,-0.0958846,0.00754635,7.0566e-05,-0.000895578,1.94244,-7.4549,-7.39889,-2.32611,-6.06368,-0.602713,5.30369,-0.0362132,-13.7726,-0.663698,3.44355,0.221563,3.14473,-0.0357535,0.000913546,-0.0405951,0.00212226,0.395143,0.00138105,0.383922,-0.00910439,-0.00465836,-0.0754098,-0.0660689,0.0336888,-0.005,-1.709,1.22919,2.28637,0.11258,-4.5306,0.243726,-0.598,12.6487,1.10488,-6.22063,0.391598,-2.35203,-0.167215,-0.257938,-0.926514,0.281982,0.274044,0.0887145,0.153129,-0.104736,23.5074,23.3797,23.2094,23.3371,23.2662,23.3371,23.1669,
79,6.28308,0.292966,3.14458,4.00336,0.00142217,0.961657,1.57033,-0.000184463,0.118722,0.0155476,-0.0955176,0.00755037,0.000194057,-0.000895529,1.94177,-7.45585,-7.3987,-2.32695,-6.06442,-0.602854,5.30392,-0.0362387,-13.7736,-0.663638,3.44204,0.221553,3.14462,-0.0357509,0.000913546,-0.0405951,0.00212226,0.395143,0.00138105,0.383922,-0.00965414,-0.0045253,-0.0734185,-0.0660689,0.0336888,-0.005,-1.709,1.22919,2.28637,0.11258,-4.5306,0.243726,-0.60983,12.6754,1.09181,-6.22274,0.396173,-2.34041,-0.17331,-0.265991,-0.878211,0.265991,0.265991,0.0887145,0.149265,-0.108839,23.4932,23.3655,23.1952,23.3371,23.252,23.3229,23.1811,
80,6.28308,0.293078,3.1446,4.00326,0.00142978,0.961657,1.57033,-0.000178699,0.113711,0.0159358,-0.0932859,0.00755225,0.000182159,-0.00092613,1.98951,-6.60441,-7.34665,-2.34319,-5.95382,0.425909,5.22607,-0.0350106,-13.3013,-0.64437,3.43579,0.216976,3.11222,-0.0354088,0.000990836,-0.0426346,0.00221096,0.395143,0.00138105,0.383922,-0.00973259,-0.00466052,-0.0708123,-0.0627961,0.0355472,-0.005,-1.59426,1.20218,2.05255,0.113907,-4.69158,0.238007,-0.598471,12.6793,1.10253,-6.28725,0.391535,-2.34124,-0.168711,-0.265991,-0.797648,0.282097,0.257812,0.0970148,0.157156,-0.109063,23.479,23.3513,23.2094,23.3371,23.252,23.3229,23.1811,
81,6.28308,0.293196,3.14461,4.00316,0.00143834,0.961658,1.57033,-0.000184617,0.11109,0.0151101,-0.0950743,0.00801598,0.000230734,-0.000902718,1.98909,-6.60488,-7.34669,-2.34433,-5.95461,0.426555,5.22652,-0.0350342,-13.3026,-0.644289,3.43394,0.216971,3.11212,-0.0354047,0.000990836,-0.0426346,0.00221096,0.395143,0.00138105,0.383922,-0.0105874,-0.00433482,-0.0702504,-0.0627961,0.0355472,-0.005,-1.59426,1.20218,2.05255,0.113907,-4.69158,0.238007,-0.60669,12.7021,1.09108,-6.30617,0.383196,-2.35207,-0.17358,-0.257938,-0.717222,0.265869,0.22573,0.0927389,0.16521,-0.112793,23.5074,23.3797,23.2094,23.3513,23.252,23.3229,23.1669,
82,6.28308,0.293308,3.14463,4.00307,0.0014469,0.961658,1.57033,-0.000182516,0.112631,0.0170161,-0.0964248,0.00801598,0.000217464,-0.000895554,1.98733,-6.60513,-7.3446,-2.34578,-5.95452,0.427736,5.22567,-0.0350559,-13.3038,-0.644346,3.43167,0.216923,3.11199,-0.0354017,0.000990836,-0.0426346,0.00221096,0.395143,0.00138105,0.383922,-0.0107365,-0.00498463,-0.0712344,-0.0627961,0.0355472,-0.005,-1.59426,1.20218,2.05255,0.113907,-4.69158,0.238007,-0.615695,12.7266,1.09065,-6.38159,0.392165,-2.35011,-0.165954,-0.265991,-0.693292,0.281982,0.274044,0.100789,0.16521,-0.105046,23.479,23.3513,23.2094,23.3371,23.2378,23.3229,23.1669,
83,6.28308,0.293419,3.14465,4.00297,0.00145451,0.961658,1.57033,-0.000182516,0.112631,0.0170161,-0.0964248,0.00801399,0.000171626,-0.000895554,1.98633,-6.60561,-7.34385,-2.34695,-5.95505,0.428399,5.22557,-0.0350809,-13.3049,-0.644315,3.42967,0.216903,3.11186,-0.0353995,0.000990836,-0.0426346,0.00221096,0.395143,0.00138105,0.383922,-0.0107502,-0.00498423,-0.0712327,-0.0627961,0.0355472,-0.005,-1.59426,1.20218,2.05255,0.113907,-4.69158,0.238007,-0.601704,12.8045,1.10549,-6.42889,0.400692,-2.36158,-0.167714,-0.290039,-0.749268,0.241699,0.298096,0.0970148,0.161183,-0.108839,23.5074,23.3371,23.2094,23.3371,23.2378,23.3229,23.1669,
84,6.28308,0.293531,3.14466,4.00287,0.00146212,0.961658,1.57033,-0.000186253,0.113981,0.0178046,-0.0957936,0.00801399,0.000171626,-0.00089335,1.98491,-6.6061,-7.34246,-2.3482,-5.95537,0.429151,5.2251,-0.0351087,-13.306,-0.644313,3.42746,0.21687,3.1117,-0.0353974,0.000990836,-0.0426346,0.00221096,0.395143,0.00138105,0.383922,-0.0104048,-0.00525136,-0.0715907,-0.0627961,0.0355472,-0.005,-1.59426,1.20218,2.05255,0.113907,-4.69158,0.238007,-0.585782,12.8437,1.12029,-6.48898,0.405363,-2.39596,-0.165012,-0.273926,-0.757367,0.233781,0.282097,0.0966797,0.169237,-0.112793,23.5074,23.3371,23.1952,23.3229,23.252,23.3087,23.1669,
85,6.28308,0.293671,3.14468,4.00278,0.00146974,0.961658,1.57033,-0.000182516,0.11495,0.0180965,-0.0968668,0.00781529,0.000162253,-0.00089335,1.9836,-6.60638,-7.34128,-2.34981,-5.95576,0.430446,5.22483,-0.0351326,-13.3075,-0.644315,3.42501,0.216844,3.11155,-0.0353949,0.000990836,-0.0426346,0.00221096,0.395143,0.00138105,0.383922,-0.010577,-0.00536851,-0.0722651,-0.0627961,0.0355472,-0.005,-1.59426,1.20218,2.05255,0.113907,-4.69158,0.238007,-0.581398,12.8735,1.12002,-6.55636,0.401399,-2.42334,-0.151845,-0.281982,-0.797648,0.217678,0.265991,0.0967636,0.173218,-0.108839,23.4932,23.3939,23.2094,23.3229,23.252,23.3229,23.1811,
86,6.28308,0.293781,3.1447,4.00268,0.0014783,0.961658,1.57032,-0.000182514,0.112361,0.0178264,-0.0958846,0.00781529,0.000161582,-0.000898039,1.98277,-6.60716,-7.34087,-2.35063,-5.95644,0.430466,5.22492,-0.0351599,-13.3084,-0.644261,3.42336,0.21683,3.11143,-0.0353925,0.000990836,-0.0426346,0.00221096,0.395143,0.00138105,0.383922,-0.0106739,-0.00527634,-0.0709606,-0.0627961,0.0355472,-0.005,-1.59426,1.20218,2.05255,0.113907,-4.69158,0.238007,-0.597921,12.9094,1.10858,-6.64026,0.405733,-2.4517,-0.154811,-0.273926,-0.837929,0.217529,0.290151,0.108839,0.181453,-0.124943,23.479,23.3513,23.2094,23.3371,23.2662,23.3229,23.1811,
87,6.28308,0.293873,3.14472,4.00259,0.00148781,0.961658,1.57032,-0.000182516,0.110035,0.0189068,-0.0956145,0.00828097,0.000161582,-0.00089335,1.98155,-6.60788,-7.33959,-2.35141,-5.95667,0.430507,5.22455,-0.0351896,-13.3093,-0.644239,3.42182,0.216795,3.11132,-0.0353902,0.000990836,-0.0426346,0.00221096,0.395143,0.00138105,0.383922,-0.0109102,-0.00560393,-0.0699617,-0.0627961,0.0355472,-0.005,-1.59426,1.20218,2.05255,0.113907,-4.69158,0.238007,-0.595685,12.9466,1.07281,-6.66746,0.405077,-2.47805,-0.149439,-0.290151,-0.781494,0.209628,0.266357,0.0927389,0.181274,-0.108765,23.4932,23.3513,23.2094,23.3229,23.252,23.3229,23.1811,
88,6.28308,0.293981,3.14474,4.00249,0.00149732,0.961658,1.57032,-0.000186253,0.108849,0.0182889,-0.0950412,0.00874253,0.000153239,-0.00090033,1.98083,-6.60853,-7.33928,-2.35239,-5.95745,0.430803,5.22476,-0.0352226,-13.3102,-0.644149,3.41996,0.21678,3.11119,-0.0353876,0.000990836,-0.0426346,0.00221096,0.395143,0.00138105,0.383922,-0.0109339,-0.00535126,-0.0693261,-0.0627961,0.0355472,-0.005,-1.59426,1.20218,2.05255,0.113907,-4.69158,0.238007,-0.609058,12.9676,1.0836,-6.76644,0.394252,-2.50016,-0.1569,-0.282097,-0.741605,0.193359,0.257938,0.105046,0.181453,-0.116891,23.479,23.3371,23.1952,23.3513,23.252,23.3229,23.1811,
89,6.28308,0.294104,3.14476,4.00239,0.00150779,0.961658,1.57032,-0.000182664,0.108118,0.0180965,-0.0958846,0.00999361,0.000153851,-0.00089335,1.98019,-6.60897,-7.33882,-2.35364,-5.95805,0.431603,5.22506,-0.0352522,-13.3115,-0.644055,3.41789,0.21676,3.11106,-0.0353829,0.000990836,-0.0426346,0.00221096,0.395143,0.00138105,0.383922,-0.011275,-0.00517735,-0.0692607,-0.0627961,0.0355472,-0.005,-1.59426,1.20218,2.05255,0.113907,-4.69158,0.238007,-0.618166,13.0107,1.09186,-6.83527,0.394823,-2.51465,-0.164847,-0.281982,-0.741386,0.217678,0.233781,0.101431,0.181274,-0.116891,23.5074,23.3513,23.2236,23.3229,23.252,23.3371,23.1669,
90,6.28308,0.294217,3.14477,4.00229,0.00151825,0.961658,1.57032,-0.000182516,0.106326,0.0180965,-0.0977753,0.0100033,0.000145723,-0.000921268,2.0766,-5.91864,-7.78903,-2.03268,-6.36088,0.99031,5.55742,-0.0327573,-12.931,-0.657205,3.49531,0.23142,3.10804,-0.0379112,0.00107641,-0.0447357,0.00230506,0.395143,0.00138105,0.383922,-0.0120365,-0.00517496,-0.0690634,-0.0585476,0.0375666,-0.005,-1.41818,1.28232,1.92782,0.126542,-4.88131,0.248165,-0.624003,13.0469,1.10471,-6.89109,0.388348,-2.51046,-0.181193,-0.281982,-0.725142,0.209628,0.250275,0.10103,0.197388,-0.12085,23.479,23.3797,23.1952,23.3371,23.2378,23.3229,23.1811,
91,6.28308,0.294324,3.14479,4.0022,0.00152872,0.961659,1.57032,-0.000182516,0.109119,0.0172862,-0.0988557,0.0103577,0.000185466,-0.000917047,2.07586,-5.91878,-7.78866,-2.03409,-6.36164,0.991546,5.55757,-0.0327847,-12.9323,-0.65713,3.49299,0.231405,3.10791,-0.037907,0.00107641,-0.0447357,0.00230506,0.395143,0.00138105,0.383922,-0.0119793,-0.00486661,-0.0704542,-0.0585476,0.0375666,-0.005,-1.41818,1.28232,1.92782,0.126542,-4.88131,0.248165,-0.606035,13.1365,1.09579,-6.91231,0.394577,-2.51023,-0.184372,-0.290039,-0.67695,0.217678,0.290039,0.0926514,0.197552,-0.120917,23.479,23.3655,23.1952,23.3513,23.252,23.3229,23.1669,
92,6.28308,0.294433,3.14481,4.00209,0.00153918,0.961659,1.57032,-0.000180609,0.10993,0.0168015,-0.100213,0.0103543,0.000176795,-0.000917047,2.07492,-5.91911,-7.78811,-2.0354,-6.36238,0.992482,5.55757,-0.0328125,-12.9335,-0.65708,3.49077,0.231387,3.10779,-0.0379035,0.00107641,-0.0447357,0.00230506,0.395143,0.00138105,0.383922,-0.0122575,-0.00470097,-0.07114,-0.0585476,0.0375666,-0.005,-1.41818,1.28232,1.92782,0.126542,-4.88131,0.248165,-0.602927,13.1823,1.08501,-6.96484,0.37824,-2.52706,-0.178032,-0.290039,-0.75771,0.217678,0.314209,0.0926514,0.197388,-0.112865,23.4932,23.3655,23.1811,23.3371,23.252,23.3229,23.1669,
93,6.28308,0.29454,3.14482,4.00199,0.00154774,0.961659,1.57032,-0.000180609,0.109279,0.0159358,-0.104258,0.00999361,0.00017616,-0.000919436,2.07414,-5.91928,-7.78781,-2.03682,-6.36316,0.993696,5.55769,-0.0328365,-12.9348,-0.657043,3.4886,0.231379,3.10772,-0.0379006,0.00107641,-0.0447357,0.00230506,0.395143,0.00138105,0.383922,-0.0134594,-0.00443433,-0.0719813,-0.0585476,0.0375666,-0.005,-1.41818,1.28232,1.92782,0.126542,-4.88131,0.248165,-0.608023,13.2477,1.07753,-6.98847,0.375815,-2.53973,-0.179371,-0.298205,-0.78166,0.233781,0.33042,0.0967636,0.197388,-0.124878,23.479,23.3655,23.1952,23.3229,23.252,23.3087,23.1811,
94,6.28308,0.294657,3.14484,4.00189,0.00155726,0.96166,1.57032,-0.000178597,0.109335,0.0159196,-0.102907,0.00938907,0.000226481,-0.000924211,2.073,-5.91989,-7.78709,-2.03784,-6.36383,0.994053,5.55748,-0.0328568,-12.9359,-0.657035,3.4866,0.231359,3.10757,-0.0378973,0.00107641,-0.0447357,0.00230506,0.395143,0.00138105,0.383922,-0.0131015,-0.00448229,-0.0716202,-0.0585476,0.0375666,-0.005,-1.41818,1.28232,1.92782,0.126542,-4.88131,0.248165,-0.635299,13.2585,1.06732,-7.01928,0.379349,-2.55415,-0.15869,-0.298205,-0.789592,0.258316,0.410968,0.100708,0.197757,-0.12085,23.4932,23.3655,23.1952,23.3371,23.252,23.3087,23.1811,
95,6.28308,0.294766,3.14486,4.00178,0.00156487,0.96166,1.57031,-0.000178597,0.11074,0.0156657,-0.102907,0.00842384,0.0002164,-0.000917047,2.07182,-5.92027,-7.78635,-2.03907,-6.3645,0.99487,5.5572,-0.032877,-12.937,-0.657041,3.48442,0.231343,3.10743,-0.0378954,0.00107641,-0.0447357,0.00230506,0.395143,0.00138105,0.383922,-0.012932,-0.00447897,-0.0721699,-0.0585476,0.0375666,-0.005,-1.41818,1.28232,1.92782,0.126542,-4.88131,0.248165,-0.640481,13.2784,1.09017,-7.04384,0.374181,-2.55757,-0.168021,-0.290039,-0.805825,0.258316,0.354858,0.108765,0.205444,-0.121118,23.479,23.3655,23.1952,23.3371,23.2378,23.3229,23.1811,
96,6.28308,0.294873,3.14487,4.00167,0.00157153,0.96166,1.57031,-0.000176771,0.108579,0.0147953,-0.103818,0.0078096,0.000217145,-0.00091895,2.07105,-5.9209,-7.78625,-2.04004,-6.36546,0.99518,5.55732,-0.0329002,-12.938,-0.656997,3.48254,0.231339,3.10732,-0.0378937,0.00107641,-0.0447357,0.00230506,0.395143,0.00138105,0.383922,-0.0134885,-0.00423529,-0.0715518,-0.0585476,0.0375666,-0.005,-1.41818,1.28232,1.92782,0.126542,-4.88131,0.248165,-0.634818,13.238,1.10972,-7.0615,0.387032,-2.57617,-0.150266,-0.290039,-0.821935,0.274044,0.354492,0.116891,0.205484,-0.124943,23.479,23.3655,23.2094,23.3229,23.2378,23.3229,23.1811,
97,6.28308,0.294977,3.14489,4.00157,0.00157914,0.96166,1.57031,-0.000176912,0.105608,0.0153956,-0.104798,0.00738266,0.000207178,-0.00094573,2.06985,-5.92159,-7.7853,-2.04092,-6.36594,0.995339,5.55701,-0.0329202,-12.939,-0.657011,3.48082,0.231316,3.10723,-0.0378914,0.00107641,-0.0447357,0.00230506,0.395143,0.00138105,0.383922,-0.0141531,-0.00447589,-0.070638,-0.0585476,0.0375666,-0.005,-1.41818,1.28232,1.92782,0.126542,-4.88131,0.248165,-0.652735,13.2318,1.11507,-7.06313,0.383041,-2.58774,-0.14963,-0.306152,-0.773438,0.265991,0.378662,0.12085,0.209511,-0.128969,23.4648,23.3655,23.2094,23.3229,23.2378,23.3087,23.1669,
98,6.28308,0.295091,3.1449,4.00147,0.00158865,0.96166,1.57031,-0.000180451,0.106727,0.0143152,-0.103343,0.00743946,0.000207187,-0.0009715,2.06935,-5.92209,-7.78545,-2.04198,-6.36697,0.995857,5.55734,-0.0329412,-12.9401,-0.656928,3.47873,0.23131,3.10707,-0.0378868,0.00107641,-0.0447357,0.00230506,0.395143,0.00138105,0.383922,-0.0136383,-0.00410154,-0.0706716,-0.0585476,0.0375666,-0.005,-1.41818,1.28232,1.92782,0.126542,-4.88131,0.248165,-0.644315,13.1792,1.11483,-7.10558,0.387785,-2.59917,-0.154463,-0.306152,-0.692918,0.249756,0.378748,0.132996,0.209511,-0.120917,23.4932,23.3513,23.2094,23.3371,23.252,23.3087,23.1669,
99,6.28308,0.295091,3.1449,4.00147,0.00158865,0.96166,1.57031,-0.000180451,0.106727,0.0143152,-0.103343,0.00743946,0.000207187,-0.0009715,2.06935,-5.92209,-7.78545,-2.04198,-6.36697,0.995857,5.55734,-0.0329412,-12.9401,-0.656928,3.47873,0.23131,3.10707,-0.0378868,0.00107641,-0.0447357,0.00230506,0.395143,0.00138105,0.383922,-0.0136383,-0.00410154,-0.0706716,-0.0585476,0.0375666,-0.005,-1.41818,1.28232,1.92782,0.126542,-4.88131,0.248165,-0.644315,13.1792,1.11483,-7.10558,0.387785,-2.59917,-0.154463,-0.306152,-0.692918,0.249756,0.378748,0.132996,0.209511,-0.120917,23.4932,23.3513,23.2094,23.3371,23.252,23.3087,23.1669,
100,6.28308,0.295197,3.14491,4.00137,0.00159816,0.96166,1.57031,-0.000187821,0.108039,0.0145705,-0.102367,0.00797927,0.00019871,-0.00100085,2.09493,-5.62337,-7.88752,-1.40424,-6.452,0.85942,5.62873,-0.0322738,-12.7756,-0.657606,3.64057,0.234045,3.14349,-0.038399,0.00114738,-0.0466425,0.00237499,0.395143,0.00138105,0.383922,-0.0132116,-0.00413875,-0.0709193,-0.0538969,0.039203,-0.005,-1.20776,1.29914,1.97015,0.12848,-5.084,0.252243,-0.627682,13.1651,1.08815,-7.12103,0.390026,-2.60837,-0.159583,-0.306152,-0.733154,0.298096,0.33042,0.137022,0.209473,-0.128906,23.4932,23.3797,23.2094,23.3371,23.252,23.3371,23.1811,
101,6.28308,0.295303,3.14493,4.00126,0.00160863,0.961661,1.57031,-0.000184463,0.107229,0.0148704,-0.10457,0.00887295,0.00019871,-0.000998549,2.09414,-5.62389,-7.88691,-1.40544,-6.45262,0.860076,5.62878,-0.0322966,-12.7768,-0.65755,3.63848,0.234022,3.1434,-0.0383936,0.00114738,-0.0466425,0.00237499,0.395143,0.00138105,0.383922,-0.0139251,-0.00416287,-0.0711954,-0.0538969,0.039203,-0.005,-1.20776,1.29914,1.97015,0.12848,-5.084,0.252243,-0.59702,13.134,1.10442,-7.16048,0.377096,-2.61521,-0.173535,-0.306576,-0.765423,0.265869,0.306258,0.120917,0.217529,-0.116891,23.4932,23.3655,23.2094,23.3371,23.2378,23.3513,23.1952,
102,6.28307,0.295407,3.14495,4.00115,0.00162194,0.961661,1.5703,-0.000190384,0.106148,0.015032,-0.106689,0.0109722,0.000190908,-0.00105392,2.09371,-5.6244,-7.88657,-1.40656,-6.45327,0.860659,5.62918,-0.0323249,-12.778,-0.657431,3.63649,0.233996,3.14332,-0.0383865,0.00114738,-0.0466425,0.00237499,0.395143,0.00138105,0.383922,-0.0146526,-0.00403143,-0.0713419,-0.0538969,0.039203,-0.005,-1.20776,1.29914,1.97015,0.12848,-5.084,0.252243,-0.593399,13.125,1.10667,-7.22636,0.371092,-2.628,-0.173976,-0.306258,-0.741255,0.257812,0.346529,0.129158,0.205484,-0.128969,23.4932,23.3655,23.2094,23.3229,23.2662,23.3371,23.1811,
103,6.28307,0.295512,3.14496,4.00105,0.00163336,0.961662,1.5703,-0.00019228,0.106148,0.0159358,-0.108039,0.0115866,0.000232627,-0.00111955,2.09257,-5.62491,-7.88546,-1.40774,-6.45366,0.861297,5.62893,-0.0323476,-12.7792,-0.657415,3.63441,0.233962,3.14322,-0.0383814,0.00114738,-0.0466425,0.00237499,0.395143,0.00138105,0.383922,-0.015021,-0.00428394,-0.071703,-0.0538969,0.039203,-0.005,-1.20776,1.29914,1.97015,0.12848,-5.084,0.252243,-0.577202,13.0855,1.09306,-7.29466,0.371442,-2.6196,-0.173857,-0.314209,-0.7255,0.273926,0.394775,0.109063,0.225622,-0.120917,23.5074,23.3371,23.1952,23.3371,23.2378,23.3513,23.1669,
104,6.28307,0.295623,3.14498,4.00094,0.00164573,0.961663,1.5703,-0.000188647,0.10457,0.0162058,-0.10993,0.012197,0.00025439,-0.00115601,2.09167,-5.62553,-7.88476,-1.40887,-6.45426,0.86177,5.62893,-0.0323718,-12.7805,-0.65737,3.63239,0.233936,3.14313,-0.038376,0.00114738,-0.0466425,0.00237499,0.395143,0.00138105,0.383922,-0.0157519,-0.0043227,-0.0715861,-0.0538969,0.039203,-0.005,-1.20776,1.29914,1.97015,0.12848,-5.084,0.252243,-0.583467,13.071,1.08814,-7.33061,0.378286,-2.60879,-0.171545,-0.314312,-0.725277,0.233643,0.419023,0.104814,0.221594,-0.117099,23.4932,23.3655,23.1952,23.3371,23.2662,23.3229,23.1811,
105,6.28307,0.295725,3.14499,4.00082,0.00165714,0.961664,1.5703,-0.000194542,0.102803,0.0164759,-0.110338,0.0120132,0.000284379,-0.00119361,2.09058,-5.62634,-7.88404,-1.40978,-6.45495,0.86183,5.62872,-0.0323953,-12.7815,-0.657354,3.63049,0.233912,3.14302,-0.0383718,0.00114738,-0.0466425,0.00237499,0.395143,0.00138105,0.383922,-0.0161065,-0.0044275,-0.0709866,-0.0538969,0.039203,-0.005,-1.20776,1.29914,1.97015,0.12848,-5.084,0.252243,-0.571311,12.999,1.07413,-7.33894,0.37995,-2.6122,-0.166413,-0.314312,-0.692871,0.217529,0.443188,0.0966797,0.225586,-0.128969,23.4932,23.3513,23.2094,23.3513,23.252,23.3229,23.1952,
106,6.28307,0.295827,3.14501,4.00071,0.00166856,0.961665,1.5703,-0.000190728,0.103717,0.0175373,-0.109279,0.0116142,0.000302804,-0.0012369,2.08896,-5.62701,-7.88252,-1.41084,-6.45531,0.862175,5.62807,-0.0324208,-12.7825,-0.657382,3.62843,0.233874,3.14288,-0.0383691,0.00114738,-0.0466425,0.00237499,0.395143,0.00138105,0.383922,-0.0157003,-0.00482521,-0.0710529,-0.0538969,0.039203,-0.005,-1.20776,1.29914,1.97015,0.12848,-5.084,0.252243,-0.587935,12.9528,1.06805,-7.3117,0.373666,-2.60026,-0.163257,-0.322366,-0.660694,0.233643,0.435357,0.10103,0.225622,-0.128906,23.4932,23.3513,23.2094,23.3371,23.252,23.3087,23.1952,
107,6.28307,0.295932,3.14503,4.00061,0.00168093,0.961666,1.57029,-0.000184766,0.106148,0.0183853,-0.107229,0.0115733,0.000328267,-0.00134589,2.08752,-5.62762,-7.88121,-1.41195,-6.45575,0.862637,5.62756,-0.0324461,-12.7835,-0.657385,3.62627,0.233837,3.14272,-0.0383653,0.00114738,-0.0466425,0.00237499,0.395143,0.00138105,0.383922,-0.0148288,-0.00512051,-0.0714481,-0.0538969,0.039203,-0.005,-1.20776,1.29914,1.97015,0.12848,-5.084,0.252243,-0.576827,12.9021,1.06636,-7.29443,0.379246,-2.5954,-0.162636,-0.306258,-0.684862,0.185478,0.394858,0.100708,0.233677,-0.124943,23.479,23.3513,23.2094,23.3513,23.252,23.3229,23.1811,
108,6.28307,0.296037,3.14505,4.0005,0.00169044,0.961667,1.57029,-0.000184766,0.107229,0.0188877,-0.106959,0.010663,0.000352818,-0.00149705,2.08595,-5.62819,-7.87991,-1.41312,-6.45621,0.863191,5.62696,-0.0324711,-12.7846,-0.657424,3.62415,0.233807,3.14259,-0.0383643,0.00114738,-0.0466425,0.00237499,0.395143,0.00138105,0.383922,-0.0146211,-0.00537018,-0.0717936,-0.0538969,0.039203,-0.005,-1.20776,1.29914,1.97015,0.12848,-5.084,0.252243,-0.576081,12.8586,1.06475,-7.28565,0.395469,-2.59381,-0.159167,-0.314209,-0.765381,0.177246,0.338379,0.104814,0.229614,-0.124878,23.4932,23.3655,23.2236,23.3371,23.2378,23.3087,23.1669,
109,6.28307,0.296153,3.14507,4.00039,0.00169995,0.961667,1.57029,-0.000188645,0.108834,0.0199872,-0.108081,0.00958846,0.000341661,-0.00166948,2.08398,-5.62866,-7.87806,-1.4146,-6.4565,0.864156,5.62609,-0.032496,-12.7859,-0.657505,3.62169,0.233767,3.14246,-0.0383632,0.00114738,-0.0466425,0.00237499,0.395143,0.00138105,0.383922,-0.0147162,-0.00583513,-0.072733,-0.0538969,0.039203,-0.005,-1.20776,1.29914,1.97015,0.12848,-5.084,0.252243,-0.532145,12.7202,1.06574,-7.25956,0.393141,-2.58013,-0.163418,-0.322266,-0.773479,0.177246,0.33042,0.112865,0.237671,-0.141221,23.5074,23.3371,23.1811,23.3229,23.2378,23.3229,23.1527,
110,6.28307,0.296261,3.14509,4.00028,0.00170851,0.961668,1.57028,-0.000186608,0.10993,0.0200615,-0.107229,0.00918331,0.000368183,-0.00191963,2.16017,-5.35871,-8.41711,-0.733506,-6.98334,0.679777,6.05007,-0.0304949,-12.6386,-0.684051,3.79186,0.252896,3.18628,-0.0413806,0.00123079,-0.0487816,0.00244177,0.395143,0.00138105,0.383922,-0.0143543,-0.00589612,-0.0729239,-0.0478638,0.0410387,-0.005,-0.994426,1.40622,2.03199,0.140971,-5.31135,0.266183,-0.555043,12.6215,1.08437,-7.31127,0.397646,-2.5937,-0.173456,-0.322266,-0.822133,0.14702,0.346436,0.129158,0.233643,-0.132935,23.479,23.3655,23.2236,23.3371,23.252,23.3087,23.1669,
111,6.28307,0.296367,3.14511,4.00017,0.00171803,0.961668,1.57028,-0.00019228,0.107229,0.0205274,-0.108469,0.00883821,0.000356027,-0.00218507,2.15879,-5.35962,-8.41608,-0.734466,-6.98392,0.679783,6.04974,-0.030524,-12.6398,-0.684063,3.79007,0.252869,3.1862,-0.0413802,0.00123079,-0.0487816,0.00244177,0.395143,0.00138105,0.383922,-0.0150543,-0.0060811,-0.0721875,-0.0478638,0.0410387,-0.005,-0.994426,1.40622,2.03199,0.140971,-5.31135,0.266183,-0.518891,12.4657,1.0492,-7.35856,0.399467,-2.58215,-0.167737,-0.314209,-0.845986,0.145243,0.338475,0.133178,0.241733,-0.128969,23.4932,23.3655,23.2094,23.3371,23.252,23.3371,23.1669,
112,6.28307,0.296469,3.14513,4.00006,0.00172564,0.961668,1.57027,-0.000194542,0.103343,0.0207975,-0.11074,0.00831832,0.000356027,-0.00268971,2.15745,-5.36056,-8.41521,-0.73538,-6.98454,0.679718,6.04947,-0.0305535,-12.641,-0.684088,3.78836,0.252847,3.18614,-0.0413822,0.00123079,-0.0487816,0.00244177,0.395143,0.00138105,0.383922,-0.016191,-0.00621527,-0.071261,-0.0478638,0.0410387,-0.005,-0.994426,1.40622,2.03199,0.140971,-5.31135,0.266183,-0.534316,12.3696,1.03519,-7.3626,0.38998,-2.56255,-0.163748,-0.314209,-0.781536,0.136963,0.354858,0.145075,0.257812,-0.124943,23.4932,23.3513,23.1952,23.3229,23.252,23.3229,23.1811,
113,6.28307,0.296577,3.14515,3.99995,0.0017342,0.96167,1.57027,-0.000202649,0.102063,0.0205066,-0.111592,0.00823797,0.000401671,-0.0032504,2.15639,-5.36142,-8.41477,-0.736452,-6.98543,0.679887,6.04944,-0.0305838,-12.6422,-0.684066,3.7863,0.252829,3.18604,-0.0413822,0.00123079,-0.0487816,0.00244177,0.395143,0.00138105,0.383922,-0.0166078,-0.00611861,-0.0709722,-0.0478638,0.0410387,-0.005,-0.994426,1.40622,2.03199,0.140971,-5.31135,0.266183,-0.481755,12.2003,1.0322,-7.35343,0.392478,-2.55587,-0.158362,-0.306258,-0.701344,0.113938,0.395104,0.145075,0.245728,-0.120917,23.4932,23.3655,23.1952,23.3229,23.2662,23.3371,23.1669,
114,6.28307,0.296679,3.14517,3.99983,0.00174276,0.961672,1.57026,-0.000203603,0.102907,0.0198107,-0.112631,0.00864312,0.000444679,-0.00406469,2.15551,-5.36201,-8.41453,-0.737683,-6.98632,0.680491,6.04955,-0.0306174,-12.6434,-0.684023,3.78414,0.25281,3.18594,-0.0413833,0.00123079,-0.0487816,0.00244177,0.395143,0.00138105,0.383922,-0.0168002,-0.00584453,-0.0715756,-0.0478638,0.0410387,-0.005,-0.994426,1.40622,2.03199,0.140971,-5.31135,0.266183,-0.487266,12.0995,1.0253,-7.35777,0.392587,-2.54448,-0.163846,-0.314312,-0.708984,0.1372,0.402913,0.153129,0.245761,-0.112865,23.479,23.3655,23.2094,23.3371,23.2378,23.3371,23.1952,
115,6.28307,0.29678,3.14519,3.99972,0.00174276,0.961674,1.57025,-0.000212005,0.102907,0.0199872,-0.115602,0.00864312,0.000484211,-0.00533162,2.15427,-5.36253,-8.41382,-0.739029,-6.98691,0.681317,6.04932,-0.0306449,-12.6448,-0.684074,3.78191,0.25279,3.18586,-0.0413893,0.00123079,-0.0487816,0.00244177,0.395143,0.00138105,0.383922,-0.0176177,-0.00589868,-0.0723752,-0.0478638,0.0410387,-0.005,-0.994426,1.40622,2.03199,0.140971,-5.31135,0.266183,-0.48728,11.9682,1.02601,-7.32075,0.392587,-2.53504,-0.175566,-0.330322,-0.741255,0.128906,0.419255,0.153129,0.257812,-0.108765,23.5215,23.3655,23.1952,23.3371,23.2378,23.3229,23.1811,
116,6.28307,0.29678,3.14521,3.99961,0.00175132,0.961676,1.57024,-0.00021335,0.102907,0.0191769,-0.114791,0.00842661,0.000522535,-0.00697674,2.15372,-5.36327,-8.41422,-0.73926,-6.98787,0.680751,6.04924,-0.0306795,-12.6445,-0.684065,3.78087,0.252773,3.18579,-0.0413943,0.00123079,-0.0487816,0.00244177,0.395143,0.00138105,0.383922,-0.0174139,-0.00564071,-0.0721402,-0.0478638,0.0410387,-0.005,-0.994426,1.40622,2.03199,0.140971,-5.31135,0.266183,-0.483661,11.9682,1.01901,-7.28818,0.394183,-2.52096,-0.179387,-0.330322,-0.741255,0.1372,0.475342,0.149265,0.261965,-0.0926514,23.4932,23.3655,23.2094,23.3371,23.252,23.3229,23.1811,
117,6.28307,0.29678,3.14521,3.99961,0.00175132,0.961676,1.57024,-0.00021335,0.102907,0.0191769,-0.114791,0.00842661,0.000522535,-0.00697674,2.15372,-5.36327,-8.41422,-0.73926,-6.98787,0.680751,6.04924,-0.0306795,-12.6445,-0.684065,3.78087,0.252773,3.18579,-0.0413943,0.00123079,-0.0487816,0.00244177,0.395143,0.00138105,0.383922,-0.0174139,-0.00564071,-0.0721402,-0.0478638,0.0410387,-0.005,-0.994426,1.40622,2.03199,0.140971,-5.31135,0.266183,-0.483661,11.9682,1.01901,-7.28818,0.394183,-2.52096,-0.179387,-0.330322,-0.741255,0.1372,0.475342,0.149265,0.261965,-0.0926514,23.4932,23.3655,23.2094,23.3371,23.252,23.3229,23.1811,
118,6.28307,0.296882,3.14523,3.99949,0.00175988,0.961679,1.57024,-0.000222686,0.103447,0.0180782,-0.114791,0.00842384,0.000587483,-0.00697674,2.15304,-5.36398,-8.41424,-0.740349,-6.98899,0.681095,6.04944,-0.0307089,-12.6457,-0.683979,3.77878,0.252766,3.18568,-0.0413915,0.00123079,-0.0487816,0.00244177,0.395143,0.00138105,0.383922,-0.0173695,-0.00526233,-0.072335,-0.0478638,0.0410387,-0.005,-0.994426,1.40622,2.03199,0.140971,-5.31135,0.266183,-0.429498,11.8832,1.00588,-7.18413,0.39339,-2.49719,-0.179387,-0.33042,-0.773438,0.161936,0.451459,0.153076,0.261872,-0.0926514,23.5074,23.3655,23.2236,23.3371,23.252,23.3371,23.1811,
119,6.28307,0.296987,3.14525,3.99937,0.00176749,0.961682,1.57023,-0.000231319,0.105608,0.0182228,-0.115245,0.00816059,0.000647785,-0.00843535,2.1516,-5.36457,-8.41348,-0.741731,-6.98969,0.681848,6.04908,-0.0307393,-12.6469,-0.684038,3.77635,0.252735,3.18555,-0.0413954,0.00123079,-0.0487816,0.00244177,0.395143,0.00138105,0.383922,-0.0172224,-0.00532981,-0.0732998,-0.0478638,0.0410387,-0.005,-0.994426,1.40622,2.03199,0.140971,-5.31135,0.266183,-0.448178,11.698,1.00642,-7.13264,0.39034,-2.47306,-0.17957,-0.314622,-0.78166,0.185478,0.443115,0.157104,0.269897,-0.0805664,23.4932,23.3797,23.2094,23.3371,23.252,23.3229,23.1811,
120,6.28307,0.297098,3.14527,3.99926,0.00177701,0.961685,1.57022,-0.000233328,0.105072,0.0172862,-0.112631,0.0086402,0.000706193,-0.00993717,2.2096,-4.89759,-8.69477,0.0453537,-7.23891,0.551994,6.27471,-0.0292241,-12.3898,-0.69183,3.97575,0.261588,3.21695,-0.0408808,0.001259,-0.0506144,0.00255973,0.395143,0.00138105,0.383922,-0.0166085,-0.0049694,-0.072356,-0.0413286,0.0432227,-0.005,-0.723186,1.45658,2.049,0.127642,-5.50186,0.277594,-0.399902,11.595,0.981509,-7.06871,0.389809,-2.46373,-0.183763,-0.322366,-0.854042,0.193527,0.451244,0.157156,0.269928,-0.0685998,23.479,23.3655,23.1952,23.3655,23.2378,23.3229,23.1952,
121,6.28307,0.297198,3.14528,3.99915,0.00178652,0.961687,1.57021,-0.000243591,0.101454,0.0172862,-0.11101,0.00874253,0.000735222,-0.0100033,2.20872,-4.89895,-8.6944,0.0448661,-7.23985,0.551081,6.27472,-0.02925,-12.3907,-0.691765,3.97427,0.261573,3.21685,-0.0408789,0.001259,-0.0506144,0.00255973,0.395143,0.00138105,0.383922,-0.0166557,-0.00495684,-0.0704693,-0.0413286,0.0432227,-0.005,-0.723186,1.45658,2.049,0.127642,-5.50186,0.277594,-0.420118,11.423,0.975394,-7.04942,0.37629,-2.43948,-0.169464,-0.314209,-0.845947,0.193527,0.395104,0.169381,0.269897,-0.0485074,23.5074,23.3513,23.2094,23.3371,23.2378,23.3371,23.1669,
122,6.28307,0.297296,3.1453,3.99904,0.00179698,0.961689,1.5702,-0.000253955,0.0991258,0.0172862,-0.109389,0.00974327,0.00078874,-0.00900021,2.20802,-4.90019,-8.69388,0.0442758,-7.24077,0.550425,6.27484,-0.0292806,-12.3917,-0.69161,3.97269,0.261557,3.21675,-0.0408746,0.001259,-0.0506144,0.00255973,0.395143,0.00138105,0.383922,-0.0165332,-0.00486617,-0.0690918,-0.0413286,0.0432227,-0.005,-0.723186,1.45658,2.049,0.127642,-5.50186,0.277594,-0.38871,11.2786,0.963725,-6.94809,0.384019,-2.38039,-0.164901,-0.322266,-0.773438,0.201416,0.33042,0.165161,0.281982,-0.0444942,23.4932,23.3797,23.1952,23.3371,23.252,23.3229,23.1952,
123,6.28307,0.297391,3.14532,3.99894,0.0018065,0.961692,1.5702,-0.000249641,0.0958846,0.0170362,-0.10993,0.00974327,0.000833441,-0.00719536,2.20704,-4.90134,-8.69303,0.0435763,-7.24167,0.549951,6.27472,-0.0293135,-12.3928,-0.691465,3.9711,0.261548,3.21668,-0.0408712,0.001259,-0.0506144,0.00255973,0.395143,0.00138105,0.383922,-0.017119,-0.00478178,-0.067942,-0.0413286,0.0432227,-0.005,-0.723186,1.45658,2.049,0.127642,-5.50186,0.277594,-0.398672,11.0369,0.964829,-6.91412,0.38502,-2.36687,-0.169749,-0.322266,-0.749311,0.201416,0.306152,0.157104,0.282011,-0.0483398,23.4932,23.3797,23.1952,23.3371,23.252,23.3371,23.1952,
124,6.28307,0.29749,3.14534,3.99882,0.00181601,0.961695,1.57019,-0.000249363,0.0932859,0.0183666,-0.109733,0.00974327,0.000898668,-0.00526663,2.20549,-4.90257,-8.69124,0.0428125,-7.24219,0.549466,6.2741,-0.0293433,-12.3939,-0.69138,3.96935,0.261521,3.21659,-0.0408668,0.001259,-0.0506144,0.00255973,0.395143,0.00138105,0.383922,-0.0174028,-0.00523419,-0.0668487,-0.0413286,0.0432227,-0.005,-0.723186,1.45658,2.049,0.127642,-5.50186,0.277594,-0.37775,10.9155,0.949107,-6.89216,0.387491,-2.33522,-0.173784,-0.322266,-0.700974,0.185478,0.314209,0.157311,0.286039,-0.0605589,23.479,23.3371,23.1952,23.3513,23.252,23.3229,23.1669,
125,6.28307,0.297579,3.14536,3.99871,0.00182552,0.961699,1.57019,-0.000241571,0.0902126,0.0180965,-0.11074,0.00939216,0.00107268,-0.00368664,2.20445,-4.90364,-8.69043,0.0421099,-7.24308,0.549061,6.27392,-0.0293747,-12.395,-0.691268,3.96776,0.261512,3.21653,-0.0408636,0.001259,-0.0506144,0.00255973,0.395143,0.00138105,0.383922,-0.0180917,-0.0051745,-0.0658788,-0.0413286,0.0432227,-0.005,-0.723186,1.45658,2.049,0.127642,-5.50186,0.277594,-0.406894,10.7521,0.947562,-6.84689,0.378749,-2.29118,-0.16635,-0.322366,-0.668701,0.169381,0.314209,0.169237,0.286011,-0.080667,23.5074,23.3797,23.1952,23.3371,23.252,23.3229,23.1811,
126,6.28307,0.297668,3.14537,3.9986,0.00183409,0.961702,1.57019,-0.00024184,0.0906608,0.0180965,-0.113171,0.00912582,0.00133299,-0.00245776,2.20323,-4.90428,-8.68934,0.0409361,-7.24381,0.549571,6.27357,-0.029405,-12.3962,-0.691197,3.96571,0.261495,3.21647,-0.0408609,0.001259,-0.0506144,0.00255973,0.395143,0.00138105,0.383922,-0.0187044,-0.00519516,-0.0666837,-0.0413286,0.0432227,-0.005,-0.723186,1.45658,2.049,0.127642,-5.50186,0.277594,-0.38221,10.6418,0.930468,-6.74491,0.372618,-2.25759,-0.166201,-0.322366,-0.620414,0.161334,0.354492,0.169237,0.294095,-0.088623,23.479,23.3797,23.2094,23.3229,23.2378,23.3229,23.1811,
127,6.28307,0.297765,3.14539,3.99849,0.0018436,0.961706,1.57019,-0.000238397,0.0907782,0.0195599,-0.11074,0.00936021,0.00174516,-0.00280887,2.20165,-4.90532,-8.68789,0.0401561,-7.24424,0.549283,6.27297,-0.0294343,-12.3971,-0.691211,3.9639,0.261455,3.21634,-0.0408604,0.001259,-0.0506144,0.00255973,0.395143,0.00138105,0.383922,-0.018022,-0.00567493,-0.0660214,-0.0413286,0.0432227,-0.005,-0.723186,1.45658,2.049,0.127642,-5.50186,0.277594,-0.385254,10.4923,0.92758,-6.69332,0.361306,-2.2211,-0.158969,-0.322266,-0.668895,0.169381,0.402913,0.177246,0.290039,-0.100708,23.4932,23.3513,23.2094,23.3229,23.2378,23.3087,23.1952,
128,6.28307,0.297853,3.14541,3.99837,0.00185311,0.961708,1.57018,-0.000238135,0.0894023,0.0191575,-0.109084,0.00912582,0.00213275,-0.00304664,2.20071,-4.90643,-8.68764,0.0395185,-7.24528,0.548762,6.27291,-0.0294639,-12.398,-0.691159,3.96222,0.26144,3.21623,-0.0408596,0.001259,-0.0506144,0.00255973,0.395143,0.00138105,0.383922,-0.017766,-0.00555867,-0.0649749,-0.0413286,0.0432227,-0.005,-0.723186,1.45658,2.049,0.127642,-5.50186,0.277594,-0.36967,10.4433,0.89668,-6.61997,0.363416,-2.21233,-0.156017,-0.306258,-0.668895,0.136963,0.314312,0.16521,0.294067,-0.108839,23.479,23.3371,23.1952,23.3229,23.2378,23.3229,23.1952,
129,6.28307,0.29794,3.14543,3.99827,0.00186262,0.961711,1.57018,-0.000238135,0.0880518,0.0202573,-0.107499,0.00939216,0.00266598,-0.00319133,2.19937,-4.90748,-8.68648,0.0389007,-7.24581,0.548298,6.27247,-0.0294941,-12.3988,-0.691144,3.96063,0.261407,3.21612,-0.040859,0.001259,-0.0506144,0.00255973,0.395143,0.00138105,0.383922,-0.0175069,-0.00590999,-0.0639484,-0.0413286,0.0432227,-0.005,-0.723186,1.45658,2.049,0.127642,-5.50186,0.277594,-0.369725,10.3669,0.894198,-6.58189,0.369193,-2.20252,-0.145799,-0.330322,-0.668701,0.1372,0.298096,0.181453,0.298123,-0.100789,23.479,23.3513,23.1952,23.3229,23.252,23.3229,23.1811,
130,6.28307,0.298025,3.14545,3.99816,0.00187214,0.961713,1.57017,-0.000242371,0.0867013,0.0210676,-0.106148,0.00938907,0.00285747,-0.0036439,2.33316,-3.74435,-9.18676,0.276763,-7.66288,1.62139,6.61938,-0.0259479,-11.7581,-0.698089,4.01719,0.276518,3.17539,-0.0438686,0.00130832,-0.0526435,0.00265689,0.395143,0.00138105,0.383922,-0.0173164,-0.00618441,-0.0630213,-0.0343932,0.0453418,-0.005,-0.506588,1.53755,1.76845,0.145575,-5.65016,0.288564,-0.338975,10.3064,0.881499,-6.48155,0.37975,-2.1893,-0.13272,-0.314209,-0.660694,0.105046,0.257812,0.177246,0.298096,-0.0966797,23.4932,23.3655,23.1952,23.3229,23.2378,23.3371,23.1669,
131,6.28307,0.298108,3.14547,3.99806,0.0018807,0.961715,1.57017,-0.000239019,0.0842704,0.0210676,-0.101454,0.00936338,0.00277737,-0.00392585,2.33219,-3.74567,-9.18643,0.276552,-7.66388,1.62024,6.61928,-0.025979,-11.7587,-0.698028,4.01596,0.276501,3.17527,-0.0438699,0.00130832,-0.0526435,0.00265689,0.395143,0.00138105,0.383922,-0.016367,-0.00619038,-0.060782,-0.0343932,0.0453418,-0.005,-0.506588,1.53755,1.76845,0.145575,-5.65016,0.288564,-0.339844,10.1777,0.88703,-6.44037,0.390161,-2.17448,-0.140132,-0.314622,-0.652588,0.0970148,0.241833,0.185303,0.298205,-0.0926514,23.4932,23.3655,23.2094,23.3229,23.252,23.3229,23.1811,
132,6.28307,0.298195,3.1455,3.99796,0.00188926,0.961716,1.57016,-0.00023155,0.081249,0.0203122,-0.100307,0.00877483,0.00262183,-0.00404061,2.33121,-3.74681,-9.1862,0.276056,-7.665,1.61955,6.61926,-0.026012,-11.7596,-0.697973,4.01452,0.276491,3.17519,-0.0438715,0.00130832,-0.0526435,0.00265689,0.395143,0.00138105,0.383922,-0.0164684,-0.00598752,-0.0592803,-0.0343932,0.0453418,-0.005,-0.506588,1.53755,1.76845,0.145575,-5.65016,0.288564,-0.328334,10.1501,0.889901,-6.38773,0.396708,-2.16712,-0.126931,-0.314312,-0.612305,0.0889885,0.14502,0.189502,0.302151,-0.0967636,23.4932,23.3513,23.2236,23.3087,23.252,23.3087,23.1811,
133,6.28307,0.29827,3.14551,3.99786,0.00189782,0.961718,1.57016,-0.000231303,0.07663,0.019447,-0.100206,0.00842661,0.00260531,-0.00437127,2.33048,-3.74792,-9.18625,0.275732,-7.66606,1.61872,6.61938,-0.026042,-11.7604,-0.697914,4.01335,0.276485,3.17514,-0.0438729,0.00130832,-0.0526435,0.00265689,0.395143,0.00138105,0.383922,-0.0170611,-0.00572295,-0.0574164,-0.0343932,0.0453418,-0.005,-0.506588,1.53755,1.76845,0.145575,-5.65016,0.288564,-0.333675,10.0797,0.890335,-6.3522,0.393169,-2.1539,-0.132342,-0.314622,-0.580078,0.0996551,0.1372,0.189331,0.310285,-0.088623,23.479,23.3513,23.2094,23.3371,23.2378,23.3087,23.1669,
134,6.28307,0.298343,3.14553,3.99775,0.00190638,0.96172,1.57015,-0.000224077,0.0731964,0.0191769,-0.103717,0.00842384,0.002517,-0.00492259,2.32956,-3.74871,-9.18585,0.275066,-7.66683,1.61856,6.61933,-0.0260712,-11.7614,-0.697897,4.0119,0.276469,3.17512,-0.0438741,0.00130832,-0.0526435,0.00265689,0.395143,0.00138105,0.383922,-0.0184758,-0.00563115,-0.057015,-0.0343932,0.0453418,-0.005,-0.506588,1.53755,1.76845,0.145575,-5.65016,0.288564,-0.347808,10.0781,0.900593,-6.30309,0.394438,-2.13659,-0.130828,-0.306152,-0.507568,0.121118,0.145243,0.193401,0.314235,-0.0927389,23.479,23.3655,23.1669,23.3371,23.2378,23.3371,23.1811,
135,6.28307,0.298414,3.14555,3.99765,0.001914,0.961722,1.57015,-0.000224077,0.0726562,0.0175373,-0.103177,0.00837302,0.00245076,-0.0051338,2.32904,-3.7495,-9.18616,0.274441,-7.66807,1.61836,6.61956,-0.0261025,-11.7622,-0.697801,4.01039,0.276465,3.17505,-0.043875,0.00130832,-0.0526435,0.00265689,0.395143,0.00138105,0.383922,-0.018427,-0.00507747,-0.0566491,-0.0343932,0.0453418,-0.005,-0.506588,1.53755,1.76845,0.145575,-5.65016,0.288564,-0.362752,10.0495,0.885732,-6.25692,0.40043,-2.13026,-0.139718,-0.306152,-0.467355,0.14502,0.226161,0.197388,0.330347,-0.0927389,23.479,23.3513,23.2094,23.3229,23.252,23.3229,23.1669,
136,6.28307,0.298493,3.14557,3.99755,0.00192256,0.961725,1.57014,-0.000221021,0.0739767,0.0178264,-0.105608,0.00837302,0.0024663,-0.005178,2.32787,-3.74996,-9.18526,0.273391,-7.6687,1.61891,6.61922,-0.0261285,-11.7633,-0.697794,4.0085,0.276441,3.175,-0.0438745,0.00130832,-0.0526435,0.00265689,0.395143,0.00138105,0.383922,-0.0189233,-0.00517468,-0.0578262,-0.0343932,0.0453418,-0.005,-0.506588,1.53755,1.76845,0.145575,-5.65016,0.288564,-0.37431,10.0889,0.880231,-6.18965,0.415738,-2.12377,-0.152949,-0.306152,-0.491719,0.154973,0.217529,0.201416,0.326319,-0.076644,23.4932,23.3655,23.1952,23.3229,23.252,23.2946,23.1527,
137,6.28307,0.298565,3.14557,3.99743,0.00193207,0.961729,1.57014,-0.000213654,0.0731964,0.0178264,-0.108834,0.00854596,0.00263295,-0.00506592,2.32757,-3.75048,-9.18548,0.272611,-7.66964,1.61912,6.61939,-0.0261251,-11.7643,-0.697771,4.00674,0.276434,3.17496,-0.0438645,0.00130832,-0.0526435,0.00265689,0.395143,0.00138105,0.383922,-0.0199116,-0.00515995,-0.0583702,-0.0343932,0.0453418,-0.005,-0.506588,1.53755,1.76845,0.145575,-5.65016,0.288564,-0.389744,10.075,0.880231,-6.13714,0.407791,-2.13862,-0.162312,-0.306152,-0.531799,0.154973,0.274044,0.209511,0.330347,-0.0805664,23.4932,23.3655,23.1952,23.3371,23.252,23.3087,23.1669,
138,6.28307,0.298637,3.14559,3.99731,0.00193968,0.961734,1.57013,-0.000213433,0.0731964,0.0153956,-0.108586,0.00827891,0.00269419,-0.00506592,2.32735,-3.75127,-9.1864,0.271912,-7.67129,1.61899,6.61982,-0.0261519,-11.7651,-0.697642,4.00498,0.276442,3.17488,-0.0438626,0.00130832,-0.0526435,0.00265689,0.395143,0.00138105,0.383922,-0.0198818,-0.00435589,-0.0582802,-0.0343932,0.0453418,-0.005,-0.506588,1.53755,1.76845,0.145575,-5.65016,0.288564,-0.418278,10.1101,0.866914,-6.08331,0.409716,-2.14019,-0.15255,-0.314312,-0.515688,0.1372,0.362549,0.205484,0.338379,-0.0849775,23.4932,23.3513,23.2094,23.3229,23.2378,23.3229,23.1811,
139,6.28307,0.298709,3.1456,3.99722,0.00194919,0.96174,1.57013,-0.000213654,0.0726562,0.0148554,-0.10844,0.00874253,0.00284818,-0.0050033,2.32678,-3.75195,-9.18628,0.271328,-7.67214,1.61886,6.61991,-0.0261756,-11.7659,-0.697563,4.00357,0.276429,3.17482,-0.0438603,0.00130832,-0.0526435,0.00265689,0.395143,0.00138105,0.383922,-0.0199262,-0.00413132,-0.0580028,-0.0343932,0.0453418,-0.005,-0.506588,1.53755,1.76845,0.145575,-5.65016,0.288564,-0.403247,10.1455,0.840522,-6.00385,0.40846,-2.13492,-0.15188,-0.306152,-0.531799,0.201416,0.370605,0.217567,0.338403,-0.080667,23.479,23.3655,23.2094,23.3371,23.2378,23.3229,23.1669,
140,6.28307,0.298787,3.14561,3.99709,0.00195776,0.961746,1.57012,-0.000210779,0.073406,0.0140451,-0.109247,0.0086402,0.00317731,-0.00482695,2.40134,-2.74546,-9.29929,0.857362,-7.71785,2.18882,6.67689,-0.0241971,-11.2114,-0.685289,4.15251,0.277309,3.15905,-0.0435505,0.00134741,-0.0544317,0.00274591,0.395143,0.00138105,0.383922,-0.020067,-0.00386448,-0.0584731,-0.0270664,0.0472709,-0.005,-0.214205,1.54207,1.59009,0.141957,-5.7997,0.288478,-0.394761,10.2114,0.837664,-5.88702,0.417953,-2.14688,-0.143339,-0.314312,-0.531738,0.217678,0.354492,0.217529,0.342431,-0.080667,23.4932,23.3655,23.1811,23.3229,23.2378,23.3229,23.1811,
141,6.28307,0.29886,3.14563,3.99698,0.00196822,0.961754,1.57012,-0.000203511,0.0740067,0.0132907,-0.109119,0.00939216,0.00385353,-0.00480009,2.40089,-2.74604,-9.29941,0.856751,-7.71893,2.18882,6.67709,-0.0242198,-11.2123,-0.68519,4.1509,0.277298,3.15899,-0.0435466,0.00134741,-0.0544317,0.00274591,0.395143,0.00138105,0.383922,-0.0199689,-0.00354486,-0.0585956,-0.0270664,0.0472709,-0.005,-0.214205,1.54207,1.59009,0.141957,-5.7997,0.288478,-0.401612,10.2254,0.865445,-5.83181,0.40589,-2.15313,-0.141599,-0.314209,-0.555908,0.249756,0.394858,0.217567,0.346436,-0.080667,23.5074,23.3513,23.2236,23.3371,23.252,23.3229,23.1669,
142,6.28307,0.298932,3.14564,3.99687,0.00197868,0.961762,1.57011,-0.0002033,0.0731964,0.0121421,-0.106959,0.00974327,0.00483836,-0.00475485,2.40059,-2.74682,-9.29988,0.856455,-7.72018,2.18828,6.67739,-0.0242384,-11.2129,-0.685083,4.14955,0.277294,3.1589,-0.043542,0.00134741,-0.0544317,0.00274591,0.395143,0.00138105,0.383922,-0.019502,-0.00312463,-0.0575728,-0.0270664,0.0472709,-0.005,-0.214205,1.54207,1.59009,0.141957,-5.7997,0.288478,-0.4412,10.2674,0.890788,-5.70591,0.398767,-2.13597,-0.14327,-0.306576,-0.580302,0.249756,0.387054,0.221558,0.346436,-0.076644,23.5074,23.3655,23.1952,23.3371,23.252,23.3229,23.1811,
143,6.28307,0.299001,3.14565,3.99677,0.0019882,0.96177,1.57011,-0.00019604,0.0702253,0.0126946,-0.105878,0.0100066,0.00649275,-0.00469531,2.39979,-2.74767,-9.29945,0.856332,-7.72095,2.18752,6.67724,-0.0242551,-11.2135,-0.685042,4.14838,0.277276,3.15884,-0.0435388,0.00134741,-0.0544317,0.00274591,0.395143,0.00138105,0.383922,-0.0195857,-0.00329245,-0.0559241,-0.0270664,0.0472709,-0.005,-0.214205,1.54207,1.59009,0.141957,-5.7997,0.288478,-0.419362,10.3137,0.879262,-5.60844,0.400307,-2.11101,-0.148475,-0.306152,-0.596246,0.257938,0.338475,0.213539,0.346436,-0.0726216,23.4648,23.3655,23.1811,23.3371,23.252,23.3087,23.1811,
144,6.28307,0.299074,3.14566,3.99666,0.00199676,0.96178,1.5701,-0.000196246,0.0687106,0.0116142,-0.108039,0.00963022,0.00797831,-0.00469531,2.39929,-2.74818,-9.2997,0.855841,-7.72207,2.18745,6.67737,-0.0242716,-11.2143,-0.684985,4.1469,0.277274,3.1588,-0.0435358,0.00134741,-0.0544317,0.00274591,0.395143,0.00138105,0.383922,-0.0203837,-0.00295541,-0.0557441,-0.0270664,0.0472709,-0.005,-0.214205,1.54207,1.59009,0.141957,-5.7997,0.288478,-0.422553,10.4218,0.869569,-5.52994,0.399235,-2.09553,-0.143422,-0.314209,-0.540035,0.265869,0.33042,0.217567,0.338379,-0.076644,23.4932,23.3513,23.2094,23.3513,23.252,23.3087,23.1811,
145,6.28307,0.299142,3.14568,3.99655,0.00200627,0.961789,1.5701,-0.00019364,0.0693447,0.0115353,-0.107478,0.00912582,0.00891096,-0.00471857,2.39844,-2.74877,-9.29947,0.855275,-7.72303,2.18737,6.67717,-0.0242876,-11.215,-0.684963,4.1453,0.277261,3.15873,-0.0435328,0.00134741,-0.0544317,0.00274591,0.395143,0.00138105,0.383922,-0.0201535,-0.00297313,-0.0557368,-0.0270664,0.0472709,-0.005,-0.214205,1.54207,1.59009,0.141957,-5.7997,0.288478,-0.396422,10.4788,0.899298,-5.49768,0.397363,-2.07063,-0.139674,-0.314312,-0.515688,0.282097,0.402832,0.225622,0.314209,-0.0805664,23.4932,23.3513,23.1952,23.3371,23.2378,23.3229,23.1811,
146,6.28307,0.299212,3.14569,3.99644,0.00201578,0.961801,1.57009,-0.00019344,0.0702253,0.0121544,-0.107229,0.00912582,0.0100033,-0.00465548,2.39751,-2.74927,-9.29888,0.854699,-7.72372,2.18741,6.67688,-0.0243028,-11.2158,-0.684946,4.14374,0.277242,3.15866,-0.0435293,0.00134741,-0.0544317,0.00274591,0.395143,0.00138105,0.383922,-0.0199669,-0.0031831,-0.0558975,-0.0270664,0.0472709,-0.005,-0.214205,1.54207,1.59009,0.141957,-5.7997,0.288478,-0.439851,10.5764,0.90922,-5.45694,0.392635,-2.05358,-0.128288,-0.306152,-0.547911,0.281982,0.394775,0.221594,0.314209,-0.076644,23.479,23.3655,23.1952,23.3229,23.2378,23.3229,23.1669,
147,6.28307,0.299282,3.1457,3.99634,0.00202435,0.961812,1.57009,-0.00019344,0.0707655,0.0116024,-0.107499,0.00912883,0.0107053,-0.0047179,2.39694,-2.74979,-9.29892,0.854102,-7.7247,2.18744,6.67691,-0.0243191,-11.2166,-0.684895,4.14216,0.277234,3.1586,-0.0435259,0.00134741,-0.0544317,0.00274591,0.395143,0.00138105,0.383922,-0.0199818,-0.00299436,-0.0561019,-0.0270664,0.0472709,-0.005,-0.214205,1.54207,1.59009,0.141957,-5.7997,0.288478,-0.414601,10.6973,0.907193,-5.42717,0.382693,-2.0395,-0.13382,-0.314622,-0.547852,0.257938,0.402913,0.233677,0.306152,-0.0765381,23.4932,23.3655,23.1952,23.3229,23.252,23.3229,23.1669,
148,6.28307,0.299356,3.14571,3.99622,0.00203386,0.961824,1.57008,-0.000190908,0.0697136,0.0127075,-0.106326,0.00936338,0.0112355,-0.00483113,2.39592,-2.75065,-9.29822,0.853663,-7.72536,2.18698,6.67657,-0.0243345,-11.2173,-0.684886,4.14067,0.277211,3.15853,-0.0435227,0.00134741,-0.0544317,0.00274591,0.395143,0.00138105,0.383922,-0.0197915,-0.00335085,-0.0553082,-0.0270664,0.0472709,-0.005,-0.214205,1.54207,1.59009,0.141957,-5.7997,0.288478,-0.432332,10.8218,0.904693,-5.37006,0.394319,-2.03446,-0.13621,-0.306258,-0.572248,0.274044,0.435133,0.241733,0.302124,-0.0805664,23.479,23.3513,23.1952,23.3229,23.252,23.3229,23.1527,
149,6.28307,0.299423,3.14572,3.99612,0.00204528,0.961835,1.57008,-0.000190908,0.0688749,0.0120369,-0.103447,0.00974006,0.0116142,-0.00486956,2.39545,-2.75155,-9.2984,0.853365,-7.72642,2.18633,6.6767,-0.0243538,-11.2179,-0.684801,4.13938,0.2772,3.15844,-0.0435184,0.00134741,-0.0544317,0.00274591,0.395143,0.00138105,0.383922,-0.0191283,-0.00309166,-0.0541465,-0.0270664,0.0472709,-0.005,-0.214205,1.54207,1.59009,0.141957,-5.7997,0.288478,-0.435034,10.894,0.919109,-5.35091,0.382851,-2.04777,-0.139537,-0.306152,-0.531982,0.257812,0.410889,0.233677,0.302151,-0.0685998,23.4932,23.3513,23.2094,23.3229,23.252,23.3087,23.1811,
150,6.28307,0.299493,3.14574,3.99602,0.00205479,0.961846,1.57007,-0.000188254,0.0707655,0.0126817,-0.103343,0.0100033,0.0112355,-0.00488443,2.45083,-2.03373,-9.40541,1.32143,-7.79086,2.57266,6.73577,-0.022867,-10.823,-0.677708,4.25834,0.278728,3.15342,-0.0440162,0.00138471,-0.0561492,0.00278657,0.395143,0.00138105,0.383922,-0.0188587,-0.00328866,-0.0549023,-0.0188785,0.0485949,-0.005,0.00749388,1.5506,1.4744,0.145386,-5.93637,0.285444,-0.468837,10.9791,0.943734,-5.32295,0.378046,-2.06728,-0.144444,-0.322266,-0.499577,0.249886,0.346436,0.237705,0.298123,-0.0684814,23.479,23.3513,23.1952,23.3229,23.2378,23.3229,23.1811,
151,6.28307,0.299565,3.14575,3.99592,0.00206335,0.961857,1.57007,-0.000188254,0.0731223,0.0129647,-0.101827,0.00974006,0.0109722,-0.00498281,2.44988,-2.03434,-9.40491,1.32075,-7.79161,2.57269,6.73548,-0.0228827,-10.8239,-0.677702,4.2567,0.278711,3.15335,-0.044014,0.00138471,-0.0561492,0.00278657,0.395143,0.00138105,0.383922,-0.0181475,-0.00340832,-0.0554459,-0.0188785,0.0485949,-0.005,0.00749388,1.5506,1.4744,0.145386,-5.93637,0.285444,-0.456949,11.0849,0.949766,-5.30698,0.382411,-2.07373,-0.138464,-0.314312,-0.555908,0.249886,0.362907,0.241733,0.302124,-0.080667,23.5074,23.3655,23.1952,23.3371,23.2236,23.3229,23.1952,
152,6.28307,0.299565,3.14575,3.99592,0.00206335,0.961857,1.57007,-0.000188254,0.0731223,0.0129647,-0.101827,0.00974006,0.0109722,-0.00498281,2.44988,-2.03434,-9.40491,1.32075,-7.79161,2.57269,6.73548,-0.0228827,-10.8239,-0.677702,4.2567,0.278711,3.15335,-0.044014,0.00138471,-0.0561492,0.00278657,0.395143,0.00138105,0.383922,-0.0181475,-0.00340832,-0.0554459,-0.0188785,0.0485949,-0.005,0.00749388,1.5506,1.4744,0.145386,-5.93637,0.285444,-0.456949,11.0849,0.949766,-5.30698,0.382411,-2.07373,-0.138464,-0.314312,-0.555908,0.249886,0.362907,0.241733,0.302124,-0.080667,23.5074,23.3655,23.1952,23.3371,23.2236,23.3229,23.1952,
153,6.28307,0.299645,3.14576,3.99582,0.00207286,0.961864,1.57006,-0.000185852,0.074729,0.0135049,-0.0988557,0.00912883,0.00974006,-0.0051338,2.44873,-2.03525,-9.40423,1.3201,-7.79232,2.57238,6.73508,-0.0228976,-10.8248,-0.677718,4.25511,0.27869,3.15326,-0.044012,0.00138471,-0.0561492,0.00278657,0.395143,0.00138105,0.383922,-0.0171389,-0.00364787,-0.0554013,-0.0188785,0.0485949,-0.005,0.00749388,1.5506,1.4744,0.145386,-5.93637,0.285444,-0.467027,11.2005,0.955124,-5.3107,0.386561,-2.08818,-0.131529,-0.322266,-0.596246,0.233643,0.338475,0.241699,0.310207,-0.0805664,23.479,23.3655,23.1952,23.3229,23.2378,23.3087,23.1669,
154,6.28307,0.299718,3.14578,3.99573,0.00208143,0.961873,1.57006,-0.000179145,0.0745469,0.0142938,-0.0972351,0.00877772,0.00900021,-0.00524454,2.44756,-2.03615,-9.4034,1.31957,-7.79292,2.57197,6.73465,-0.0229163,-10.8257,-0.677729,4.25369,0.278668,3.15319,-0.0440115,0.00138471,-0.0561492,0.00278657,0.395143,0.00138105,0.383922,-0.0167235,-0.00394997,-0.0549647,-0.0188785,0.0485949,-0.005,0.00749388,1.5506,1.4744,0.145386,-5.93637,0.285444,-0.458506,11.2881,0.972704,-5.35166,0.381222,-2.10897,-0.129631,-0.306258,-0.620361,0.225586,0.274044,0.249886,0.322291,-0.0605589,23.4932,23.3371,23.2094,23.3371,23.2378,23.2946,23.1952,
155,6.28307,0.299791,3.14579,3.99562,0.00208904,0.961881,1.57005,-0.000179147,0.0740067,0.0143152,-0.0972982,0.00842661,0.0078096,-0.00488817,2.44662,-2.03702,-9.4029,1.31891,-7.79374,2.57172,6.73441,-0.0229358,-10.8267,-0.677701,4.25215,0.278655,3.15315,-0.0440101,0.00138471,-0.0561492,0.00278657,0.395143,0.00138105,0.383922,-0.0168256,-0.00398744,-0.054888,-0.0188785,0.0485949,-0.005,0.00749388,1.5506,1.4744,0.145386,-5.93637,0.285444,-0.471343,11.3814,0.971834,-5.39857,0.378117,-2.12576,-0.129122,-0.314622,-0.620414,0.209473,0.273926,0.253784,0.338379,-0.0685998,23.479,23.3513,23.2094,23.3371,23.2378,23.3229,23.1811,
156,6.28307,0.299864,3.14581,3.99553,0.00209665,0.961887,1.57005,-0.000183516,0.0740067,0.0148403,-0.0958846,0.00801289,0.00754884,-0.00482695,2.44554,-2.03782,-9.40219,1.3184,-7.79441,2.57139,6.73404,-0.0229544,-10.8275,-0.677698,4.25074,0.278637,3.15308,-0.0440094,0.00138471,-0.0561492,0.00278657,0.395143,0.00138105,0.383922,-0.0164433,-0.00420069,-0.0545283,-0.0188785,0.0485949,-0.005,0.00749388,1.5506,1.4744,0.145386,-5.93637,0.285444,-0.451529,11.4669,0.972015,-5.4848,0.38229,-2.14851,-0.126307,-0.322366,-0.62847,0.201577,0.273926,0.257938,0.350487,-0.076644,23.4932,23.3655,23.1811,23.3229,23.252,23.3087,23.1952,
157,6.28307,0.29994,3.14582,3.99543,0.00210426,0.961893,1.57004,-0.000181236,0.0767077,0.0145853,-0.0945341,0.00774279,0.00658329,-0.00473919,2.44462,-2.03847,-9.40175,1.31761,-7.79523,2.5715,6.73384,-0.0229738,-10.8285,-0.677673,4.24906,0.278622,3.15301,-0.0440084,0.00138471,-0.0561492,0.00278657,0.395143,0.00138105,0.383922,-0.0157433,-0.00413905,-0.0553259,-0.0188785,0.0485949,-0.005,0.00749388,1.5506,1.4744,0.145386,-5.93637,0.285444,-0.483555,11.5874,0.960503,-5.53029,0.382284,-2.16571,-0.129377,-0.330322,-0.612517,0.201577,0.249756,0.277954,0.362571,-0.0645789,23.479,23.3655,23.1952,23.3229,23.2378,23.3229,23.1527,
158,6.28307,0.300023,3.14584,3.99533,0.00211282,0.961898,1.57004,-0.000174523,0.0782398,0.0150461,-0.0934486,0.0078096,0.00576208,-0.00426604,2.44349,-2.03924,-9.40088,1.31685,-7.79594,2.57145,6.73352,-0.0229958,-10.8296,-0.677641,4.24735,0.278601,3.15294,-0.0440064,0.00138471,-0.0561492,0.00278657,0.395143,0.00138105,0.383922,-0.0152582,-0.00429289,-0.0557201,-0.0188785,0.0485949,-0.005,0.00749388,1.5506,1.4744,0.145386,-5.93637,0.285444,-0.463594,11.6801,0.960117,-5.589,0.39413,-2.17425,-0.141319,-0.322266,-0.660841,0.185478,0.234198,0.269897,0.370693,-0.0765381,23.479,23.3655,23.1952,23.3087,23.252,23.3087,23.1811,
