LWingKi/MAS_RnD/log/us2/contactless/44/grasp_log_12_08_2023_16_22_01.csv
Index,joint_angle_0,joint_angle_1,joint_angle_2,joint_angle_3,joint_angle_4,joint_angle_5,joint_angle_6,joint_velocity_0,joint_velocity_1,joint_velocity_2,joint_velocity_3,joint_velocity_4,joint_velocity_5,joint_velocity_6,joint_accel_0,joint_accel_1,joint_accel_2,joint_accel_3,joint_accel_4,joint_accel_5,joint_accel_6,constraint_tau_0,constraint_tau_1,constraint_tau_2,constraint_tau_3,constraint_tau_4,constraint_tau_5,constraint_tau_6,current_pos_x,current_pos_y,current_pos_z,target_pos_x,target_pos_y,target_pos_z,current_vel_x,current_vel_y,current_vel_z,target_vel_x,target_vel_y,target_vel_z,control_signal_linear_x,control_signal_linear_y,control_signal_linear_z,control_signal_angular_x,control_signal_angular_y,control_signal_angular_z,joint_torque_0,joint_torque_1,joint_torque_2,joint_torque_3,joint_torque_4,joint_torque_5,joint_torque_6,actuar_current_0,actuar_current_1,actuar_current_2,actuar_current_3,actuar_current_4,actuar_current_5,actuar_current_6,actuar_voltage_0,actuar_voltage_1,actuar_voltage_2,actuar_voltage_3,actuar_voltage_4,actuar_voltage_5,actuar_voltage_6
0,6.27316,1.38555,3.15339,4.1243,6.274,1.97829,1.55557,0.00863436,0.00357649,7.95448e-06,0.0948042,0.000206817,0.040803,0,0.321526,1.38537,-0.949113,7.34788,-1.7019,6.33705,0.189949,-0.0134834,-16.4675,-0.363686,1.63288,-0.050756,3.5313,-0.0149819,4.25055e-05,-0.00456004,-0.000567335,0.496279,0.00111832,0.0734822,0.0266029,-0.00314964,0.00126308,2.02364,-0.00480885,0.005,1.82127,-0.00432796,0.0045,0.114765,-12.3121,-1.5318,1.30643,1.84204,0.00600825,5.52244,0.286163,5.41339,0.116547,0.515625,0.185303,0.169381,-0.105969,-0.0887145,-0.676758,-0.153129,23.479,23.3655,23.2094,23.3087,23.2378,23.3087,23.1669,
1,6.27317,1.38556,3.15339,4.12439,6.274,1.97832,1.55557,0.00918331,0.00357649,7.95448e-06,0.0956145,0.000217258,0.0421507,0,0.33276,-3.09447,-0.261876,3.87315,0.663398,-10.9168,0.606779,-0.0105099,-19.1762,-0.374563,1.0245,-0.0381775,1.80342,-0.00160149,0,0,0,0.496279,0.00111832,0.0734822,0.0268359,-0.00336278,0.0013942,2,0,0.005,1.77606,0.00283468,0.00336323,-0.0227363,3.96042,0.20182,1.30086,1.91868,-0.0163423,5.47926,0.283093,5.37315,0.117283,0.539795,0.201577,0.161334,-0.0725098,-0.0726216,-0.672778,-0.165161,23.4932,23.3655,23.1669,23.3229,23.2236,23.3229,23.1385,
2,6.27318,1.38556,3.15339,4.12448,6.274,1.97837,1.55557,0.0095292,0.00384142,5.30304e-06,0.0934537,0.000227856,0.0453764,0,0.333341,-3.20552,-0.249699,3.78821,0.710285,-11.3468,0.61704,-0.0103647,-19.2441,-0.375197,1.01062,-0.0379005,1.76026,-0.00128092,-1.10057e-06,0.000125807,6.4485e-06,0.496279,0.00111832,0.0734822,0.0261539,-0.0034984,0.00167045,1.99947,6.48193e-05,0.005,1.77537,0.00308484,0.00324522,-0.0259616,4.36483,0.234517,1.283,2.04906,-0.0296621,5.51526,0.291763,5.29289,0.108509,0.515688,0.217678,0.169381,-0.0649547,-0.0725098,-0.656629,-0.161133,23.4648,23.3513,23.1669,23.3087,23.2236,23.2804,23.1385,
3,6.27319,1.38557,3.15339,4.12458,6.274,1.97841,1.55557,0.00918331,0.0042388,5.29498e-06,0.0940382,0.000238454,0.0472671,0,0.333863,-3.31027,-0.238618,3.71081,0.752586,-11.7536,0.626499,-0.0102236,-19.3084,-0.375842,0.998384,-0.0376567,1.71972,-0.000972758,-2.4244e-06,0.000257602,1.37923e-05,0.496279,0.00111832,0.0734822,0.0262362,-0.00335734,0.00170557,1.99896,0.000136438,0.005,1.77553,0.00327136,0.00299659,-0.029052,4.74467,0.263699,1.29901,2.13481,-0.0210001,5.57551,0.315535,5.26231,0.0941811,0.507632,0.217529,0.169189,-0.0113938,-0.0725098,-0.676758,-0.185347,23.4648,23.3655,23.1811,23.3087,23.2236,23.2946,23.1527,
4,6.2732,1.38557,3.15339,4.12468,6.27401,1.97846,1.55557,0.00918331,0.00503483,5.30299e-06,0.0961547,0.00024924,0.0501872,0,0.335138,-3.43261,-0.237126,3.61814,0.768831,-12.2271,0.635221,-0.00988992,-19.3833,-0.377395,0.98315,-0.0376096,1.67237,-0.000633726,-3.54473e-06,0.000398986,2.00021e-05,0.496279,0.00111832,0.0734822,0.0266763,-0.00334938,0.00166518,1.99841,0.000200739,0.005,1.77495,0.00320227,0.00296499,-0.0321485,5.18872,0.268733,1.25754,2.22385,-0.0368409,5.61182,0.302556,5.214,0.103847,0.523744,0.233643,0.169381,-0.00805664,-0.072956,-0.660657,-0.181274,23.479,23.3655,23.1669,23.3229,23.2378,23.2946,23.1385,
5,6.2732,1.38557,3.15339,4.12468,6.27401,1.97846,1.55557,0.00918331,0.00503483,5.30299e-06,0.0961547,0.00024924,0.0501872,0,0.336367,-3.57046,-0.232055,3.51315,0.797038,-12.7589,0.645335,-0.00956293,-19.4666,-0.378876,0.964841,-0.0374897,1.61932,-0.000293577,-4.60764e-06,0.000536775,2.62261e-05,0.496279,0.00111832,0.0734822,0.0266763,-0.00334938,0.00166518,1.99789,0.000265225,0.005,1.77409,0.00325314,0.00300133,-0.0353112,5.68796,0.283175,1.25754,2.22385,-0.0368409,5.61182,0.302556,5.214,0.103847,0.523744,0.233643,0.169381,-0.00805664,-0.072956,-0.660657,-0.181274,23.479,23.3655,23.1669,23.3229,23.2378,23.2946,23.1385,
6,6.27321,1.38558,3.15339,4.12478,6.27401,1.97852,1.55557,0.00864312,0.00649551,5.30299e-06,0.0982159,0.000254354,0.0526614,0,0.336342,-3.57017,-0.232056,3.51321,0.797068,-12.7587,0.645379,-0.00956217,-19.4674,-0.37891,0.965772,-0.0374726,1.61916,-0.000294765,-4.60764e-06,0.000536775,2.62261e-05,0.496279,0.00111832,0.0734822,0.0269594,-0.00313004,0.00131513,1.99789,0.000265225,0.005,1.77409,0.00325314,0.00300133,-0.0353112,5.68796,0.283175,1.27936,2.34004,-0.0587452,5.66381,0.296913,5.17453,0.101563,0.507568,0.241833,0.153076,-0.0322266,-0.0644531,-0.672778,-0.193359,23.479,23.3371,23.1811,23.2946,23.2236,23.2946,23.1527,
7,6.27322,1.38559,3.15339,4.12487,6.27401,1.97857,1.55557,0.00901917,0.00831832,0,0.100206,0.000275547,0.0550999,-1.059e-05,0.3379,-3.70396,-0.233352,3.41166,0.806388,-13.2738,0.65338,-0.00915665,-19.5493,-0.380812,0.949014,-0.0374832,1.56772,-2.42538e-05,-5.45611e-06,0.000681495,3.22836e-05,0.496279,0.00111832,0.0734822,0.0271465,-0.00327186,0.000819043,1.99736,0.000326309,0.005,1.77336,0.00311071,0.00331639,-0.0376246,6.17092,0.281341,1.23821,2.45264,-0.0650023,5.72725,0.300726,5.13558,0.106691,0.499772,0.0970148,0.153288,-0.0569691,-0.0685998,-0.6526,-0.177429,23.479,23.3513,23.1811,23.2946,23.2378,23.2804,23.1385,
8,6.27322,1.38559,3.15339,4.12487,6.27401,1.97857,1.55557,0.00901917,0.00831832,0,0.100206,0.000275547,0.0550999,-1.059e-05,0.338828,-3.83444,-0.224578,3.31277,0.844947,-13.7728,0.667783,-0.00890985,-19.6282,-0.381932,0.931848,-0.0372811,1.51813,0.000697492,-7.87282e-06,0.000825794,3.79384e-05,0.496279,0.00111832,0.0734822,0.0271465,-0.00327186,0.000819043,1.99683,0.00039274,0.005,1.77271,0.00329814,0.00376286,-0.0447071,6.63869,0.305473,1.23821,2.45264,-0.0650023,5.72725,0.300726,5.13558,0.106691,0.499772,0.0970148,0.153288,-0.0569691,-0.0685998,-0.6526,-0.177429,23.479,23.3513,23.1811,23.2946,23.2378,23.2804,23.1385,
9,6.27323,1.3856,3.15339,4.12498,6.27401,1.97863,1.55557,0.00756273,0.00782886,0,0.102564,0.000286145,0.0569328,-1.059e-05,0.338749,-3.83392,-0.224436,3.3125,0.844943,-13.772,0.667772,-0.00890825,-19.629,-0.381976,0.932805,-0.0372555,1.51798,0.000694555,-7.87282e-06,0.000825794,3.79384e-05,0.496279,0.00111832,0.0734822,0.0279266,-0.00268504,0.00116953,1.99683,0.00039274,0.005,1.77271,0.00329814,0.00376286,-0.0447071,6.63869,0.305473,1.23849,2.51915,-0.05222,5.76128,0.309332,5.11316,0.104497,0.491521,-0.136963,0.161133,-0.0569691,-0.0649547,-0.644544,-0.181453,23.4932,23.3655,23.1811,23.3087,23.2378,23.3087,23.1385,
10,6.27323,1.3856,3.15339,4.12498,6.27401,1.97863,1.55557,0.00756273,0.00782886,0,0.102564,0.000286145,0.0569328,-1.059e-05,0.341233,-3.98892,-0.238172,3.19364,0.819604,-14.3759,0.676259,-0.00824773,-19.7228,-0.385027,0.911899,-0.037526,1.45752,0.0011677,-9.03481e-06,0.000983955,4.22998e-05,0.496279,0.00111832,0.0734822,0.0279266,-0.00268504,0.00116953,1.99623,0.000443806,0.005,1.77147,0.00281596,0.00344742,-0.0485984,7.20612,0.271611,1.23849,2.51915,-0.05222,5.76128,0.309332,5.11316,0.104497,0.491521,-0.136963,0.161133,-0.0569691,-0.0649547,-0.644544,-0.181453,23.4932,23.3655,23.1811,23.3087,23.2378,23.3087,23.1385,
11,6.27323,1.3856,3.15339,4.12509,6.27401,1.97869,1.55557,0.00702253,0.00405146,0,0.104798,0.000291664,0.0578009,-1.059e-05,0.341232,-3.98811,-0.238226,3.19283,0.819646,-14.3743,0.676308,-0.00824823,-19.7236,-0.38506,0.912659,-0.0375125,1.4574,0.00116602,-9.03481e-06,0.000983955,4.22998e-05,0.496279,0.00111832,0.0734822,0.029367,-0.0024568,0.00272377,1.99623,0.000443806,0.005,1.77147,0.00281596,0.00344742,-0.0485984,7.20612,0.271611,1.19687,2.60856,-0.0767884,5.77641,0.303252,5.05836,0.115475,0.523744,-0.419255,0.145912,-0.0809682,-0.0655763,-0.620361,-0.173265,23.4648,23.3797,23.1811,23.3229,23.2236,23.2946,23.1527,
12,6.27323,1.3856,3.15339,4.12509,6.27401,1.97869,1.55557,0.00702253,0.00405146,0,0.104798,0.000291664,0.0578009,-1.059e-05,0.343327,-4.15903,-0.241283,3.05996,0.827968,-15.0489,0.687958,-0.00769084,-19.827,-0.387559,0.889201,-0.0375418,1.38938,0.0016522,-1.00028e-05,0.00114332,4.66713e-05,0.496279,0.00111832,0.0734822,0.029367,-0.0024568,0.00272377,1.99564,0.000491646,0.005,1.76964,0.0026536,0.00204861,-0.052877,7.84276,0.265887,1.19687,2.60856,-0.0767884,5.77641,0.303252,5.05836,0.115475,0.523744,-0.419255,0.145912,-0.0809682,-0.0655763,-0.620361,-0.173265,23.4648,23.3797,23.1811,23.3229,23.2236,23.2946,23.1527,
13,6.27324,1.38559,3.15339,4.12519,6.27401,1.97874,1.55557,0.00648234,-0.00351127,0,0.105608,0.00031264,0.0588813,-1.059e-05,0.343341,-4.15789,-0.241363,3.05851,0.828006,-15.0463,0.687974,-0.00769202,-19.8277,-0.387591,0.889789,-0.0375297,1.38929,0.00164892,-1.00028e-05,0.00114332,4.66713e-05,0.496279,0.00111832,0.0734822,0.0311961,-0.00222169,0.00582637,1.99564,0.000491646,0.005,1.76964,0.0026536,0.00204861,-0.052877,7.84276,0.265887,1.20009,2.71986,-0.100562,5.75087,0.306253,5.04741,0.105188,0.547852,-0.580302,0.137907,-0.0809682,-0.0490066,-0.60022,-0.177292,23.4932,23.3655,23.1811,23.3087,23.2236,23.2946,23.1527,
14,6.27324,1.38559,3.15339,4.12519,6.27401,1.97874,1.55557,0.00648234,-0.00351127,0,0.105608,0.00031264,0.0588813,-1.059e-05,0.345895,-4.35404,-0.246957,2.90557,0.832453,-15.832,0.703688,-0.00701276,-19.9464,-0.390605,0.862741,-0.0375833,1.30968,0.0024431,-1.16891e-05,0.00131332,4.90149e-05,0.496279,0.00111832,0.0734822,0.0311961,-0.00222169,0.00582637,1.995,0.000531726,0.005,1.76743,0.00247808,-0.000743733,-0.0600713,8.58533,0.254661,1.20009,2.71986,-0.100562,5.75087,0.306253,5.04741,0.105188,0.547852,-0.580302,0.137907,-0.0809682,-0.0490066,-0.60022,-0.177292,23.4932,23.3655,23.1811,23.3087,23.2236,23.2946,23.1527,
15,6.27325,1.38557,3.15339,4.12529,6.27401,1.97881,1.55557,0.00651998,-0.00816328,-5.30299e-06,0.103717,0.000323241,0.0591814,-1.059e-05,0.345951,-4.3528,-0.247111,2.90466,0.832524,-15.8299,0.70377,-0.0070106,-19.9468,-0.390626,0.863655,-0.0375732,1.30948,0.00244136,-1.16891e-05,0.00131332,4.90149e-05,0.496279,0.00111832,0.0734822,0.0316314,-0.00222815,0.00773892,1.995,0.000531726,0.005,1.76743,0.00247808,-0.000743733,-0.0600713,8.58533,0.254661,1.1697,2.90965,-0.0775453,5.71948,0.303856,4.97523,0.111218,0.547852,-0.628624,0.136963,-0.090076,-0.0565402,-0.580134,-0.169381,23.479,23.3655,23.1669,23.3087,23.2236,23.2946,23.1669,
16,6.27325,1.38557,3.15339,4.12529,6.27401,1.97881,1.55557,0.00651998,-0.00816328,-5.30299e-06,0.103717,0.000323241,0.0591814,-1.059e-05,0.347522,-4.50978,-0.243534,2.78486,0.859146,-16.4525,0.717953,-0.00659295,-20,-0.392466,0.84276,-0.0374623,1.24684,0.00310207,-1.3562e-05,0.00149624,5.27225e-05,0.496279,0.00111832,0.0734822,0.0316314,-0.00222815,0.00773892,1.99434,0.000574623,0.005,1.76644,0.00252249,-0.00246503,-0.0663136,9.17105,0.266006,1.1697,2.90965,-0.0775453,5.71948,0.303856,4.97523,0.111218,0.547852,-0.628624,0.136963,-0.090076,-0.0565402,-0.580134,-0.169381,23.479,23.3655,23.1669,23.3087,23.2236,23.2946,23.1669,
17,6.27325,1.38555,3.15339,4.1254,6.27401,1.97888,1.55557,0.00629474,-0.0200257,-1.0606e-05,0.104821,0.000333836,0.0594414,-1.059e-05,0.347594,-4.50816,-0.243748,2.78264,0.859223,-16.4487,0.718035,-0.0065912,-20,-0.392498,0.843146,-0.0374537,1.24678,0.00309943,-1.3562e-05,0.00149624,5.27225e-05,0.496279,0.00111832,0.0734822,0.0344539,-0.00210922,0.0124566,1.99434,0.000574623,0.005,1.76644,0.00252249,-0.00246503,-0.0663136,9.17105,0.266006,1.18145,3.04215,-0.0694257,5.68267,0.306739,4.93276,0.097527,0.548384,-0.749311,0.1372,-0.0322266,-0.0563965,-0.543823,-0.169189,23.4648,23.3655,23.1811,23.3087,23.2236,23.3087,23.1527,
18,6.27325,1.38555,3.15339,4.1254,6.27401,1.97888,1.55557,0.00629474,-0.0200257,-1.0606e-05,0.104821,0.000333836,0.0594414,-1.059e-05,0.350479,-4.75471,-0.244497,2.58875,0.883323,-17.4428,0.739213,-0.00582389,-20,-0.395836,0.808757,-0.0373903,1.14569,0.00411759,-1.5553e-05,0.00169807,5.62545e-05,0.496279,0.00111832,0.0734822,0.0344539,-0.00210922,0.0124566,1.9936,0.000616791,0.005,1.76323,0.00245341,-0.00671092,-0.0757195,10.1127,0.26797,1.18145,3.04215,-0.0694257,5.68267,0.306739,4.93276,0.097527,0.548384,-0.749311,0.1372,-0.0322266,-0.0563965,-0.543823,-0.169189,23.4648,23.3655,23.1811,23.3087,23.2236,23.3087,23.1527,
19,6.27325,1.38555,3.15339,4.1254,6.27401,1.97888,1.55557,0.00629474,-0.0200257,-1.0606e-05,0.104821,0.000333836,0.0594414,-1.059e-05,0.350479,-4.75471,-0.244497,2.58875,0.883323,-17.4428,0.739213,-0.00582389,-20,-0.395836,0.808757,-0.0373903,1.14569,0.00411759,-1.5553e-05,0.00169807,5.62545e-05,0.496279,0.00111832,0.0734822,0.0344539,-0.00210922,0.0124566,1.9936,0.000616791,0.005,1.76323,0.00245341,-0.00671092,-0.0757195,10.1127,0.26797,1.18145,3.04215,-0.0694257,5.68267,0.306739,4.93276,0.097527,0.548384,-0.749311,0.1372,-0.0322266,-0.0563965,-0.543823,-0.169189,23.4648,23.3655,23.1811,23.3087,23.2236,23.3087,23.1527,
20,6.27326,1.38552,3.15339,4.12551,6.27402,1.97894,1.55557,0.00593913,-0.0283315,-1.0606e-05,0.104961,0.000349997,0.0607719,-1.05901e-05,0.350498,-4.75337,-0.24459,2.58708,0.883368,-17.4398,0.739207,-0.00582741,-20,-0.395864,0.80931,-0.037381,1.14558,0.00411317,-1.5553e-05,0.00169807,5.62545e-05,0.496279,0.00111832,0.0734822,0.0362457,-0.00194716,0.0158941,1.9936,0.000616791,0.005,1.76323,0.00245341,-0.00671092,-0.0757195,10.1127,0.26797,1.12082,3.26928,-0.0737733,5.63654,0.30024,4.89254,0.102655,0.555908,-0.652787,0.12085,-0.0322266,-0.0523682,-0.515625,-0.177292,23.479,23.3655,23.1811,23.2946,23.2236,23.2946,23.1669,
21,6.27326,1.38552,3.15339,4.12551,6.27402,1.97894,1.55557,0.00593913,-0.0283315,-1.0606e-05,0.104961,0.000349997,0.0607719,-1.05901e-05,0.353209,-4.9674,-0.249356,2.42059,0.892496,-18.2974,0.756026,-0.00510631,-20,-0.399058,0.779933,-0.0374029,1.05873,0.00490558,-1.72231e-05,0.00188951,5.74685e-05,0.496279,0.00111832,0.0734822,0.0362457,-0.00194716,0.0158941,1.99288,0.000644376,0.005,1.76097,0.00233239,-0.00980467,-0.0828699,10.9229,0.259485,1.12082,3.26928,-0.0737733,5.63654,0.30024,4.89254,0.102655,0.555908,-0.652787,0.12085,-0.0322266,-0.0523682,-0.515625,-0.177292,23.479,23.3655,23.1811,23.2946,23.2236,23.2946,23.1669,
22,6.27326,1.38552,3.15339,4.12551,6.27402,1.97894,1.55557,0.00593913,-0.0283315,-1.0606e-05,0.104961,0.000349997,0.0607719,-1.05901e-05,0.353209,-4.9674,-0.249356,2.42059,0.892496,-18.2974,0.756026,-0.00510631,-20,-0.399058,0.779933,-0.0374029,1.05873,0.00490558,-1.72231e-05,0.00188951,5.74685e-05,0.496279,0.00111832,0.0734822,0.0362457,-0.00194716,0.0158941,1.99288,0.000644376,0.005,1.76097,0.00233239,-0.00980467,-0.0828699,10.9229,0.259485,1.12082,3.26928,-0.0737733,5.63654,0.30024,4.89254,0.102655,0.555908,-0.652787,0.12085,-0.0322266,-0.0523682,-0.515625,-0.177292,23.479,23.3655,23.1811,23.2946,23.2236,23.2946,23.1669,
23,6.27326,1.38549,3.15339,4.12561,6.27402,1.979,1.55557,0.00584989,-0.0310953,-1.32575e-05,0.104528,0.0003639,0.0626921,-1.059e-05,0.353245,-4.96637,-0.24947,2.4198,0.892566,-18.2956,0.75608,-0.005108,-20,-0.399082,0.780993,-0.0373923,1.05851,0.00490284,-1.72231e-05,0.00188951,5.74685e-05,0.496279,0.00111832,0.0734822,0.0367005,-0.0019021,0.0172062,1.99288,0.000644376,0.005,1.76097,0.00233239,-0.00980467,-0.0828699,10.9229,0.259485,1.15867,3.49363,-0.0691039,5.50829,0.309203,4.87963,0.101807,0.572248,-0.668895,0.129158,-0.0161133,-0.0485074,-0.503604,-0.173218,23.479,23.3655,23.1811,23.2946,23.2094,23.2804,23.1527,
24,6.27326,1.38549,3.15339,4.12561,6.27402,1.979,1.55557,0.00584989,-0.0310953,-1.32575e-05,0.104528,0.0003639,0.0626921,-1.059e-05,0.355275,-5.14922,-0.249312,2.28048,0.912077,-19.0135,0.77042,-0.00456813,-20,-0.401514,0.756712,-0.0373379,0.986535,0.00551908,-1.89862e-05,0.00209214,6.00942e-05,0.496279,0.00111832,0.0734822,0.0367005,-0.0019021,0.0172062,1.99215,0.000679556,0.005,1.7599,0.00232349,-0.0109856,-0.0885173,11.5975,0.26278,1.15867,3.49363,-0.0691039,5.50829,0.309203,4.87963,0.101807,0.572248,-0.668895,0.129158,-0.0161133,-0.0485074,-0.503604,-0.173218,23.479,23.3655,23.1811,23.2946,23.2094,23.2804,23.1527,
25,6.27327,1.38546,3.15339,4.12571,6.27402,1.97907,1.55557,0.00581053,-0.0326818,-1.32575e-05,0.105068,0.000401528,0.0656337,0,0.355305,-5.14838,-0.24944,2.27974,0.912139,-19.012,0.770469,-0.00457205,-20,-0.401542,0.7578,-0.0373273,0.986336,0.00551677,-1.89862e-05,0.00209214,6.00942e-05,0.496279,0.00111832,0.0734822,0.0371869,-0.00187414,0.0181432,1.99215,0.000679556,0.005,1.7599,0.00232349,-0.0109856,-0.0885173,11.5975,0.26278,1.15381,3.76123,-0.043779,5.45836,0.313091,4.82743,0.090856,0.572078,-0.789715,0.112793,0.0180152,-0.0523682,-0.499528,-0.177429,23.4648,23.3513,23.1669,23.3087,23.2236,23.3087,23.1527,
26,6.27327,1.38546,3.15339,4.12571,6.27402,1.97907,1.55557,0.00581053,-0.0326818,-1.32575e-05,0.105068,0.000401528,0.0656337,0,0.357387,-5.33727,-0.2492,2.13581,0.932631,-19.7501,0.782772,-0.00401826,-20,-0.40405,0.732721,-0.0372657,0.912441,0.00589358,-1.99674e-05,0.00229262,6.28816e-05,0.496279,0.00111832,0.0734822,0.0371869,-0.00187414,0.0181432,1.99142,0.000722691,0.005,1.75881,0.00233715,-0.0118289,-0.0917844,12.2908,0.266566,1.15381,3.76123,-0.043779,5.45836,0.313091,4.82743,0.090856,0.572078,-0.789715,0.112793,0.0180152,-0.0523682,-0.499528,-0.177429,23.4648,23.3513,23.1669,23.3087,23.2236,23.3087,23.1527,
27,6.27328,1.38542,3.15339,4.12582,6.27402,1.97913,1.55557,0.00556843,-0.0372735,-1.32575e-05,0.107229,0.000436896,0.0675244,0,0.357403,-5.33615,-0.249303,2.13448,0.932691,-19.7476,0.782807,-0.0040227,-20,-0.404082,0.733546,-0.037255,0.912313,0.0058907,-1.99674e-05,0.00229262,6.28816e-05,0.496279,0.00111832,0.0734822,0.038776,-0.00175802,0.0201343,1.99142,0.000722691,0.005,1.75881,0.00233715,-0.0118289,-0.0917844,12.2908,0.266566,1.14517,3.91904,-0.0357686,5.37954,0.320225,4.78967,0.10728,0.580134,-0.910436,0.12085,0.0483398,-0.0525229,-0.487427,-0.177246,23.4648,23.3513,23.1811,23.3087,23.2236,23.3087,23.1527,
28,6.27328,1.38542,3.15339,4.12582,6.27402,1.97913,1.55557,0.00556843,-0.0372735,-1.32575e-05,0.107229,0.000436896,0.0675244,0,0.360032,-5.55748,-0.251826,1.9629,0.948649,-20.6209,0.798837,-0.00332333,-20,-0.407218,0.703365,-0.0372384,0.824328,0.0065463,-2.13157e-05,0.00250166,6.54829e-05,0.496279,0.00111832,0.0734822,0.038776,-0.00175802,0.0201343,1.99065,0.000755928,0.005,1.75669,0.00226255,-0.0136209,-0.0976301,13.1145,0.263743,1.14517,3.91904,-0.0357686,5.37954,0.320225,4.78967,0.10728,0.580134,-0.910436,0.12085,0.0483398,-0.0525229,-0.487427,-0.177246,23.4648,23.3513,23.1811,23.3087,23.2236,23.3087,23.1527,
29,6.27328,1.38538,3.15339,4.12594,6.27402,1.9792,1.55557,0.00540195,-0.0437558,-1.85605e-05,0.109335,0.000490008,0.0686048,0,0.360075,-5.55603,-0.251984,1.96121,0.94871,-20.6177,0.798875,-0.00332357,-20,-0.407252,0.704153,-0.0372282,0.824209,0.0065422,-2.13157e-05,0.00250166,6.54829e-05,0.496279,0.00111832,0.0734822,0.0407489,-0.00166618,0.0227919,1.99065,0.000755928,0.005,1.75669,0.00226255,-0.0136209,-0.0976301,13.1145,0.263743,1.08079,4.18972,-0.0197516,5.27523,0.332852,4.74687,0.110276,0.580078,-0.95082,0.112793,0.0161133,-0.0525229,-0.483415,-0.169189,23.4648,23.3655,23.1811,23.2946,23.2094,23.2946,23.1385,
30,6.27328,1.38538,3.15339,4.12594,6.27402,1.9792,1.55557,0.00540195,-0.0437558,-1.85605e-05,0.109335,0.000490008,0.0686048,0,0.362949,-5.79707,-0.254651,1.77347,0.966705,-21.5731,0.81926,-0.00255921,-20,-0.41066,0.671054,-0.0371998,0.727735,0.00753518,-2.35387e-05,0.00272838,6.73624e-05,0.496279,0.00111832,0.0734822,0.0407489,-0.00166618,0.0227919,1.9898,0.000784427,0.005,1.75415,0.00220554,-0.0160127,-0.106765,14.0167,0.261112,1.08079,4.18972,-0.0197516,5.27523,0.332852,4.74687,0.110276,0.580078,-0.95082,0.112793,0.0161133,-0.0525229,-0.483415,-0.169189,23.4648,23.3655,23.1811,23.2946,23.2094,23.2946,23.1385,
31,6.27329,1.38533,3.15339,4.12605,6.27402,1.97927,1.55557,0.00520149,-0.0513185,-1.85605e-05,0.110358,0.000558416,0.0698986,0,0.362968,-5.79553,-0.254778,1.77155,0.966748,-21.5696,0.819248,-0.00256462,-20,-0.410692,0.671699,-0.0371899,0.727611,0.00752986,-2.35387e-05,0.00272838,6.73624e-05,0.496279,0.00111832,0.0734822,0.0426363,-0.00156048,0.0259196,1.9898,0.000784427,0.005,1.75415,0.00220554,-0.0160127,-0.106765,14.0167,0.261112,1.1302,4.41749,-0.0136245,5.05901,0.345662,4.76228,0.111368,0.580134,-0.95082,0.121118,-0.0113938,-0.0420569,-0.463257,-0.161183,23.479,23.3513,23.1527,23.3229,23.2094,23.2946,23.1243,
32,6.27329,1.38533,3.15339,4.12605,6.27402,1.97927,1.55557,0.00520149,-0.0513185,-1.85605e-05,0.110358,0.000558416,0.0698986,0,0.366002,-6.04243,-0.258988,1.5797,0.981223,-22.5517,0.83965,-0.00175773,-20,-0.414288,0.63792,-0.0371827,0.628383,0.00851187,-2.56661e-05,0.00296202,6.83396e-05,0.496279,0.00111832,0.0734822,0.0426363,-0.00156048,0.0259196,1.98896,0.000813624,0.005,1.75169,0.00213669,-0.0188277,-0.115727,14.9438,0.25491,1.1302,4.41749,-0.0136245,5.05901,0.345662,4.76228,0.111368,0.580134,-0.95082,0.121118,-0.0113938,-0.0420569,-0.463257,-0.161183,23.479,23.3513,23.1527,23.3229,23.2094,23.2946,23.1243,
33,6.27329,1.38527,3.15339,4.12616,6.27402,1.97935,1.55557,0.00546156,-0.0561721,-2.38815e-05,0.112631,0.000647588,0.0723861,0,0.366099,-6.04113,-0.259283,1.57806,0.981328,-22.5487,0.839761,-0.00176035,-20,-0.414317,0.638826,-0.0371774,0.628246,0.00850972,-2.56661e-05,0.00296202,6.83396e-05,0.496279,0.00111832,0.0734822,0.0443113,-0.00163527,0.028079,1.98896,0.000813624,0.005,1.75169,0.00213669,-0.0188277,-0.115727,14.9438,0.25491,1.15764,4.69409,-0.0179096,4.92582,0.327271,4.71224,0.111579,0.588135,-0.910436,0.105046,-0.0241699,-0.036478,-0.451244,-0.169189,23.479,23.3513,23.1811,23.3087,23.2236,23.2946,23.1527,
34,6.27329,1.38527,3.15339,4.12616,6.27402,1.97935,1.55557,0.00546156,-0.0561721,-2.38815e-05,0.112631,0.000647588,0.0723861,0,0.368798,-6.29457,-0.256664,1.38173,1.01608,-23.547,0.86127,-0.00104266,-20,-0.417516,0.604366,-0.0370358,0.527718,0.00945604,-2.7799e-05,0.00320394,7.12443e-05,0.496279,0.00111832,0.0734822,0.0443113,-0.00163527,0.028079,1.98807,0.000846801,0.005,1.74938,0.00223386,-0.0207711,-0.124553,15.8854,0.266149,1.15764,4.69409,-0.0179096,4.92582,0.327271,4.71224,0.111579,0.588135,-0.910436,0.105046,-0.0241699,-0.036478,-0.451244,-0.169189,23.479,23.3513,23.1811,23.3087,23.2236,23.2946,23.1527,
35,6.2733,1.38521,3.15339,4.12627,6.27402,1.97942,1.55557,0.0052649,-0.0590914,-2.38635e-05,0.113711,0.000767941,0.0734665,0,0.368798,-6.29316,-0.256752,1.38057,1.01613,-23.5445,0.861269,-0.0010492,-20,-0.417546,0.605594,-0.0370225,0.5275,0.00945129,-2.7799e-05,0.00320394,7.12443e-05,0.496279,0.00111832,0.0734822,0.0452341,-0.00153595,0.029342,1.98807,0.000846801,0.005,1.74938,0.00223386,-0.0207711,-0.124553,15.8854,0.266149,1.1564,4.86122,-0.000542641,4.72834,0.312262,4.66527,0.112739,0.58819,-0.942661,0.11308,-0.0664368,-0.0443115,-0.45119,-0.165161,23.479,23.3655,23.1669,23.2946,23.2236,23.2946,23.1385,
36,6.2733,1.38521,3.15339,4.12627,6.27402,1.97942,1.55557,0.0052649,-0.0590914,-2.38635e-05,0.113711,0.000767941,0.0734665,0,0.371461,-6.51219,-0.260739,1.21218,1.02782,-24.4027,0.878583,-0.000341075,-20,-0.420759,0.57613,-0.0370287,0.441363,0.0102621,-2.96113e-05,0.00344665,7.26626e-05,0.496279,0.00111832,0.0734822,0.0452341,-0.00153595,0.029342,1.98718,0.000873466,0.005,1.74775,0.00216847,-0.0219078,-0.131906,16.693,0.259891,1.1564,4.86122,-0.000542641,4.72834,0.312262,4.66527,0.112739,0.58819,-0.942661,0.11308,-0.0664368,-0.0443115,-0.45119,-0.165161,23.479,23.3655,23.1669,23.2946,23.2236,23.2946,23.1385,
37,6.2733,1.38521,3.15339,4.12627,6.27402,1.97942,1.55557,0.0052649,-0.0590914,-2.38635e-05,0.113711,0.000767941,0.0734665,0,0.371461,-6.51219,-0.260739,1.21218,1.02782,-24.4027,0.878583,-0.000341075,-20,-0.420759,0.57613,-0.0370287,0.441363,0.0102621,-2.96113e-05,0.00344665,7.26626e-05,0.496279,0.00111832,0.0734822,0.0452341,-0.00153595,0.029342,1.98718,0.000873466,0.005,1.74775,0.00216847,-0.0219078,-0.131906,16.693,0.259891,1.1564,4.86122,-0.000542641,4.72834,0.312262,4.66527,0.112739,0.58819,-0.942661,0.11308,-0.0664368,-0.0443115,-0.45119,-0.165161,23.479,23.3655,23.1669,23.2946,23.2236,23.2946,23.1385,
38,6.2733,1.38515,3.15339,4.12639,6.27403,1.97949,1.55557,0.00540012,-0.0599616,-2.38635e-05,0.112344,0.000879105,0.0734665,0,0.371501,-6.51062,-0.260897,1.21164,1.02789,-24.4005,0.878631,-0.000348929,-20,-0.420776,0.57785,-0.037019,0.441016,0.0102586,-2.96113e-05,0.00344665,7.26626e-05,0.496279,0.00111832,0.0734822,0.0450192,-0.00158027,0.0297186,1.98718,0.000873466,0.005,1.74775,0.00216847,-0.0219078,-0.131906,16.693,0.259891,1.08616,5.15982,0.0433418,4.59568,0.324369,4.60666,0.0879396,0.580078,-0.999543,0.0966797,-0.072956,-0.0404841,-0.435059,-0.145075,23.479,23.3513,23.1811,23.2946,23.2236,23.2946,23.1527,
39,6.2733,1.38515,3.15339,4.12639,6.27403,1.97949,1.55557,0.00540012,-0.0599616,-2.38635e-05,0.112344,0.000879105,0.0734665,0,0.373431,-6.69264,-0.259621,1.07408,1.05081,-25.1071,0.893813,0.000164442,-20,-0.423122,0.554037,-0.0369346,0.370544,0.0109303,-3.14864e-05,0.00369748,7.45304e-05,0.496279,0.00111832,0.0734822,0.0450192,-0.00158027,0.0297186,1.98624,0.000904036,0.005,1.7471,0.00223588,-0.0222468,-0.138163,17.3553,0.266399,1.08616,5.15982,0.0433418,4.59568,0.324369,4.60666,0.0879396,0.580078,-0.999543,0.0966797,-0.072956,-0.0404841,-0.435059,-0.145075,23.479,23.3513,23.1811,23.2946,23.2236,23.2946,23.1527,
40,6.27331,1.38509,3.15339,4.1265,6.27403,1.97957,1.55557,0.00540012,-0.0605018,-3.18183e-05,0.112361,0.000946974,0.0742275,0,0.373479,-6.69125,-0.25977,1.07338,1.05089,-25.105,0.893895,0.000162741,-20,-0.423146,0.555609,-0.0369219,0.370236,0.0109273,-3.14864e-05,0.00369748,7.45304e-05,0.496279,0.00111832,0.0734822,0.0451328,-0.00156957,0.0300216,1.98624,0.000904036,0.005,1.7471,0.00223588,-0.0222468,-0.138163,17.3553,0.266399,1.10312,5.39636,0.0459303,4.29796,0.326804,4.5825,0.0887487,0.580078,-1.09573,0.0980133,-0.0483398,-0.0402832,-0.410908,-0.169621,23.479,23.3513,23.1811,23.3087,23.2094,23.2804,23.1669,
41,6.27331,1.38509,3.15339,4.1265,6.27403,1.97957,1.55557,0.00540012,-0.0605018,-3.18183e-05,0.112361,0.000946974,0.0742275,0,0.37562,-6.8872,-0.259497,0.924545,1.07209,-25.865,0.910648,0.000732065,-20,-0.42575,0.529775,-0.0368597,0.294369,0.0117238,-3.3817e-05,0.00394698,7.68313e-05,0.496279,0.00111832,0.0734822,0.0451328,-0.00156957,0.0300216,1.98535,0.000935965,0.005,1.74619,0.00225498,-0.0225194,-0.145581,18.0685,0.270347,1.10312,5.39636,0.0459303,4.29796,0.326804,4.5825,0.0887487,0.580078,-1.09573,0.0980133,-0.0483398,-0.0402832,-0.410908,-0.169621,23.479,23.3513,23.1811,23.3087,23.2094,23.2804,23.1669,
42,6.27331,1.38509,3.15339,4.1265,6.27403,1.97957,1.55557,0.00540012,-0.0605018,-3.18183e-05,0.112361,0.000946974,0.0742275,0,0.37562,-6.8872,-0.259497,0.924545,1.07209,-25.865,0.910648,0.000732065,-20,-0.42575,0.529775,-0.0368597,0.294369,0.0117238,-3.3817e-05,0.00394698,7.68313e-05,0.496279,0.00111832,0.0734822,0.0451328,-0.00156957,0.0300216,1.98535,0.000935965,0.005,1.74619,0.00225498,-0.0225194,-0.145581,18.0685,0.270347,1.10312,5.39636,0.0459303,4.29796,0.326804,4.5825,0.0887487,0.580078,-1.09573,0.0980133,-0.0483398,-0.0402832,-0.410908,-0.169621,23.479,23.3513,23.1811,23.3087,23.2094,23.2804,23.1669,
43,6.27331,1.38502,3.15339,4.12661,6.27403,1.97964,1.55557,0.00526663,-0.0621906,-3.18179e-05,0.11074,0.00096741,0.0734665,0,0.375632,-6.88551,-0.259563,0.923923,1.07216,-25.8627,0.910697,0.000724193,-20,-0.425766,0.531403,-0.0368466,0.294029,0.0117213,-3.3817e-05,0.00394698,7.68313e-05,0.496279,0.00111832,0.0734822,0.0450176,-0.00151604,0.0306466,1.98535,0.000935965,0.005,1.74619,0.00225498,-0.0225194,-0.145581,18.0685,0.270347,1.08222,5.66019,0.056339,4.15039,0.314491,4.51299,0.0693305,0.580078,-1.17638,0.0889885,-0.0332184,-0.045038,-0.398824,-0.157156,23.4506,23.3513,23.1811,23.2946,23.2094,23.2946,23.1243,
44,6.27331,1.38502,3.15339,4.12661,6.27403,1.97964,1.55557,0.00526663,-0.0621906,-3.18179e-05,0.11074,0.00096741,0.0734665,0,0.377584,-7.06271,-0.259457,0.789638,1.09063,-26.553,0.923243,0.0012432,-20,-0.42813,0.50813,-0.0368017,0.225071,0.0121943,-3.52619e-05,0.00419449,7.92642e-05,0.496279,0.00111832,0.0734822,0.0450176,-0.00151604,0.0306466,1.98444,0.000964525,0.005,1.74548,0.00223251,-0.0230819,-0.149817,18.716,0.273258,1.08222,5.66019,0.056339,4.15039,0.314491,4.51299,0.0693305,0.580078,-1.17638,0.0889885,-0.0332184,-0.045038,-0.398824,-0.157156,23.4506,23.3513,23.1811,23.2946,23.2094,23.2946,23.1243,
45,6.27331,1.38502,3.15339,4.12661,6.27403,1.97964,1.55557,0.00526663,-0.0621906,-3.18179e-05,0.11074,0.00096741,0.0734665,0,0.377584,-7.06271,-0.259457,0.789638,1.09063,-26.553,0.923243,0.0012432,-20,-0.42813,0.50813,-0.0368017,0.225071,0.0121943,-3.52619e-05,0.00419449,7.92642e-05,0.496279,0.00111832,0.0734822,0.0450176,-0.00151604,0.0306466,1.98444,0.000964525,0.005,1.74548,0.00223251,-0.0230819,-0.149817,18.716,0.273258,1.08222,5.66019,0.056339,4.15039,0.314491,4.51299,0.0693305,0.580078,-1.17638,0.0889885,-0.0332184,-0.045038,-0.398824,-0.157156,23.4506,23.3513,23.1811,23.2946,23.2094,23.2946,23.1243,
46,6.27332,1.38496,3.15339,4.12671,6.27403,1.97972,1.55557,0.00526663,-0.066444,-3.44694e-05,0.108579,0.000967436,0.0750871,0,0.377638,-7.06114,-0.259609,0.788305,1.09072,-26.5501,0.923303,0.00123791,-20,-0.428148,0.509307,-0.0367919,0.224795,0.0121909,-3.52619e-05,0.00419449,7.92642e-05,0.496279,0.00111832,0.0734822,0.0452852,-0.00150872,0.032551,1.98444,0.000964525,0.005,1.74548,0.00223251,-0.0230819,-0.149817,18.716,0.273258,1.10742,5.83344,0.0689809,4.00932,0.320274,4.4262,0.0699548,0.588135,-1.21658,0.0805664,0.0180152,-0.036478,-0.370627,-0.157156,23.479,23.3513,23.1811,23.3087,23.2094,23.2946,23.1527,
47,6.27332,1.38496,3.15339,4.12671,6.27403,1.97972,1.55557,0.00526663,-0.066444,-3.44694e-05,0.108579,0.000967436,0.0750871,0,0.37995,-7.27106,-0.258939,0.628437,1.11483,-27.3777,0.939905,0.00185267,-20,-0.430907,0.481536,-0.0367136,0.141725,0.0128911,-3.73609e-05,0.00444133,8.11974e-05,0.496279,0.00111832,0.0734822,0.0452852,-0.00150872,0.032551,1.98355,0.000993801,0.005,1.74443,0.00225227,-0.0247959,-0.15624,19.4938,0.278482,1.10742,5.83344,0.0689809,4.00932,0.320274,4.4262,0.0699548,0.588135,-1.21658,0.0805664,0.0180152,-0.036478,-0.370627,-0.157156,23.479,23.3513,23.1811,23.3087,23.2094,23.2946,23.1527,
48,6.27332,1.38496,3.15339,4.12671,6.27403,1.97972,1.55557,0.00526663,-0.066444,-3.44694e-05,0.108579,0.000967436,0.0750871,0,0.37995,-7.27106,-0.258939,0.628437,1.11483,-27.3777,0.939905,0.00185267,-20,-0.430907,0.481536,-0.0367136,0.141725,0.0128911,-3.73609e-05,0.00444133,8.11974e-05,0.496279,0.00111832,0.0734822,0.0452852,-0.00150872,0.032551,1.98355,0.000993801,0.005,1.74443,0.00225227,-0.0247959,-0.15624,19.4938,0.278482,1.10742,5.83344,0.0689809,4.00932,0.320274,4.4262,0.0699548,0.588135,-1.21658,0.0805664,0.0180152,-0.036478,-0.370627,-0.157156,23.479,23.3513,23.1811,23.3087,23.2094,23.2946,23.1527,
49,6.27332,1.38489,3.15339,4.12683,6.27403,1.97979,1.55557,0.00491552,-0.0718459,-3.44694e-05,0.104472,0.000982094,0.0753572,0,0.379938,-7.26916,-0.258947,0.627159,1.11488,-27.3746,0.939903,0.00184489,-20,-0.430924,0.48281,-0.0366971,0.141396,0.0128872,-3.73609e-05,0.00444133,8.11974e-05,0.496279,0.00111832,0.0734822,0.045234,-0.00136501,0.0348011,1.98355,0.000993801,0.005,1.74443,0.00225227,-0.0247959,-0.15624,19.4938,0.278482,1.03841,6.06237,0.101929,3.93268,0.323499,4.34686,0.0719189,0.604463,-1.19241,0.0918598,0.041081,-0.034418,-0.358724,-0.157311,23.4506,23.3371,23.1669,23.3087,23.2094,23.2804,23.1527,
50,6.27332,1.38489,3.15339,4.12683,6.27403,1.97979,1.55557,0.00491552,-0.0718459,-3.44694e-05,0.104472,0.000982094,0.0753572,0,0.382332,-7.46746,-0.2619,0.476772,1.12694,-28.1606,0.95427,0.00248143,-20,-0.433785,0.456734,-0.0367036,0.0624535,0.0134949,-3.90705e-05,0.00469736,8.30887e-05,0.496279,0.00111832,0.0734822,0.045234,-0.00136501,0.0348011,1.98261,0.00102101,0.005,1.74364,0.00214742,-0.0268209,-0.161626,20.2321,0.273959,1.03841,6.06237,0.101929,3.93268,0.323499,4.34686,0.0719189,0.604463,-1.19241,0.0918598,0.041081,-0.034418,-0.358724,-0.157311,23.4506,23.3371,23.1669,23.3087,23.2094,23.2804,23.1527,
51,6.27333,1.38481,3.15339,4.12693,6.27403,1.97987,1.55557,0.00522012,-0.0764376,-3.44694e-05,0.105338,0.00102455,0.0751598,0,0.382415,-7.46568,-0.262169,0.475273,1.12704,-28.1573,0.954353,0.00247206,-20,-0.433804,0.457839,-0.0367008,0.0622331,0.0134916,-3.90705e-05,0.00469736,8.30887e-05,0.496279,0.00111832,0.0734822,0.0464475,-0.00147138,0.0365983,1.98261,0.00102101,0.005,1.74364,0.00214742,-0.0268209,-0.161626,20.2321,0.273959,1.04154,6.26473,0.0864017,3.7727,0.320202,4.27687,0.0724391,0.604248,-1.16027,0.0725098,0.121118,-0.036478,-0.350487,-0.157104,23.4648,23.3513,23.1669,23.3087,23.2236,23.2804,23.1385,
52,6.27333,1.38481,3.15339,4.12693,6.27403,1.97987,1.55557,0.00522012,-0.0764376,-3.44694e-05,0.105338,0.00102455,0.0751598,0,0.384814,-7.69692,-0.258744,0.29637,1.16181,-29.0666,0.973243,0.00310987,-20,-0.436651,0.426529,-0.0365494,-0.0292614,0.0142583,-4.09722e-05,0.00495645,8.5021e-05,0.496279,0.00111832,0.0734822,0.0464475,-0.00147138,0.0365983,1.98169,0.00105134,0.005,1.74172,0.00227045,-0.0284385,-0.168769,21.0894,0.286934,1.04154,6.26473,0.0864017,3.7727,0.320202,4.27687,0.0724391,0.604248,-1.16027,0.0725098,0.121118,-0.036478,-0.350487,-0.157104,23.4648,23.3513,23.1669,23.3087,23.2236,23.2804,23.1385,
53,6.27333,1.38481,3.15339,4.12693,6.27403,1.97987,1.55557,0.00522012,-0.0764376,-3.44694e-05,0.105338,0.00102455,0.0751598,0,0.384814,-7.69692,-0.258744,0.29637,1.16181,-29.0666,0.973243,0.00310987,-20,-0.436651,0.426529,-0.0365494,-0.0292614,0.0142583,-4.09722e-05,0.00495645,8.5021e-05,0.496279,0.00111832,0.0734822,0.0464475,-0.00147138,0.0365983,1.98169,0.00105134,0.005,1.74172,0.00227045,-0.0284385,-0.168769,21.0894,0.286934,1.04154,6.26473,0.0864017,3.7727,0.320202,4.27687,0.0724391,0.604248,-1.16027,0.0725098,0.121118,-0.036478,-0.350487,-0.157104,23.4648,23.3513,23.1669,23.3087,23.2236,23.2804,23.1385,
54,6.27333,1.38473,3.15339,4.12703,6.27403,1.97995,1.55557,0.00491391,-0.0801704,-3.98025e-05,0.104798,0.000994181,0.0761675,0,0.384837,-7.69524,-0.258814,0.295027,1.16189,-29.0636,0.973304,0.00310603,-20,-0.436675,0.427832,-0.0365335,-0.0295308,0.0142552,-4.09722e-05,0.00495645,8.5021e-05,0.496279,0.00111832,0.0734822,0.0470716,-0.00134342,0.0382061,1.98169,0.00105134,0.005,1.74172,0.00227045,-0.0284385,-0.168769,21.0894,0.286934,0.996987,6.54999,0.121537,3.72216,0.333192,4.1431,0.0785264,0.596246,-1.14416,0.088623,0.11308,-0.036478,-0.342431,-0.153129,23.4648,23.3513,23.1669,23.2946,23.2094,23.2804,23.1385,
55,6.27333,1.38473,3.15339,4.12703,6.27403,1.97995,1.55557,0.00491391,-0.0801704,-3.98025e-05,0.104798,0.000994181,0.0761675,0,0.387494,-7.92203,-0.261034,0.121171,1.17888,-29.9546,0.990066,0.00381245,-20,-0.439868,0.397531,-0.0365198,-0.11897,0.0149695,-4.30787e-05,0.00522021,8.7383e-05,0.496279,0.00111832,0.0734822,0.0470716,-0.00134342,0.0382061,1.98074,0.0010763,0.005,1.7403,0.00217774,-0.0298855,-0.175167,21.9275,0.284671,0.996987,6.54999,0.121537,3.72216,0.333192,4.1431,0.0785264,0.596246,-1.14416,0.088623,0.11308,-0.036478,-0.342431,-0.153129,23.4648,23.3513,23.1669,23.2946,23.2094,23.2804,23.1385,
56,6.27334,1.38464,3.15339,4.12714,6.27403,1.98002,1.55557,0.00491391,-0.0842704,-3.97724e-05,0.104258,0.00102522,0.0750871,0,0.387529,-7.92009,-0.261179,0.119974,1.17895,-29.9514,0.990096,0.00380279,-20,-0.439885,0.398864,-0.0365108,-0.119247,0.0149651,-4.30787e-05,0.00522021,8.7383e-05,0.496279,0.00111832,0.0734822,0.0477755,-0.00133522,0.0397386,1.98074,0.0010763,0.005,1.7403,0.00217774,-0.0298855,-0.175167,21.9275,0.284671,1.00943,6.72955,0.147422,3.66139,0.345623,4.02925,0.0657499,0.596409,-1.12819,0.0809682,0.11308,-0.0281982,-0.33042,-0.157156,23.4648,23.3371,23.1669,23.3087,23.2236,23.2804,23.1243,
57,6.27334,1.38464,3.15339,4.12714,6.27403,1.98002,1.55557,0.00491391,-0.0842704,-3.97724e-05,0.104258,0.00102522,0.0750871,0,0.389869,-8.12991,-0.261077,-0.041534,1.20148,-30.7759,1.00696,0.00442491,-20,-0.442684,0.370674,-0.0364411,-0.202099,0.0157,-4.50506e-05,0.00548023,8.88823e-05,0.496279,0.00111832,0.0734822,0.0477755,-0.00133522,0.0397386,1.9798,0.00110232,0.005,1.73882,0.00219379,-0.0312648,-0.181916,22.704,0.288544,1.00943,6.72955,0.147422,3.66139,0.345623,4.02925,0.0657499,0.596409,-1.12819,0.0809682,0.11308,-0.0281982,-0.33042,-0.157156,23.4648,23.3371,23.1669,23.3087,23.2236,23.2804,23.1243,
58,6.27334,1.38456,3.15339,4.12725,6.27403,1.98002,1.55557,0.00456442,-0.0896724,-4.50754e-05,0.105824,0.00102295,0.0750871,0,0.389852,-8.12812,-0.261121,-0.042912,1.20144,-30.7728,1.00689,0.00441309,-20,-0.442713,0.371822,-0.0364273,-0.202196,0.0156979,-4.50506e-05,0.00548023,8.88823e-05,0.496279,0.00111832,0.0734822,0.0493618,-0.00118119,0.04187,1.9798,0.00110232,0.005,1.73882,0.00219379,-0.0312648,-0.181916,22.704,0.288544,0.909986,6.96268,0.152526,3.60192,0.345519,4.02925,0.0752448,0.596246,-1.11987,0.0725098,0.12085,-0.0324774,-0.33042,-0.165161,23.4648,23.3513,23.1527,23.2946,23.1952,23.2804,23.1527,
59,6.27334,1.38456,3.15339,4.12725,6.27403,1.98002,1.55557,0.00456442,-0.0896724,-4.50754e-05,0.105824,0.00102295,0.0750871,0,0.392312,-8.32837,-0.264548,-0.200302,1.2125,-31.5663,1.02377,0.00506703,-20,-0.445635,0.344029,-0.0364377,-0.28247,0.0165568,-4.71986e-05,0.00568087,9.08626e-05,0.496279,0.00111832,0.0734822,0.0493618,-0.00118119,0.04187,1.97877,0.0011259,0.005,1.73647,0.00207638,-0.033183,-0.189757,23.4547,0.2829,0.909986,6.96268,0.152526,3.60192,0.345519,4.02925,0.0752448,0.596246,-1.11987,0.0725098,0.12085,-0.0324774,-0.33042,-0.165161,23.4648,23.3513,23.1527,23.2946,23.1952,23.2804,23.1527,
60,6.27334,1.38456,3.15339,4.12725,6.27403,1.98002,1.55557,0.00456442,-0.0896724,-4.50754e-05,0.105824,0.00102295,0.0750871,0,0.392312,-8.32837,-0.264548,-0.200302,1.2125,-31.5663,1.02377,0.00506703,-20,-0.445635,0.344029,-0.0364377,-0.28247,0.0165568,-4.71986e-05,0.00568087,9.08626e-05,0.496279,0.00111832,0.0734822,0.0493618,-0.00118119,0.04187,1.97877,0.0011259,0.005,1.73647,0.00207638,-0.033183,-0.189757,23.4547,0.2829,0.909986,6.96268,0.152526,3.60192,0.345519,4.02925,0.0752448,0.596246,-1.11987,0.0725098,0.12085,-0.0324774,-0.33042,-0.165161,23.4648,23.3513,23.1527,23.2946,23.1952,23.2804,23.1527,
61,6.27334,1.38446,3.15339,4.12736,6.27403,1.98009,1.55557,0.00456442,-0.0934537,-4.50754e-05,0.108579,0.00103845,0.0745469,0,0.39235,-8.32641,-0.26469,-0.2019,1.21257,-31.5628,1.02366,0.00505533,-20,-0.445656,0.34528,-0.0364359,-0.282666,0.0165408,-4.71986e-05,0.00568087,9.08626e-05,0.496279,0.00111832,0.0734822,0.0509478,-0.00116739,0.0432816,1.97877,0.0011259,0.005,1.73647,0.00207638,-0.033183,-0.189757,23.4547,0.2829,0.909986,7.20195,0.132087,3.53155,0.337382,3.91301,0.0610033,0.596246,-1.07971,0.0809682,0.0889885,-0.0281982,-0.306152,-0.153129,23.4648,23.3371,23.1669,23.3087,23.2094,23.2946,23.1243,
62,6.27334,1.38446,3.15339,4.12736,6.27403,1.98009,1.55557,0.00456442,-0.0934537,-4.50754e-05,0.108579,0.00103845,0.0745469,0,0.395453,-8.57409,-0.270735,-0.394588,1.22232,-32.5337,1.04272,0.00588034,-20,-0.449403,0.311435,-0.0364487,-0.380372,0.017395,-4.93062e-05,0.00595354,8.75312e-05,0.496279,0.00111832,0.0734822,0.0509478,-0.00116739,0.0432816,1.97777,0.00111332,0.005,1.73414,0.00205264,-0.0344535,-0.197379,24.3708,0.27277,0.909986,7.20195,0.132087,3.53155,0.337382,3.91301,0.0610033,0.596246,-1.07971,0.0809682,0.0889885,-0.0281982,-0.306152,-0.153129,23.4648,23.3371,23.1669,23.3087,23.2094,23.2946,23.1243,
63,6.27334,1.38446,3.15339,4.12736,6.27403,1.98009,1.55557,0.00456442,-0.0934537,-4.50754e-05,0.108579,0.00103845,0.0745469,0,0.395453,-8.57409,-0.270735,-0.394588,1.22232,-32.5337,1.04272,0.00588034,-20,-0.449403,0.311435,-0.0364487,-0.380372,0.017395,-4.93062e-05,0.00595354,8.75312e-05,0.496279,0.00111832,0.0734822,0.0509478,-0.00116739,0.0432816,1.97777,0.00111332,0.005,1.73414,0.00205264,-0.0344535,-0.197379,24.3708,0.27277,0.909986,7.20195,0.132087,3.53155,0.337382,3.91301,0.0610033,0.596246,-1.07971,0.0809682,0.0889885,-0.0281982,-0.306152,-0.153129,23.4648,23.3371,23.1669,23.3087,23.2094,23.2946,23.1243,
64,6.27335,1.38436,3.15339,4.12746,6.27403,1.98017,1.55557,0.00450162,-0.0936992,-5.04165e-05,0.108469,0.00102359,0.0731555,0,0.395507,-8.57212,-0.270864,-0.395156,1.22241,-32.5312,1.04279,0.00587409,-20,-0.44942,0.313492,-0.0364364,-0.380758,0.01739,-4.93062e-05,0.00595354,8.75312e-05,0.496279,0.00111832,0.0734822,0.0509622,-0.00114481,0.0432449,1.97777,0.00111332,0.005,1.73414,0.00205264,-0.0344535,-0.197379,24.3708,0.27277,0.918508,7.51259,0.158459,3.54331,0.343741,3.79482,0.062647,0.612305,-1.06396,0.0889885,0.0563965,-0.0216932,-0.294095,-0.149537,23.4648,23.3371,23.1527,23.2804,23.2236,23.2946,23.1385,
65,6.27335,1.38436,3.15339,4.12746,6.27403,1.98017,1.55557,0.00450162,-0.0936992,-5.04165e-05,0.108469,0.00102359,0.0731555,0,0.397731,-8.77347,-0.271134,-0.548575,1.24245,-33.3095,1.05895,0.00646529,-20,-0.452138,0.286882,-0.0363871,-0.45841,0.0181186,-5.1785e-05,0.00623806,8.87855e-05,0.496279,0.00111832,0.0734822,0.0509622,-0.00114481,0.0432449,1.97673,0.00113221,0.005,1.73319,0.00204932,-0.0344204,-0.204088,25.1013,0.27533,0.918508,7.51259,0.158459,3.54331,0.343741,3.79482,0.062647,0.612305,-1.06396,0.0889885,0.0563965,-0.0216932,-0.294095,-0.149537,23.4648,23.3371,23.1527,23.2804,23.2236,23.2946,23.1385,
66,6.27335,1.38427,3.15339,4.12757,6.27403,1.98024,1.55557,0.00421331,-0.0923733,-5.03784e-05,0.106959,0.00102359,0.0704954,0,0.397719,-8.7715,-0.271124,-0.548536,1.24249,-33.3075,1.05895,0.00645483,-20,-0.452152,0.289236,-0.03637,-0.458864,0.0181135,-5.1785e-05,0.00623806,8.87855e-05,0.496279,0.00111832,0.0734822,0.0502435,-0.00104074,0.0424711,1.97673,0.00113221,0.005,1.73319,0.00204932,-0.0344204,-0.204088,25.1013,0.27533,0.810159,7.74123,0.174925,3.5623,0.387412,3.63,0.0655787,0.612305,-1.10388,0.0809682,0.0254773,-0.0161133,-0.265991,-0.161183,23.479,23.3513,23.1527,23.2946,23.2094,23.2804,23.1527,
67,6.27335,1.38427,3.15339,4.12757,6.27403,1.98024,1.55557,0.00421331,-0.0923733,-5.03784e-05,0.106959,0.00102359,0.0704954,0,0.399533,-8.92614,-0.273661,-0.664676,1.25071,-33.899,1.07059,0.00693719,-20,-0.454408,0.269245,-0.0363876,-0.517498,0.0186536,-5.38545e-05,0.00650394,8.97925e-05,0.496279,0.00111832,0.0734822,0.0502435,-0.00104074,0.0424711,1.97574,0.00115375,0.005,1.73295,0.00197504,-0.033724,-0.208954,25.6543,0.271134,0.810159,7.74123,0.174925,3.5623,0.387412,3.63,0.0655787,0.612305,-1.10388,0.0809682,0.0254773,-0.0161133,-0.265991,-0.161183,23.479,23.3513,23.1527,23.2946,23.2094,23.2804,23.1527,
68,6.27336,1.38418,3.15339,4.12767,6.27403,1.98031,1.55557,0.00421331,-0.0926434,-5.56814e-05,0.107769,0.00102359,0.0686048,0,0.399591,-8.92416,-0.273812,-0.665289,1.25079,-33.8964,1.07069,0.00693141,-20,-0.454426,0.271188,-0.0363768,-0.517837,0.0186511,-5.38545e-05,0.00650394,8.97925e-05,0.496279,0.00111832,0.0734822,0.0505302,-0.00104053,0.042376,1.97574,0.00115375,0.005,1.73295,0.00197504,-0.033724,-0.208954,25.6543,0.271134,0.847131,7.95172,0.189504,3.5565,0.387412,3.48589,0.0775562,0.620361,-1.20047,0.072956,0.0433863,-0.0161133,-0.237671,-0.153129,23.4648,23.3371,23.1385,23.2946,23.2094,23.2804,23.1385,
69,6.27336,1.38418,3.15339,4.12767,6.27403,1.98031,1.55557,0.00421331,-0.0926434,-5.56814e-05,0.107769,0.00102359,0.0686048,0,0.401622,-9.11458,-0.272743,-0.811389,1.27351,-34.6319,1.0861,0.00747141,-20,-0.456902,0.245773,-0.0363056,-0.591319,0.0193329,-5.60416e-05,0.00676903,9.1704e-05,0.496279,0.00111832,0.0734822,0.0505302,-0.00104053,0.042376,1.97475,0.0011744,0.005,1.73179,0.00199344,-0.0336384,-0.215279,26.3458,0.276847,0.847131,7.95172,0.189504,3.5565,0.387412,3.48589,0.0775562,0.620361,-1.20047,0.072956,0.0433863,-0.0161133,-0.237671,-0.153129,23.4648,23.3371,23.1385,23.2946,23.2094,23.2804,23.1385,
70,6.27336,1.38409,3.15339,4.12779,6.27403,1.98037,1.55557,0.0042388,-0.0934537,-5.56814e-05,0.107078,0.00102298,0.0656337,0,0.401661,-9.11235,-0.27287,-0.811846,1.27357,-34.6292,1.08613,0.00745942,-20,-0.456915,0.24788,-0.0362964,-0.591709,0.0193279,-5.60416e-05,0.00676903,9.1704e-05,0.496279,0.00111832,0.0734822,0.050499,-0.00105566,0.0424057,1.97475,0.0011744,0.005,1.73179,0.00199344,-0.0336384,-0.215279,26.3458,0.276847,0.732527,8.13911,0.166176,3.52411,0.361759,3.34739,0.0665633,0.604302,-1.23277,0.0490066,0.0241699,-0.0205405,-0.213539,-0.153129,23.4648,23.3371,23.1811,23.2804,23.2094,23.2804,23.1385,
71,6.27336,1.38409,3.15339,4.12779,6.27403,1.98037,1.55557,0.0042388,-0.0934537,-5.56814e-05,0.107078,0.00102298,0.0656337,0,0.403566,-9.28994,-0.272064,-0.947575,1.29442,-35.3162,1.10056,0.00796596,-20,-0.459238,0.224325,-0.0362286,-0.660308,0.0199636,-5.81886e-05,0.0070397,9.26882e-05,0.496279,0.00111832,0.0734822,0.050499,-0.00105566,0.0424057,1.9737,0.00119573,0.005,1.73088,0.00202625,-0.0336651,-0.221174,26.9911,0.281877,0.732527,8.13911,0.166176,3.52411,0.361759,3.34739,0.0665633,0.604302,-1.23277,0.0490066,0.0241699,-0.0205405,-0.213539,-0.153129,23.4648,23.3371,23.1811,23.2804,23.2094,23.2804,23.1385,
72,6.27336,1.38399,3.15339,4.12789,6.27404,1.98044,1.55557,0.00429018,-0.0930351,-5.57235e-05,0.104798,0.00102295,0.0644475,0,0.403618,-9.28804,-0.272201,-0.947868,1.29451,-35.314,1.10064,0.00795347,-20,-0.459245,0.226541,-0.036218,-0.660751,0.0199602,-5.81886e-05,0.0070397,9.26882e-05,0.496279,0.00111832,0.0734822,0.0497479,-0.00108394,0.0421606,1.9737,0.00119573,0.005,1.73088,0.00202625,-0.0336651,-0.221174,26.9911,0.281877,0.732547,8.44687,0.205058,3.56538,0.343593,3.21354,0.0556939,0.58819,-1.26492,0.0725098,0.0402832,-0.0161133,-0.177292,-0.153129,23.4648,23.3229,23.1527,23.2804,23.1952,23.2946,23.1101,
73,6.27336,1.38399,3.15339,4.12789,6.27404,1.98044,1.55557,0.00429018,-0.0930351,-5.57235e-05,0.104798,0.00102295,0.0644475,0,0.405377,-9.45835,-0.270477,-1.07585,1.31706,-35.97,1.11397,0.00842113,-20,-0.461407,0.20455,-0.0361388,-0.725947,0.0205067,-6.03136e-05,0.00731024,9.4269e-05,0.496279,0.00111832,0.0734822,0.0497479,-0.00108394,0.0421606,1.97269,0.00122133,0.005,1.73065,0.00207474,-0.0334446,-0.226246,27.605,0.28902,0.732547,8.44687,0.205058,3.56538,0.343593,3.21354,0.0556939,0.58819,-1.26492,0.0725098,0.0402832,-0.0161133,-0.177292,-0.153129,23.4648,23.3229,23.1527,23.2804,23.1952,23.2946,23.1101,
74,6.27337,1.3839,3.15339,4.12799,6.27404,1.9805,1.55557,0.0042388,-0.0929135,-5.83771e-05,0.104692,0.00105395,0.0626626,0,0.405413,-9.4564,-0.270588,-1.07635,1.3171,-35.9676,1.11396,0.00841254,-20,-0.461423,0.206567,-0.0361279,-0.726311,0.0204992,-6.03136e-05,0.00731024,9.4269e-05,0.496279,0.00111832,0.0734822,0.049688,-0.00106349,0.0419353,1.97269,0.00122133,0.005,1.73065,0.00207474,-0.0334446,-0.226246,27.605,0.28902,0.59686,8.67591,0.227376,3.55553,0.370474,3.03377,0.0193628,0.604302,-1.32935,0.072956,0.0809682,-0.0127387,-0.157104,-0.153076,23.4506,23.3371,23.1527,23.2662,23.1952,23.2662,23.1243,
75,6.27337,1.3839,3.15339,4.12799,6.27404,1.9805,1.55557,0.0042388,-0.0929135,-5.83771e-05,0.104692,0.00105395,0.0626626,0,0.407425,-9.6313,-0.272345,-1.20982,1.33041,-36.6422,1.1293,0.0089474,-20,-0.463894,0.18342,-0.0361071,-0.793601,0.0212781,-6.28457e-05,0.00756719,9.43446e-05,0.496279,0.00111832,0.0734822,0.049688,-0.00106349,0.0419353,1.97171,0.00123644,0.005,1.72982,0.00206994,-0.0332418,-0.233465,28.2384,0.287661,0.59686,8.67591,0.227376,3.55553,0.370474,3.03377,0.0193628,0.604302,-1.32935,0.072956,0.0809682,-0.0127387,-0.157104,-0.153076,23.4506,23.3371,23.1527,23.2662,23.1952,23.2662,23.1243,
76,6.27337,1.3838,3.15339,4.1281,6.27404,1.98056,1.55557,0.0042388,-0.0964248,-5.83329e-05,0.106148,0.00105557,0.0626626,0,0.407465,-9.62931,-0.272506,-1.21137,1.33047,-36.6387,1.12932,0.00893546,-20,-0.463916,0.18476,-0.036099,-0.793824,0.0212734,-6.28457e-05,0.00756719,9.43446e-05,0.496279,0.00111832,0.0734822,0.0508412,-0.00105362,0.0433197,1.97171,0.00123644,0.005,1.72982,0.00206994,-0.0332418,-0.233465,28.2384,0.287661,0.628724,8.85774,0.222732,3.50472,0.404791,2.86414,0.0489217,0.588135,-1.37778,0.0725098,0.090076,-0.00805664,-0.141221,-0.14502,23.4648,23.3229,23.1669,23.2804,23.1952,23.2804,23.1243,
77,6.27337,1.3838,3.15339,4.1281,6.27404,1.98056,1.55557,0.0042388,-0.0964248,-5.83329e-05,0.106148,0.00105557,0.0626626,0,0.410082,-9.86054,-0.273127,-1.3909,1.35328,-37.5452,1.1474,0.00963108,-20,-0.467056,0.15335,-0.0360338,-0.88501,0.022043,-6.49478e-05,0.00782868,9.54784e-05,0.496279,0.00111832,0.0734822,0.0508412,-0.00105362,0.0433197,1.97071,0.00125813,0.005,1.72788,0.00208058,-0.0344877,-0.240481,29.0934,0.290176,0.628724,8.85774,0.222732,3.50472,0.404791,2.86414,0.0489217,0.588135,-1.37778,0.0725098,0.090076,-0.00805664,-0.141221,-0.14502,23.4648,23.3229,23.1669,23.2804,23.1952,23.2804,23.1243,
78,6.27338,1.3837,3.15339,4.12821,6.27404,1.98062,1.55557,0.00397487,-0.100374,-5.83329e-05,0.107329,0.00105317,0.0607104,0,0.410074,-9.85814,-0.273173,-1.3923,1.3533,-37.5414,1.14732,0.00961894,-20,-0.467081,0.154891,-0.0360215,-0.885266,0.0220345,-6.49478e-05,0.00782868,9.54784e-05,0.496279,0.00111832,0.0734822,0.0520088,-0.000941879,0.0446773,1.97071,0.00125813,0.005,1.72788,0.00208058,-0.0344877,-0.240481,29.0934,0.290176,0.535004,9.09551,0.198181,3.5195,0.399647,2.70101,0.0356627,0.588355,-1.33743,0.0563965,0.0569691,-0.0090076,-0.136963,-0.157156,23.4506,23.3371,23.1527,23.2804,23.1811,23.2804,23.1243,
79,6.27338,1.3837,3.15339,4.12821,6.27404,1.98062,1.55557,0.00397487,-0.100374,-5.83329e-05,0.107329,0.00105317,0.0607104,0,0.412836,-10.083,-0.277615,-1.56738,1.36428,-38.4238,1.16493,0.0103532,-20,-0.47041,0.124203,-0.0360362,-0.974081,0.0228597,-6.71666e-05,0.00810175,9.54673e-05,0.496279,0.00111832,0.0734822,0.0520088,-0.000941879,0.0446773,1.96963,0.00127088,0.005,1.72586,0.00199148,-0.0357095,-0.247887,29.926,0.282773,0.535004,9.09551,0.198181,3.5195,0.399647,2.70101,0.0356627,0.588355,-1.33743,0.0563965,0.0569691,-0.0090076,-0.136963,-0.157156,23.4506,23.3371,23.1527,23.2804,23.1811,23.2804,23.1243,
80,6.27338,1.3836,3.15339,4.12832,6.27404,1.98069,1.55557,0.00364632,-0.102063,-6.36359e-05,0.108039,0.00106913,0.0581783,0,0.412839,-10.0807,-0.277647,-1.56822,1.36429,-38.4206,1.16485,0.0103464,-20,-0.470434,0.126147,-0.0360203,-0.974414,0.0228497,-6.71666e-05,0.00810175,9.54673e-05,0.496279,0.00111832,0.0734822,0.0525651,-0.000807682,0.0450817,1.96963,0.00127088,0.005,1.72586,0.00199148,-0.0357095,-0.247887,29.926,0.282773,0.524478,9.45426,0.237686,3.591,0.387472,2.50856,0.0356952,0.604248,-1.27359,0.0569691,0.0180152,0,-0.120917,-0.149048,23.4506,23.3371,23.1669,23.2662,23.1952,23.2804,23.1101,
81,6.27338,1.3836,3.15339,4.12832,6.27404,1.98069,1.55557,0.00364632,-0.102063,-6.36359e-05,0.108039,0.00106913,0.0581783,0,0.415398,-10.2836,-0.283283,-1.72493,1.36929,-39.2097,1.18284,0.0110266,-20,-0.473557,0.0987929,-0.0360691,-1.0535,0.0238422,-7.01475e-05,0.0083784,9.49273e-05,0.496279,0.00111832,0.0734822,0.0525651,-0.000807682,0.0450817,1.96857,0.00127947,0.005,1.7244,0.00187844,-0.0360735,-0.256961,30.669,0.271895,0.524478,9.45426,0.237686,3.591,0.387472,2.50856,0.0356952,0.604248,-1.27359,0.0569691,0.0180152,0,-0.120917,-0.149048,23.4506,23.3371,23.1669,23.2662,23.1952,23.2804,23.1101,
82,6.27338,1.38349,3.15339,4.12843,6.27404,1.98074,1.55557,0.00357649,-0.102907,-6.36847e-05,0.11074,0.00105482,0.0561803,0,0.415425,-10.2814,-0.283401,-1.72593,1.36933,-39.2065,1.18283,0.0110135,-20,-0.47358,0.100667,-0.0360593,-1.05378,0.0238365,-7.01475e-05,0.0083784,9.49273e-05,0.496279,0.00111832,0.0734822,0.0535183,-0.000777701,0.0451761,1.96857,0.00127947,0.005,1.7244,0.00187844,-0.0360735,-0.256961,30.669,0.271895,0.414716,9.72632,0.247557,3.62051,0.414872,2.27796,-0.00550466,0.58819,-1.28909,0.0644531,0.0113938,-0.0113938,-0.0889885,-0.149102,23.4648,23.3371,23.1669,23.2946,23.1952,23.2946,23.1101,
83,6.27338,1.38349,3.15339,4.12843,6.27404,1.98074,1.55557,0.00357649,-0.102907,-6.36847e-05,0.11074,0.00105482,0.0561803,0,0.417814,-10.4906,-0.284816,-1.88866,1.38722,-40.0171,1.19927,0.0116484,-20,-0.476486,0.0721908,-0.0360219,-1.13506,0.0245668,-7.23501e-05,0.00864428,9.55752e-05,0.496279,0.00111832,0.0734822,0.0535183,-0.000777701,0.0451761,1.96751,0.00129672,0.005,1.72259,0.00186698,-0.0361585,-0.263616,31.4333,0.271915,0.414716,9.72632,0.247557,3.62051,0.414872,2.27796,-0.00550466,0.58819,-1.28909,0.0644531,0.0113938,-0.0113938,-0.0889885,-0.149102,23.4648,23.3371,23.1669,23.2946,23.1952,23.2946,23.1101,
84,6.27338,1.38349,3.15339,4.12843,6.27404,1.98074,1.55557,0.00357649,-0.102907,-6.36847e-05,0.11074,0.00105482,0.0561803,0,0.417814,-10.4906,-0.284816,-1.88866,1.38722,-40.0171,1.19927,0.0116484,-20,-0.476486,0.0721908,-0.0360219,-1.13506,0.0245668,-7.23501e-05,0.00864428,9.55752e-05,0.496279,0.00111832,0.0734822,0.0535183,-0.000777701,0.0451761,1.96751,0.00129672,0.005,1.72259,0.00186698,-0.0361585,-0.263616,31.4333,0.271915,0.414716,9.72632,0.247557,3.62051,0.414872,2.27796,-0.00550466,0.58819,-1.28909,0.0644531,0.0113938,-0.0113938,-0.0889885,-0.149102,23.4648,23.3371,23.1669,23.2946,23.1952,23.2946,23.1101,
85,6.27339,1.38339,3.15339,4.12855,6.27404,1.98079,1.55557,0.00331239,-0.103717,-6.36359e-05,0.11084,0.00105482,0.0521288,0,0.417803,-10.488,-0.28483,-1.88912,1.38724,-40.0141,1.1992,0.0116351,-20,-0.476504,0.0744656,-0.0360077,-1.13544,0.0245592,-7.23501e-05,0.00864428,9.55752e-05,0.496279,0.00111832,0.0734822,0.0537166,-0.000677621,0.0450806,1.96751,0.00129672,0.005,1.72259,0.00186698,-0.0361585,-0.263616,31.4333,0.271915,0.446149,10.0067,0.24707,3.60272,0.468356,2.0849,0.0221435,0.604302,-1.29712,0.0563965,-0.0483398,0,-0.0685998,-0.145075,23.4506,23.3371,23.1527,23.2946,23.1952,23.2804,23.1385,
86,6.27339,1.38339,3.15339,4.12855,6.27404,1.98079,1.55557,0.00331239,-0.103717,-6.36359e-05,0.11084,0.00105482,0.0521288,0,0.419926,-10.6636,-0.288273,-2.0245,1.39546,-40.693,1.21349,0.0121992,-20,-0.479105,0.0508793,-0.0360272,-1.20334,0.0252735,-7.46312e-05,0.00891575,9.56503e-05,0.496279,0.00111832,0.0734822,0.0537166,-0.000677621,0.0450806,1.9664,0.00130947,0.005,1.72142,0.00178839,-0.0360726,-0.270097,32.072,0.265999,0.446149,10.0067,0.24707,3.60272,0.468356,2.0849,0.0221435,0.604302,-1.29712,0.0563965,-0.0483398,0,-0.0685998,-0.145075,23.4506,23.3371,23.1527,23.2946,23.1952,23.2804,23.1385,
87,6.27339,1.38329,3.15339,4.12865,6.27405,1.98084,1.55557,0.00331157,-0.103717,-6.89389e-05,0.108309,0.00108508,0.0464568,0,0.419975,-10.6611,-0.288388,-2.0242,1.39547,-40.6907,1.21344,0.0121912,-20,-0.47911,0.0534339,-0.0360177,-1.20382,0.0252642,-7.46312e-05,0.00891575,9.56503e-05,0.496279,0.00111832,0.0734822,0.0529886,-0.000687413,0.044531,1.9664,0.00130947,0.005,1.72142,0.00178839,-0.0360726,-0.270097,32.072,0.265999,0.361414,10.3075,0.221004,3.5941,0.441425,1.90444,-0.0186281,0.596246,-1.30528,0.0563965,-0.0586532,-0.00402832,-0.0284845,-0.149102,23.4506,23.3371,23.1669,23.2946,23.1811,23.2804,23.1101,
88,6.27339,1.38329,3.15339,4.12865,6.27405,1.98084,1.55557,0.00331157,-0.103717,-6.89389e-05,0.108309,0.00108508,0.0464568,0,0.421349,-10.7843,-0.28907,-2.11736,1.4064,-41.1626,1.22773,0.0125562,-20,-0.480814,0.0373924,-0.0359928,-1.25068,0.0261549,-7.77703e-05,0.00917056,9.4861e-05,0.496279,0.00111832,0.0734822,0.0529886,-0.000687413,0.044531,1.96536,0.0013178,0.005,1.72113,0.00180469,-0.0355779,-0.278608,32.5139,0.266429,0.361414,10.3075,0.221004,3.5941,0.441425,1.90444,-0.0186281,0.596246,-1.30528,0.0563965,-0.0586532,-0.00402832,-0.0284845,-0.149102,23.4506,23.3371,23.1669,23.2946,23.1811,23.2804,23.1101,
89,6.27339,1.38329,3.15339,4.12865,6.27405,1.98084,1.55557,0.00331157,-0.103717,-6.89389e-05,0.108309,0.00108508,0.0464568,0,0.421349,-10.7843,-0.28907,-2.11736,1.4064,-41.1626,1.22773,0.0125562,-20,-0.480814,0.0373924,-0.0359928,-1.25068,0.0261549,-7.77703e-05,0.00917056,9.4861e-05,0.496279,0.00111832,0.0734822,0.0529886,-0.000687413,0.044531,1.96536,0.0013178,0.005,1.72113,0.00180469,-0.0355779,-0.278608,32.5139,0.266429,0.361414,10.3075,0.221004,3.5941,0.441425,1.90444,-0.0186281,0.596246,-1.30528,0.0563965,-0.0586532,-0.00402832,-0.0284845,-0.149102,23.4506,23.3371,23.1669,23.2946,23.1811,23.2804,23.1101,
90,6.27339,1.38319,3.15339,4.12876,6.27405,1.98088,1.55557,0.00331157,-0.102637,-6.89389e-05,0.108469,0.00105482,0.0405146,0,0.421383,-10.7818,-0.289169,-2.11712,1.40644,-41.1603,1.22775,0.0125419,-20,-0.480821,0.0399436,-0.0359843,-1.2511,0.0261511,-7.77703e-05,0.00917056,9.4861e-05,0.496279,0.00111832,0.0734822,0.0528109,-0.00070212,0.0434811,1.96536,0.0013178,0.005,1.72113,0.00180469,-0.0355779,-0.278608,32.5139,0.266429,0.355993,10.6783,0.25953,3.67114,0.429479,1.70607,-0.012297,0.58819,-1.33743,0.0725098,0,-0.00569691,0.0205405,-0.157156,23.4648,23.3229,23.1527,23.2946,23.1952,23.2662,23.1243,
91,6.27339,1.38319,3.15339,4.12876,6.27405,1.98088,1.55557,0.00331157,-0.102637,-6.89389e-05,0.108469,0.00105482,0.0405146,0,0.422702,-10.9118,-0.287647,-2.21708,1.42397,-41.6541,1.23878,0.0128923,-20,-0.482458,0.0225879,-0.035925,-1.30019,0.0266634,-7.97542e-05,0.00941861,9.57234e-05,0.496279,0.00111832,0.0734822,0.0528109,-0.00070212,0.0434811,1.96431,0.00133246,0.005,1.72035,0.00183112,-0.034633,-0.283444,32.9778,0.272232,0.355993,10.6783,0.25953,3.67114,0.429479,1.70607,-0.012297,0.58819,-1.33743,0.0725098,0,-0.00569691,0.0205405,-0.157156,23.4648,23.3229,23.1527,23.2946,23.1952,23.2662,23.1243,
92,6.27339,1.38319,3.15339,4.12876,6.27405,1.98088,1.55557,0.00331157,-0.102637,-6.89389e-05,0.108469,0.00105482,0.0405146,0,0.422702,-10.9118,-0.287647,-2.21708,1.42397,-41.6541,1.23878,0.0128923,-20,-0.482458,0.0225879,-0.035925,-1.30019,0.0266634,-7.97542e-05,0.00941861,9.57234e-05,0.496279,0.00111832,0.0734822,0.0528109,-0.00070212,0.0434811,1.96431,0.00133246,0.005,1.72035,0.00183112,-0.034633,-0.283444,32.9778,0.272232,0.355993,10.6783,0.25953,3.67114,0.429479,1.70607,-0.012297,0.58819,-1.33743,0.0725098,0,-0.00569691,0.0205405,-0.157156,23.4648,23.3229,23.1527,23.2946,23.1952,23.2662,23.1243,
93,6.2734,1.38308,3.15339,4.12887,6.27405,1.98092,1.55557,0.0032484,-0.101716,-6.89389e-05,0.108039,0.00108778,0.0365778,0,0.422726,-10.9095,-0.287739,-2.21709,1.42398,-41.6518,1.23871,0.0128776,-20,-0.482469,0.0250805,-0.0359144,-1.30061,0.0266543,-7.97542e-05,0.00941861,9.57234e-05,0.496279,0.00111832,0.0734822,0.0524934,-0.000683193,0.0427163,1.96431,0.00133246,0.005,1.72035,0.00183112,-0.034633,-0.283444,32.9778,0.272232,0.297041,10.9774,0.253077,3.64978,0.461139,1.46073,-0.0259701,0.580134,-1.39401,0.072956,0.00805664,0.00569691,0.072956,-0.149102,23.4648,23.3229,23.1527,23.2804,23.1952,23.2662,23.1243,
94,6.2734,1.38308,3.15339,4.12887,6.27405,1.98092,1.55557,0.0032484,-0.101716,-6.89389e-05,0.108039,0.00108778,0.0365778,0,0.42443,-11.0561,-0.289746,-2.32917,1.43356,-42.2127,1.25272,0.0133301,-20,-0.484582,0.00566889,-0.0359073,-1.35643,0.0274346,-8.24274e-05,0.00967236,9.5135e-05,0.496279,0.00111832,0.0734822,0.0524934,-0.000683193,0.0427163,1.96325,0.00134378,0.005,1.71968,0.00182427,-0.0339446,-0.290739,33.5043,0.26977,0.297041,10.9774,0.253077,3.64978,0.461139,1.46073,-0.0259701,0.580134,-1.39401,0.072956,0.00805664,0.00569691,0.072956,-0.149102,23.4648,23.3229,23.1527,23.2804,23.1952,23.2662,23.1243,
95,6.2734,1.38298,3.15339,4.12897,6.27405,1.98095,1.55557,0.00319196,-0.102097,-7.15904e-05,0.105878,0.00108778,0.0326818,0,0.424465,-11.0539,-0.289839,-2.32916,1.43358,-42.2105,1.25271,0.0133188,-20,-0.484589,0.0079887,-0.0358969,-1.35684,0.0274297,-8.24274e-05,0.00967236,9.5135e-05,0.496279,0.00111832,0.0734822,0.0519507,-0.000670132,0.0424997,1.96325,0.00134378,0.005,1.71968,0.00182427,-0.0339446,-0.290739,33.5043,0.26977,0.292906,11.2478,0.223367,3.56527,0.510923,1.24685,0.0103043,0.563965,-1.44216,0.0725098,0.0290486,0.0090076,0.116891,-0.157156,23.4648,23.3371,23.1669,23.2946,23.2094,23.2662,23.1385,
96,6.2734,1.38298,3.15339,4.12897,6.27405,1.98095,1.55557,0.00319196,-0.102097,-7.15904e-05,0.105878,0.00108778,0.0326818,0,0.425885,-11.184,-0.289817,-2.42809,1.44702,-42.7119,1.26514,0.0136961,-20,-0.486334,-0.00908165,-0.0358631,-1.40679,0.0281001,-8.48596e-05,0.00990961,9.56064e-05,0.496279,0.00111832,0.0734822,0.0519507,-0.000670132,0.0424997,1.96222,0.00135629,0.005,1.71924,0.00182378,-0.0337497,-0.297067,33.9746,0.271851,0.292906,11.2478,0.223367,3.56527,0.510923,1.24685,0.0103043,0.563965,-1.44216,0.0725098,0.0290486,0.0090076,0.116891,-0.157156,23.4648,23.3371,23.1669,23.2946,23.2094,23.2662,23.1385,
97,6.2734,1.38298,3.15339,4.12897,6.27405,1.98095,1.55557,0.00319196,-0.102097,-7.15904e-05,0.105878,0.00108778,0.0326818,0,0.425885,-11.184,-0.289817,-2.42809,1.44702,-42.7119,1.26514,0.0136961,-20,-0.486334,-0.00908165,-0.0358631,-1.40679,0.0281001,-8.48596e-05,0.00990961,9.56064e-05,0.496279,0.00111832,0.0734822,0.0519507,-0.000670132,0.0424997,1.96222,0.00135629,0.005,1.71924,0.00182378,-0.0337497,-0.297067,33.9746,0.271851,0.292906,11.2478,0.223367,3.56527,0.510923,1.24685,0.0103043,0.563965,-1.44216,0.0725098,0.0290486,0.0090076,0.116891,-0.157156,23.4648,23.3371,23.1669,23.2946,23.2094,23.2662,23.1385,
98,6.2734,1.38288,3.15339,4.12908,6.27405,1.98098,1.55557,0.00308495,-0.101557,-7.15904e-05,0.106326,0.00108778,0.0280901,0,0.425901,-11.1816,-0.289886,-2.42817,1.44701,-42.7093,1.26505,0.0136816,-20,-0.486347,-0.00666257,-0.0358532,-1.40716,0.0280915,-8.48596e-05,0.00990961,9.56064e-05,0.496279,0.00111832,0.0734822,0.0519685,-0.000635388,0.0418035,1.96222,0.00135629,0.005,1.71924,0.00182378,-0.0337497,-0.297067,33.9746,0.271851,0.247136,11.5753,0.206305,3.44747,0.493161,1.05701,0.0088139,0.580134,-1.4341,0.0664368,0.0322266,0.0090076,0.161183,-0.149048,23.4506,23.3371,23.1527,23.2804,23.2094,23.2662,23.1243,
99,6.2734,1.38288,3.15339,4.12908,6.27405,1.98098,1.55557,0.00308495,-0.101557,-7.15904e-05,0.106326,0.00108778,0.0280901,0,0.427553,-11.3229,-0.291916,-2.53736,1.45587,-43.2504,1.27809,0.0141205,-20,-0.48839,-0.0256784,-0.0358507,-1.46114,0.0288036,-8.73014e-05,0.0101502,9.50729e-05,0.496279,0.00111832,0.0734822,0.0519685,-0.000635388,0.0418035,1.96115,0.00136486,0.005,1.71826,0.00180022,-0.0331231,-0.30369,34.4837,0.269124,0.247136,11.5753,0.206305,3.44747,0.493161,1.05701,0.0088139,0.580134,-1.4341,0.0664368,0.0322266,0.0090076,0.161183,-0.149048,23.4506,23.3371,23.1527,23.2804,23.2094,23.2662,23.1243,
100,6.2734,1.38278,3.15338,4.12919,6.27405,1.981,1.55557,0.00276582,-0.0988557,-7.68941e-05,0.107499,0.00108778,0.0240738,0,0.427564,-11.3207,-0.291926,-2.53728,1.45586,-43.2483,1.27798,0.0141129,-20,-0.488407,-0.0231494,-0.0358362,-1.46151,0.0287932,-8.73014e-05,0.0101502,9.50729e-05,0.496279,0.00111832,0.0734822,0.0517411,-0.000516644,0.0402962,1.96115,0.00136486,0.005,1.71826,0.00180022,-0.0331231,-0.30369,34.4837,0.269124,0.269596,11.9561,0.218118,3.40025,0.47298,0.874111,0.0116707,0.580134,-1.46651,0.0649547,0.00805664,0.012085,0.205444,-0.145075,23.4648,23.3229,23.1527,23.2662,23.1952,23.2804,23.1243,
101,6.2734,1.38278,3.15338,4.12919,6.27405,1.981,1.55557,0.00276582,-0.0988557,-7.68941e-05,0.107499,0.00108778,0.0240738,0,0.429221,-11.4483,-0.297106,-2.63527,1.45384,-43.73,1.29017,0.0145531,-20,-0.490495,-0.040168,-0.0359067,-1.50928,0.0295522,-8.99872e-05,0.0103792,9.39802e-05,0.496279,0.00111832,0.0734822,0.0517411,-0.000516644,0.0402962,1.96013,0.00136344,0.005,1.71755,0.00169208,-0.0317665,-0.310653,34.9356,0.257982,0.269596,11.9561,0.218118,3.40025,0.47298,0.874111,0.0116707,0.580134,-1.46651,0.0649547,0.00805664,0.012085,0.205444,-0.145075,23.4648,23.3229,23.1527,23.2662,23.1952,23.2804,23.1243,
102,6.27341,1.38268,3.15338,4.12929,6.27405,1.98102,1.55557,0.00261967,-0.0967966,-7.68933e-05,0.106148,0.00108778,0.0213377,0,0.429243,-11.4464,-0.297164,-2.63516,1.45384,-43.7281,1.29008,0.014538,-20,-0.490504,-0.0376264,-0.0358954,-1.50969,0.0295432,-8.99872e-05,0.0103792,9.39802e-05,0.496279,0.00111832,0.0734822,0.0509188,-0.000470037,0.0392181,1.96013,0.00136344,0.005,1.71755,0.00169208,-0.0317665,-0.310653,34.9356,0.257982,0.229774,12.2536,0.212538,3.30601,0.490093,0.661286,-0.025707,0.548088,-1.53076,0.0569691,0.0161133,0.0127387,0.241733,-0.136963,23.4648,23.3229,23.1527,23.2804,23.2094,23.2804,23.1243,
103,6.27341,1.38268,3.15338,4.12929,6.27405,1.98102,1.55557,0.00261967,-0.0967966,-7.68933e-05,0.106148,0.00108778,0.0213377,0,0.430704,-11.5682,-0.299923,-2.72706,1.45845,-44.1905,1.30165,0.0149262,-20,-0.49234,-0.0534155,-0.0359151,-1.55545,0.0302104,-9.26033e-05,0.0106076,9.31527e-05,0.496279,0.00111832,0.0734822,0.0509188,-0.000470037,0.0392181,1.9591,0.00137142,0.005,1.71736,0.00165731,-0.0307963,-0.316846,35.3681,0.25307,0.229774,12.2536,0.212538,3.30601,0.490093,0.661286,-0.025707,0.548088,-1.53076,0.0569691,0.0161133,0.0127387,0.241733,-0.136963,23.4648,23.3229,23.1527,23.2804,23.2094,23.2804,23.1243,
104,6.27341,1.38268,3.15338,4.12929,6.27405,1.98102,1.55557,0.00261967,-0.0967966,-7.68933e-05,0.106148,0.00108778,0.0213377,0,0.430704,-11.5682,-0.299923,-2.72706,1.45845,-44.1905,1.30165,0.0149262,-20,-0.49234,-0.0534155,-0.0359151,-1.55545,0.0302104,-9.26033e-05,0.0106076,9.31527e-05,0.496279,0.00111832,0.0734822,0.0509188,-0.000470037,0.0392181,1.9591,0.00137142,0.005,1.71736,0.00165731,-0.0307963,-0.316846,35.3681,0.25307,0.229774,12.2536,0.212538,3.30601,0.490093,0.661286,-0.025707,0.548088,-1.53076,0.0569691,0.0161133,0.0127387,0.241733,-0.136963,23.4648,23.3229,23.1527,23.2804,23.2094,23.2804,23.1243,
105,6.27341,1.38258,3.15338,4.1294,6.27406,1.98104,1.55557,0.00244668,-0.0964248,-8.21342e-05,0.105338,0.00112604,0.019447,1.0606e-05,0.430735,-11.5663,-0.299997,-2.72736,1.45843,-44.1883,1.30156,0.0149185,-20,-0.492355,-0.051255,-0.0359034,-1.55579,0.0302014,-9.26033e-05,0.0106076,9.31527e-05,0.496279,0.00111832,0.0734822,0.0506058,-0.000401591,0.0388928,1.9591,0.00137142,0.005,1.71736,0.00165731,-0.0307963,-0.316846,35.3681,0.25307,0.242519,12.494,0.210886,3.15619,0.508046,0.476011,-0.0193361,0.563965,-1.58724,0.0644531,0.0254773,0.0205405,0.269928,-0.149102,23.4506,23.3371,23.1385,23.2804,23.1811,23.252,23.1243,
106,6.27341,1.38258,3.15338,4.1294,6.27406,1.98104,1.55557,0.00244668,-0.0964248,-8.21342e-05,0.105338,0.00112604,0.019447,1.0606e-05,0.432455,-11.7035,-0.303965,-2.83229,1.46139,-44.7168,1.31278,0.0153755,-20,-0.494483,-0.0694225,-0.0359377,-1.60849,0.0307791,-9.45248e-05,0.0108256,9.22349e-05,0.496279,0.00111832,0.0734822,0.0506058,-0.000401591,0.0388928,1.9581,0.00137361,0.005,1.71674,0.00159768,-0.0305035,-0.322043,35.8643,0.245457,0.242519,12.494,0.210886,3.15619,0.508046,0.476011,-0.0193361,0.563965,-1.58724,0.0644531,0.0254773,0.0205405,0.269928,-0.149102,23.4506,23.3371,23.1385,23.2804,23.1811,23.252,23.1243,
107,6.27341,1.38249,3.15338,4.12951,6.27406,1.98106,1.55557,0.00212755,-0.0939939,-8.74993e-05,0.104472,0.00114955,0.0191575,1.05981e-05,0.432476,-11.7018,-0.303993,-2.83264,1.46137,-44.7147,1.31264,0.0153678,-20,-0.494501,-0.0670497,-0.0359233,-1.60886,0.0307658,-9.45248e-05,0.0108256,9.22349e-05,0.496279,0.00111832,0.0734822,0.0498419,-0.000278038,0.0379177,1.9581,0.00137361,0.005,1.71674,0.00159768,-0.0305035,-0.322043,35.8643,0.245457,0.199404,12.7633,0.20894,2.9368,0.510579,0.294444,-0.0289906,0.539795,-1.59554,0.0569691,0.0490066,0.0216932,0.298096,-0.137022,23.4648,23.3371,23.1385,23.2662,23.1952,23.252,23.1101,
108,6.27341,1.38249,3.15338,4.12951,6.27406,1.98106,1.55557,0.00212755,-0.0939939,-8.74993e-05,0.104472,0.00114955,0.0191575,1.05981e-05,0.434358,-11.8401,-0.311011,-2.93703,1.45556,-45.2421,1.32618,0.0158678,-20,-0.496863,-0.0850061,-0.0360175,-1.66113,0.0316278,-9.76197e-05,0.0110482,9.02033e-05,0.496279,0.00111832,0.0734822,0.0498419,-0.000278038,0.0379177,1.95707,0.00137034,0.005,1.7165,0.00148354,-0.0296259,-0.329906,36.3577,0.230148,0.199404,12.7633,0.20894,2.9368,0.510579,0.294444,-0.0289906,0.539795,-1.59554,0.0569691,0.0490066,0.0216932,0.298096,-0.137022,23.4648,23.3371,23.1385,23.2662,23.1952,23.252,23.1101,
109,6.27341,1.3824,3.15338,4.12961,6.27406,1.98108,1.55557,0.00202117,-0.0912929,-8.74984e-05,0.103447,0.0011643,0.0180553,1.06061e-05,0.434386,-11.8384,-0.311084,-2.93718,1.45558,-45.2403,1.32611,0.0158539,-20,-0.496873,-0.082673,-0.0360075,-1.66151,0.0316198,-9.76197e-05,0.0110482,9.02033e-05,0.496279,0.00111832,0.0734822,0.0489774,-0.000243781,0.0367503,1.95707,0.00137034,0.005,1.7165,0.00148354,-0.0296259,-0.329906,36.3577,0.230148,0.239083,13.0539,0.229772,2.74085,0.526816,0.159842,-0.0284896,0.564022,-1.65984,0.0649547,0.090076,0.0216932,0.306179,-0.145075,23.4648,23.3229,23.1527,23.2662,23.1669,23.252,23.1243,
110,6.27341,1.3824,3.15338,4.12961,6.27406,1.98108,1.55557,0.00202117,-0.0912929,-8.74984e-05,0.103447,0.0011643,0.0180553,1.06061e-05,0.435826,-11.9585,-0.313876,-3.02745,1.45998,-45.695,1.33668,0.0162364,-20,-0.498689,-0.0981411,-0.0360264,-1.70644,0.0321926,-9.98838e-05,0.0112592,8.93944e-05,0.496279,0.00111832,0.0734822,0.0489774,-0.000243781,0.0367503,1.9561,0.00137581,0.005,1.71641,0.00145763,-0.0285752,-0.335169,36.7827,0.225217,0.239083,13.0539,0.229772,2.74085,0.526816,0.159842,-0.0284896,0.564022,-1.65984,0.0649547,0.090076,0.0216932,0.306179,-0.145075,23.4648,23.3229,23.1527,23.2662,23.1669,23.252,23.1243,
111,6.27341,1.38231,3.15338,4.12971,6.27406,1.9811,1.55557,0.00209574,-0.0899412,-9.01508e-05,0.101016,0.00117018,0.0164759,1.0606e-05,0.435889,-11.9568,-0.314019,-3.02753,1.46001,-45.6932,1.33667,0.0162242,-20,-0.498692,-0.0958453,-0.0360196,-1.70683,0.0321868,-9.98838e-05,0.0112592,8.93944e-05,0.496279,0.00111832,0.0734822,0.0479914,-0.000282569,0.0360906,1.9561,0.00137581,0.005,1.71641,0.00145763,-0.0285752,-0.335169,36.7827,0.225217,0.238548,13.2859,0.198086,2.51086,0.520563,0.00986731,-0.0150613,0.547911,-1.7322,0.0569691,0.105969,0.0241699,0.314235,-0.145243,23.4648,23.3087,23.1101,23.2804,23.1952,23.2662,23.0959,
112,6.27341,1.38231,3.15338,4.12971,6.27406,1.9811,1.55557,0.00209574,-0.0899412,-9.01508e-05,0.101016,0.00117018,0.0164759,1.0606e-05,0.43711,-12.0717,-0.313716,-3.11366,1.47289,-46.1318,1.34774,0.0165485,-20,-0.500216,-0.110557,-0.0359786,-1.75027,0.0327738,-0.00010224,0.0114706,8.90978e-05,0.496279,0.00111832,0.0734822,0.0479914,-0.000282569,0.0360906,1.95513,0.00138079,0.005,1.71642,0.00149702,-0.0279815,-0.340746,37.1926,0.228033,0.238548,13.2859,0.198086,2.51086,0.520563,0.00986731,-0.0150613,0.547911,-1.7322,0.0569691,0.105969,0.0241699,0.314235,-0.145243,23.4648,23.3087,23.1101,23.2804,23.1952,23.2662,23.0959,
113,6.27341,1.38231,3.15338,4.12971,6.27406,1.9811,1.55557,0.00209574,-0.0899412,-9.01508e-05,0.101016,0.00117018,0.0164759,1.0606e-05,0.43711,-12.0717,-0.313716,-3.11366,1.47289,-46.1318,1.34774,0.0165485,-20,-0.500216,-0.110557,-0.0359786,-1.75027,0.0327738,-0.00010224,0.0114706,8.90978e-05,0.496279,0.00111832,0.0734822,0.0479914,-0.000282569,0.0360906,1.95513,0.00138079,0.005,1.71642,0.00149702,-0.0279815,-0.340746,37.1926,0.228033,0.238548,13.2859,0.198086,2.51086,0.520563,0.00986731,-0.0150613,0.547911,-1.7322,0.0569691,0.105969,0.0241699,0.314235,-0.145243,23.4648,23.3087,23.1101,23.2804,23.1952,23.2662,23.0959,
114,6.27342,1.38222,3.15338,4.12981,6.27406,1.98111,1.55557,0.00210665,-0.0902126,-9.00817e-05,0.0977753,0.00124331,0.0153956,1.0606e-05,0.437142,-12.07,-0.31382,-3.11392,1.47288,-46.1299,1.34764,0.0165347,-20,-0.500222,-0.108538,-0.0359713,-1.75062,0.0327648,-0.00010224,0.0114706,8.90978e-05,0.496279,0.00111832,0.0734822,0.0471115,-0.000287731,0.0361417,1.95513,0.00138079,0.005,1.71642,0.00149702,-0.0279815,-0.340746,37.1926,0.228033,0.247281,13.5554,0.236282,2.29007,0.530902,-0.182407,-0.0157455,0.539855,-1.75642,0.0569691,0.129158,0.0332184,0.342502,-0.149102,23.4648,23.3229,23.1243,23.252,23.1952,23.2662,23.1101,
115,6.27342,1.38222,3.15338,4.12981,6.27406,1.98111,1.55557,0.00210665,-0.0902126,-9.00817e-05,0.0977753,0.00124331,0.0153956,1.0606e-05,0.438532,-12.1859,-0.316029,-3.20103,1.47904,-46.5788,1.35976,0.016904,-20,-0.501937,-0.123448,-0.0359694,-1.79529,0.0334812,-0.000104661,0.0116712,8.79213e-05,0.496279,0.00111832,0.0734822,0.0471115,-0.000287731,0.0361417,1.9542,0.00138562,0.005,1.71638,0.00150602,-0.0280275,-0.34747,37.6128,0.224772,0.247281,13.5554,0.236282,2.29007,0.530902,-0.182407,-0.0157455,0.539855,-1.75642,0.0569691,0.129158,0.0332184,0.342502,-0.149102,23.4648,23.3229,23.1243,23.252,23.1952,23.2662,23.1101,
116,6.27342,1.38213,3.15338,4.12991,6.27406,1.98113,1.55557,0.00203842,-0.0880518,-9.54538e-05,0.0965459,0.00129036,0.0135049,1.0606e-05,0.438581,-12.1842,-0.316133,-3.20115,1.47904,-46.5769,1.35968,0.0168963,-20,-0.501948,-0.121168,-0.0359601,-1.79565,0.0334714,-0.000104661,0.0116712,8.79213e-05,0.496279,0.00111832,0.0734822,0.0463035,-0.000264541,0.0351078,1.9542,0.00138562,0.005,1.71638,0.00150602,-0.0280275,-0.34747,37.6128,0.224772,0.216961,13.8053,0.245759,1.94673,0.534877,-0.341556,-0.0249103,0.531799,-1.74031,0.0569691,0.193359,0.0281982,0.342502,-0.145243,23.4506,23.3229,23.1385,23.252,23.2094,23.2662,23.1101,
117,6.27342,1.38213,3.15338,4.12991,6.27406,1.98113,1.55557,0.00203842,-0.0880518,-9.54538e-05,0.0965459,0.00129036,0.0135049,1.0606e-05,0.439926,-12.2937,-0.319215,-3.28374,1.48166,-46.9921,1.37179,0.0172535,-20,-0.503643,-0.135332,-0.035984,-1.83673,0.0342466,-0.000107425,0.0118737,8.65632e-05,0.496279,0.00111832,0.0734822,0.0463035,-0.000264541,0.0351078,1.95324,0.00138417,0.005,1.71624,0.00148384,-0.0270971,-0.35475,38.0011,0.219006,0.216961,13.8053,0.245759,1.94673,0.534877,-0.341556,-0.0249103,0.531799,-1.74031,0.0569691,0.193359,0.0281982,0.342502,-0.145243,23.4506,23.3229,23.1385,23.252,23.2094,23.2662,23.1101,
118,6.27342,1.38204,3.15338,4.13,6.27407,1.98114,1.55557,0.00190798,-0.0862643,-9.54538e-05,0.0945341,0.00137281,0.0116142,1.06059e-05,0.439943,-12.2921,-0.319274,-3.28375,1.48164,-46.9905,1.37166,0.0172395,-20,-0.503651,-0.133111,-0.0359745,-1.83709,0.0342359,-0.000107425,0.0118737,8.65632e-05,0.496279,0.00111832,0.0734822,0.045348,-0.000215423,0.0342336,1.95324,0.00138417,0.005,1.71624,0.00148384,-0.0270971,-0.35475,38.0011,0.219006,0.24974,14.1075,0.269359,1.69308,0.526165,-0.466939,-0.0497442,0.539795,-1.7647,0.0563965,0.20206,0.0284845,0.366599,-0.145075,23.4648,23.3087,23.1527,23.252,23.1952,23.252,23.1101,
119,6.27342,1.38204,3.15338,4.13,6.27407,1.98114,1.55557,0.00190798,-0.0862643,-9.54538e-05,0.0945341,0.00137281,0.0116142,1.06059e-05,0.441268,-12.3932,-0.323611,-3.35947,1.47985,-47.3747,1.38252,0.0175915,-20,-0.505323,-0.146053,-0.0360233,-1.87506,0.0349417,-0.000109848,0.0120698,8.49474e-05,0.496279,0.00111832,0.0734822,0.045348,-0.000215423,0.0342336,1.95232,0.00138491,0.005,1.71628,0.0014403,-0.0263102,-0.361293,38.3599,0.209997,0.24974,14.1075,0.269359,1.69308,0.526165,-0.466939,-0.0497442,0.539795,-1.7647,0.0563965,0.20206,0.0284845,0.366599,-0.145075,23.4648,23.3087,23.1527,23.252,23.1952,23.252,23.1101,
120,6.27342,1.38195,3.15338,4.13009,6.27407,1.98115,1.55557,0.00196293,-0.0856209,-9.54538e-05,0.0920099,0.00139999,0.00801704,1.06061e-05,0.441306,-12.3914,-0.323718,-3.35934,1.47987,-47.373,1.38251,0.0175778,-20,-0.505325,-0.143943,-0.0360165,-1.8754,0.0349398,-0.000109848,0.0120698,8.49474e-05,0.496279,0.00111832,0.0734822,0.0444884,-0.000247033,0.0336415,1.95232,0.00138491,0.005,1.71628,0.0014403,-0.0263102,-0.361293,38.3599,0.209997,0.273725,14.3732,0.267127,1.50836,0.535677,-0.634602,-0.0470481,0.539795,-1.78054,0.0490066,0.225586,0.0322266,0.382712,-0.145075,23.4506,23.3229,23.1243,23.252,23.1811,23.2662,23.1101,
121,6.27342,1.38195,3.15338,4.13009,6.27407,1.98115,1.55557,0.00196293,-0.0856209,-9.54538e-05,0.0920099,0.00139999,0.00801704,1.06061e-05,0.442116,-12.4739,-0.322361,-3.42126,1.49222,-47.6865,1.39132,0.0177929,-20,-0.506337,-0.154515,-0.035969,-1.90643,0.0354347,-0.000111765,0.0122535,8.545e-05,0.496279,0.00111832,0.0734822,0.0444884,-0.000247033,0.0336415,1.95144,0.0013967,0.005,1.71626,0.00147936,-0.0257773,-0.366088,38.653,0.214749,0.273725,14.3732,0.267127,1.50836,0.535677,-0.634602,-0.0470481,0.539795,-1.78054,0.0490066,0.225586,0.0322266,0.382712,-0.145075,23.4506,23.3229,23.1243,23.252,23.1811,23.2662,23.1101,
122,6.27342,1.38195,3.15338,4.13009,6.27407,1.98115,1.55557,0.00196293,-0.0856209,-9.54538e-05,0.0920099,0.00139999,0.00801704,1.06061e-05,0.442116,-12.4739,-0.322361,-3.42126,1.49222,-47.6865,1.39132,0.0177929,-20,-0.506337,-0.154515,-0.035969,-1.90643,0.0354347,-0.000111765,0.0122535,8.545e-05,0.496279,0.00111832,0.0734822,0.0444884,-0.000247033,0.0336415,1.95144,0.0013967,0.005,1.71626,0.00147936,-0.0257773,-0.366088,38.653,0.214749,0.273725,14.3732,0.267127,1.50836,0.535677,-0.634602,-0.0470481,0.539795,-1.78054,0.0490066,0.225586,0.0322266,0.382712,-0.145075,23.4506,23.3229,23.1243,23.252,23.1811,23.2662,23.1101,
123,6.27342,1.38187,3.15338,4.13018,6.27407,1.98115,1.55557,0.00192095,-0.0852643,-0.000100681,0.0904827,0.00145727,0.00486175,1.06061e-05,0.44216,-12.4721,-0.322462,-3.42126,1.49219,-47.6848,1.39123,0.0177857,-20,-0.506345,-0.152524,-0.0359613,-1.90674,0.0354266,-0.000111765,0.0122535,8.545e-05,0.496279,0.00111832,0.0734822,0.0439758,-0.000232255,0.0331957,1.95144,0.0013967,0.005,1.71626,0.00147936,-0.0257773,-0.366088,38.653,0.214749,0.270175,14.6787,0.266705,1.32505,0.525338,-0.80258,-0.0486355,0.531738,-1.80476,0.0563965,0.249756,0.0404841,0.414917,-0.141049,23.4506,23.3087,23.1385,23.252,23.1952,23.2662,23.0959,
124,6.27342,1.38187,3.15338,4.13018,6.27407,1.98115,1.55557,0.00192095,-0.0852643,-0.000100681,0.0904827,0.00145727,0.00486175,1.06061e-05,0.443275,-12.5638,-0.324637,-3.49116,1.49564,-48.0359,1.40291,0.0180821,-20,-0.507734,-0.164579,-0.035972,-1.94167,0.0362211,-0.000114405,0.0124315,8.43748e-05,0.496279,0.00111832,0.0734822,0.0439758,-0.000232255,0.0331957,1.95058,0.00139617,0.005,1.71594,0.00146558,-0.0253761,-0.373641,38.9824,0.210926,0.270175,14.6787,0.266705,1.32505,0.525338,-0.80258,-0.0486355,0.531738,-1.80476,0.0563965,0.249756,0.0404841,0.414917,-0.141049,23.4506,23.3087,23.1385,23.252,23.1952,23.2662,23.0959,
125,6.27342,1.38187,3.15338,4.13018,6.27407,1.98115,1.55557,0.00192095,-0.0852643,-0.000100681,0.0904827,0.00145727,0.00486175,1.06061e-05,0.443275,-12.5638,-0.324637,-3.49116,1.49564,-48.0359,1.40291,0.0180821,-20,-0.507734,-0.164579,-0.035972,-1.94167,0.0362211,-0.000114405,0.0124315,8.43748e-05,0.496279,0.00111832,0.0734822,0.0439758,-0.000232255,0.0331957,1.95058,0.00139617,0.005,1.71594,0.00146558,-0.0253761,-0.373641,38.9824,0.210926,0.270175,14.6787,0.266705,1.32505,0.525338,-0.80258,-0.0486355,0.531738,-1.80476,0.0563965,0.249756,0.0404841,0.414917,-0.141049,23.4506,23.3087,23.1385,23.252,23.1952,23.2662,23.0959,
126,6.27343,1.38179,3.15338,4.13028,6.27407,1.98115,1.55557,0.00198694,-0.0821096,-0.000100756,0.0902766,0.00147819,0.00270097,1.0598e-05,0.44332,-12.5621,-0.324755,-3.49119,1.49565,-48.0342,1.40289,0.0180683,-20,-0.507741,-0.162375,-0.0359653,-1.94199,0.0362172,-0.000114405,0.0124315,8.43748e-05,0.496279,0.00111832,0.0734822,0.0432566,-0.000267,0.0317202,1.95058,0.00139617,0.005,1.71594,0.00146558,-0.0253761,-0.373641,38.9824,0.210926,0.231191,15.0082,0.266578,1.10934,0.528297,-0.958946,-0.0394707,0.531738,-1.80471,0.0483398,0.273926,0.0523682,0.439105,-0.149048,23.4364,23.3087,23.1385,23.2662,23.1669,23.2378,23.0959,
127,6.27343,1.38179,3.15338,4.13028,6.27407,1.98115,1.55557,0.00198694,-0.0821096,-0.000100756,0.0902766,0.00147819,0.00270097,1.0598e-05,0.444266,-12.6536,-0.324434,-3.56034,1.50598,-48.3754,1.41171,0.0183196,-20,-0.508951,-0.174226,-0.035933,-1.97559,0.0366896,-0.000116331,0.012611,8.43726e-05,0.496279,0.00111832,0.0734822,0.0432566,-0.000267,0.0317202,1.94968,0.00140385,0.005,1.71578,0.00150376,-0.0240481,-0.378149,39.3013,0.213364,0.231191,15.0082,0.266578,1.10934,0.528297,-0.958946,-0.0394707,0.531738,-1.80471,0.0483398,0.273926,0.0523682,0.439105,-0.149048,23.4364,23.3087,23.1385,23.2662,23.1669,23.2378,23.0959,
128,6.27343,1.38171,3.15338,4.13037,6.27407,1.98115,1.55557,0.00192071,-0.0783283,-0.000100757,0.0902126,0.00149629,0.00108039,1.0606e-05,0.444296,-12.6522,-0.324509,-3.56035,1.50597,-48.3739,1.4116,0.0183068,-20,-0.50896,-0.17211,-0.0359256,-1.97589,0.0366803,-0.000116331,0.012611,8.43726e-05,0.496279,0.00111832,0.0734822,0.0424463,-0.000249407,0.0300491,1.94968,0.00140385,0.005,1.71578,0.00150376,-0.0240481,-0.378149,39.3013,0.213364,0.287044,15.3198,0.287153,0.958138,0.508581,-1.07931,-0.0475293,0.507824,-1.87721,0.0569691,0.250275,0.0485074,0.471313,-0.145075,23.4648,23.3229,23.1385,23.2804,23.1811,23.252,23.0959,
129,6.27343,1.38171,3.15338,4.13037,6.27407,1.98115,1.55557,0.00192071,-0.0783283,-0.000100757,0.0902126,0.00149629,0.00108039,1.0606e-05,0.44532,-12.7352,-0.327332,-3.62273,1.50646,-48.6814,1.42037,0.0185789,-20,-0.510283,-0.182773,-0.0359535,-2.00604,0.0372376,-0.000118586,0.0127779,8.29647e-05,0.496279,0.00111832,0.0734822,0.0424463,-0.000249407,0.0300491,1.94885,0.0014057,0.005,1.71576,0.00148959,-0.0225442,-0.383348,39.5881,0.207825,0.287044,15.3198,0.287153,0.958138,0.508581,-1.07931,-0.0475293,0.507824,-1.87721,0.0569691,0.250275,0.0485074,0.471313,-0.145075,23.4648,23.3229,23.1385,23.2804,23.1811,23.252,23.0959,
130,6.27343,1.38171,3.15338,4.13037,6.27407,1.98115,1.55557,0.00192071,-0.0783283,-0.000100757,0.0902126,0.00149629,0.00108039,1.0606e-05,0.44532,-12.7352,-0.327332,-3.62273,1.50646,-48.6814,1.42037,0.0185789,-20,-0.510283,-0.182773,-0.0359535,-2.00604,0.0372376,-0.000118586,0.0127779,8.29647e-05,0.496279,0.00111832,0.0734822,0.0424463,-0.000249407,0.0300491,1.94885,0.0014057,0.005,1.71576,0.00148959,-0.0225442,-0.383348,39.5881,0.207825,0.287044,15.3198,0.287153,0.958138,0.508581,-1.07931,-0.0475293,0.507824,-1.87721,0.0569691,0.250275,0.0485074,0.471313,-0.145075,23.4648,23.3229,23.1385,23.2804,23.1811,23.252,23.0959,
131,6.27343,1.38163,3.15338,4.13046,6.27407,1.98115,1.55557,0.00192095,-0.0752305,-0.000100757,0.0879626,0.00147327,0,1.0606e-05,0.445385,-12.7339,-0.32745,-3.62268,1.50649,-48.6802,1.42041,0.0185716,-20,-0.510289,-0.180664,-0.0359452,-2.00637,0.0372362,-0.000118586,0.0127779,8.29647e-05,0.496279,0.00111832,0.0734822,0.0411478,-0.000264469,0.0287391,1.94885,0.0014057,0.005,1.71576,0.00148959,-0.0225442,-0.383348,39.5881,0.207825,0.304803,15.5779,0.273707,0.829744,0.501418,-1.25009,-0.0433644,0.515688,-1.93374,0.0490066,0.233643,0.0485074,0.483415,-0.137022,23.4506,23.2946,23.1385,23.2662,23.1669,23.252,23.1101,
132,6.27343,1.38163,3.15338,4.13046,6.27407,1.98115,1.55557,0.00192095,-0.0752305,-0.000100757,0.0879626,0.00147327,0,1.0606e-05,0.446111,-12.8086,-0.326527,-3.67726,1.51646,-48.9574,1.42805,0.0187644,-20,-0.511229,-0.189827,-0.0359153,-2.03344,0.0376685,-0.000120751,0.0129446,8.35034e-05,0.496279,0.00111832,0.0734822,0.0411478,-0.000264469,0.0287391,1.94801,0.00141191,0.005,1.71618,0.00150875,-0.0213652,-0.387522,39.8453,0.211191,0.304803,15.5779,0.273707,0.829744,0.501418,-1.25009,-0.0433644,0.515688,-1.93374,0.0490066,0.233643,0.0485074,0.483415,-0.137022,23.4506,23.2946,23.1385,23.2662,23.1669,23.252,23.1101,
133,6.27343,1.38163,3.15338,4.13046,6.27407,1.98115,1.55557,0.00192095,-0.0752305,-0.000100757,0.0879626,0.00147327,0,1.0606e-05,0.446111,-12.8086,-0.326527,-3.67726,1.51646,-48.9574,1.42805,0.0187644,-20,-0.511229,-0.189827,-0.0359153,-2.03344,0.0376685,-0.000120751,0.0129446,8.35034e-05,0.496279,0.00111832,0.0734822,0.0411478,-0.000264469,0.0287391,1.94801,0.00141191,0.005,1.71618,0.00150875,-0.0213652,-0.387522,39.8453,0.211191,0.304803,15.5779,0.273707,0.829744,0.501418,-1.25009,-0.0433644,0.515688,-1.93374,0.0490066,0.233643,0.0485074,0.483415,-0.137022,23.4506,23.2946,23.1385,23.2662,23.1669,23.252,23.1101,
134,6.27343,1.38156,3.15338,4.13054,6.27407,1.98115,1.55557,0.00188814,-0.0740067,-0.000100756,0.0854375,0.00152431,0,1.0606e-05,0.446139,-12.8074,-0.326605,-3.67749,1.51644,-48.9559,1.42794,0.0187522,-20,-0.511236,-0.188035,-0.0359088,-2.03372,0.0376597,-0.000120751,0.0129446,8.35034e-05,0.496279,0.00111832,0.0734822,0.0401607,-0.000254133,0.0282941,1.94801,0.00141191,0.005,1.71618,0.00150875,-0.0213652,-0.387522,39.8453,0.211191,0.290492,15.8146,0.300243,0.685937,0.504642,-1.40012,-0.0295162,0.515625,-1.982,0.0483398,0.257812,0.0443115,0.487427,-0.136963,23.4506,23.3087,23.1243,23.252,23.1811,23.252,23.0959,
135,6.27343,1.38156,3.15338,4.13054,6.27407,1.98115,1.55557,0.00188814,-0.0740067,-0.000100756,0.0854375,0.00152431,0,1.0606e-05,0.447232,-12.8947,-0.329342,-3.74248,1.51795,-49.2903,1.43738,0.0190426,-20,-0.512609,-0.199081,-0.0359284,-2.0668,0.038251,-0.00012293,0.0131019,8.21649e-05,0.496279,0.00111832,0.0734822,0.0401607,-0.000254133,0.0282941,1.94722,0.00141416,0.005,1.71635,0.00150146,-0.0209647,-0.393044,40.1573,0.206052,0.290492,15.8146,0.300243,0.685937,0.504642,-1.40012,-0.0295162,0.515625,-1.982,0.0483398,0.257812,0.0443115,0.487427,-0.136963,23.4506,23.3087,23.1243,23.252,23.1811,23.252,23.0959,
136,6.27343,1.38149,3.15338,4.13063,6.27408,1.98115,1.55557,0.00188793,-0.072116,-0.000100757,0.08468,0.00152008,0,1.85462e-05,0.447266,-12.8934,-0.329435,-3.74285,1.51797,-49.2886,1.43736,0.0190303,-20,-0.512619,-0.197262,-0.0359216,-2.06705,0.0382481,-0.00012293,0.0131019,8.21649e-05,0.496279,0.00111832,0.0734822,0.0395443,-0.000259992,0.0275576,1.94722,0.00141416,0.005,1.71635,0.00150146,-0.0209647,-0.393044,40.1573,0.206052,0.242901,16.0821,0.283935,0.498579,0.485056,-1.49518,-0.034091,0.515688,-1.99831,0.0490066,0.274044,0.0525229,0.491455,-0.1372,23.4506,23.3229,23.1243,23.2662,23.1669,23.2662,23.0818,
137,6.27343,1.38149,3.15338,4.13063,6.27408,1.98115,1.55557,0.00188793,-0.072116,-0.000100757,0.08468,0.00152008,0,1.85462e-05,0.448363,-12.9931,-0.329867,-3.8184,1.52707,-49.6682,1.44327,0.0193218,-20,-0.513992,-0.210216,-0.035901,-2.1047,0.0384017,-0.000123783,0.0132629,8.2283e-05,0.496279,0.00111832,0.0734822,0.0395443,-0.000259992,0.0275576,1.9464,0.00142257,0.005,1.71617,0.0015143,-0.0203019,-0.394318,40.5128,0.206746,0.242901,16.0821,0.283935,0.498579,0.485056,-1.49518,-0.034091,0.515688,-1.99831,0.0490066,0.274044,0.0525229,0.491455,-0.1372,23.4506,23.3229,23.1243,23.2662,23.1669,23.2662,23.0818,
138,6.27343,1.38149,3.15338,4.13063,6.27408,1.98115,1.55557,0.00188793,-0.072116,-0.000100757,0.08468,0.00152008,0,1.85462e-05,0.448363,-12.9931,-0.329867,-3.8184,1.52707,-49.6682,1.44327,0.0193218,-20,-0.513992,-0.210216,-0.035901,-2.1047,0.0384017,-0.000123783,0.0132629,8.2283e-05,0.496279,0.00111832,0.0734822,0.0395443,-0.000259992,0.0275576,1.9464,0.00142257,0.005,1.71617,0.0015143,-0.0203019,-0.394318,40.5128,0.206746,0.242901,16.0821,0.283935,0.498579,0.485056,-1.49518,-0.034091,0.515688,-1.99831,0.0490066,0.274044,0.0525229,0.491455,-0.1372,23.4506,23.3229,23.1243,23.2662,23.1669,23.2662,23.0818,
139,6.27343,1.38149,3.15338,4.13063,6.27408,1.98115,1.55557,0.00188793,-0.072116,-0.000100757,0.08468,0.00152008,0,1.85462e-05,0.448363,-12.9931,-0.329867,-3.8184,1.52707,-49.6682,1.44327,0.0193218,-20,-0.513992,-0.210216,-0.035901,-2.1047,0.0384017,-0.000123783,0.0132629,8.2283e-05,0.496279,0.00111832,0.0734822,0.0395443,-0.000259992,0.0275576,1.9464,0.00142257,0.005,1.71617,0.0015143,-0.0203019,-0.394318,40.5128,0.206746,0.242901,16.0821,0.283935,0.498579,0.485056,-1.49518,-0.034091,0.515688,-1.99831,0.0490066,0.274044,0.0525229,0.491455,-0.1372,23.4506,23.3229,23.1243,23.2662,23.1669,23.2662,23.0818,
140,6.27343,1.38142,3.15338,4.13071,6.27408,1.98115,1.55557,0.00194714,-0.0694151,-0.000100757,0.0837302,0.00153891,-0.000264925,1.85603e-05,0.448402,-12.9919,-0.329972,-3.8186,1.52707,-49.6668,1.44323,0.0193099,-20,-0.514,-0.208412,-0.0358951,-2.10496,0.0383974,-0.000123783,0.0132629,8.2283e-05,0.496279,0.00111832,0.0734822,0.0387033,-0.000289775,0.0264719,1.9464,0.00142257,0.005,1.71617,0.0015143,-0.0203019,-0.394318,40.5128,0.206746,0.254464,16.3274,0.333483,0.421537,0.467781,-1.56893,-0.0421686,0.507824,-2.01418,0.0402832,0.257812,0.0565402,0.487427,-0.128906,23.4506,23.3087,23.1385,23.2662,23.1952,23.252,23.1101,
141,6.27343,1.38142,3.15338,4.13071,6.27408,1.98115,1.55557,0.00194714,-0.0694151,-0.000100757,0.0837302,0.00153891,-0.000264925,1.85603e-05,0.449284,-13.074,-0.330219,-3.88,1.53494,-49.975,1.45145,0.0195442,-20,-0.515124,-0.218861,-0.0358733,-2.13531,0.0388552,-0.000125693,0.013413,8.20003e-05,0.496279,0.00111832,0.0734822,0.0387033,-0.000289775,0.0264719,1.94564,0.00143038,0.005,1.71624,0.00154814,-0.0193247,-0.398673,40.8005,0.207683,0.254464,16.3274,0.333483,0.421537,0.467781,-1.56893,-0.0421686,0.507824,-2.01418,0.0402832,0.257812,0.0565402,0.487427,-0.128906,23.4506,23.3087,23.1385,23.2662,23.1952,23.252,23.1101,
142,6.27344,1.38135,3.15338,4.13079,6.27408,1.98115,1.55557,0.00193928,-0.0666417,-0.000100757,0.0802189,0.00154414,-0.000212755,1.85605e-05,0.44932,-13.073,-0.330298,-3.88006,1.53494,-49.9739,1.45139,0.0195321,-20,-0.515128,-0.216994,-0.0358667,-2.13561,0.038849,-0.000125693,0.013413,8.20003e-05,0.496279,0.00111832,0.0734822,0.0371074,-0.000298902,0.0254269,1.94564,0.00143038,0.005,1.71624,0.00154814,-0.0193247,-0.398673,40.8005,0.207683,0.237348,16.5178,0.363542,0.379637,0.466769,-1.63926,-0.0303255,0.491521,-2.0547,0.0402832,0.257938,0.0605589,0.487427,-0.132996,23.4364,23.3087,23.1243,23.2662,23.1669,23.252,23.0959,
143,6.27344,1.38135,3.15338,4.13079,6.27408,1.98115,1.55557,0.00193928,-0.0666417,-0.000100757,0.0802189,0.00154414,-0.000212755,1.85605e-05,0.450029,-13.1363,-0.33124,-3.92496,1.53875,-50.2097,1.45839,0.0197203,-20,-0.516051,-0.224396,-0.0358666,-2.1585,0.0392843,-0.000127804,0.0135627,8.12526e-05,0.496279,0.00111832,0.0734822,0.0371074,-0.000298902,0.0254269,1.94489,0.00143719,0.005,1.717,0.00156248,-0.0183842,-0.402808,41.0179,0.206475,0.237348,16.5178,0.363542,0.379637,0.466769,-1.63926,-0.0303255,0.491521,-2.0547,0.0402832,0.257938,0.0605589,0.487427,-0.132996,23.4364,23.3087,23.1243,23.2662,23.1669,23.252,23.0959,
144,6.27344,1.38129,3.15338,4.13087,6.27408,1.98115,1.55557,0.00198719,-0.0642832,-0.000100757,0.0777382,0.00159247,-0.000372321,1.85605e-05,0.450062,-13.1351,-0.331333,-3.92515,1.53876,-50.2084,1.45835,0.019709,-20,-0.516057,-0.22264,-0.0358604,-2.15877,0.0392801,-0.000127804,0.0135627,8.12526e-05,0.496279,0.00111832,0.0734822,0.0358966,-0.000323514,0.0245098,1.94489,0.00143719,0.005,1.717,0.00156248,-0.0183842,-0.402808,41.0179,0.206475,0.242136,16.6773,0.372975,0.34533,0.467072,-1.70972,-0.0456995,0.499512,-2.0625,0.0483398,0.298205,0.0644531,0.47937,-0.145075,23.4364,23.3229,23.1243,23.252,23.1811,23.2378,23.0959,
145,6.27344,1.38129,3.15338,4.13087,6.27408,1.98115,1.55557,0.00198719,-0.0642832,-0.000100757,0.0777382,0.00159247,-0.000372321,1.85605e-05,0.450815,-13.2044,-0.331756,-3.97575,1.54479,-50.4685,1.4659,0.0199087,-20,-0.517023,-0.231124,-0.035846,-2.18425,0.0397313,-0.000129662,0.0137077,8.09696e-05,0.496279,0.00111832,0.0734822,0.0358966,-0.000323514,0.0245098,1.94414,0.00144522,0.005,1.71742,0.00159186,-0.0175589,-0.407117,41.2593,0.206738,0.242136,16.6773,0.372975,0.34533,0.467072,-1.70972,-0.0456995,0.499512,-2.0625,0.0483398,0.298205,0.0644531,0.47937,-0.145075,23.4364,23.3229,23.1243,23.252,23.1811,23.2378,23.0959,
146,6.27344,1.38122,3.15338,4.13095,6.27408,1.98115,1.55557,0.00198743,-0.0642832,-0.000100757,0.0768998,0.00161649,-0.000444379,1.85605e-05,0.450838,-13.2032,-0.331839,-3.97617,1.54476,-50.4668,1.46581,0.0198981,-20,-0.517033,-0.229692,-0.0358406,-2.18445,0.0397254,-0.000129662,0.0137077,8.09696e-05,0.496279,0.00111832,0.0734822,0.0356534,-0.000323219,0.0245194,1.94414,0.00144522,0.005,1.71742,0.00159186,-0.0175589,-0.407117,41.2593,0.206738,0.21161,16.8605,0.381879,0.357487,0.477957,-1.78229,-0.0405681,0.491455,-2.1028,0.041081,0.314312,0.0649547,0.471313,-0.1372,23.4506,23.3087,23.1101,23.2662,23.1669,23.2378,23.0959,
147,6.27344,1.38122,3.15338,4.13095,6.27408,1.98115,1.55557,0.00198743,-0.0642832,-0.000100757,0.0768998,0.00161649,-0.000444379,1.85605e-05,0.451972,-13.2983,-0.333458,-4.0491,1.55037,-50.835,1.47575,0.0201992,-20,-0.518427,-0.242283,-0.0358353,-2.22125,0.0403117,-0.000131676,0.013846,8.02728e-05,0.496279,0.00111832,0.0734822,0.0356534,-0.000323219,0.0245194,1.94344,0.00145248,0.005,1.71701,0.00159813,-0.0175675,-0.412626,41.6055,0.204519,0.21161,16.8605,0.381879,0.357487,0.477957,-1.78229,-0.0405681,0.491455,-2.1028,0.041081,0.314312,0.0649547,0.471313,-0.1372,23.4506,23.3087,23.1101,23.2662,23.1669,23.2378,23.0959,
148,6.27344,1.38122,3.15338,4.13095,6.27408,1.98115,1.55557,0.00198743,-0.0642832,-0.000100757,0.0768998,0.00161649,-0.000444379,1.85605e-05,0.451972,-13.2983,-0.333458,-4.0491,1.55037,-50.835,1.47575,0.0201992,-20,-0.518427,-0.242283,-0.0358353,-2.22125,0.0403117,-0.000131676,0.013846,8.02728e-05,0.496279,0.00111832,0.0734822,0.0356534,-0.000323219,0.0245194,1.94344,0.00145248,0.005,1.71701,0.00159813,-0.0175675,-0.412626,41.6055,0.204519,0.21161,16.8605,0.381879,0.357487,0.477957,-1.78229,-0.0405681,0.491455,-2.1028,0.041081,0.314312,0.0649547,0.471313,-0.1372,23.4506,23.3087,23.1101,23.2662,23.1669,23.2378,23.0959,
149,6.27344,1.38116,3.15338,4.13102,6.27409,1.98115,1.55557,0.00205343,-0.063743,-0.000100757,0.0754337,0.00163577,-0.000801352,1.85605e-05,0.452003,-13.2971,-0.333552,-4.04939,1.55035,-50.8335,1.47567,0.0201884,-20,-0.518435,-0.240793,-0.0358307,-2.22146,0.0403062,-0.000131676,0.013846,8.02728e-05,0.496279,0.00111832,0.0734822,0.0351167,-0.000352438,0.0242919,1.94344,0.00145248,0.005,1.71701,0.00159813,-0.0175675,-0.412626,41.6055,0.204519,0.192602,17.0652,0.414924,0.416276,0.464807,-1.86464,-0.0432787,0.499512,-2.06252,0.0490066,0.306152,0.0685998,0.467355,-0.141049,23.4506,23.3087,23.1385,23.2662,23.1811,23.252,23.1101,
150,6.27344,1.38116,3.15338,4.13102,6.27409,1.98115,1.55557,0.00205343,-0.063743,-0.000100757,0.0754337,0.00163577,-0.000801352,1.85605e-05,0.452911,-13.378,-0.334061,-4.11074,1.55763,-51.1448,1.48468,0.0204294,-20,-0.519561,-0.251307,-0.0358087,-2.25243,0.0408426,-0.000133674,0.0139804,7.96225e-05,0.496279,0.00111832,0.0734822,0.0351167,-0.000352438,0.0242919,1.94275,0.00145989,0.005,1.71687,0.0016311,-0.0173627,-0.417743,41.8972,0.204876,0.192602,17.0652,0.414924,0.416276,0.464807,-1.86464,-0.0432787,0.499512,-2.06252,0.0490066,0.306152,0.0685998,0.467355,-0.141049,23.4506,23.3087,23.1385,23.2662,23.1811,23.252,23.1101,
151,6.27344,1.38116,3.15338,4.13102,6.27409,1.98115,1.55557,0.00205343,-0.063743,-0.000100757,0.0754337,0.00163577,-0.000801352,1.85605e-05,0.452911,-13.378,-0.334061,-4.11074,1.55763,-51.1448,1.48468,0.0204294,-20,-0.519561,-0.251307,-0.0358087,-2.25243,0.0408426,-0.000133674,0.0139804,7.96225e-05,0.496279,0.00111832,0.0734822,0.0351167,-0.000352438,0.0242919,1.94275,0.00145989,0.005,1.71687,0.0016311,-0.0173627,-0.417743,41.8972,0.204876,0.192602,17.0652,0.414924,0.416276,0.464807,-1.86464,-0.0432787,0.499512,-2.06252,0.0490066,0.306152,0.0685998,0.467355,-0.141049,23.4506,23.3087,23.1385,23.2662,23.1811,23.252,23.1101,
152,6.27345,1.38109,3.15338,4.1311,6.27409,1.98114,1.55557,0.00207302,-0.0644475,-0.000100757,0.0752808,0.00166692,-0.00119231,1.85605e-05,0.452934,-13.3767,-0.334153,-4.11117,1.5576,-51.143,1.48461,0.0204181,-20,-0.519571,-0.249903,-0.0358033,-2.25261,0.040839,-0.000133674,0.0139804,7.96225e-05,0.496279,0.00111832,0.0734822,0.0352194,-0.000356874,0.0245392,1.94275,0.00145989,0.005,1.71687,0.0016311,-0.0173627,-0.417743,41.8972,0.204876,0.0975643,17.217,0.447083,0.476579,0.476709,-1.9931,-0.0459809,0.483398,-2.06264,0.0433863,0.33042,0.0695396,0.471313,-0.141049,23.4364,23.2946,23.1385,23.2662,23.1669,23.252,23.1101,
153,6.27345,1.38109,3.15338,4.1311,6.27409,1.98114,1.55557,0.00207302,-0.0644475,-0.000100757,0.0752808,0.00166692,-0.00119231,1.85605e-05,0.454132,-13.4801,-0.335102,-4.19155,1.56601,-51.5458,1.49501,0.0207361,-20,-0.521029,-0.26387,-0.0357832,-2.29303,0.0414235,-0.000135519,0.0141192,7.94792e-05,0.496279,0.00111832,0.0734822,0.0352194,-0.000356874,0.0245392,1.94203,0.00146815,0.005,1.71613,0.00164252,-0.0175853,-0.423247,42.2769,0.20444,0.0975643,17.217,0.447083,0.476579,0.476709,-1.9931,-0.0459809,0.483398,-2.06264,0.0433863,0.33042,0.0695396,0.471313,-0.141049,23.4364,23.2946,23.1385,23.2662,23.1669,23.252,23.1101,
154,6.27345,1.38109,3.15338,4.1311,6.27409,1.98114,1.55557,0.00207302,-0.0644475,-0.000100757,0.0752808,0.00166692,-0.00119231,1.85605e-05,0.454132,-13.4801,-0.335102,-4.19155,1.56601,-51.5458,1.49501,0.0207361,-20,-0.521029,-0.26387,-0.0357832,-2.29303,0.0414235,-0.000135519,0.0141192,7.94792e-05,0.496279,0.00111832,0.0734822,0.0352194,-0.000356874,0.0245392,1.94203,0.00146815,0.005,1.71613,0.00164252,-0.0175853,-0.423247,42.2769,0.20444,0.0975643,17.217,0.447083,0.476579,0.476709,-1.9931,-0.0459809,0.483398,-2.06264,0.0433863,0.33042,0.0695396,0.471313,-0.141049,23.4364,23.2946,23.1385,23.2662,23.1669,23.252,23.1101,
155,6.27345,1.38103,3.15338,4.13117,6.27409,1.98114,1.55557,0.00211967,-0.0621224,-0.000100757,0.0731964,0.0016692,-0.00168144,1.85605e-05,0.454165,-13.4791,-0.335185,-4.19164,1.56599,-51.5446,1.49495,0.0207253,-20,-0.521035,-0.262249,-0.0357781,-2.29327,0.0414183,-0.000135519,0.0141192,7.94792e-05,0.496279,0.00111832,0.0734822,0.0341309,-0.000385108,0.0235936,1.94203,0.00146815,0.005,1.71613,0.00164252,-0.0175853,-0.423247,42.2769,0.20444,0.10151,17.2854,0.446336,0.538654,0.490221,-2.09012,-0.0370926,0.483466,-2.02228,0.0563965,0.290151,0.076644,0.467303,-0.141049,23.4364,23.3229,23.1385,23.2662,23.1811,23.252,23.0676,
156,6.27345,1.38103,3.15338,4.13117,6.27409,1.98114,1.55557,0.00211967,-0.0621224,-0.000100757,0.0731964,0.0016692,-0.00168144,1.85605e-05,0.45477,-13.5362,-0.335345,-4.23328,1.5715,-51.7574,1.50182,0.0208858,-20,-0.521818,-0.269217,-0.0357624,-2.31405,0.0418519,-0.000137484,0.0142467,7.88976e-05,0.496279,0.00111832,0.0734822,0.0341309,-0.000385108,0.0235936,1.94136,0.00147582,0.005,1.71651,0.00167483,-0.0167342,-0.427426,42.4743,0.205147,0.10151,17.2854,0.446336,0.538654,0.490221,-2.09012,-0.0370926,0.483466,-2.02228,0.0563965,0.290151,0.076644,0.467303,-0.141049,23.4364,23.3229,23.1385,23.2662,23.1811,23.252,23.0676,
157,6.27345,1.38097,3.15338,4.13125,6.27409,1.98113,1.55557,0.00205343,-0.0594214,-0.000100757,0.0712182,0.0016427,-0.0023669,1.85462e-05,0.454794,-13.5351,-0.335397,-4.23336,1.57149,-51.7563,1.50175,0.0208751,-20,-0.521824,-0.267556,-0.0357564,-2.31429,0.0418466,-0.000137484,0.0142467,7.88976e-05,0.496279,0.00111832,0.0734822,0.032995,-0.000371911,0.0224753,1.94136,0.00147582,0.005,1.71651,0.00167483,-0.0167342,-0.427426,42.4743,0.205147,0.0739597,17.4167,0.451843,0.712421,0.441946,-2.19371,-0.0504337,0.483667,-2.05444,0.0402832,0.314312,0.076961,0.463274,-0.145243,23.4506,23.3229,23.1243,23.252,23.1811,23.252,23.0959,
158,6.27345,1.38097,3.15338,4.13125,6.27409,1.98113,1.55557,0.00205343,-0.0594214,-0.000100757,0.0712182,0.0016427,-0.0023669,1.85462e-05,0.455395,-13.5876,-0.3365,-4.27131,1.57355,-51.9495,1.50725,0.0210348,-20,-0.522612,-0.273887,-0.0357662,-2.33306,0.0421905,-0.000139251,0.0143725,7.82763e-05,0.496279,0.00111832,0.0734822,0.032995,-0.000371911,0.0224753,1.94068,0.00148032,0.005,1.71691,0.00166701,-0.0157278,-0.430663,42.653,0.203209,0.0739597,17.4167,0.451843,0.712421,0.441946,-2.19371,-0.0504337,0.483667,-2.05444,0.0402832,0.314312,0.076961,0.463274,-0.145243,23.4506,23.3229,23.1243,23.252,23.1811,23.252,23.0959,
