LWingKi/MAS_RnD/log/us2/contactless/8/grasp_log_12_08_2023_15_01_40.csv
Index,joint_angle_0,joint_angle_1,joint_angle_2,joint_angle_3,joint_angle_4,joint_angle_5,joint_angle_6,joint_velocity_0,joint_velocity_1,joint_velocity_2,joint_velocity_3,joint_velocity_4,joint_velocity_5,joint_velocity_6,joint_accel_0,joint_accel_1,joint_accel_2,joint_accel_3,joint_accel_4,joint_accel_5,joint_accel_6,constraint_tau_0,constraint_tau_1,constraint_tau_2,constraint_tau_3,constraint_tau_4,constraint_tau_5,constraint_tau_6,current_pos_x,current_pos_y,current_pos_z,target_pos_x,target_pos_y,target_pos_z,current_vel_x,current_vel_y,current_vel_z,target_vel_x,target_vel_y,target_vel_z,control_signal_linear_x,control_signal_linear_y,control_signal_linear_z,control_signal_angular_x,control_signal_angular_y,control_signal_angular_z,joint_torque_0,joint_torque_1,joint_torque_2,joint_torque_3,joint_torque_4,joint_torque_5,joint_torque_6,actuar_current_0,actuar_current_1,actuar_current_2,actuar_current_3,actuar_current_4,actuar_current_5,actuar_current_6,actuar_voltage_0,actuar_voltage_1,actuar_voltage_2,actuar_voltage_3,actuar_voltage_4,actuar_voltage_5,actuar_voltage_6
0,6.27295,1.38524,3.15332,4.11725,6.27422,1.9754,1.55574,0.0032484,0.0334582,0.000100833,0.105608,0.000211641,0.0194961,-1.0598e-05,0.38106,-5.53394,-0.638548,2.18635,-0.158566,-20.2096,0.846729,0.00272525,-20,-0.432204,0.664029,-0.0445008,0.907894,0.0171824,-7.60443e-05,0.00462665,-0.000253469,0.49431,0.00122332,0.0734279,0.0234502,-0.00110668,-0.0131622,1.98512,-0.00270606,0.005,1.78661,-0.00243546,0.0045,-0.20532,12.492,-0.684367,1.69708,0.327472,-0.204784,5.11338,0.316396,6.04799,0.213889,0.515625,0.128906,0.0290486,-0.0966797,-0.136963,-0.547852,-0.0525229,23.479,23.3371,23.1952,23.3087,23.252,23.2946,23.1811,
1,6.27296,1.38527,3.15332,4.11735,6.27422,1.97542,1.55574,0.00340408,0.0307911,0.000100757,0.102367,0.00021693,0.0270097,-1.059e-05,0.333781,-2.84051,-0.31734,4.10697,0.455965,-9.68742,0.571825,-0.00985252,-18.9575,-0.373746,0.99675,-0.0398595,1.94712,-0.00232587,0,0,0,0.49431,0.00122332,0.0734279,0.023081,-0.00115674,-0.0112509,2,0,0.005,1.77889,0.000996009,0.016346,-0.0150985,2.749,0.0468521,1.68848,0.334702,-0.187975,5.06827,0.301364,6.06628,0.207102,0.507632,0.169381,0.0254773,-0.0966797,-0.124878,-0.559937,-0.0483398,23.4932,23.3513,23.1811,23.3087,23.2378,23.2946,23.1385,
2,6.27296,1.3853,3.15332,4.11746,6.27422,1.97545,1.55574,0.00329836,0.0280901,0.000100757,0.102564,0.000227684,0.0289004,-1.0606e-05,0.335112,-2.96679,-0.315614,4.01435,0.474606,-10.1915,0.580103,-0.00949916,-19.0345,-0.375328,0.981484,-0.0397764,1.89663,-0.00210911,-7.12313e-07,9.71866e-05,1.67491e-06,0.49431,0.00122332,0.0734279,0.023709,-0.00110486,-0.00998775,1.99954,2.45654e-05,0.005,1.77882,0.00106318,0.0146259,-0.0170775,3.21956,0.053619,1.69893,0.335346,-0.180546,5.01505,0.291659,6.05506,0.20326,0.531738,0.218125,0.0180152,-0.0290486,-0.128969,-0.604248,-0.0609595,23.5074,23.3513,23.1669,23.3229,23.2378,23.2946,23.1669,
3,6.27296,1.38533,3.15332,4.11756,6.27423,1.97548,1.55574,0.00340476,0.0250768,9.54548e-05,0.101016,0.000238094,0.0285876,-1.0598e-05,0.336617,-3.0847,-0.318309,3.92425,0.479752,-10.6594,0.589038,-0.00910031,-19.1065,-0.377107,0.966256,-0.0397795,1.84944,-0.00171573,-1.72921e-06,0.000207015,1.67586e-06,0.49431,0.00122332,0.0734279,0.023898,-0.00114172,-0.00880128,1.99903,3.91772e-05,0.005,1.77779,0.00102963,0.013489,-0.0208132,3.65975,0.0492314,1.68096,0.371597,-0.160077,5.02225,0.27409,6.02689,0.223748,0.539855,0.265869,0.0241699,-0.0161133,-0.121118,-0.596191,-0.0565402,23.4932,23.3513,23.1811,23.3229,23.2378,23.3087,23.1527,
4,6.27297,1.38535,3.15332,4.11766,6.27423,1.97551,1.55574,0.0032484,0.0226882,9.55261e-05,0.100105,0.000248676,0.0270097,-1.0598e-05,0.337454,-3.16793,-0.316383,3.86081,0.494289,-10.9925,0.598101,-0.00887591,-19.1575,-0.378104,0.955858,-0.0397071,1.81575,-0.00122025,-3.20316e-06,0.000310313,2.72319e-06,0.49431,0.00122332,0.0734279,0.024138,-0.00107846,-0.00800722,1.99857,5.94991e-05,0.005,1.7772,0.0010811,0.0124211,-0.0256144,3.97323,0.0556152,1.66213,0.413953,-0.15891,5.01622,0.2637,6.01001,0.208802,0.531799,0.322266,0.00805664,0.0332184,-0.12085,-0.572021,-0.0444942,23.4932,23.3513,23.1811,23.3087,23.252,23.3087,23.1527,
5,6.27297,1.38537,3.15332,4.11776,6.27423,1.97554,1.55574,0.00319133,0.0218557,9.54538e-05,0.100476,0.000243571,0.0297107,-1.0598e-05,0.338362,-3.24175,-0.317707,3.8046,0.498238,-11.2853,0.604584,-0.00863507,-19.2029,-0.379202,0.94667,-0.0397083,1.78621,-0.000877148,-4.18964e-06,0.000413351,3.39955e-06,0.49431,0.00122332,0.0734279,0.0244219,-0.00104965,-0.00739821,1.99809,7.85809e-05,0.005,1.77656,0.00104134,0.0117065,-0.0289123,4.24841,0.05349,1.63984,0.485299,-0.138586,5.05767,0.25854,5.98586,0.200975,0.539795,0.346529,0.0180152,0.0490066,-0.121118,-0.535827,-0.0604248,23.4932,23.3371,23.1811,23.3229,23.2378,23.2946,23.1527,
6,6.27297,1.38539,3.15332,4.11787,6.27423,1.97557,1.55574,0.00308495,0.0210676,9.01508e-05,0.101561,0.000254161,0.0307599,-1.0606e-05,0.339663,-3.35225,-0.31904,3.72147,0.506122,-11.7184,0.611911,-0.00828851,-19.2705,-0.380794,0.932907,-0.039693,1.74282,-0.000621498,-4.97518e-06,0.000520258,3.9886e-06,0.49431,0.00122332,0.0734279,0.0249016,-0.000999645,-0.00699497,1.99761,9.43642e-05,0.005,1.77587,0.00102961,0.0111584,-0.0312989,4.6542,0.0521582,1.62827,0.52984,-0.114426,5.08716,0.260495,5.96222,0.197788,0.531738,0.193527,0.00805664,0.0649547,-0.116891,-0.551895,-0.0605589,23.4932,23.3513,23.1811,23.3229,23.252,23.3087,23.1385,
7,6.27297,1.38541,3.15332,4.11797,6.27423,1.9756,1.55574,0.00297857,0.0165507,9.01508e-05,0.104528,0.000253967,0.0337622,-1.0598e-05,0.341014,-3.46287,-0.321049,3.63697,0.512136,-12.1499,0.620421,-0.007933,-19.3383,-0.382437,0.918706,-0.039693,1.69958,-0.000235308,-6.05246e-06,0.000637942,4.50441e-06,0.49431,0.00122332,0.0734279,0.026714,-0.000937025,-0.00494987,1.99707,0.00011287,0.005,1.77496,0.00100126,0.0107955,-0.0349797,5.0596,0.0491898,1.587,0.590014,-0.123757,5.12144,0.257116,5.96194,0.194394,0.547852,-0.0322266,-0.00805664,0.072956,-0.116821,-0.531754,-0.0485074,23.4932,23.3371,23.1952,23.2946,23.2236,23.2946,23.1527,
8,6.27298,1.38542,3.15332,4.11808,6.27423,1.97564,1.55574,0.00276582,0.00891322,8.75656e-05,0.107499,0.000264549,0.0356091,-1.0598e-05,0.34312,-3.63212,-0.324077,3.50504,0.521782,-12.8227,0.631766,-0.00737723,-19.4417,-0.384934,0.895908,-0.0396848,1.63155,0.00017431,-6.69937e-06,0.000756839,4.94519e-06,0.49431,0.00122332,0.0734279,0.0291868,-0.000825801,-0.00179541,1.99655,0.000125023,0.005,1.77285,0.000955843,0.00895488,-0.0388024,5.69516,0.044812,1.59497,0.671598,-0.113397,5.13979,0.235501,5.95459,0.194924,0.572248,-0.193359,0.0180152,0.0332184,-0.120917,-0.527725,-0.0565402,23.4932,23.3655,23.1811,23.3229,23.2236,23.3087,23.1669,
9,6.27298,1.38542,3.15332,4.11819,6.27423,1.97568,1.55574,0.00276582,-0.00108039,8.48478e-05,0.109389,0.000275131,0.0394342,-1.0598e-05,0.345677,-3.82659,-0.329155,3.35204,0.52866,-13.6026,0.646697,-0.00670822,-19.5604,-0.387906,0.869192,-0.0397031,1.55235,0.000852061,-7.88098e-06,0.000891965,4.83749e-06,0.49431,0.00122332,0.0734279,0.0318467,-0.000792545,0.00251968,1.99598,0.00013866,0.005,1.77011,0.000868016,0.00611586,-0.0452334,6.43364,0.0359739,1.55159,0.834455,-0.0914184,5.19336,0.231464,5.94059,0.207945,0.572078,-0.306576,-0.00805664,-0.00805664,-0.108839,-0.515641,-0.0483398,23.4932,23.3513,23.1811,23.3371,23.2378,23.2946,23.1527,
10,6.27298,1.38541,3.15332,4.11831,6.27423,1.97572,1.55574,0.0028445,-0.00607719,8.4847e-05,0.113347,0.000285929,0.0426754,-1.0606e-05,0.348483,-4.05507,-0.33173,3.17428,0.546635,-14.5233,0.66521,-0.005974,-19.6995,-0.39115,0.838448,-0.0396555,1.45887,0.00168172,-9.43775e-06,0.00103974,5.17604e-06,0.49431,0.00122332,0.0734279,0.0340468,-0.000798442,0.00476357,1.99535,0.000154478,0.005,1.76715,0.000852321,0.00223229,-0.0531271,7.30387,0.0342034,1.55299,0.952869,-0.0818277,5.23159,0.233173,5.92204,0.203767,0.572078,-0.330715,-0.00805664,-0.0113938,-0.108839,-0.535782,-0.0444942,23.4932,23.3513,23.1811,23.3087,23.2236,23.2946,23.1669,
11,6.27298,1.38541,3.15332,4.11831,6.27423,1.97572,1.55574,0.0028445,-0.00607719,8.4847e-05,0.113347,0.000285929,0.0426754,-1.0606e-05,0.351117,-4.27949,-0.333559,3.00208,0.565542,-15.4092,0.682201,-0.00527336,-19.8346,-0.394257,0.807743,-0.0396036,1.36974,0.00238184,-1.09358e-05,0.00121308,5.37531e-06,0.49431,0.00122332,0.0734279,0.0340468,-0.000798442,0.00476357,1.99461,0.000170737,0.005,1.7645,0.000872262,0.000212789,-0.0597537,8.13772,0.0339738,1.55299,0.952869,-0.0818277,5.23159,0.233173,5.92204,0.203767,0.572078,-0.330715,-0.00805664,-0.0113938,-0.108839,-0.535782,-0.0444942,23.4932,23.3513,23.1811,23.3087,23.2236,23.2946,23.1669,
12,6.27299,1.38539,3.15332,4.11842,6.27423,1.97577,1.55574,0.0029329,-0.0150843,7.42418e-05,0.115754,0.000291007,0.0446368,-1.05981e-05,0.351173,-4.27817,-0.333719,3.00042,0.565619,-15.4063,0.682242,-0.00527296,-19.8355,-0.394289,0.808331,-0.0396,1.36971,0.00238127,-1.09358e-05,0.00121308,5.37531e-06,0.49431,0.00122332,0.0734279,0.0366459,-0.000802456,0.00848467,1.99461,0.000170737,0.005,1.7645,0.000872262,0.000212789,-0.0597537,8.13772,0.0339738,1.50029,1.14427,-0.0755468,5.3093,0.229359,5.891,0.198231,0.580078,-0.459511,0,-0.0649547,-0.109063,-0.543883,-0.0483398,23.5074,23.3371,23.1952,23.3229,23.2378,23.2946,23.1811,
13,6.27299,1.38536,3.15332,4.11854,6.27423,1.97581,1.55574,0.00308495,-0.0253892,7.42418e-05,0.116952,0.000301589,0.0453764,-1.0598e-05,0.35397,-4.51304,-0.334737,2.81627,0.588753,-16.3479,0.702035,-0.00454603,-19.9787,-0.397511,0.776281,-0.0395245,1.27414,0.00328932,-1.2783e-05,0.00139454,5.95169e-06,0.49431,0.00122332,0.0734279,0.0391694,-0.000835762,0.0126124,1.99386,0.000184756,0.005,1.7615,0.00088849,-0.0031362,-0.0684231,9.02891,0.0362715,1.52899,1.39117,-0.0313419,5.33333,0.2307,5.8682,0.20423,0.572021,-0.476433,-0.00805664,-0.090076,-0.108839,-0.531799,-0.0404841,23.479,23.3371,23.1952,23.3229,23.2236,23.3229,23.1669,
14,6.27299,1.38533,3.15332,4.11865,6.27423,1.97586,1.55574,0.00335318,-0.0296806,6.36359e-05,0.119653,0.000312407,0.0464097,-1.0598e-05,0.356677,-4.74052,-0.335083,2.63873,0.613393,-17.2642,0.72093,-0.00384552,-20,-0.40058,0.745723,-0.0394308,1.18106,0.00411483,-1.43797e-05,0.00157947,6.16731e-06,0.49431,0.00122332,0.0734279,0.0408558,-0.000921304,0.0143707,1.99309,0.00020055,0.005,1.75853,0.000932681,-0.00685114,-0.0762786,9.89545,0.0403808,1.49279,1.72263,-0.0240299,5.36006,0.232189,5.82482,0.191476,0.580078,-0.451459,-0.00805664,-0.0966797,-0.100708,-0.515641,-0.0362549,23.5074,23.3513,23.1811,23.3229,23.252,23.3087,23.1669,
15,6.273,1.3853,3.15332,4.11878,6.27424,1.9759,1.55574,0.00351116,-0.0326818,6.36359e-05,0.12062,0.000322994,0.0464568,-1.0606e-05,0.35891,-4.94498,-0.33306,2.48047,0.641707,-18.0717,0.739298,-0.00326851,-20,-0.403184,0.719024,-0.0393084,1.09954,0.00497573,-1.65645e-05,0.00177237,7.30578e-06,0.49431,0.00122332,0.0734279,0.0417679,-0.000974339,0.015549,1.99229,0.00022144,0.005,1.75629,0.00102847,-0.00843364,-0.0845506,10.657,0.0497505,1.50747,1.91085,-0.0342192,5.41097,0.258395,5.76688,0.182267,0.588135,-0.564195,-0.0322266,-0.1372,-0.104814,-0.519653,-0.0444942,23.5074,23.3229,23.1811,23.3229,23.2236,23.2804,23.1669,
16,6.273,1.38527,3.15332,4.1189,6.27424,1.97596,1.55574,0.00370895,-0.0356529,5.30294e-05,0.119653,0.00032275,0.0491506,-1.0598e-05,0.360989,-5.12807,-0.33236,2.34002,0.663899,-18.7907,0.754199,-0.00273614,-20,-0.40559,0.695524,-0.039221,1.02716,0.00560822,-1.83364e-05,0.00197834,7.89288e-06,0.49431,0.00122332,0.0734279,0.0421157,-0.00104109,0.0170322,1.99141,0.000240567,0.005,1.75468,0.00109342,-0.00949409,-0.0905865,11.3336,0.0554314,1.43729,2.21357,-0.0626199,5.44425,0.239565,5.70305,0.182809,0.58819,-0.684862,-0.0254773,-0.11308,-0.0966797,-0.499528,-0.0371393,23.479,23.3513,23.1811,23.3087,23.2378,23.2946,23.1527,
17,6.27301,1.38522,3.15332,4.11902,6.27424,1.97601,1.55574,0.00384142,-0.0398722,5.03789e-05,0.119653,0.000338623,0.0529391,-1.0598e-05,0.363092,-5.31637,-0.331418,2.19727,0.687316,-19.5316,0.770333,-0.00219762,-20,-0.408053,0.671728,-0.0391278,0.952763,0.00633787,-2.05797e-05,0.00218376,8.40055e-06,0.49431,0.00122332,0.0734279,0.0430064,-0.00107629,0.0191064,1.99058,0.000256797,0.005,1.75362,0.0011681,-0.0108289,-0.0975881,12.0292,0.061806,1.47804,2.4872,-0.0290511,5.41279,0.235497,5.66907,0.186277,0.580078,-0.797648,-0.0332184,-0.0805664,-0.100789,-0.507584,-0.0402832,23.5074,23.3371,23.1669,23.3229,23.2378,23.3087,23.1527,
18,6.27301,1.38518,3.15332,4.11914,6.27424,1.97606,1.55574,0.00378041,-0.0426754,4.51095e-05,0.121151,0.000349205,0.0540195,-1.05981e-05,0.365634,-5.53552,-0.332377,2.03041,0.708559,-20.3979,0.787593,-0.00153385,-20,-0.411071,0.64372,-0.0390535,0.865595,0.00706478,-2.25821e-05,0.00239637,8.51539e-06,0.49431,0.00122332,0.0734279,0.0440292,-0.0010391,0.020307,1.98972,0.000274677,0.005,1.75204,0.00121587,-0.0126957,-0.104503,12.8434,0.06393,1.43328,2.81543,0.00581929,5.367,0.242925,5.62482,0.186189,0.580078,-0.862061,-0.0322266,-0.0649547,-0.100708,-0.531754,-0.041081,23.4932,23.3371,23.1811,23.3229,23.2236,23.3087,23.1527,
19,6.27301,1.38514,3.15332,4.11926,6.27424,1.97612,1.55574,0.00370895,-0.0464568,3.18179e-05,0.12062,0.000368692,0.0561234,-1.0606e-05,0.368037,-5.73627,-0.334556,1.87617,0.723901,-21.1863,0.803008,-0.000908151,-20,-0.413932,0.617923,-0.0390187,0.786242,0.00772988,-2.4383e-05,0.00261139,9.08646e-06,0.49431,0.00122332,0.0734279,0.0446725,-0.000995222,0.0220412,1.98885,0.000293509,0.005,1.75034,0.00119935,-0.0137763,-0.110829,13.5854,0.0623187,1.44505,3.02649,-0.0304417,5.29053,0.245454,5.57995,0.183059,0.580134,-0.942627,-0.0290486,-0.0644531,-0.0967636,-0.531754,-0.0402832,23.4932,23.3371,23.1527,23.3087,23.2236,23.2804,23.1527,
20,6.27302,1.38509,3.15332,4.11939,6.27424,1.97617,1.55574,0.00384237,-0.0496979,2.91664e-05,0.124245,0.000400403,0.0578595,-1.0598e-05,0.370622,-5.94662,-0.337786,1.71579,0.737634,-22.0157,0.820542,-0.000241138,-20,-0.416993,0.591047,-0.0390003,0.702878,0.00857108,-2.67624e-05,0.00284064,8.99185e-06,0.49431,0.00122332,0.0734279,0.046402,-0.00102709,0.0234459,1.98791,0.000309233,0.005,1.74892,0.00117401,-0.0153371,-0.118864,14.365,0.0585481,1.33917,3.29502,-0.0475729,5.23676,0.263893,5.50743,0.170695,0.588135,-1.00711,-0.0254773,-0.0483398,-0.0927389,-0.543883,-0.0402832,23.4932,23.3371,23.1952,23.3229,23.2378,23.3087,23.1527,
21,6.27302,1.38503,3.15332,4.11951,6.27424,1.97624,1.55574,0.00397487,-0.0543656,2.38635e-05,0.125865,0.000457111,0.0591257,-1.0598e-05,0.373346,-6.18309,-0.338234,1.53257,0.762247,-22.944,0.839068,0.000461835,-20,-0.420205,0.55996,-0.0389156,0.609366,0.00934542,-2.86537e-05,0.00306923,1.00058e-05,0.49431,0.00122332,0.0734279,0.0478532,-0.00105736,0.0254026,1.987,0.000331746,0.005,1.74654,0.00122296,-0.0166013,-0.126242,15.2402,0.062367,1.36609,3.52848,-0.0354739,5.101,0.27163,5.45162,0.170824,0.58819,-1.05545,-0.0322266,-0.088623,-0.100708,-0.55188,-0.0362549,23.479,23.3371,23.1669,23.3087,23.2236,23.2946,23.1669,
22,6.27302,1.38503,3.15332,4.11951,6.27424,1.97624,1.55574,0.00397487,-0.0543656,2.38635e-05,0.125865,0.000457111,0.0591257,-1.0598e-05,0.376122,-6.42341,-0.339696,1.34987,0.78389,-23.8886,0.859364,0.00120006,-20,-0.423502,0.52764,-0.0388509,0.514627,0.0102983,-3.10669e-05,0.00331393,9.9357e-06,0.49431,0.00122332,0.0734279,0.0478532,-0.00105736,0.0254026,1.98604,0.000351567,0.005,1.74436,0.00126804,-0.0183623,-0.135359,16.1275,0.0634347,1.36609,3.52848,-0.0354739,5.101,0.27163,5.45162,0.170824,0.58819,-1.05545,-0.0322266,-0.088623,-0.100708,-0.55188,-0.0362549,23.479,23.3371,23.1669,23.3087,23.2236,23.2946,23.1669,
23,6.27303,1.38497,3.15332,4.11964,6.27425,1.97629,1.55574,0.00410736,-0.0605018,1.32575e-05,0.125595,0.000530427,0.0588813,0,0.376185,-6.42144,-0.339896,1.34837,0.783955,-23.8852,0.859401,0.00119685,-20,-0.423528,0.528746,-0.0388452,0.514436,0.0102972,-3.10669e-05,0.00331393,9.9357e-06,0.49431,0.00122332,0.0734279,0.0490679,-0.00108779,0.0278151,1.98604,0.000351567,0.005,1.74436,0.00126804,-0.0183623,-0.135359,16.1275,0.0634347,1.29114,3.81904,-0.0238115,4.94721,0.270464,5.39239,0.177658,0.572021,-1.07156,-0.0322266,-0.11308,-0.088623,-0.559951,-0.0332184,23.4932,23.3371,23.1669,23.2946,23.2236,23.2946,23.1385,
24,6.27303,1.3849,3.15332,4.11977,6.27425,1.97635,1.55574,0.00437127,-0.0669842,5.30294e-06,0.123378,0.000653136,0.0578009,0,0.378757,-6.64011,-0.340543,1.17911,0.806515,-24.755,0.877346,0.00185587,-20,-0.426509,0.500373,-0.0387662,0.426431,0.0110855,-3.28762e-05,0.00355543,1.03294e-05,0.49431,0.00122332,0.0734279,0.0497929,-0.00117081,0.0303129,1.98507,0.000369529,0.005,1.7424,0.00131158,-0.0205336,-0.142881,16.9481,0.0666057,1.32761,4.03454,0.00661254,4.80639,0.272024,5.31295,0.171704,0.580302,-1.05545,-0.0322266,-0.072956,-0.0887145,-0.53981,-0.0201416,23.479,23.3371,23.1669,23.3087,23.2236,23.2946,23.1385,
25,6.27303,1.38483,3.15332,4.11989,6.27425,1.97641,1.55574,0.00456291,-0.0723861,0,0.121691,0.000840146,0.0561803,0,0.381107,-6.84823,-0.339631,1.01912,0.832553,-25.5846,0.897579,0.00246074,-20,-0.429241,0.473758,-0.0386535,0.342561,0.0121191,-3.54274e-05,0.00380957,1.08007e-05,0.49431,0.00122332,0.0734279,0.0504422,-0.00122187,0.0323168,1.98403,0.000393112,0.005,1.74082,0.00140753,-0.0227816,-0.15287,17.7298,0.0736306,1.21948,4.3254,-0.00273001,4.63521,0.285329,5.19711,0.183825,0.588135,-1.01526,-0.041081,-0.0227876,-0.0967636,-0.531799,-0.0324774,23.479,23.3229,23.1527,23.3087,23.2094,23.2804,23.1385,
26,6.27304,1.38475,3.15332,4.12,6.27425,1.97646,1.55574,0.00473841,-0.077164,-1.0606e-05,0.118843,0.0010603,0.0546161,0,0.383383,-7.04276,-0.340002,0.869624,0.853441,-26.3579,0.917394,0.00304571,-20,-0.431881,0.449153,-0.0385678,0.264386,0.0131927,-3.79411e-05,0.00405613,1.1424e-05,0.49431,0.00122332,0.0734279,0.0506239,-0.00126554,0.034102,1.98304,0.000417001,0.005,1.73934,0.00147498,-0.0245851,-0.163241,18.4583,0.0772008,1.24951,4.58503,0.01486,4.44786,0.305055,5.09877,0.201295,0.580078,-1.00721,-0.0322266,0.0322266,-0.0970148,-0.511597,-0.0293266,23.479,23.3371,23.1669,23.3087,23.2378,23.2946,23.1527,
27,6.27305,1.38467,3.15332,4.12012,6.27425,1.97652,1.55574,0.00504182,-0.0823797,-1.85605e-05,0.118303,0.00120883,0.0518587,0,0.385547,-7.23178,-0.339217,0.725242,0.876842,-27.108,0.937013,0.00359426,-20,-0.434367,0.42546,-0.0384756,0.188748,0.0142657,-4.0429e-05,0.00431349,1.3408e-05,0.49431,0.00122332,0.0734279,0.0515646,-0.00136367,0.035892,1.98201,0.000440588,0.005,1.73825,0.00153551,-0.0261918,-0.173618,19.164,0.0833934,1.17126,4.97356,0.0181726,4.26358,0.310231,5.01756,0.191737,0.580078,-1.00708,-0.0490066,0.0970148,-0.10103,-0.487443,-0.0281982,23.479,23.3229,23.1811,23.2946,23.2236,23.2804,23.1385,
28,6.27305,1.38458,3.15332,4.12025,6.27425,1.97657,1.55574,0.00526663,-0.0869714,-2.38635e-05,0.119867,0.0011544,0.0502381,0,0.387654,-7.42683,-0.336091,0.573796,0.907664,-27.8814,0.957596,0.00412176,-20,-0.436773,0.400422,-0.038336,0.11057,0.015367,-4.31133e-05,0.00456259,1.55444e-05,0.49431,0.00122332,0.0734279,0.0529812,-0.00144643,0.0375189,1.981,0.000467638,0.005,1.73649,0.00164817,-0.0278028,-0.184286,19.8941,0.0955638,1.20454,5.20698,0.0274386,4.12103,0.3286,4.91054,0.188242,0.555967,-0.982943,-0.0332184,0.121118,-0.088623,-0.455218,-0.0293266,23.479,23.3229,23.1669,23.2946,23.2236,23.2804,23.1527,
29,6.27306,1.38449,3.15332,4.12037,6.27425,1.97662,1.55574,0.00544219,-0.0931836,-3.18176e-05,0.119653,0.00111957,0.0483983,0,0.390043,-7.65375,-0.331658,0.397138,0.94511,-28.7766,0.976411,0.00472626,-20,-0.439508,0.370716,-0.0381712,0.0201558,0.0161431,-4.54039e-05,0.00482527,1.82143e-05,0.49431,0.00122332,0.0734279,0.0542253,-0.00150769,0.039796,1.9799,0.000501308,0.005,1.73423,0.00175296,-0.029267,-0.191708,20.7394,0.111181,1.08296,5.55707,0.00711502,3.99452,0.335058,4.77198,0.167995,0.555967,-0.982943,-0.0563965,0.090076,-0.0927389,-0.427002,-0.0201416,23.479,23.3087,23.1669,23.2946,23.2094,23.2662,23.1101,
30,6.27306,1.38449,3.15332,4.12037,6.27425,1.97662,1.55574,0.00544219,-0.0931836,-3.18176e-05,0.119653,0.00111957,0.0483983,0,0.392363,-7.8774,-0.328024,0.226438,0.979051,-29.6593,0.995826,0.00534306,-20,-0.442224,0.340553,-0.0380304,-0.068544,0.0170242,-4.79415e-05,0.00508649,2.03824e-05,0.49431,0.00122332,0.0734279,0.0542253,-0.00150769,0.039796,1.97883,0.00052936,0.005,1.73214,0.00183335,-0.0313164,-0.200179,21.5694,0.124126,1.08296,5.55707,0.00711502,3.99452,0.335058,4.77198,0.167995,0.555967,-0.982943,-0.0563965,0.090076,-0.0927389,-0.427002,-0.0201416,23.479,23.3087,23.1669,23.2946,23.2094,23.2662,23.1101,
31,6.27306,1.38439,3.15332,4.12048,6.27425,1.97666,1.55574,0.00579139,-0.0950412,-3.71209e-05,0.120463,0.0010787,0.0480774,0,0.392469,-7.87545,-0.328323,0.225641,0.979172,-29.6565,0.996025,0.00532847,-20,-0.442238,0.342427,-0.0380266,-0.0688247,0.0170303,-4.79415e-05,0.00508649,2.03824e-05,0.49431,0.00122332,0.0734279,0.0548462,-0.00164378,0.0404948,1.97883,0.00052936,0.005,1.73214,0.00183335,-0.0313164,-0.200179,21.5694,0.124126,1.11084,5.86147,0.0206671,3.8717,0.344322,4.66802,0.174313,0.564195,-0.935126,-0.0483398,0.0980133,-0.0845947,-0.414995,-0.036478,23.479,23.3371,23.1811,23.2946,23.2094,23.2946,23.1385,
32,6.27307,1.3843,3.15332,4.12061,6.27425,1.97671,1.55574,0.00630014,-0.0939939,-4.50754e-05,0.123164,0.00107874,0.0472671,0,0.394588,-8.09101,-0.320906,0.0607083,1.02401,-30.4986,1.01297,0.00584518,-20,-0.444599,0.315694,-0.0378151,-0.153419,0.017623,-4.9889e-05,0.00535371,2.46911e-05,0.49431,0.00122332,0.0734279,0.0554008,-0.00184132,0.0399588,1.97772,0.000569119,0.005,1.73058,0.00199161,-0.0319453,-0.205806,22.3614,0.147199,1.04259,6.19141,0.0132498,3.70196,0.339543,4.55921,0.169297,0.547911,-0.958876,-0.0569691,0.090076,-0.0845947,-0.398804,-0.0254773,23.479,23.3371,23.1811,23.2946,23.2236,23.2804,23.1385,
33,6.27307,1.3843,3.15332,4.12061,6.27425,1.97671,1.55574,0.00630014,-0.0939939,-4.50754e-05,0.123164,0.00107874,0.0472671,0,0.396308,-8.29405,-0.311894,-0.0930191,1.07078,-31.277,1.03116,0.00630253,-20,-0.446666,0.288697,-0.0375838,-0.230834,0.0184002,-5.25071e-05,0.00561454,2.89298e-05,0.49431,0.00122332,0.0734279,0.0554008,-0.00184132,0.0399588,1.97662,0.000609345,0.005,1.7291,0.0022056,-0.0314629,-0.213376,23.0909,0.173297,1.04259,6.19141,0.0132498,3.70196,0.339543,4.55921,0.169297,0.547911,-0.958876,-0.0569691,0.090076,-0.0845947,-0.398804,-0.0254773,23.479,23.3371,23.1811,23.2946,23.2236,23.2804,23.1385,
34,6.27308,1.3842,3.15332,4.12074,6.27426,1.97676,1.55574,0.00650186,-0.0944383,-5.57235e-05,0.12226,0.0010788,0.0472671,0,0.396404,-8.29216,-0.312136,-0.0935913,1.07087,-31.2745,1.03131,0.00629438,-20,-0.446684,0.290883,-0.0375742,-0.231198,0.0184027,-5.25071e-05,0.00561454,2.89298e-05,0.49431,0.00122332,0.0734279,0.0552282,-0.00191977,0.0401642,1.97662,0.000609345,0.005,1.7291,0.0022056,-0.0314629,-0.213376,23.0909,0.173297,1.07905,6.43436,0.026274,3.57339,0.371654,4.40096,0.159773,0.531738,-1.07971,-0.0490066,0.0254773,-0.0846906,-0.382712,-0.0166092,23.479,23.3371,23.1669,23.2946,23.2236,23.2804,23.1385,
35,6.27308,1.38411,3.15332,4.12086,6.27426,1.9768,1.55574,0.00650186,-0.0957116,-6.36359e-05,0.121814,0.00104348,0.0453764,0,0.398373,-8.4877,-0.307702,-0.241749,1.10435,-32.0361,1.04916,0.0067943,-20,-0.44901,0.267185,-0.0374202,-0.307514,0.0192365,-5.54082e-05,0.00588427,3.20489e-05,0.49431,0.00122332,0.0734279,0.055363,-0.00192295,0.0404885,1.97548,0.000643963,0.005,1.72823,0.00230736,-0.0316478,-0.221381,23.8054,0.188025,0.969531,6.72314,-0.00573444,3.44609,0.356708,4.20975,0.147648,0.523682,-1.1199,-0.0490066,0.041081,-0.072956,-0.370627,-0.0205405,23.479,23.3229,23.1527,23.2946,23.2236,23.2662,23.1527,
36,6.27308,1.38411,3.15332,4.12086,6.27426,1.9768,1.55574,0.00650186,-0.0957116,-6.36359e-05,0.121814,0.00104348,0.0453764,0,0.400126,-8.67169,-0.302695,-0.380268,1.13695,-32.7486,1.06386,0.00726024,-20,-0.451106,0.242928,-0.0372914,-0.378505,0.019844,-5.75523e-05,0.00614324,3.68687e-05,0.49431,0.00122332,0.0734279,0.055363,-0.00192295,0.0404885,1.97439,0.000686807,0.005,1.72712,0.00234878,-0.0319396,-0.227214,24.4727,0.202977,0.969531,6.72314,-0.00573444,3.44609,0.356708,4.20975,0.147648,0.523682,-1.1199,-0.0490066,0.041081,-0.072956,-0.370627,-0.0205405,23.479,23.3229,23.1527,23.2946,23.2236,23.2662,23.1527,
37,6.27309,1.38399,3.15332,4.12098,6.27426,1.97685,1.55574,0.00648234,-0.0965231,-7.15904e-05,0.122624,0.00104081,0.0438432,1.0598e-05,0.40019,-8.66948,-0.302874,-0.380803,1.13701,-32.7458,1.06396,0.00725068,-20,-0.451129,0.2452,-0.0372783,-0.378848,0.0198445,-5.75523e-05,0.00614324,3.68687e-05,0.49431,0.00122332,0.0734279,0.0557621,-0.00191301,0.0406469,1.97439,0.000686807,0.005,1.72712,0.00234878,-0.0319396,-0.227214,24.4727,0.202977,0.984538,6.9296,0.00811911,3.28563,0.353188,4.03215,0.167472,0.523744,-1.16041,-0.0649547,0.0433863,-0.0726216,-0.346436,-0.0284845,23.479,23.3229,23.1811,23.2946,23.2236,23.2662,23.1527,
38,6.27309,1.38391,3.15332,4.1211,6.27426,1.97689,1.55574,0.00593913,-0.0963203,-8.22586e-05,0.120463,0.00104344,0.044296,1.0598e-05,0.402421,-8.88061,-0.30128,-0.541992,1.16303,-33.5664,1.07987,0.0078475,-20,-0.453884,0.219072,-0.0371701,-0.461204,0.0204827,-5.96876e-05,0.00642776,3.95584e-05,0.49431,0.00122332,0.0734279,0.0550899,-0.00169968,0.040665,1.9732,0.000716604,0.005,1.72569,0.00236665,-0.0320822,-0.233257,25.2436,0.210099,0.874691,7.21963,-0.00036341,3.14719,0.363696,3.83157,0.163472,0.523744,-1.20044,-0.0649547,0.0290486,-0.0846906,-0.322291,-0.0161133,23.479,23.3229,23.1811,23.3229,23.2094,23.252,23.1385,
39,6.27309,1.38391,3.15332,4.1211,6.27426,1.97689,1.55574,0.00593913,-0.0963203,-8.22586e-05,0.120463,0.00104344,0.044296,1.0598e-05,0.40447,-9.04677,-0.305397,-0.664707,1.1673,-34.2081,1.09344,0.0083921,-20,-0.456391,0.197767,-0.0372284,-0.524826,0.0212148,-6.23663e-05,0.0066706,4.23179e-05,0.49431,0.00122332,0.0734279,0.0550899,-0.00169968,0.040665,1.97217,0.000748152,0.005,1.72537,0.00220305,-0.0320985,-0.2402,25.8419,0.201668,0.874691,7.21963,-0.00036341,3.14719,0.363696,3.83157,0.163472,0.523744,-1.20044,-0.0649547,0.0290486,-0.0846906,-0.322291,-0.0161133,23.479,23.3229,23.1811,23.3229,23.2094,23.252,23.1385,
40,6.2731,1.3838,3.15332,4.12122,6.27426,1.97694,1.55574,0.00597879,-0.100863,-8.75647e-05,0.121121,0.00104461,0.0434857,1.0598e-05,0.404525,-9.0443,-0.305607,-0.666023,1.16736,-34.2043,1.09351,0.00837643,-20,-0.456415,0.199522,-0.0372187,-0.525079,0.0212172,-6.23663e-05,0.0066706,4.23179e-05,0.49431,0.00122332,0.0734279,0.0562313,-0.00170478,0.0423798,1.97217,0.000748152,0.005,1.72537,0.00220305,-0.0320985,-0.2402,25.8419,0.201668,0.907998,7.44677,0.0252908,3.08663,0.390282,3.60106,0.15902,0.539855,-1.27305,-0.0569691,0.0644531,-0.0644531,-0.322266,-0.0241699,23.479,23.3087,23.1669,23.2946,23.2094,23.2804,23.1243,
41,6.2731,1.3838,3.15332,4.12122,6.27426,1.97694,1.55574,0.00597879,-0.100863,-8.75647e-05,0.121121,0.00104461,0.0434857,1.0598e-05,0.407137,-9.2898,-0.303149,-0.853265,1.19985,-35.1669,1.11376,0.00907073,-20,-0.459508,0.166511,-0.0371017,-0.621593,0.0221166,-6.49436e-05,0.00695685,4.56064e-05,0.49431,0.00122332,0.0734279,0.0562313,-0.00170478,0.0423798,1.97095,0.000785075,0.005,1.72324,0.00224087,-0.0336418,-0.248804,26.7465,0.211815,0.907998,7.44677,0.0252908,3.08663,0.390282,3.60106,0.15902,0.539855,-1.27305,-0.0569691,0.0644531,-0.0644531,-0.322266,-0.0241699,23.479,23.3087,23.1669,23.2946,23.2094,23.2804,23.1243,
42,6.27311,1.38368,3.15332,4.12135,6.27426,1.97698,1.55574,0.00624178,-0.105824,-9.81053e-05,0.122624,0.00102911,0.0405146,1.0606e-05,0.407241,-9.28704,-0.303462,-0.854392,1.19991,-35.163,1.11391,0.00906049,-20,-0.459527,0.16818,-0.0370974,-0.621818,0.022121,-6.49436e-05,0.00695685,4.56064e-05,0.49431,0.00122332,0.0734279,0.0577056,-0.00179923,0.0440165,1.97095,0.000785075,0.005,1.72324,0.00224087,-0.0336418,-0.248804,26.7465,0.211815,0.804713,7.64474,0.00991732,3.04529,0.364033,3.39373,0.139756,0.547852,-1.21658,-0.0725098,0.0483398,-0.0725098,-0.306179,-0.0161133,23.479,23.3087,23.1669,23.2946,23.2094,23.2804,23.1385,
43,6.27311,1.38358,3.15332,4.12147,6.27426,1.97702,1.55574,0.00648234,-0.107499,-0.000103408,0.121691,0.000993562,0.0386183,1.0598e-05,0.409549,-9.51302,-0.297476,-1.03051,1.24163,-36.0552,1.13503,0.00963645,-20,-0.462133,0.139274,-0.0369037,-0.712095,0.023109,-6.77476e-05,0.00723019,4.94198e-05,0.49431,0.00122332,0.0734279,0.0577835,-0.00189858,0.0445091,1.96977,0.000820571,0.005,1.72086,0.00235783,-0.0351149,-0.258321,27.5893,0.231194,0.83029,7.90155,0.0154627,2.96364,0.338502,3.17777,0.148794,0.539795,-1.1445,-0.072956,0.0161133,-0.0645789,-0.282011,-0.0201416,23.479,23.3371,23.1669,23.2946,23.2094,23.2804,23.1385,
44,6.27311,1.38358,3.15332,4.12147,6.27426,1.97702,1.55574,0.00648234,-0.107499,-0.000103408,0.121691,0.000993562,0.0386183,1.0598e-05,0.411232,-9.70181,-0.290197,-1.17277,1.28164,-36.7875,1.15067,0.0100836,-20,-0.464132,0.114403,-0.0367203,-0.785109,0.0237349,-7.00042e-05,0.00749714,5.37659e-05,0.49431,0.00122332,0.0734279,0.0577835,-0.00189858,0.0445091,1.96863,0.000858894,0.005,1.71976,0.00248173,-0.0355582,-0.26439,28.2754,0.252275,0.83029,7.90155,0.0154627,2.96364,0.338502,3.17777,0.148794,0.539795,-1.1445,-0.072956,0.0161133,-0.0645789,-0.282011,-0.0201416,23.479,23.3371,23.1669,23.2946,23.2094,23.2804,23.1385,
45,6.27312,1.38347,3.15332,4.12158,6.27426,1.97705,1.55574,0.00648234,-0.10993,-0.000108794,0.120734,0.00101009,0.0356167,1.0598e-05,0.411285,-9.69934,-0.290365,-1.17322,1.28166,-36.7846,1.15076,0.0100745,-20,-0.464149,0.11654,-0.036707,-0.785457,0.0237377,-7.00042e-05,0.00749714,5.37659e-05,0.49431,0.00122332,0.0734279,0.0580141,-0.00189783,0.0451845,1.96863,0.000858894,0.005,1.71976,0.00248173,-0.0355582,-0.26439,28.2754,0.252275,0.744945,8.21326,0.0065939,2.89803,0.343603,2.9691,0.128098,0.531799,-1.16824,-0.0649547,0.0322266,-0.0645789,-0.253816,-0.0090076,23.479,23.3087,23.1669,23.3087,23.2094,23.2662,23.1385,
46,6.27313,1.38336,3.15332,4.12171,6.27426,1.97709,1.55574,0.00676193,-0.11074,-0.000114101,0.120118,0.00101218,0.0345725,1.0598e-05,0.41324,-9.87888,-0.28757,-1.31139,1.30902,-37.4891,1.1684,0.0105542,-20,-0.466367,0.0947285,-0.0365964,-0.856473,0.0246525,-7.29596e-05,0.00775982,5.71819e-05,0.49431,0.00122332,0.0734279,0.0580017,-0.0020089,0.0454204,1.96749,0.000893784,0.005,1.71853,0.00251245,-0.0361661,-0.273196,28.9388,0.262699,0.774441,8.47066,-0.00691758,2.88388,0.390585,2.70422,0.142393,0.499512,-1.15235,-0.0649547,0.0254773,-0.0684814,-0.225622,-0.0161133,23.4648,23.3229,23.1669,23.2946,23.2094,23.2946,23.1385,
47,6.27313,1.38324,3.15332,4.12183,6.27426,1.97712,1.55574,0.00702201,-0.110986,-0.00012462,0.118843,0.000982947,0.0320984,1.0606e-05,0.4151,-10.0716,-0.280745,-1.45835,1.34934,-38.2409,1.18689,0.0110089,-20,-0.468473,0.0716087,-0.0364013,-0.932001,0.0255197,-7.59861e-05,0.00803089,6.15812e-05,0.49431,0.00122332,0.0734279,0.05768,-0.00211867,0.0452926,1.96629,0.000936767,0.005,1.71746,0.0026511,-0.0363783,-0.281586,29.6452,0.283563,0.678051,8.74798,-0.0420646,2.86204,0.367487,2.47639,0.114814,0.507632,-1.18444,-0.0805664,0.0254773,-0.0605589,-0.201456,-0.0166092,23.479,23.3087,23.1669,23.2946,23.1952,23.2662,23.1385,
48,6.27313,1.38324,3.15332,4.12183,6.27426,1.97712,1.55574,0.00702201,-0.110986,-0.00012462,0.118843,0.000982947,0.0320984,1.0606e-05,0.416526,-10.2444,-0.272329,-1.58787,1.39069,-38.906,1.20251,0.0113877,-20,-0.470181,0.0490622,-0.0362067,-0.998081,0.0262076,-7.85953e-05,0.00830024,6.65457e-05,0.49431,0.00122332,0.0734279,0.05768,-0.00211867,0.0452926,1.96512,0.000977687,0.005,1.71669,0.00278672,-0.0362634,-0.288327,30.2674,0.307074,0.678051,8.74798,-0.0420646,2.86204,0.367487,2.47639,0.114814,0.507632,-1.18444,-0.0805664,0.0254773,-0.0605589,-0.201456,-0.0166092,23.479,23.3087,23.1669,23.2946,23.1952,23.2662,23.1385,
49,6.27314,1.38313,3.15331,4.12194,6.27426,1.97715,1.55574,0.00674901,-0.11128,-0.00012727,0.113711,0.000980763,0.0289004,1.0598e-05,0.41652,-10.2424,-0.272316,-1.58745,1.39069,-38.9043,1.20257,0.0113762,-20,-0.47019,0.0517377,-0.036184,-0.99859,0.0262107,-7.85953e-05,0.00830024,6.65457e-05,0.49431,0.00122332,0.0734279,0.056255,-0.00202587,0.045173,1.96512,0.000977687,0.005,1.71669,0.00278672,-0.0362634,-0.288327,30.2674,0.307074,0.695155,9.03605,-0.0126227,2.78885,0.345765,2.2558,0.138726,0.499512,-1.24072,-0.0805664,0.041081,-0.0525229,-0.177292,-0.00402832,23.4648,23.3087,23.1527,23.3087,23.2236,23.2662,23.1385,
50,6.27315,1.38302,3.15331,4.12205,6.27426,1.97717,1.55574,0.00674901,-0.11128,-0.000127368,0.113441,0.00101418,0.0259294,1.0598e-05,0.417788,-10.3617,-0.270943,-1.67585,1.40648,-39.3699,1.21411,0.01169,-20,-0.471722,0.0390181,-0.0361339,-1.04513,0.0268421,-8.12425e-05,0.00855055,7.01924e-05,0.49431,0.00122332,0.0734279,0.0561726,-0.00202865,0.0448764,1.96401,0.00101456,0.005,1.71698,0.00273639,-0.0361557,-0.294377,30.7022,0.311989,0.581241,9.4004,0.00422138,2.78465,0.373701,2.05281,0.123207,0.499577,-1.28123,-0.0805664,0.145243,-0.0565402,-0.136963,-0.0090076,23.479,23.2946,23.1669,23.3087,23.2236,23.2662,23.1243,
51,6.27316,1.38291,3.15331,4.12216,6.27426,1.9772,1.55574,0.00702201,-0.112361,-0.000132675,0.111707,0.000982975,0.0232284,1.06059e-05,0.419407,-10.5181,-0.267266,-1.79558,1.43358,-39.977,1.22866,0.0120825,-20,-0.473566,0.0204184,-0.0360189,-1.1061,0.0275462,-8.36235e-05,0.00879792,7.44655e-05,0.49431,0.00122332,0.0734279,0.0558952,-0.00214477,0.0450616,1.9629,0.00105727,0.005,1.71605,0.00277733,-0.0358887,-0.301105,31.2729,0.324033,0.607108,9.6901,0.00394762,2.84264,0.418297,1.77486,0.112278,0.491521,-1.32937,-0.0889885,0.169955,-0.0525229,-0.108765,-0.0161133,23.479,23.3229,23.1527,23.2946,23.2094,23.2378,23.1385,
52,6.27316,1.3828,3.15331,4.12228,6.27426,1.97722,1.55574,0.00676193,-0.11128,-0.000137878,0.109837,0.000967373,0.0202368,1.0606e-05,0.420576,-10.6701,-0.257582,-1.91122,1.47667,-40.5705,1.24327,0.0123805,-20,-0.474948,0.00295381,-0.035785,-1.16581,0.0281927,-8.60982e-05,0.00904171,8.02127e-05,0.49431,0.00122332,0.0734279,0.0551235,-0.00205342,0.0443623,1.9618,0.00110341,0.005,1.71531,0.00292336,-0.0360554,-0.307455,31.8305,0.350388,0.496026,9.91155,-0.017626,2.89999,0.387341,1.5413,0.0938098,0.491719,-1.31363,-0.0805664,0.177977,-0.0537445,-0.0726216,-0.00569691,23.4506,23.3087,23.1527,23.2804,23.2094,23.2804,23.1385,
53,6.27316,1.3828,3.15331,4.12228,6.27426,1.97722,1.55574,0.00676193,-0.11128,-0.000137878,0.109837,0.000967373,0.0202368,1.0606e-05,0.421958,-10.8069,-0.255779,-2.01281,1.49472,-41.0923,1.25588,0.0127477,-20,-0.476647,-0.0146514,-0.0357419,-1.2174,0.0288714,-8.88287e-05,0.00928802,8.43761e-05,0.49431,0.00122332,0.0734279,0.0551235,-0.00205342,0.0443623,1.96066,0.00113996,0.005,1.71499,0.00287404,-0.0354261,-0.314007,32.3173,0.356221,0.496026,9.91155,-0.017626,2.89999,0.387341,1.5413,0.0938098,0.491719,-1.31363,-0.0805664,0.177977,-0.0537445,-0.0726216,-0.00569691,23.4506,23.3087,23.1527,23.2804,23.2094,23.2804,23.1385,
54,6.27317,1.38269,3.15331,4.12239,6.27426,1.97724,1.55574,0.00675244,-0.109232,-0.000140529,0.109389,0.000965196,0.0188076,1.0606e-05,0.422008,-10.805,-0.255928,-2.01285,1.49474,-41.0904,1.25601,0.0127343,-20,-0.476663,-0.0120408,-0.0357252,-1.21779,0.0288765,-8.88287e-05,0.00928802,8.43761e-05,0.49431,0.00122332,0.0734279,0.0545589,-0.00205739,0.0434202,1.96066,0.00113996,0.005,1.71499,0.00287404,-0.0354261,-0.314007,32.3173,0.356221,0.514162,10.2397,0.019358,2.87465,0.362385,1.33877,0.119024,0.483466,-1.3616,-0.0809682,0.217678,-0.0444942,-0.0537445,-0.0113938,23.479,23.3087,23.1527,23.2662,23.2094,23.2662,23.1385,
55,6.27318,1.38258,3.15331,4.1225,6.27427,1.97725,1.55574,0.00675244,-0.109119,-0.000145832,0.10993,0.000982947,0.0153956,1.0598e-05,0.423474,-10.9549,-0.251956,-2.1265,1.52142,-41.6672,1.26984,0.0131011,-20,-0.47842,-0.0294128,-0.0356089,-1.27541,0.0295487,-9.14982e-05,0.00953193,8.87328e-05,0.49431,0.00122332,0.0734279,0.0546881,-0.00205944,0.0430176,1.95955,0.0011813,0.005,1.71449,0.00291482,-0.0345782,-0.320502,32.8581,0.368541,0.433155,10.6168,0.023135,2.84937,0.386481,1.14237,0.100794,0.483398,-1.45845,-0.0966797,0.217678,-0.0485074,-0.0284845,-0.00569691,23.479,23.3087,23.1385,23.2946,23.2094,23.2662,23.1385,
56,6.27318,1.38247,3.15331,4.1226,6.27427,1.97727,1.55574,0.00624178,-0.107499,-0.00015125,0.108039,0.000955353,0.0135049,1.0598e-05,0.424877,-11.1015,-0.248228,-2.23923,1.54664,-42.235,1.28513,0.0134705,-20,-0.480161,-0.0466432,-0.0354843,-1.3325,0.0303906,-9.43484e-05,0.00976292,9.25741e-05,0.49431,0.00122332,0.0734279,0.0537971,-0.00186917,0.0422195,1.95847,0.00121743,0.005,1.71341,0.00294918,-0.0342159,-0.328639,33.3922,0.379742,0.459623,10.9087,-0.0126482,2.86542,0.427775,0.926287,0.110757,0.483466,-1.45825,-0.0809682,0.186872,-0.0483398,0.00805664,-0.00805664,23.4648,23.2946,23.1527,23.2804,23.2236,23.252,23.1243,
57,6.27319,1.38237,3.15331,4.12272,6.27427,1.97728,1.55574,0.00623874,-0.105878,-0.000151134,0.109084,0.000968422,0.0115353,1.0606e-05,0.42629,-11.2258,-0.248632,-2.33285,1.55721,-42.7135,1.29565,0.0138213,-20,-0.481888,-0.0603167,-0.0354819,-1.38029,0.0309556,-9.67482e-05,0.00998887,9.74433e-05,0.49431,0.00122332,0.0734279,0.0537552,-0.00187179,0.0413636,1.95741,0.00125583,0.005,1.71325,0.00281251,-0.0334976,-0.333992,33.8403,0.379804,0.395499,11.1791,-0.0239792,2.83103,0.43152,0.749899,0.0811611,0.483466,-1.53085,-0.0889885,0.226161,-0.045038,0.0322266,-0.00805664,23.4648,23.3087,23.1527,23.2946,23.1952,23.252,23.1243,
58,6.27319,1.38227,3.15331,4.12283,6.27427,1.97729,1.55574,0.00620909,-0.105338,-0.000156438,0.109279,0.000971473,0.0105338,1.85603e-05,0.427866,-11.3782,-0.245988,-2.45004,1.58063,-43.2999,1.30978,0.0142162,-20,-0.48377,-0.0785165,-0.0353823,-1.43902,0.03166,-9.93094e-05,0.0102213,0.000100849,0.49431,0.00122332,0.0734279,0.0536941,-0.00186121,0.0410523,1.9563,0.00129386,0.005,1.71229,0.00284908,-0.0327272,-0.340785,34.3915,0.38907,0.395013,11.4611,0.0242438,2.74245,0.419556,0.589643,0.114218,0.483466,-1.5953,-0.090076,0.218125,-0.0402832,0.0523682,0,23.4506,23.2946,23.1385,23.2946,23.2094,23.2662,23.1385,
59,6.2732,1.38215,3.15331,4.12293,6.27427,1.9773,1.55574,0.00594214,-0.105824,-0.00015909,0.108579,0.00096845,0.00971366,1.85464e-05,0.429439,-11.5315,-0.243525,-2.56771,1.60333,-43.894,1.32193,0.0146174,-20,-0.485683,-0.0967854,-0.0352845,-1.49867,0.032171,-0.000101185,0.0104433,0.000104236,0.49431,0.00122332,0.0734279,0.0535898,-0.00175727,0.0411827,1.95525,0.00132614,0.005,1.7114,0.00286862,-0.0324471,-0.345648,34.9504,0.397597,0.306667,11.813,0.0221759,2.66806,0.458645,0.415725,0.099861,0.47541,-1.60345,-0.0970148,0.193359,-0.0324774,0.072956,-0.00402832,23.4648,23.3087,23.1527,23.2804,23.1811,23.2662,23.1243,
60,6.27321,1.38205,3.15331,4.12304,6.27427,1.9773,1.55574,0.00572164,-0.104692,-0.000164517,0.106689,0.000940216,0.00675244,1.85464e-05,0.431248,-11.6916,-0.243587,-2.68983,1.61927,-44.5196,1.33627,0.0150829,-20,-0.487862,-0.115634,-0.0352388,-1.56156,0.0329187,-0.00010381,0.0106724,0.000107693,0.49431,0.00122332,0.0734279,0.0528033,-0.00168261,0.0404635,1.95415,0.00135961,0.005,1.71051,0.0028052,-0.0325645,-0.352723,35.538,0.3996,0.322081,12.0773,0.0278319,2.61595,0.478009,0.20706,0.105921,0.47541,-1.5954,-0.105046,0.193359,-0.0322266,0.0846906,0,23.479,23.3087,23.1243,23.2946,23.1952,23.252,23.1243,
61,6.27321,1.38195,3.15331,4.12315,6.27427,1.97731,1.55574,0.00494141,-0.104904,-0.000164391,0.10758,0.000925051,0.00378136,1.85605e-05,0.43223,-11.8025,-0.240531,-2.77417,1.6379,-44.9473,1.34662,0.0153508,-20,-0.489197,-0.127885,-0.035158,-1.60437,0.0334726,-0.00010617,0.0108876,0.000112145,0.49431,0.00122332,0.0734279,0.0531024,-0.00137757,0.0402308,1.95311,0.00139423,0.005,1.71028,0.00276916,-0.0319171,-0.358131,35.9394,0.407737,0.281281,12.3156,0.0390053,2.54673,0.463496,0.00105971,0.0968293,0.475342,-1.62746,-0.0966797,0.22573,-0.0201416,0.120917,0.0127387,23.479,23.3087,23.1527,23.2804,23.1952,23.252,23.1101,
62,6.27321,1.38195,3.15331,4.12315,6.27427,1.97731,1.55574,0.00494141,-0.104904,-0.000164391,0.10758,0.000925051,0.00378136,1.85605e-05,0.43428,-11.952,-0.247798,-2.88846,1.63129,-45.5241,1.35843,0.0158955,-20,-0.491711,-0.148011,-0.0352843,-1.66192,0.0341647,-0.000108506,0.0111088,0.000114057,0.49431,0.00122332,0.0734279,0.0531024,-0.00137757,0.0402308,1.95202,0.00141683,0.005,1.70902,0.00251496,-0.0317077,-0.364529,36.4809,0.39094,0.281281,12.3156,0.0390053,2.54673,0.463496,0.00105971,0.0968293,0.475342,-1.62746,-0.0966797,0.22573,-0.0201416,0.120917,0.0127387,23.479,23.3087,23.1527,23.2804,23.1952,23.252,23.1101,
63,6.27321,1.38183,3.15331,4.12326,6.27427,1.97731,1.55574,0.00459166,-0.105224,-0.000169696,0.108039,0.000923027,0,2.65149e-05,0.434284,-11.9497,-0.247829,-2.88848,1.63123,-45.5218,1.35839,0.0158857,-20,-0.491732,-0.145662,-0.0352659,-1.66223,0.0341648,-0.000108506,0.0111088,0.000114057,0.49431,0.00122332,0.0734279,0.0533001,-0.00124242,0.0399619,1.95202,0.00141683,0.005,1.70902,0.00251496,-0.0317077,-0.364529,36.4809,0.39094,0.289129,12.5876,0.0926007,2.47797,0.458095,-0.181721,0.132826,0.499577,-1.6194,-0.0970148,0.193527,-0.0293266,0.153129,0.00569691,23.4648,23.3087,23.1385,23.2804,23.1952,23.2662,23.1101,
64,6.27322,1.38183,3.15331,4.12336,6.27427,1.97731,1.55574,0.00459166,-0.105224,-0.000169694,0.105608,0.000894696,-0.000520149,2.64949e-05,0.435892,-12.0868,-0.249376,-2.99475,1.64034,-46.0523,1.36962,0.0163079,-20,-0.4937,-0.163031,-0.0352682,-1.71553,0.0347401,-0.000110456,0.0113273,0.000116551,0.49431,0.00122332,0.0734279,0.0525987,-0.00125132,0.0399534,1.95093,0.00144074,0.005,1.70787,0.00241484,-0.0314657,-0.3699,36.9807,0.388748,0.23667,12.5876,0.114544,2.42162,0.476056,-0.355877,0.0926414,0.483466,-1.6194,-0.0966797,0.185478,-0.0293266,0.173265,0.00569691,23.479,23.3087,23.1527,23.2804,23.1952,23.2804,23.1101,
65,6.27322,1.38183,3.15331,4.12336,6.27427,1.97731,1.55574,0.00459166,-0.105224,-0.000169694,0.105608,0.000894696,-0.000520149,2.64949e-05,0.436285,-12.1398,-0.246057,-3.03352,1.65488,-46.2565,1.37415,0.0164123,-20,-0.494172,-0.169654,-0.0352014,-1.73571,0.0349216,-0.000111465,0.0114305,0.000119138,0.49431,0.00122332,0.0734279,0.0525987,-0.00125132,0.0399534,1.95033,0.00146926,0.005,1.70796,0.00244852,-0.0314581,-0.371703,37.1708,0.397587,0.23667,12.5876,0.114544,2.42162,0.476056,-0.355877,0.0926414,0.483466,-1.6194,-0.0966797,0.185478,-0.0293266,0.173265,0.00569691,23.479,23.3087,23.1527,23.2804,23.1952,23.2804,23.1101,
66,6.27322,1.38173,3.15331,4.12347,6.27427,1.97731,1.55574,0.00421192,-0.102637,-0.000164516,0.107769,0.000894696,-0.000877772,2.64946e-05,0.436274,-12.138,-0.246064,-3.03396,1.65485,-46.2543,1.37407,0.0163972,-20,-0.494197,-0.167353,-0.0351837,-1.73598,0.0349185,-0.000111465,0.0114305,0.000119138,0.49431,0.00122332,0.0734279,0.0526762,-0.00110403,0.0388653,1.95033,0.00146926,0.005,1.70796,0.00244852,-0.0314581,-0.371703,37.1708,0.397587,0.27395,12.9425,0.113941,2.43716,0.509627,-0.577259,0.0761694,0.483667,-1.61938,-0.105046,0.226161,-0.0205405,0.189374,0.0090076,23.4506,23.3087,23.1669,23.2946,23.1952,23.2662,23.1101,
67,6.27323,1.38163,3.15331,4.12359,6.27427,1.9773,1.55574,0.00386093,-0.099666,-0.000167171,0.109232,0.000870266,-0.000927469,2.65149e-05,0.438115,-12.2853,-0.249981,-3.14758,1.65835,-46.8191,1.38573,0.0168713,-20,-0.496491,-0.184734,-0.0352136,-1.79255,0.0355219,-0.000113716,0.0116359,0.000120694,0.49431,0.00122332,0.0734279,0.0524716,-0.00097004,0.0376691,1.94929,0.00148825,0.005,1.70696,0.00233306,-0.0304788,-0.377332,37.702,0.389837,0.211557,13.2657,0.109837,2.42469,0.50785,-0.722427,0.046222,0.475342,-1.70803,-0.112793,0.177429,-0.0127387,0.197552,0,23.4506,23.2804,23.1385,23.2662,23.1952,23.252,23.1101,
68,6.27323,1.38154,3.15331,4.1237,6.27427,1.9773,1.55574,0.00350993,-0.0983155,-0.000167044,0.11074,0.000839,-0.00110026,2.65149e-05,0.439848,-12.4325,-0.252299,-3.26065,1.66611,-47.3828,1.39679,0.0173182,-20,-0.498673,-0.202195,-0.0352226,-1.84887,0.0360527,-0.000115858,0.0118494,0.000123052,0.49431,0.00122332,0.0734279,0.0526203,-0.000834142,0.0371019,1.94821,0.00150751,0.005,1.70616,0.0022298,-0.0294022,-0.382328,38.2315,0.385851,0.246799,13.5854,0.156741,2.34862,0.502417,-0.834158,0.0547655,0.499577,-1.79663,-0.0970148,0.128906,-0.012085,0.189502,0.00569691,23.4506,23.3087,23.1527,23.2804,23.1952,23.2378,23.1243,
69,6.27323,1.38154,3.15331,4.1237,6.27427,1.9773,1.55574,0.00350993,-0.0983155,-0.000167044,0.11074,0.000839,-0.00110026,2.65149e-05,0.441734,-12.5857,-0.256126,-3.37707,1.67039,-47.9701,1.40868,0.0178191,-20,-0.500992,-0.222592,-0.0352648,-1.90731,0.0366525,-0.000118091,0.0120535,0.000124042,0.49431,0.00122332,0.0734279,0.0526203,-0.000834142,0.0371019,1.94717,0.00152234,0.005,1.7051,0.00212084,-0.0288917,-0.387911,38.7821,0.378412,0.246799,13.5854,0.156741,2.34862,0.502417,-0.834158,0.0547655,0.499577,-1.79663,-0.0970148,0.128906,-0.012085,0.189502,0.00569691,23.4506,23.3087,23.1527,23.2804,23.1952,23.2378,23.1243,
70,6.27323,1.38144,3.15331,4.12381,6.27428,1.9773,1.55574,0.00324117,-0.0960443,-0.000172478,0.11182,0.00082428,-0.00109703,2.64949e-05,0.441765,-12.5839,-0.25619,-3.37755,1.67037,-47.9678,1.40859,0.0178092,-20,-0.501014,-0.220249,-0.03525,-1.9076,0.0366452,-0.000118091,0.0120535,0.000124042,0.49431,0.00122332,0.0734279,0.0524522,-0.000730173,0.0361951,1.94717,0.00152234,0.005,1.7051,0.00212084,-0.0288917,-0.387911,38.7821,0.378412,0.195243,13.9603,0.170662,2.26188,0.53032,-0.910129,0.0512888,0.499577,-1.80471,-0.12085,0.0889885,-0.0113938,0.193527,0.0090076,23.4648,23.2804,23.1385,23.2804,23.1952,23.252,23.1243,
71,6.27324,1.38134,3.15331,4.12392,6.27428,1.9773,1.55574,0.00298443,-0.0934537,-0.000172478,0.115062,0.000794842,-0.00142201,2.64949e-05,0.443604,-12.7317,-0.259985,-3.49124,1.67461,-48.5364,1.42187,0.0182809,-20,-0.503309,-0.237745,-0.0352747,-1.9645,0.0373971,-0.00012091,0.0122646,0.000124377,0.49431,0.00122332,0.0734279,0.0528422,-0.000630675,0.0350913,1.94611,0.00152968,0.005,1.70429,0.00203387,-0.0280756,-0.39506,39.3166,0.371256,0.204573,14.3631,0.186851,2.22738,0.545927,-0.9852,0.0468289,0.483667,-1.84583,-0.105046,0.0490066,-0.00402832,0.193359,0.0127387,23.4648,23.2946,23.1527,23.2804,23.1952,23.2662,23.1243,
72,6.27324,1.38134,3.15331,4.12392,6.27428,1.9773,1.55574,0.00298443,-0.0934537,-0.000172478,0.115062,0.000794842,-0.00142201,2.64949e-05,0.445477,-12.8885,-0.263049,-3.61118,1.68153,-49.1333,1.43408,0.0187784,-20,-0.505624,-0.25881,-0.0352983,-2.02384,0.0379971,-0.00012313,0.0124684,0.000125317,0.49431,0.00122332,0.0734279,0.0528422,-0.000630675,0.0350913,1.94506,0.00154454,0.005,1.703,0.00195769,-0.0270821,-0.400666,39.8768,0.365931,0.204573,14.3631,0.186851,2.22738,0.545927,-0.9852,0.0468289,0.483667,-1.84583,-0.105046,0.0490066,-0.00402832,0.193359,0.0127387,23.4648,23.2946,23.1527,23.2804,23.1952,23.2662,23.1243,
73,6.27324,1.38125,3.15331,4.12404,6.27428,1.9773,1.55574,0.00263332,-0.0917401,-0.000172476,0.1141,0.000752264,-0.0016027,2.65149e-05,0.445474,-12.8867,-0.263042,-3.61166,1.68153,-49.131,1.43396,0.0187629,-20,-0.505642,-0.256421,-0.0352835,-2.02417,0.0379901,-0.00012313,0.0124684,0.000125317,0.49431,0.00122332,0.0734279,0.0522021,-0.00050147,0.0344193,1.94506,0.00154454,0.005,1.703,0.00195769,-0.0270821,-0.400666,39.8768,0.365931,0.142763,14.6643,0.180732,2.13166,0.556722,-1.09685,0.0321153,0.491521,-1.88525,-0.105046,-0.00805664,-0.00402832,0.189374,0.012085,23.4648,23.3087,23.1527,23.2662,23.2094,23.2378,23.1385,
74,6.27324,1.38116,3.15331,4.12415,6.27428,1.97729,1.55574,0.00245695,-0.0918331,-0.000172347,0.10993,0.000735965,-0.00188783,2.65147e-05,0.447163,-13.019,-0.267071,-3.71192,1.68333,-49.6411,1.44362,0.0191916,-20,-0.507724,-0.271542,-0.0353241,-2.07522,0.0384557,-0.000125187,0.0126772,0.000125606,0.49431,0.00122332,0.0734279,0.0510144,-0.000442091,0.0345043,1.94399,0.00155177,0.005,1.7026,0.00184792,-0.0264774,-0.404971,40.3548,0.357767,0.166407,14.9278,0.239991,2.05699,0.524928,-1.20673,0.0170406,0.475342,-1.90144,-0.104736,-0.00805664,-0.00402832,0.185478,0.0161133,23.4648,23.3087,23.1385,23.2804,23.2094,23.252,23.1101,
75,6.27324,1.38116,3.15331,4.12415,6.27428,1.97729,1.55574,0.00245695,-0.0918331,-0.000172347,0.10993,0.000735965,-0.00188783,2.65147e-05,0.448413,-13.129,-0.267953,-3.7924,1.69169,-50.0663,1.45197,0.0195235,-20,-0.509257,-0.285322,-0.0353217,-2.11731,0.0388369,-0.000126936,0.0128723,0.000126548,0.49431,0.00122332,0.0734279,0.0510144,-0.000442091,0.0345043,1.94298,0.0015606,0.005,1.70277,0.00180242,-0.0265539,-0.40854,40.7506,0.357035,0.166407,14.9278,0.239991,2.05699,0.524928,-1.20673,0.0170406,0.475342,-1.90144,-0.104736,-0.00805664,-0.00402832,0.185478,0.0161133,23.4648,23.3087,23.1385,23.2804,23.2094,23.252,23.1101,
76,6.27324,1.38106,3.15331,4.12425,6.27428,1.97729,1.55574,0.00216078,-0.092032,-0.000172347,0.10658,0.000706526,-0.00230117,2.65149e-05,0.448416,-13.1273,-0.267963,-3.79267,1.6917,-50.0644,1.45191,0.0195072,-20,-0.509267,-0.28311,-0.0353083,-2.11765,0.0388337,-0.000126936,0.0128723,0.000126548,0.49431,0.00122332,0.0734279,0.0500857,-0.000334649,0.0346044,1.94298,0.0015606,0.005,1.70277,0.00180242,-0.0265539,-0.40854,40.7506,0.357035,0.125073,15.2363,0.251876,1.90998,0.521288,-1.32455,0.0256974,0.507632,-1.8693,-0.112793,0.0742786,0.00569691,0.189331,0.0090076,23.4648,23.2946,23.1385,23.2662,23.1952,23.2378,23.1101,
77,6.27324,1.38106,3.15331,4.12425,6.27428,1.97729,1.55574,0.00216078,-0.092032,-0.000172347,0.10658,0.000706526,-0.00230117,2.65149e-05,0.449829,-13.2452,-0.270148,-3.87982,1.697,-50.5206,1.46059,0.0198824,-20,-0.510999,-0.298124,-0.0353323,-2.16291,0.0392415,-0.000128731,0.0130695,0.000127555,0.49431,0.00122332,0.0734279,0.0500857,-0.000334649,0.0346044,1.94196,0.00156932,0.005,1.70269,0.00171357,-0.0266439,-0.412311,41.1761,0.353021,0.125073,15.2363,0.251876,1.90998,0.521288,-1.32455,0.0256974,0.507632,-1.8693,-0.112793,0.0742786,0.00569691,0.189331,0.0090076,23.4648,23.2946,23.1385,23.2662,23.1952,23.2378,23.1101,
78,6.27324,1.38098,3.15331,4.12436,6.27428,1.97728,1.55574,0.00175497,-0.0899425,-0.000172478,0.105338,0.000706545,-0.0028456,3.71209e-05,0.449817,-13.2436,-0.27012,-3.88004,1.69697,-50.5188,1.46041,0.0198677,-20,-0.511014,-0.295853,-0.0353185,-2.16323,0.0392305,-0.000128731,0.0130695,0.000127555,0.49431,0.00122332,0.0734279,0.0492863,-0.0001813,0.0337469,1.94196,0.00156932,0.005,1.70269,0.00171357,-0.0266439,-0.412311,41.1761,0.353021,0.149173,15.5651,0.253848,1.84496,0.531242,-1.50945,0.0122284,0.491521,-1.85304,-0.104736,0.153922,0.0090076,0.189502,0.00805664,23.4506,23.3087,23.1385,23.2804,23.1811,23.2378,23.1101,
79,6.27324,1.38089,3.15331,4.12446,6.27428,1.97727,1.55574,0.00175554,-0.0888621,-0.000172478,0.100558,0.000687785,-0.00360666,3.71209e-05,0.45137,-13.3503,-0.276505,-3.96023,1.68969,-50.9284,1.46637,0.0202528,-20,-0.512911,-0.30735,-0.0354095,-2.20417,0.0394665,-0.000129919,0.0132544,0.000126562,0.49431,0.00122332,0.0734279,0.0476773,-0.000196791,0.0333234,1.94099,0.001568,0.005,1.70253,0.00157437,-0.0258722,-0.414289,41.5591,0.338839,0.125336,15.8388,0.276402,1.79109,0.502846,-1.68375,0.0421299,0.491521,-1.90144,-0.105046,0.177246,0.0090076,0.181319,0.0145243,23.4506,23.2804,23.1101,23.2662,23.2094,23.2662,23.1101,
80,6.27324,1.38089,3.15331,4.12446,6.27428,1.97727,1.55574,0.00175554,-0.0888621,-0.000172478,0.100558,0.000687785,-0.00360666,3.71209e-05,0.452172,-13.434,-0.2748,-4.02004,1.70278,-51.2475,1.47324,0.0204656,-20,-0.513911,-0.317424,-0.0353637,-2.23546,0.0397717,-0.000131626,0.0134373,0.000127637,0.49431,0.00122332,0.0734279,0.0476773,-0.000196791,0.0333234,1.94,0.00157726,0.005,1.70309,0.00159665,-0.0254911,-0.41724,41.8545,0.344263,0.125336,15.8388,0.276402,1.79109,0.502846,-1.68375,0.0421299,0.491521,-1.90144,-0.105046,0.177246,0.0090076,0.181319,0.0145243,23.4506,23.2804,23.1101,23.2662,23.2094,23.2662,23.1101,
81,6.27325,1.3808,3.15331,4.12456,6.27428,1.97725,1.55574,0.00158995,-0.0874229,-0.000172478,0.0993959,0.000659127,-0.005558,3.71209e-05,0.452188,-13.4323,-0.274843,-4.02005,1.70278,-51.2458,1.47315,0.0204502,-20,-0.513919,-0.315238,-0.0353549,-2.23576,0.0397663,-0.000131626,0.0134373,0.000127637,0.49431,0.00122332,0.0734279,0.0470394,-0.000142365,0.0325729,1.94,0.00157726,0.005,1.70309,0.00159665,-0.0254911,-0.41724,41.8545,0.344263,0.15116,16.0887,0.318937,1.69554,0.469157,-1.82969,0.0557055,0.491455,-1.90958,-0.112793,0.257938,0.0145243,0.177246,0.0166092,23.4506,23.2946,23.1243,23.2662,23.1811,23.2378,23.1101,
82,6.27325,1.38072,3.15331,4.12466,6.27428,1.97724,1.55574,0.00129974,-0.084356,-0.000172345,0.0999361,0.000687785,-0.00987331,3.71209e-05,0.453248,-13.5215,-0.276337,-4.08789,1.7074,-51.5901,1.48018,0.0207181,-20,-0.515257,-0.324666,-0.0353566,-2.27023,0.040119,-0.00013326,0.0136075,0.000127789,0.49431,0.00122332,0.0734279,0.0465545,-3.64909e-05,0.0308977,1.93908,0.00157857,0.005,1.70283,0.00154884,-0.0248156,-0.420635,42.1774,0.341773,0.136046,16.3867,0.368443,1.58781,0.476792,-1.97236,0.033811,0.483398,-1.92569,-0.105046,0.250923,0.0180152,0.189331,0.0180152,23.4648,23.2804,23.1243,23.2662,23.1811,23.252,23.1101,
83,6.27325,1.38063,3.15331,4.12476,6.27428,1.97722,1.55574,0.00132463,-0.0794188,-0.000172476,0.099666,0.000670013,-0.0172862,3.70925e-05,0.454255,-13.5893,-0.280737,-4.13983,1.70171,-51.845,1.48763,0.0209589,-20,-0.516501,-0.331163,-0.0354229,-2.29571,0.0406498,-0.000135284,0.0137721,0.000126998,0.49431,0.00122332,0.0734279,0.0454476,-7.07171e-05,0.0281638,1.93816,0.001578,0.005,1.70244,0.00145304,-0.0233079,-0.425691,42.4164,0.331885,0.149879,16.6722,0.408369,1.5385,0.478971,-2.14187,0.00727379,0.491521,-1.97389,-0.105046,0.218125,0.0216932,0.217567,0.0166092,23.4648,23.3087,23.1243,23.252,23.2094,23.252,23.1101,
84,6.27325,1.38056,3.15331,4.12487,6.27428,1.9772,1.55574,0.00127653,-0.0756273,-0.000172478,0.099712,0.000656054,-0.0200257,3.71209e-05,0.454358,-13.6112,-0.27874,-4.15655,1.70929,-51.9109,1.49131,0.0209635,-20,-0.516683,-0.331641,-0.0353845,-2.3019,0.0409144,-0.000136901,0.0139348,0.000127233,0.49431,0.00122332,0.0734279,0.0446681,-6.51596e-05,0.0263747,1.93724,0.00157956,0.005,1.70261,0.00148525,-0.0208474,-0.428416,42.4772,0.33717,0.0826782,16.9143,0.416843,1.45615,0.472472,-2.27504,0.0204328,0.483466,-2.04645,-0.0966797,0.210862,0.0205405,0.265991,0.0166092,23.4364,23.2946,23.1527,23.2662,23.1952,23.252,23.1101,
85,6.27325,1.38049,3.15331,4.12496,6.27428,1.97718,1.55574,0.00085102,-0.0734665,-0.000172478,0.099666,0.00065475,-0.0191575,3.71209e-05,0.455076,-13.6795,-0.278873,-4.20875,1.71546,-52.1627,1.49706,0.0211432,-20,-0.517647,-0.33865,-0.0353664,-2.32683,0.0412146,-0.000138479,0.0140941,0.000127395,0.49431,0.00122332,0.0734279,0.0441998,0.00010063,0.0256167,1.93631,0.00158125,0.005,1.70248,0.00148177,-0.0192373,-0.431424,42.713,0.337759,0.124597,17.0893,0.438678,1.40705,0.450356,-2.39462,0.0141234,0.47541,-2.09479,-0.0970148,0.193359,0.0332184,0.294095,0.0127387,23.4506,23.3087,23.1385,23.2662,23.1669,23.2378,23.0959,
86,6.27325,1.38049,3.15331,4.12496,6.27428,1.97718,1.55574,0.00085102,-0.0734665,-0.000172478,0.099666,0.00065475,-0.0191575,3.71209e-05,0.456635,-13.7835,-0.286713,-4.28665,1.70346,-52.5589,1.50525,0.0215571,-20,-0.519599,-0.35218,-0.0354914,-2.36604,0.0417134,-0.000140403,0.0142461,0.000125569,0.49431,0.00122332,0.0734279,0.0441998,0.00010063,0.0256167,1.93544,0.00157273,0.005,1.70212,0.00132489,-0.018555,-0.435931,43.0829,0.319724,0.124597,17.0893,0.438678,1.40705,0.450356,-2.39462,0.0141234,0.47541,-2.09479,-0.0970148,0.193359,0.0332184,0.294095,0.0127387,23.4506,23.3087,23.1385,23.2662,23.1669,23.2378,23.0959,
87,6.27325,1.38041,3.15331,4.12506,6.27428,1.97716,1.55574,0.00085102,-0.0734665,-0.000167044,0.0993959,0.000654733,-0.0183853,3.70929e-05,0.456638,-13.782,-0.286781,-4.28723,1.70347,-52.5569,1.50516,0.0215365,-20,-0.51961,-0.350447,-0.0354866,-2.36623,0.0417097,-0.000140403,0.0142461,0.000125569,0.49431,0.00122332,0.0734279,0.0441199,9.97044e-05,0.0257107,1.93544,0.00157273,0.005,1.70212,0.00132489,-0.018555,-0.435931,43.0829,0.319724,0.0963395,17.3538,0.463076,1.2862,0.445461,-2.47267,0.032678,0.483667,-2.11891,-0.0970148,0.185303,0.0293266,0.269928,0.0166092,23.4648,23.2946,23.1385,23.2662,23.1952,23.2378,23.0959,
88,6.27325,1.38034,3.15331,4.12516,6.27428,1.97714,1.55574,0.000789865,-0.0737259,-0.000167044,0.0985856,0.000628137,-0.0164593,3.71209e-05,0.457989,-13.8981,-0.287456,-4.37712,1.71401,-53.0097,1.5128,0.0218738,-20,-0.521236,-0.36427,-0.0354559,-2.41182,0.0419633,-0.000141375,0.0143985,0.000125876,0.49431,0.00122332,0.0734279,0.0439367,0.000123316,0.0260388,1.93457,0.00157773,0.005,1.7014,0.00133022,-0.0186397,-0.43831,43.5097,0.320328,0.11492,17.6249,0.472574,1.22214,0.435127,-2.56707,0.0415138,0.483398,-2.07868,-0.0966797,0.210091,0.036478,0.261872,0.0205405,23.4648,23.2946,23.1385,23.2662,23.1811,23.2378,23.1101,
89,6.27325,1.38026,3.15331,4.12526,6.27428,1.97712,1.55574,0.000711124,-0.0725826,-0.000167171,0.0947905,0.000628137,-0.0180553,4.77269e-05,0.459551,-14.0261,-0.289468,-4.47494,1.7219,-53.5114,1.52211,0.0222674,-20,-0.52311,-0.379181,-0.035448,-2.46233,0.0423564,-0.000142925,0.0145579,0.000125534,0.49431,0.00122332,0.0734279,0.0426014,0.00014194,0.0254821,1.93368,0.00157523,0.005,1.70077,0.00130672,-0.018935,-0.442041,43.9812,0.317722,0.0873895,17.8282,0.477282,1.17806,0.420103,-2.66409,0.05138,0.483398,-2.04645,-0.0970148,0.177429,0.0402832,0.233781,0.0166092,23.4648,23.2804,23.1527,23.2662,23.1952,23.252,23.1101,
90,6.27325,1.38019,3.15331,4.12535,6.27428,1.9771,1.55574,0.00062213,-0.0713057,-0.000167169,0.0918331,0.000612315,-0.022148,4.77269e-05,0.460343,-14.0867,-0.291521,-4.51913,1.72249,-53.7455,1.52542,0.0224581,-20,-0.524088,-0.384629,-0.0354637,-2.48566,0.0424496,-0.000143789,0.0147111,0.000124218,0.49431,0.00122332,0.0734279,0.0414828,0.000160565,0.024594,1.9328,0.00157089,0.005,1.70118,0.00128605,-0.0184339,-0.442855,44.199,0.31383,0.135183,18.0703,0.523528,1.10641,0.397373,-2.72378,0.0476147,0.47541,-2.03833,-0.0966797,0.249756,0.0444942,0.241733,0.0180152,23.4506,23.2946,23.1385,23.252,23.1952,23.252,23.1243,
91,6.27325,1.38012,3.15331,4.12544,6.27428,1.97708,1.55574,0.000533254,-0.0718459,-0.000164517,0.0926434,0.000583967,-0.0240387,4.77269e-05,0.46073,-14.1223,-0.291646,-4.54597,1.7256,-53.8797,1.52945,0.0225438,-20,-0.524605,-0.387405,-0.0354603,-2.49899,0.0427161,-0.000145207,0.0148501,0.000124037,0.49431,0.00122332,0.0734279,0.041831,0.000192175,0.0246033,1.93198,0.00156918,0.005,1.70145,0.00126776,-0.0176346,-0.445489,44.3245,0.31396,0.166742,18.3312,0.536166,0.98779,0.400661,-2.78893,0.0351009,0.467355,-2.03835,-0.104736,0.306258,0.041081,0.265869,0.0245033,23.479,23.2946,23.1385,23.2662,23.1811,23.252,23.1243,
92,6.27325,1.38012,3.15331,4.12544,6.27428,1.97708,1.55574,0.000533254,-0.0718459,-0.000164517,0.0926434,0.000583967,-0.0240387,4.77269e-05,0.461885,-14.2203,-0.292926,-4.62201,1.73201,-54.259,1.53687,0.0228504,-20,-0.526007,-0.40081,-0.0354575,-2.537,0.0430507,-0.000146374,0.0149885,0.000123924,0.49431,0.00122332,0.0734279,0.041831,0.000192175,0.0246033,1.93115,0.00156898,0.005,1.70039,0.00123912,-0.017643,-0.448604,44.6818,0.312352,0.166742,18.3312,0.536166,0.98779,0.400661,-2.78893,0.0351009,0.467355,-2.03835,-0.104736,0.306258,0.041081,0.265869,0.0245033,23.479,23.2946,23.1385,23.2662,23.1811,23.252,23.1243,
93,6.27325,1.38005,3.15331,4.12553,6.27428,1.97705,1.55574,0.000614339,-0.0697136,-0.000164393,0.0895815,0.000583967,-0.0259031,4.76903e-05,0.461926,-14.219,-0.293037,-4.62186,1.732,-54.2579,1.53678,0.0228354,-20,-0.526008,-0.398765,-0.0354539,-2.53728,0.0430438,-0.000146374,0.0149885,0.000123924,0.49431,0.00122332,0.0734279,0.0405012,0.0001462,0.023612,1.93115,0.00156898,0.005,1.70039,0.00123912,-0.017643,-0.448604,44.6818,0.312352,0.164579,18.5754,0.54352,0.974463,0.407792,-2.86801,0.0211364,0.467285,-1.98999,-0.105046,0.257938,0.0444942,0.277983,0.0166092,23.4648,23.3087,23.1385,23.2662,23.1952,23.2662,23.1243,
94,6.27325,1.38005,3.15331,4.12553,6.27428,1.97705,1.55574,0.000614339,-0.0697136,-0.000164393,0.0895815,0.000583967,-0.0259031,4.76903e-05,0.462362,-14.2655,-0.292288,-4.65459,1.73882,-54.4286,1.54209,0.0229509,-20,-0.52658,-0.404216,-0.0354277,-2.55377,0.0433616,-0.000148022,0.0151251,0.000123335,0.49431,0.00122332,0.0734279,0.0405012,0.0001462,0.023612,1.93033,0.0015663,0.005,1.70085,0.00127809,-0.0167508,-0.451727,44.8389,0.315085,0.164579,18.5754,0.54352,0.974463,0.407792,-2.86801,0.0211364,0.467285,-1.98999,-0.105046,0.257938,0.0444942,0.277983,0.0166092,23.4648,23.3087,23.1385,23.2662,23.1952,23.2662,23.1243,
95,6.27325,1.37999,3.15331,4.12562,6.27428,1.97702,1.55574,0.00052848,-0.0653636,-0.000164393,0.0872415,0.000569632,-0.027444,4.77269e-05,0.462392,-14.2645,-0.292352,-4.65434,1.7388,-54.4279,1.542,0.022937,-20,-0.526583,-0.402159,-0.0354222,-2.55403,0.0433557,-0.000148022,0.0151251,0.000123335,0.49431,0.00122332,0.0734279,0.0389157,0.000162695,0.0217607,1.93033,0.0015663,0.005,1.70085,0.00127809,-0.0167508,-0.451727,44.8389,0.315085,0.136368,18.7825,0.541289,0.949871,0.402817,-2.93137,0.02879,0.451172,-2.03029,-0.0809682,0.314312,0.0569691,0.273926,0.0161133,23.4648,23.2946,23.1243,23.2662,23.1811,23.252,23.1243,
96,6.27325,1.37993,3.15331,4.12571,6.27428,1.97699,1.55574,0.000377486,-0.0593612,-0.00015921,0.0872674,0.000569632,-0.0296616,4.77269e-05,0.462654,-14.2876,-0.293254,-4.66967,1.73822,-54.5048,1.54427,0.0229869,-20,-0.526982,-0.40246,-0.0354377,-2.56126,0.0435168,-0.000149352,0.0152421,0.000122845,0.49431,0.00122332,0.0734279,0.0376691,0.00020541,0.0191437,1.92957,0.00156115,0.005,1.70159,0.00125861,-0.0150846,-0.453333,44.908,0.313077,0.146125,18.9301,0.567113,0.927471,0.39975,-2.99161,0.0297307,0.467355,-2.08673,-0.0809682,0.338475,0.0605589,0.286039,0.0205405,23.4648,23.2946,23.1385,23.2662,23.1952,23.2378,23.1243,
97,6.27325,1.37987,3.15331,4.12579,6.27428,1.97696,1.55574,0.000381542,-0.0545597,-0.00015921,0.0875116,0.000581857,-0.0318715,4.77264e-05,0.463101,-14.3197,-0.295531,-4.69263,1.73464,-54.6101,1.54539,0.0230856,-20,-0.527598,-0.404405,-0.035478,-2.57117,0.0435465,-0.000150152,0.0153688,0.000122248,0.49431,0.00122332,0.0734279,0.0367374,0.000192028,0.017001,1.92878,0.00155868,0.005,1.702,0.00121794,-0.0127293,-0.453588,45.0041,0.307943,0.126184,19.0984,0.580469,0.852945,0.400703,-3.02524,0.0395099,0.475342,-2.19946,-0.0725098,0.306576,0.0563965,0.290067,0.0201416,23.4506,23.2804,23.1101,23.2662,23.1811,23.252,23.1101,
98,6.27325,1.37987,3.15331,4.12579,6.27428,1.97696,1.55574,0.000381542,-0.0545597,-0.00015921,0.0875116,0.000581857,-0.0318715,4.77264e-05,0.463433,-14.35,-0.296533,-4.71432,1.73462,-54.709,1.54978,0.0231737,-20,-0.528081,-0.408058,-0.035491,-2.58034,0.0438777,-0.000151793,0.0154774,0.00012128,0.49431,0.00122332,0.0734279,0.0367374,0.000192028,0.017001,1.92806,0.00155606,0.005,1.70219,0.00122763,-0.0108009,-0.456812,45.0944,0.306014,0.126184,19.0984,0.580469,0.852945,0.400703,-3.02524,0.0395099,0.475342,-2.19946,-0.0725098,0.306576,0.0563965,0.290067,0.0201416,23.4506,23.2804,23.1101,23.2662,23.1811,23.252,23.1101,
99,6.27325,1.37982,3.15331,4.12588,6.27428,1.97693,1.55574,0.000334358,-0.0511568,-0.000153785,0.088592,0.000568256,-0.0318715,5.83329e-05,0.463432,-14.3489,-0.296573,-4.71454,1.73462,-54.7076,1.54965,0.0231551,-20,-0.52809,-0.406373,-0.0354875,-2.58051,0.0438724,-0.000151793,0.0154774,0.00012128,0.49431,0.00122332,0.0734279,0.0363376,0.000203128,0.015636,1.92806,0.00155606,0.005,1.70219,0.00122763,-0.0108009,-0.456812,45.0944,0.306014,0.158257,19.1949,0.590422,0.810821,0.375434,-3.07328,0.0341592,0.459511,-2.24786,-0.072956,0.298205,0.0605589,0.294178,0.0324774,23.4506,23.2946,23.1385,23.2662,23.1811,23.252,23.0959,
100,6.27325,1.37977,3.15331,4.12597,6.27428,1.97689,1.55574,0.000331157,-0.0491577,-0.000151135,0.0869714,0.000568269,-0.0350993,5.82453e-05,0.464227,-14.4137,-0.298134,-4.76414,1.73689,-54.9505,1.55028,0.023349,-20,-0.529089,-0.413304,-0.0354959,-2.60464,0.0436803,-0.000151575,0.0155875,0.000120846,0.49431,0.00122332,0.0734279,0.035455,0.00019108,0.0145284,1.92733,0.00155421,0.005,1.70189,0.00121598,-0.00957243,-0.454824,45.3221,0.303462,0.149861,19.2744,0.604168,0.729511,0.38146,-3.09792,0.0383915,0.459229,-2.27199,-0.072956,0.249886,0.0684814,0.294095,0.0281982,23.4648,23.2946,23.1243,23.2662,23.1952,23.252,23.1101,
101,6.27325,1.37972,3.15331,4.12606,6.27428,1.97685,1.55574,0.000264958,-0.0494278,-0.000148596,0.0859327,0.000555288,-0.0367333,5.82453e-05,0.464364,-14.4267,-0.298349,-4.77437,1.73764,-54.9952,1.55398,0.0233708,-20,-0.529307,-0.413414,-0.0354943,-2.60902,0.0440078,-0.000153163,0.0156791,0.000120054,0.49431,0.00122332,0.0734279,0.0352134,0.000211309,0.0144839,1.92663,0.00155219,0.005,1.70206,0.001225,-0.00857555,-0.458107,45.364,0.303243,0.149124,19.2737,0.605453,0.660046,0.369756,-3.10196,0.0306817,0.467285,-2.28009,-0.072956,0.274399,0.0649547,0.318237,0.0166092,23.4648,23.2946,23.1243,23.2662,23.1952,23.2378,23.1101,
102,6.27325,1.37967,3.15331,4.12615,6.27429,1.97682,1.55574,0.000198719,-0.0491577,-0.000148596,0.0877817,0.000554312,-0.0356529,5.82447e-05,0.465064,-14.4829,-0.299479,-4.81879,1.74038,-55.2153,1.55848,0.0235432,-20,-0.530168,-0.419717,-0.0354958,-2.63127,0.0442345,-0.000154118,0.015783,0.000119595,0.49431,0.00122332,0.0734279,0.03569,0.00024255,0.014468,1.92589,0.00154906,0.005,1.70161,0.00120398,-0.00853548,-0.460324,45.5723,0.301479,0.133103,19.2807,0.615953,0.579623,0.371561,-3.0945,0.0185725,0.459299,-2.23169,-0.0649547,0.282097,0.0725098,0.314235,0.0284845,23.4506,23.2946,23.1101,23.252,23.1811,23.2378,23.0959,
103,6.27325,1.37962,3.15331,4.12623,6.27429,1.97678,1.55574,0.000133743,-0.0486491,-0.000143181,0.0875116,0.000554299,-0.0394342,5.82894e-05,0.466332,-14.5773,-0.303083,-4.89323,1.74041,-55.5849,1.56705,0.0238648,-20,-0.531712,-0.431235,-0.0355224,-2.66863,0.0447238,-0.000155713,0.0158829,0.000118147,0.49431,0.00122332,0.0734279,0.0355102,0.000259328,0.0138743,1.92519,0.00154253,0.005,1.70055,0.00116998,-0.00852121,-0.464947,45.9221,0.294485,0.167762,19.2967,0.62534,0.534788,0.379493,-3.06952,0.0222444,0.459299,-2.19147,-0.0725098,0.209473,0.076644,0.302231,0.0284845,23.4506,23.2946,23.1385,23.2662,23.2094,23.2662,23.1243,
104,6.27325,1.37957,3.15331,4.12632,6.27429,1.97674,1.55574,0.000198719,-0.0475372,-0.000137878,0.0856209,0.000530596,-0.040123,6.61872e-05,0.466766,-14.6132,-0.303833,-4.92221,1.74202,-55.7218,1.57142,0.0239616,-20,-0.532261,-0.434807,-0.0355266,-2.6825,0.045027,-0.000156919,0.0159817,0.000117739,0.49431,0.00122332,0.0734279,0.0347325,0.000222384,0.013392,1.92448,0.00153807,0.005,1.70007,0.00115087,-0.00798688,-0.467883,46.052,0.29325,0.169291,19.3414,0.626263,0.509382,0.387139,-3.04113,0.0112092,0.443408,-2.16725,-0.072956,0.20206,0.072956,0.322291,0.0281982,23.479,23.2804,23.1385,23.2662,23.1952,23.2662,23.1243,
105,6.27325,1.37953,3.15331,4.1264,6.27429,1.97669,1.55574,0.000176993,-0.0461399,-0.000137876,0.0830044,0.000518257,-0.0426322,7.41297e-05,0.46709,-14.6488,-0.30239,-4.94906,1.74994,-55.8585,1.57081,0.0240308,-20,-0.532653,-0.43773,-0.0354869,-2.69619,0.0447893,-0.000156604,0.0160702,0.000118042,0.49431,0.00122332,0.0734279,0.0336874,0.000217615,0.0126141,1.92379,0.00154125,0.005,1.70015,0.00118698,-0.00755282,-0.465602,46.18,0.297662,0.191125,19.3301,0.616778,0.511926,0.396367,-3.01312,0.0371684,0.443115,-2.15924,-0.0490066,0.217529,0.0725098,0.326393,0.036478,23.479,23.2946,23.1385,23.2804,23.2094,23.2378,23.1101,
106,6.27325,1.37948,3.15331,4.12649,6.27429,1.97665,1.55574,0.000176993,-0.0456465,-0.000132476,0.0836454,0.000541981,-0.0432156,7.41297e-05,0.467255,-14.6642,-0.302776,-4.96038,1.7504,-55.9146,1.57359,0.0240605,-20,-0.532913,-0.438122,-0.0354903,-2.70167,0.0450196,-0.000157974,0.0161619,0.000117167,0.49431,0.00122332,0.0734279,0.0337706,0.000217799,0.0123508,1.92309,0.00153603,0.005,1.70046,0.00118657,-0.00685268,-0.467935,46.232,0.297015,0.194337,19.3639,0.611316,0.494779,0.400245,-2.98826,0.0552638,0.459299,-2.15924,-0.0649547,0.265869,0.0849775,0.346436,0.0245033,23.4648,23.2946,23.1527,23.252,23.1811,23.2662,23.1101,
107,6.27325,1.37944,3.15331,4.12657,6.27429,1.97661,1.55574,0.000159566,-0.0456465,-0.000132575,0.0826498,0.000529898,-0.0453764,7.40744e-05,0.468035,-14.7227,-0.304874,-5.00684,1.75098,-56.1425,1.5789,0.0242529,-20,-0.533866,-0.44486,-0.0355004,-2.72472,0.0453183,-0.00015898,0.0162467,0.000115975,0.49431,0.00122332,0.0734279,0.0334858,0.000218151,0.0121414,1.92242,0.00153304,0.005,1.69979,0.00118372,-0.00661572,-0.470774,46.4479,0.293208,0.212558,19.3688,0.578266,0.550483,0.406644,-2.9538,0.0532031,0.435059,-2.14307,-0.072956,0.233781,0.0805664,0.338403,0.0254773,23.4648,23.2946,23.1243,23.2804,23.1952,23.2662,23.1101,
108,6.27325,1.37939,3.15331,4.12665,6.27429,1.97656,1.55574,0.000105587,-0.0466429,-0.000132374,0.0810292,0.000541942,-0.0456399,7.41297e-05,0.468429,-14.7568,-0.304976,-5.03399,1.75428,-56.2755,1.58292,0.0243433,-20,-0.53435,-0.448202,-0.0354904,-2.73819,0.0455828,-0.000160085,0.0163284,0.000115708,0.49431,0.00122332,0.0734279,0.0332264,0.000239104,0.012539,1.92176,0.00152924,0.005,1.69945,0.00117998,-0.00642722,-0.473422,46.574,0.293608,0.234199,19.3963,0.567042,0.617589,0.399162,-2.92487,0.0420332,0.435133,-2.11891,-0.0490066,0.233643,0.0846906,0.354492,0.0284845,23.4648,23.2946,23.1527,23.2804,23.1952,23.252,23.1243,
109,6.27325,1.37934,3.15331,4.12673,6.27429,1.97651,1.55574,0.000105576,-0.046997,-0.000132575,0.0782398,0.000530111,-0.0464568,7.41304e-05,0.469147,-14.8076,-0.307218,-5.07362,1.7536,-56.4786,1.58927,0.0245177,-20,-0.535206,-0.45364,-0.0355084,-2.75883,0.0460246,-0.000161641,0.0164094,0.000114536,0.49431,0.00122332,0.0734279,0.0324956,0.000231742,0.0126394,1.92109,0.00152335,0.005,1.69908,0.00115583,-0.00678506,-0.477677,46.7659,0.289165,0.2418,19.3776,0.579922,0.718965,0.398232,-2.90927,0.0273807,0.435133,-2.07062,-0.041081,0.265991,0.088623,0.358543,0.0293266,23.4648,23.2946,23.1527,23.2804,23.1811,23.252,23.1101,
110,6.27325,1.3793,3.15331,4.12681,6.27429,1.97647,1.55574,0.000106388,-0.0453304,-0.000121877,0.0758974,0.000530123,-0.0464568,7.41297e-05,0.469524,-14.8424,-0.307116,-5.09968,1.75759,-56.6158,1.59314,0.0246011,-20,-0.535676,-0.456642,-0.0354946,-2.77266,0.0462661,-0.000162772,0.0164931,0.000114265,0.49431,0.00122332,0.0734279,0.0314706,0.000220142,0.0120143,1.92042,0.00151946,0.005,1.69913,0.00115895,-0.00687545,-0.480071,46.8945,0.290085,0.258107,19.4044,0.595264,0.801678,0.404448,-2.89891,-0.00236447,0.435059,-2.03034,-0.0490066,0.306258,0.088623,0.354492,0.0245033,23.479,23.3087,23.1385,23.2946,23.2378,23.252,23.1101,
111,6.27325,1.37926,3.15331,4.12688,6.27429,1.97642,1.55574,9.6851e-05,-0.0424053,-0.000121784,0.0764376,0.000518809,-0.0480774,8.47196e-05,0.469803,-14.8651,-0.307587,-5.11588,1.75878,-56.7013,1.59525,0.0246598,-20,-0.536033,-0.45785,-0.0354922,-2.78104,0.0463861,-0.000163709,0.0165669,0.000113738,0.49431,0.00122332,0.0734279,0.0310176,0.000215328,0.0106735,1.9198,0.00152114,0.005,1.69949,0.0011709,-0.00631284,-0.481245,46.9734,0.289552,0.244702,19.3819,0.567833,0.922114,0.40993,-2.89662,0.0102732,0.459299,-2.06252,-0.0490066,0.330322,0.0967636,0.350487,0.0254773,23.4506,23.3087,23.1385,23.2804,23.2094,23.2662,23.1101,
112,6.27325,1.37922,3.15331,4.12696,6.27429,1.97637,1.55574,9.61777e-05,-0.0388691,-0.000116489,0.0777881,0.000495751,-0.0483528,8.47196e-05,0.470033,-14.8861,-0.307711,-5.13248,1.7605,-56.7735,1.59509,0.0247049,-20,-0.536343,-0.459289,-0.0354892,-2.78809,0.0462931,-0.000163803,0.0166365,0.000113587,0.49431,0.00122332,0.0734279,0.0306695,0.000206907,0.0092196,1.91919,0.00151781,0.005,1.69935,0.00117223,-0.00510611,-0.480323,47.0412,0.289711,0.269098,19.3535,0.567414,1.00849,0.394604,-2.88096,0.021443,0.443188,-2.07863,-0.0563965,0.306258,0.101431,0.358521,0.0324774,23.4648,23.3087,23.1527,23.2804,23.2094,23.252,23.1243,
113,6.27325,1.37918,3.15331,4.12704,6.27429,1.97632,1.55574,9.61777e-05,-0.035923,-0.000116491,0.077164,0.000518809,-0.0480774,8.47205e-05,0.470384,-14.9178,-0.30798,-5.15746,1.76293,-56.8862,1.59789,0.0247835,-20,-0.536807,-0.462196,-0.0354852,-2.79919,0.0464537,-0.000164835,0.0167031,0.000113475,0.49431,0.00122332,0.0734279,0.0298735,0.000202228,0.008088,1.91857,0.00151456,0.005,1.69911,0.00117689,-0.00379764,-0.481949,47.1472,0.289713,0.245797,19.2546,0.573349,1.03738,0.378209,-2.86895,0.0322634,0.435357,-2.15114,-0.0490066,0.258316,0.0966797,0.362638,0.041081,23.479,23.3087,23.1527,23.2804,23.1811,23.2662,23.1243,
114,6.27325,1.37915,3.15331,4.12712,6.27429,1.97627,1.55574,8.83157e-05,-0.0348426,-0.000111279,0.0764376,0.000507968,-0.0483474,8.47196e-05,0.470756,-14.9447,-0.309803,-5.17742,1.76066,-56.9829,1.60194,0.0248691,-20,-0.537317,-0.46427,-0.0355061,-2.80862,0.0467737,-0.000166265,0.016773,0.000112264,0.49431,0.00122332,0.0734279,0.0294386,0.000198703,0.00764304,1.91794,0.00150915,0.005,1.69926,0.00117623,-0.0027792,-0.485049,47.237,0.285891,0.266702,19.13,0.587068,1.10208,0.374406,-2.89823,0.0424471,0.418945,-2.18335,-0.0433863,0.265869,0.112865,0.342407,0.0284845,23.4648,23.3087,23.1243,23.2662,23.1952,23.2662,23.1101,
115,6.27325,1.37915,3.15331,4.12712,6.27429,1.97627,1.55574,8.83157e-05,-0.0348426,-0.000111279,0.0764376,0.000507968,-0.0483474,8.47196e-05,0.471083,-14.9748,-0.309929,-5.20014,1.76331,-57.0956,1.60436,0.0249557,-20,-0.537731,-0.468198,-0.0355013,-2.81971,0.0468888,-0.000166954,0.016835,0.00011216,0.49431,0.00122332,0.0734279,0.0294386,0.000198703,0.00764304,1.91736,0.00150762,0.005,1.69913,0.00117803,-0.00237873,-0.486144,47.3423,0.286073,0.266702,19.13,0.587068,1.10208,0.374406,-2.89823,0.0424471,0.418945,-2.18335,-0.0433863,0.265869,0.112865,0.342407,0.0284845,23.4648,23.3087,23.1243,23.2662,23.1952,23.2662,23.1101,
116,6.27325,1.37911,3.15331,4.12719,6.27429,1.97627,1.55574,8.83157e-05,-0.0345725,-0.000111195,0.0767077,0.000485381,-0.0483474,8.47845e-05,0.471096,-14.9736,-0.309977,-5.20086,1.76332,-57.0936,1.60424,0.0249479,-20,-0.537741,-0.467083,-0.035499,-2.81986,0.0468791,-0.000166954,0.016835,0.00011216,0.49431,0.00122332,0.0734279,0.0294605,0.000196497,0.00753493,1.91736,0.00150762,0.005,1.69913,0.00117803,-0.00237873,-0.486144,47.3423,0.286073,0.291331,18.9631,0.580957,1.12488,0.385741,-2.89823,0.0370909,0.435133,-2.18335,-0.041081,0.265869,0.109063,0.342407,0.0402832,23.4648,23.3087,23.1385,23.2662,23.1952,23.2662,23.1243,
117,6.27325,1.37908,3.15331,4.12727,6.27429,1.97622,1.55575,8.11692e-05,-0.034606,-0.000111195,0.0796788,0.000462805,-0.0480774,9.53096e-05,0.472102,-15.0541,-0.311937,-5.26337,1.76649,-57.4074,1.61051,0.0252038,-20,-0.538987,-0.476701,-0.0355021,-2.85135,0.0471776,-0.000168096,0.0169446,0.000110799,0.49431,0.00122332,0.0734279,0.0303266,0.000203788,0.00753726,1.91679,0.00150207,0.005,1.69859,0.00117501,-0.00228144,-0.488942,47.6381,0.282931,0.326266,18.8497,0.593815,1.12441,0.391554,-2.92244,0.0232434,0.435133,-2.16761,-0.041081,0.274044,0.112793,0.338379,0.0371393,23.4506,23.2804,23.1243,23.2804,23.1811,23.252,23.1243,
118,6.27325,1.37908,3.15331,4.12727,6.27429,1.97622,1.55575,8.11692e-05,-0.034606,-0.000111195,0.0796788,0.000462805,-0.0480774,9.53096e-05,0.473013,-15.1306,-0.313008,-5.32461,1.77151,-57.7039,1.61423,0.0254456,-20,-0.540088,-0.487627,-0.0354956,-2.88126,0.0472236,-0.000168164,0.0170124,0.000110611,0.49431,0.00122332,0.0734279,0.0303266,0.000203788,0.00753726,1.91618,0.00149881,0.005,1.69726,0.00116552,-0.00228353,-0.489241,47.9193,0.28169,0.326266,18.8497,0.593815,1.12441,0.391554,-2.92244,0.0232434,0.435133,-2.16761,-0.041081,0.274044,0.112793,0.338379,0.0371393,23.4506,23.2804,23.1243,23.2804,23.1811,23.252,23.1243,
119,6.27326,1.37904,3.15331,4.12735,6.27429,1.97617,1.55575,8.16357e-05,-0.0358866,-0.000111195,0.0799951,0.000462805,-0.0501065,9.53096e-05,0.473017,-15.1293,-0.313057,-5.32463,1.7714,-57.7025,1.61404,0.0254354,-20,-0.5401,-0.486289,-0.0354932,-2.88135,0.0472185,-0.000168164,0.0170124,0.000110611,0.49431,0.00122332,0.0734279,0.030689,0.000203717,0.00783196,1.91618,0.00149881,0.005,1.69726,0.00116552,-0.00228353,-0.489241,47.9193,0.28169,0.324994,18.6637,0.560815,1.14643,0.393005,-2.9232,0.0179682,0.435059,-2.15918,-0.0483398,0.185478,0.112793,0.326319,0.0254773,23.4648,23.2946,23.1527,23.2804,23.2094,23.252,23.1101,
120,6.27326,1.379,3.15331,4.12743,6.27429,1.97612,1.55575,7.5906e-05,-0.0367333,-0.000105981,0.0788685,0.000453332,-0.0491577,9.53096e-05,0.473574,-15.1733,-0.313812,-5.36118,1.77422,-57.8782,1.62037,0.0255707,-20,-0.540762,-0.49158,-0.0354853,-2.89938,0.0476688,-0.000169615,0.0170795,0.000109984,0.49431,0.00122332,0.0734279,0.0305396,0.000204571,0.00828993,1.91554,0.0014977,0.005,1.69636,0.00116458,-0.00254876,-0.49364,48.0875,0.280808,0.351547,18.5193,0.5444,1.16121,0.394989,-2.93941,0.0150938,0.427078,-2.11086,-0.0332184,0.193527,0.112793,0.342431,0.0284845,23.4648,23.3087,23.1243,23.2804,23.1811,23.2662,23.1101,
121,6.27326,1.379,3.15331,4.12743,6.27429,1.97612,1.55575,7.5906e-05,-0.0367333,-0.000105981,0.0788685,0.000453332,-0.0491577,9.53096e-05,0.474198,-15.2264,-0.314344,-5.40191,1.77833,-58.0875,1.62517,0.0257364,-20,-0.54151,-0.498683,-0.0354772,-2.92041,0.0479193,-0.000170603,0.017145,0.000109816,0.49431,0.00122332,0.0734279,0.0305396,0.000204571,0.00828993,1.91493,0.00149452,0.005,1.69595,0.00116096,-0.00296094,-0.496022,48.2845,0.280436,0.351547,18.5193,0.5444,1.16121,0.394989,-2.93941,0.0150938,0.427078,-2.11086,-0.0332184,0.193527,0.112793,0.342431,0.0284845,23.4648,23.3087,23.1243,23.2804,23.1811,23.2662,23.1101,
122,6.27326,1.37897,3.15331,4.12751,6.27429,1.97607,1.55575,7.5906e-05,-0.0361931,-0.000105981,0.0760903,0.000474697,-0.0502381,9.53096e-05,0.474211,-15.2256,-0.3144,-5.40183,1.77824,-58.0867,1.62499,0.0257263,-20,-0.541517,-0.497346,-0.0354754,-2.92054,0.0479122,-0.000170603,0.017145,0.000109816,0.49431,0.00122332,0.0734279,0.0296256,0.00019813,0.008004,1.91493,0.00149452,0.005,1.69595,0.00116096,-0.00296094,-0.496022,48.2845,0.280436,0.354216,18.356,0.539384,1.15228,0.382543,-2.92045,0.0182484,0.427078,-2.07056,-0.0490066,0.209473,0.117099,0.322366,0.0404841,23.4648,23.2946,23.1243,23.2804,23.2236,23.252,23.1101,
123,6.27326,1.37893,3.15331,4.12758,6.27429,1.97602,1.55575,7.0566e-05,-0.0366122,-0.0001059,0.0756273,0.000465181,-0.0501537,9.53096e-05,0.474375,-15.235,-0.315412,-5.40842,1.77657,-58.1233,1.62845,0.025757,-20,-0.541735,-0.497103,-0.0354857,-2.92414,0.0482359,-0.000171983,0.0172064,0.000108714,0.49431,0.00122332,0.0734279,0.0295798,0.000199382,0.0081903,1.91435,0.00148944,0.005,1.69625,0.00116218,-0.0027036,-0.499206,48.3182,0.278307,0.424172,18.2654,0.526688,1.18428,0.376859,-2.89802,0.0182484,0.427306,-2.08669,-0.0402832,0.257812,0.120917,0.326294,0.0404841,23.479,23.2946,23.1243,23.2946,23.2094,23.252,23.1101,
124,6.27326,1.37889,3.15331,4.12766,6.27429,1.97597,1.55575,0.000105849,-0.0353828,-0.0001059,0.0769859,0.000465181,-0.0529391,9.53096e-05,0.474896,-15.2782,-0.315748,-5.44305,1.78033,-58.2959,1.63288,0.0258827,-20,-0.542361,-0.501809,-0.0354746,-2.94173,0.0484995,-0.000172976,0.0172667,0.000108654,0.49431,0.00122332,0.0734279,0.02972,0.000181187,0.00738931,1.91375,0.00148643,0.005,1.69576,0.00115834,-0.00287127,-0.50179,48.4823,0.278369,0.438959,18.151,0.499495,1.21279,0.385389,-2.86078,0.0249075,0.435133,-2.07863,-0.0490066,0.249756,0.128969,0.318263,0.0284845,23.4648,23.3087,23.1527,23.2804,23.2094,23.252,23.1243,
125,6.27326,1.37886,3.15331,4.12774,6.27429,1.97591,1.55575,9.93593e-05,-0.0351127,-0.00010598,0.0777881,0.00047726,-0.0550441,9.53096e-05,0.475196,-15.3043,-0.315938,-5.46543,1.78266,-58.3935,1.63772,0.0259507,-20,-0.542747,-0.504579,-0.0354647,-2.95164,0.0488813,-0.000174396,0.017331,0.000108049,0.49431,0.00122332,0.0734279,0.0298989,0.000182772,0.00705067,1.91313,0.00148544,0.005,1.69507,0.00117383,-0.00215038,-0.50561,48.5762,0.278569,0.495996,18.0681,0.490294,1.21225,0.382134,-2.80459,0.0255862,0.435357,-2.1028,-0.0360304,0.22573,0.12085,0.338403,0.036478,23.4506,23.3087,23.1243,23.2946,23.1952,23.2662,23.1101,
126,6.27326,1.37883,3.15331,4.12781,6.27429,1.97585,1.55575,9.93593e-05,-0.0340323,-0.00010598,0.074817,0.000467376,-0.0557231,9.54538e-05,0.475607,-15.3332,-0.31733,-5.48953,1.78199,-58.505,1.64287,0.0260459,-20,-0.543246,-0.507635,-0.0354739,-2.96303,0.0492931,-0.000175776,0.017388,0.000106998,0.49431,0.00122332,0.0734279,0.0288157,0.000172404,0.00659406,1.91254,0.00148049,0.005,1.69438,0.00116794,-0.0018456,-0.509613,48.6829,0.275863,0.466938,17.9265,0.495486,1.18612,0.381202,-2.74517,0.0379448,0.427078,-2.08673,-0.0483398,0.193527,0.128906,0.334375,0.0322266,23.4506,23.3087,23.1385,23.2662,23.1811,23.252,23.1101,
127,6.27326,1.37879,3.15331,4.12789,6.2743,1.9758,1.55575,9.3199e-05,-0.0340724,-0.00010598,0.0726562,0.000457677,-0.0567205,0.000103174,0.475542,-15.3309,-0.316634,-5.48659,1.78363,-58.4942,1.64406,0.0260156,-20,-0.543181,-0.505717,-0.035464,-2.96181,0.0494274,-0.00017671,0.0174363,0.000107033,0.49431,0.00122332,0.0734279,0.0282013,0.000167996,0.00653869,1.91197,0.00147792,0.005,1.69484,0.00117496,-0.00143465,-0.511018,48.6715,0.277557,0.473427,17.8385,0.495486,1.14796,0.393527,-2.67149,0.0498839,0.435133,-2.12709,-0.0483398,0.257812,0.128906,0.338379,0.036478,23.4648,23.3087,23.1385,23.2804,23.2094,23.2662,23.1243,
128,6.27326,1.37876,3.15331,4.12796,6.2743,1.97574,1.55575,9.3614e-05,-0.0345725,-9.53096e-05,0.0745469,0.000468079,-0.0577423,0.000103252,0.475666,-15.3428,-0.316741,-5.496,1.7846,-58.5429,1.64419,0.0260378,-20,-0.543372,-0.506114,-0.0354615,-2.96677,0.049401,-0.000176929,0.0174881,0.000106562,0.49431,0.00122332,0.0734279,0.0288545,0.000169185,0.00660598,1.91141,0.0014742,0.005,1.69489,0.00117558,-0.00138482,-0.510792,48.7178,0.27756,0.457727,17.7602,0.501713,1.13541,0.40004,-2.59595,0.0402105,0.443115,-2.1189,-0.041081,0.314312,0.136963,0.342407,0.036478,23.479,23.2946,23.1243,23.2946,23.2094,23.252,23.1243,
129,6.27326,1.37876,3.15331,4.12796,6.2743,1.97574,1.55575,9.3614e-05,-0.0345725,-9.53096e-05,0.0745469,0.000468079,-0.0577423,0.000103252,0.476286,-15.3904,-0.318279,-5.5351,1.78549,-58.7284,1.64895,0.0262025,-20,-0.54412,-0.513173,-0.0354672,-2.98561,0.0496798,-0.000177756,0.0175384,0.000105688,0.49431,0.00122332,0.0734279,0.0288545,0.000169185,0.00660598,1.91084,0.00147249,0.005,1.69379,0.00117297,-0.00144539,-0.513427,48.8947,0.274788,0.457727,17.7602,0.501713,1.13541,0.40004,-2.59595,0.0402105,0.443115,-2.1189,-0.041081,0.314312,0.136963,0.342407,0.036478,23.479,23.2946,23.1243,23.2946,23.2094,23.252,23.1243,
130,6.27326,1.37872,3.15331,4.12804,6.2743,1.97568,1.55575,8.85016e-05,-0.0351127,-9.53096e-05,0.0761619,0.000457239,-0.0578009,0.000103252,0.47629,-15.3893,-0.318324,-5.53516,1.78541,-58.7272,1.6488,0.0261923,-20,-0.544133,-0.511896,-0.035465,-2.98567,0.0496776,-0.000177756,0.0175384,0.000105688,0.49431,0.00122332,0.0734279,0.0294351,0.000174553,0.00679577,1.91084,0.00147249,0.005,1.69379,0.00117297,-0.00144539,-0.513427,48.8947,0.274788,0.502386,17.6693,0.481578,1.07914,0.380192,-2.55292,0.0212181,0.443188,-2.11086,-0.0490066,0.241833,0.136963,0.334448,0.0485074,23.4648,23.2946,23.1385,23.2804,23.2094,23.252,23.1385,
131,6.27326,1.37868,3.15331,4.12811,6.2743,1.97563,1.55575,0.000118002,-0.0372735,-9.53816e-05,0.0753572,0.000436917,-0.0567205,0.000103253,0.476999,-15.4478,-0.31904,-5.58295,1.78973,-58.9583,1.65449,0.0263687,-20,-0.544988,-0.519232,-0.0354545,-3.0092,0.0500034,-0.000178755,0.0175967,0.000105612,0.49431,0.00122332,0.0734279,0.0296531,0.000165358,0.0077869,1.91023,0.00146952,0.005,1.69271,0.00116547,-0.00161619,-0.516534,49.1151,0.274198,0.511451,17.5033,0.467056,1.01538,0.356949,-2.4947,0.0389636,0.435357,-2.09473,-0.0490066,0.209473,0.141049,0.330347,0.0444942,23.4648,23.2946,23.1527,23.2804,23.1952,23.252,23.1243,
132,6.27326,1.37864,3.15331,4.12819,6.2743,1.97557,1.55575,0.000111447,-0.0396214,-0.000100605,0.0758974,0.000457239,-0.0581783,0.000103175,0.477657,-15.5049,-0.318463,-5.62849,1.79767,-59.1914,1.6599,0.0265322,-20,-0.545734,-0.526007,-0.0354198,-3.03301,0.0502866,-0.000179719,0.0176517,0.00010613,0.49431,0.00122332,0.0734279,0.0303024,0.000175128,0.00856505,1.90964,0.00147095,0.005,1.69199,0.00117504,-0.00250821,-0.519345,49.3366,0.276836,0.533868,17.3939,0.482205,0.933264,0.36917,-2.43472,0.0382271,0.435133,-2.03835,-0.041081,0.209628,0.145075,0.302151,0.0443115,23.4648,23.3087,23.1243,23.2662,23.1952,23.252,23.1101,
133,6.27326,1.3786,3.15331,4.12826,6.2743,1.97551,1.55575,0.000111447,-0.0410548,-0.000100605,0.0758974,0.000448797,-0.0588813,0.000111195,0.478331,-15.5539,-0.320137,-5.66938,1.79853,-59.3911,1.66858,0.0266989,-20,-0.546529,-0.532123,-0.0354239,-3.05363,0.0509625,-0.000181688,0.0177068,0.000105118,0.49431,0.00122332,0.0734279,0.0306034,0.000176172,0.0090661,1.90903,0.001463,0.005,1.69085,0.00115909,-0.00320854,-0.525894,49.5283,0.273778,0.517387,17.2822,0.490359,0.879088,0.36917,-2.41718,0.0429735,0.427078,-2.00612,-0.0490066,0.193527,0.14502,0.310207,0.0443115,23.479,23.2946,23.1527,23.2946,23.1952,23.252,23.1243,
134,6.27326,1.37856,3.15331,4.12835,6.2743,1.97545,1.55575,0.000105975,-0.0410132,-0.000100605,0.0764844,0.000448789,-0.0607104,0.000111195,0.478845,-15.5997,-0.319689,-5.7069,1.80475,-59.5762,1.67087,0.0268222,-20,-0.547132,-0.537407,-0.0353985,-3.07262,0.050991,-0.000181762,0.0177642,0.000105661,0.49431,0.00122332,0.0734279,0.0307676,0.000176623,0.00885149,1.90843,0.00146432,0.005,1.69004,0.00115933,-0.00365949,-0.526193,49.7052,0.275793,0.55998,17.1456,0.486519,0.814934,0.360997,-2.41657,0.0329602,0.443188,-1.99806,-0.041081,0.177429,0.157569,0.310207,0.0444942,23.4506,23.2946,23.1527,23.2946,23.2094,23.252,23.1385,
135,6.27326,1.37852,3.15331,4.12842,6.2743,1.97539,1.55575,0.000105975,-0.0394342,-9.27312e-05,0.0769778,0.00042885,-0.0607719,0.000111195,0.479287,-15.634,-0.320926,-5.73536,1.80504,-59.7099,1.67639,0.026925,-20,-0.547698,-0.541155,-0.0354043,-3.08627,0.0514167,-0.000183238,0.0178258,0.000104643,0.49431,0.00122332,0.0734279,0.0305812,0.000170141,0.00821184,1.90779,0.00145911,0.005,1.68932,0.00115424,-0.00346634,-0.530326,49.8331,0.273492,0.537454,16.9554,0.452312,0.735207,0.358013,-2.40582,0.0213073,0.451244,-1.99806,-0.0490066,0.161334,0.153129,0.306179,0.036478,23.479,23.3087,23.1527,23.2804,23.1952,23.2662,23.1243,
136,6.27326,1.37852,3.15331,4.12842,6.2743,1.97539,1.55575,0.000105975,-0.0394342,-9.27312e-05,0.0769778,0.00042885,-0.0607719,0.000111195,0.479628,-15.6667,-0.320836,-5.76089,1.80857,-59.8312,1.67832,0.0270155,-20,-0.548132,-0.545636,-0.0353946,-3.09827,0.0514693,-0.000183719,0.0178808,0.000104764,0.49431,0.00122332,0.0734279,0.0305812,0.000170141,0.00821184,1.90718,0.00145925,0.005,1.68894,0.0011602,-0.00289066,-0.53081,49.9472,0.274271,0.537454,16.9554,0.452312,0.735207,0.358013,-2.40582,0.0213073,0.451244,-1.99806,-0.0490066,0.161334,0.153129,0.306179,0.036478,23.479,23.3087,23.1527,23.2804,23.1952,23.2662,23.1243,
137,6.27326,1.37848,3.15331,4.1285,6.2743,1.97532,1.55575,0.000125823,-0.0376153,-9.26621e-05,0.0753572,0.000408904,-0.0646983,0.000111195,0.479643,-15.6658,-0.320896,-5.76039,1.80848,-59.8308,1.67823,0.0270038,-20,-0.548136,-0.544139,-0.0353916,-3.09839,0.0514716,-0.000183719,0.0178808,0.000104764,0.49431,0.00122332,0.0734279,0.0297387,0.000146969,0.00709682,1.90718,0.00145925,0.005,1.68894,0.0011602,-0.00289066,-0.53081,49.9472,0.274271,0.571828,16.8356,0.498312,0.644243,0.368225,-2.40517,0.0154447,0.443188,-2.03034,-0.041081,0.1372,0.157156,0.290067,0.0485074,23.4648,23.3087,23.1527,23.2946,23.2094,23.2662,23.1385,
138,6.27326,1.37845,3.15331,4.12857,6.2743,1.97525,1.55575,0.000144267,-0.0361931,-8.73671e-05,0.0739317,0.000408904,-0.0675244,0.000111195,0.479226,-15.6408,-0.31852,-5.74134,1.81232,-59.7272,1.67869,0.0268794,-20,-0.547647,-0.539476,-0.0353608,-3.08788,0.0516195,-0.00018472,0.0179265,0.000105468,0.49431,0.00122332,0.0734279,0.029034,0.000127789,0.00625345,1.90658,0.00146095,0.005,1.68916,0.00118258,-0.00188714,-0.532423,49.8495,0.279632,0.563928,16.7405,0.524705,0.567595,0.368502,-2.40415,0.0229515,0.435133,-2.08667,-0.0402832,0.161334,0.161183,0.326294,0.0402832,23.4648,23.2946,23.1527,23.2804,23.2094,23.2662,23.1385,
139,6.27326,1.37841,3.15331,4.12864,6.2743,1.97518,1.55575,0.000138119,-0.0361931,-8.73671e-05,0.071469,0.000400931,-0.0713057,0.000111195,0.478994,-15.6264,-0.317268,-5.73046,1.81427,-59.6674,1.68024,0.0268044,-20,-0.54738,-0.536243,-0.0353431,-3.08182,0.0518381,-0.000185875,0.0179687,0.000105668,0.49431,0.00122332,0.0734279,0.0283278,0.000118445,0.00589089,1.90601,0.00146177,0.005,1.68928,0.00120058,-0.0011281,-0.534676,49.7933,0.282504,0.590814,16.6176,0.497586,0.526663,0.366381,-2.3986,0.0292181,0.443188,-2.1189,-0.0483398,0.185478,0.16521,0.334351,0.036478,23.4648,23.2946,23.1385,23.2946,23.2094,23.2662,23.1101,
140,6.27326,1.37837,3.15331,4.12872,6.2743,1.97511,1.55575,0.000161677,-0.0372735,-8.21342e-05,0.072116,0.000421076,-0.0724721,0.000111195,0.478686,-15.6054,-0.315862,-5.71482,1.81592,-59.5862,1.68122,0.0267116,-20,-0.547019,-0.532332,-0.0353264,-3.07371,0.0520326,-0.000186852,0.01801,0.000105849,0.49431,0.00122332,0.0734279,0.028743,0.000111279,0.00619266,1.90542,0.00145937,0.005,1.68938,0.00120683,-0.000801799,-0.536713,49.7174,0.285566,0.572566,16.4663,0.492919,0.511505,0.341133,-2.39702,0.0416437,0.443115,-2.13503,-0.041081,0.226161,0.16521,0.358611,0.0402832,23.4648,23.2946,23.1385,23.2662,23.2094,23.2662,23.1101,
141,6.27326,1.37837,3.15331,4.12872,6.2743,1.97511,1.55575,0.000161677,-0.0372735,-8.21342e-05,0.072116,0.000421076,-0.0724721,0.000111195,0.478998,-15.6315,-0.316012,-5.73723,1.81844,-59.69,1.68671,0.0267941,-20,-0.547378,-0.536456,-0.0353158,-3.08443,0.0524642,-0.000188213,0.0180409,0.000105735,0.49431,0.00122332,0.0734279,0.028743,0.000111279,0.00619266,1.90485,0.00145952,0.005,1.6885,0.00121342,-0.0010734,-0.540949,49.8176,0.285731,0.572566,16.4663,0.492919,0.511505,0.341133,-2.39702,0.0416437,0.443115,-2.13503,-0.041081,0.226161,0.16521,0.358611,0.0402832,23.4648,23.2946,23.1385,23.2662,23.2094,23.2662,23.1101,
142,6.27326,1.37833,3.15331,4.12879,6.2743,1.97503,1.55575,0.000154559,-0.0393336,-8.21342e-05,0.0715033,0.000413579,-0.0742016,0.000121784,0.479,-15.6305,-0.316055,-5.73674,1.81832,-59.6895,1.68656,0.0267826,-20,-0.547387,-0.535145,-0.035314,-3.08449,0.0524646,-0.000188213,0.0180409,0.000105735,0.49431,0.00122332,0.0734279,0.0289992,0.000113684,0.00684367,1.90485,0.00145952,0.005,1.6885,0.00121342,-0.0010734,-0.540949,49.8176,0.285731,0.582016,16.4018,0.487996,0.493264,0.338825,-2.38303,0.0554376,0.467563,-2.08723,-0.041081,0.177429,0.173265,0.346646,0.0485074,23.4648,23.2804,23.1385,23.2804,23.1952,23.252,23.1527,
143,6.27326,1.37829,3.15331,4.12886,6.2743,1.97496,1.55575,0.000176631,-0.0418651,-7.67772e-05,0.0708374,0.000432808,-0.0753572,0.000121784,0.479264,-15.6542,-0.315547,-5.75712,1.82237,-59.79,1.68747,0.026841,-20,-0.547685,-0.537685,-0.0352943,-3.095,0.0524554,-0.000188143,0.01808,0.000106024,0.49431,0.00122332,0.0734279,0.0293376,0.000107292,0.00774426,1.90427,0.00145719,0.005,1.68774,0.00120915,-0.0016593,-0.540857,49.9149,0.287491,0.577113,16.3204,0.487377,0.537751,0.337064,-2.38408,0.0518663,0.459299,-2.07875,-0.041081,0.201577,0.173265,0.338475,0.0483398,23.4648,23.2946,23.1385,23.2946,23.1811,23.252,23.1243,
144,6.27326,1.37825,3.15331,4.12893,6.2743,1.97488,1.55575,0.000169696,-0.0437558,-7.67772e-05,0.0688965,0.000424664,-0.0780582,0.000121784,0.479632,-15.6836,-0.315627,-5.78188,1.82563,-59.9151,1.69327,0.0269256,-20,-0.548098,-0.540894,-0.0352773,-3.10807,0.0529086,-0.000189537,0.0181167,0.000105885,0.49431,0.00122332,0.0734279,0.0291755,0.000104936,0.00824343,1.90369,0.00145712,0.005,1.68692,0.00121484,-0.00246983,-0.545299,50.0354,0.288018,0.587331,16.3041,0.501483,0.575514,0.345992,-2.36359,0.0422218,0.459229,-2.02228,-0.0332184,0.210862,0.16521,0.342502,0.0404841,23.479,23.3087,23.1527,23.2946,23.1952,23.252,23.1243,
145,6.27326,1.37825,3.15331,4.12893,6.2743,1.97488,1.55575,0.000169696,-0.0437558,-7.67772e-05,0.0688965,0.000424664,-0.0780582,0.000121784,0.479641,-15.6887,-0.314499,-5.78703,1.82931,-59.9389,1.69643,0.0269281,-20,-0.548083,-0.541904,-0.0352571,-3.11071,0.0531923,-0.000190569,0.0181562,0.000106194,0.49431,0.00122332,0.0734279,0.0291755,0.000104936,0.00824343,1.90308,0.00145473,0.005,1.68652,0.00121482,-0.00291909,-0.548148,50.0593,0.290744,0.587331,16.3041,0.501483,0.575514,0.345992,-2.36359,0.0422218,0.459229,-2.02228,-0.0332184,0.210862,0.16521,0.342502,0.0404841,23.479,23.3087,23.1527,23.2946,23.1952,23.252,23.1243,
146,6.27326,1.3782,3.15331,4.129,6.2743,1.9748,1.55575,0.000190908,-0.0448362,-7.67772e-05,0.0669842,0.000424664,-0.0791386,0.000121784,0.479649,-15.688,-0.314557,-5.78642,1.82916,-59.9388,1.69627,0.0269162,-20,-0.548092,-0.540564,-0.0352552,-3.11077,0.0531911,-0.000190569,0.0181562,0.000106194,0.49431,0.00122332,0.0734279,0.0288501,9.30614e-05,0.00859016,1.90308,0.00145473,0.005,1.68652,0.00121482,-0.00291909,-0.548148,50.0593,0.290744,0.579879,16.2472,0.505431,0.640479,0.371221,-2.35076,0.030359,0.443188,-1.99806,-0.041081,0.233781,0.173405,0.350556,0.0523682,23.4648,23.3087,23.1243,23.2946,23.2094,23.2662,23.1243,
147,6.27326,1.37816,3.15331,4.12906,6.2743,1.97472,1.55575,0.000183161,-0.0453891,-7.41857e-05,0.0688749,0.000417372,-0.0807474,0.000121786,0.479707,-15.6941,-0.313978,-5.79186,1.83164,-59.9691,1.7002,0.0269178,-20,-0.54815,-0.540291,-0.0352378,-3.11402,0.0535602,-0.000191964,0.0181884,0.000106154,0.49431,0.00122332,0.0734279,0.0295153,9.72493e-05,0.00861801,1.90252,0.00145482,0.005,1.6863,0.00122558,-0.00323115,-0.55181,50.0889,0.29241,0.573107,16.2439,0.496286,0.730843,0.369159,-2.31471,0.0260399,0.467355,-1.99811,-0.041081,0.249756,0.177429,0.334375,0.0525229,23.479,23.2946,23.1527,23.2946,23.2094,23.2378,23.1385,
148,6.27326,1.37811,3.15331,4.12913,6.2743,1.97464,1.55575,0.000203512,-0.0451063,-7.41297e-05,0.0718459,0.00043593,-0.0791386,0.000132374,0.480016,-15.7216,-0.313633,-5.81667,1.83557,-60.0791,1.7046,0.0269865,-20,-0.548517,-0.543637,-0.0352201,-3.12546,0.0538921,-0.000193007,0.0182189,0.000106654,0.49431,0.00122332,0.0734279,0.0303141,9.90158e-05,0.00863826,1.90192,0.00145272,0.005,1.68516,0.00121992,-0.00325621,-0.555091,50.1962,0.293809,0.561692,16.2387,0.487144,0.802484,0.374891,-2.27473,0.0243629,0.467285,-2.00617,-0.041081,0.193359,0.177429,0.334448,0.0402832,23.479,23.3087,23.1385,23.2946,23.2094,23.2662,23.1243,
149,6.27326,1.37807,3.15331,4.1292,6.2743,1.97456,1.55575,0.000215728,-0.0456002,-7.41297e-05,0.0710356,0.00043593,-0.0821096,0.000132374,0.480787,-15.7829,-0.314963,-5.86639,1.83853,-60.3202,1.7091,0.0271769,-20,-0.549448,-0.551226,-0.0352153,-3.14995,0.054094,-0.00019351,0.0182561,0.000106562,0.49431,0.00122332,0.0734279,0.0301877,8.88103e-05,0.00853568,1.90132,0.00145259,0.005,1.68391,0.00121821,-0.00327443,-0.556915,50.4258,0.291915,0.567834,16.2828,0.508253,0.879423,0.374891,-2.23614,0.0298893,0.459299,-2.01418,-0.0332184,0.112793,0.177429,0.306179,0.0523682,23.4648,23.3087,23.1527,23.2946,23.2094,23.2662,23.1385,
150,6.27326,1.37802,3.15331,4.12928,6.2743,1.97447,1.55575,0.000227103,-0.0459166,-6.88347e-05,0.0692121,0.000428007,-0.0841789,0.000121784,0.480672,-15.7803,-0.313112,-5.86572,1.84343,-60.3119,1.71177,0.027131,-20,-0.549292,-0.549875,-0.0351826,-3.14933,0.0543684,-0.000194531,0.0182904,0.000107499,0.49431,0.00122332,0.0734279,0.0297299,7.56407e-05,0.00847163,1.90073,0.00145463,0.005,1.68348,0.00122924,-0.00318211,-0.559678,50.4195,0.296412,0.536733,16.282,0.508639,0.942868,0.367473,-2.21478,0.0438357,0.459299,-2.00617,-0.041081,0.145912,0.185347,0.310181,0.0443115,23.479,23.3087,23.1385,23.2804,23.1952,23.2662,23.1101,
151,6.27326,1.37797,3.15331,4.12934,6.2743,1.97438,1.55575,0.000218837,-0.0471445,-6.88874e-05,0.067456,0.000437114,-0.0877817,0.000121784,0.480476,-15.7718,-0.31104,-5.85961,1.84828,-60.2817,1.71399,0.0270643,-20,-0.549042,-0.547567,-0.0351496,-3.14643,0.0546222,-0.000195586,0.0183198,0.000108525,0.49431,0.00122332,0.0734279,0.0294839,7.30991e-05,0.00860809,1.90011,0.00145679,0.005,1.68334,0.00124304,-0.00312447,-0.562304,50.3917,0.301319,0.508497,16.2947,0.509015,0.97062,0.360673,-2.18263,0.0481846,0.467285,-2.02223,-0.0483398,0.185478,0.189502,0.302366,0.0485074,23.4648,23.2946,23.1385,23.2804,23.2094,23.2662,23.1101,
152,6.27326,1.37792,3.15331,4.12941,6.2743,1.9743,1.55575,0.000237692,-0.0502381,-6.88354e-05,0.0667141,0.000447207,-0.0877817,0.000121691,0.4803,-15.7585,-0.310216,-5.85073,1.84925,-60.2346,1.71681,0.0270047,-20,-0.548822,-0.544961,-0.0351376,-3.14194,0.0549712,-0.000196844,0.0183499,0.000108563,0.49431,0.00122332,0.0734279,0.0299157,7.14106e-05,0.0098573,1.89951,0.00145366,0.005,1.68302,0.00124251,-0.00324728,-0.565824,50.349,0.303132,0.477822,16.2672,0.483802,1.00543,0.355253,-2.15572,0.0367607,0.467285,-1.99811,-0.0402832,0.201577,0.185303,0.314235,0.0483398,23.479,23.3087,23.1243,23.2804,23.2094,23.2378,23.1243,
153,6.27326,1.37787,3.15331,4.12948,6.2743,1.97421,1.55575,0.000229911,-0.0529391,-6.35397e-05,0.066444,0.000439923,-0.085891,0.000132376,0.480747,-15.795,-0.310237,-5.88097,1.85341,-60.3893,1.72326,0.0271097,-20,-0.549327,-0.54922,-0.0351176,-3.158,0.0554606,-0.000198294,0.0183788,0.000108653,0.49431,0.00122332,0.0734279,0.0303992,8.03434e-05,0.0111437,1.89892,0.0014538,0.005,1.6821,0.00124415,-0.00437157,-0.570602,50.4976,0.303912,0.447621,16.2903,0.489387,1.0106,0.34505,-2.13306,0.0396041,0.475342,-1.93366,-0.0332184,0.217529,0.197429,0.269897,0.0483398,23.4648,23.2946,23.1527,23.2946,23.2094,23.2662,23.1243,
154,6.27326,1.37781,3.15331,4.12955,6.27431,1.97413,1.55575,0.000212232,-0.0544168,-5.82447e-05,0.0684598,0.000440476,-0.0869714,0.000132374,0.481418,-15.8504,-0.310434,-5.92575,1.85895,-60.6191,1.72618,0.0272729,-20,-0.550105,-0.555798,-0.0350979,-3.1816,0.0555179,-0.000198427,0.0184119,0.00010917,0.49431,0.00122332,0.0734279,0.0312929,9.15117e-05,0.0115964,1.89832,0.00145159,0.005,1.68113,0.00123412,-0.00552933,-0.571112,50.7167,0.30456,0.432171,16.296,0.481467,1.01492,0.33793,-2.15236,0.0250402,0.459299,-1.89346,-0.0563965,0.226161,0.193359,0.233677,0.0485074,23.479,23.3087,23.1527,23.252,23.2094,23.2662,23.1243,
155,6.27326,1.37776,3.15331,4.12961,6.27431,1.97404,1.55575,0.000211691,-0.0534793,-5.82888e-05,0.066444,0.000433408,-0.0851811,0.000132374,0.48209,-15.9012,-0.311771,-5.96785,1.86079,-60.8213,1.73341,0.0274327,-20,-0.550887,-0.562076,-0.0350971,-3.20234,0.0560437,-0.000200017,0.0184568,0.000108633,0.49431,0.00122332,0.0734279,0.0305118,8.7788e-05,0.0114428,1.89766,0.00144682,0.005,1.67973,0.00121978,-0.00593676,-0.576174,50.9102,0.302378,0.425769,16.3163,0.504318,1.01223,0.339096,-2.13187,0.0211328,0.459229,-1.86914,-0.0332184,0.186002,0.189716,0.229614,0.0483398,23.4648,23.2946,23.1243,23.2804,23.2094,23.2662,23.1385,
156,6.27326,1.37776,3.15331,4.12961,6.27431,1.97404,1.55575,0.000211691,-0.0534793,-5.82888e-05,0.066444,0.000433408,-0.0851811,0.000132374,0.482176,-15.913,-0.311114,-5.97604,1.8637,-60.8655,1.73599,0.0274555,-20,-0.550999,-0.563411,-0.0350859,-3.20662,0.0562485,-0.000201089,0.0184847,0.000109232,0.49431,0.00122332,0.0734279,0.0305118,8.7788e-05,0.0114428,1.89705,0.00144478,0.005,1.67989,0.00122129,-0.00579851,-0.578217,50.9509,0.304068,0.425769,16.3163,0.504318,1.01223,0.339096,-2.13187,0.0211328,0.459229,-1.86914,-0.0332184,0.186002,0.189716,0.229614,0.0483398,23.4648,23.2946,23.1243,23.2804,23.2094,23.2662,23.1385,
157,6.27326,1.37771,3.15331,4.12968,6.27431,1.97395,1.55575,0.000229332,-0.0526156,-5.55978e-05,0.0642832,0.000433408,-0.0837302,0.000132374,0.482194,-15.9128,-0.31119,-5.97553,1.86359,-60.8657,1.73591,0.0274423,-20,-0.551007,-0.561988,-0.0350829,-3.20668,0.0562528,-0.000201089,0.0184847,0.000109232,0.49431,0.00122332,0.0734279,0.0297046,7.60189e-05,0.0112843,1.89705,0.00144478,0.005,1.67989,0.00122129,-0.00579851,-0.578217,50.9509,0.304068,0.429021,16.2915,0.507769,0.978951,0.338077,-2.17264,0.0352313,0.459511,-1.91748,-0.041081,0.225586,0.201456,0.185478,0.0565402,23.4506,23.3087,23.1527,23.2804,23.2236,23.2662,23.1385,
