LWingKi/MAS_RnD/log/us2/contactless/0/grasp_log_12_08_2023_14_49_14.csv
Index,joint_angle_0,joint_angle_1,joint_angle_2,joint_angle_3,joint_angle_4,joint_angle_5,joint_angle_6,joint_velocity_0,joint_velocity_1,joint_velocity_2,joint_velocity_3,joint_velocity_4,joint_velocity_5,joint_velocity_6,joint_accel_0,joint_accel_1,joint_accel_2,joint_accel_3,joint_accel_4,joint_accel_5,joint_accel_6,constraint_tau_0,constraint_tau_1,constraint_tau_2,constraint_tau_3,constraint_tau_4,constraint_tau_5,constraint_tau_6,current_pos_x,current_pos_y,current_pos_z,target_pos_x,target_pos_y,target_pos_z,current_vel_x,current_vel_y,current_vel_z,target_vel_x,target_vel_y,target_vel_z,control_signal_linear_x,control_signal_linear_y,control_signal_linear_z,control_signal_angular_x,control_signal_angular_y,control_signal_angular_z,joint_torque_0,joint_torque_1,joint_torque_2,joint_torque_3,joint_torque_4,joint_torque_5,joint_torque_6,actuar_current_0,actuar_current_1,actuar_current_2,actuar_current_3,actuar_current_4,actuar_current_5,actuar_current_6,actuar_voltage_0,actuar_voltage_1,actuar_voltage_2,actuar_voltage_3,actuar_voltage_4,actuar_voltage_5,actuar_voltage_6
0,6.27266,1.38479,3.15332,4.11687,6.27426,1.97516,1.55576,0.000808348,0.026807,0.000121786,0.105231,1.0606e-05,0.0189068,1.059e-05,0.365866,-5.67526,-0.330746,2.08208,0.686786,-20.7185,0.893587,-0.00140049,-20,-0.412118,0.647374,-0.0401752,0.858284,0.0185024,-8.21096e-05,0.00480452,1.53622e-05,0.494293,0.00134365,0.0735894,0.0247516,-0.000150156,-0.0105923,1.9848,-0.000621384,0.005,1.78632,-0.000559246,0.0045,-0.221696,12.9722,0.0414778,1.52776,0.203005,-0.0469631,5.11793,0.195879,6.05206,0.248632,0.194864,0.338475,0.0742786,-0.0241699,-0.193527,-0.527725,-0.120917,23.4932,23.3513,23.1669,23.3087,23.2236,23.2946,23.1385,
1,6.27266,1.38482,3.15332,4.11698,6.27426,1.97519,1.55576,0.000855634,0.0270097,0.000121693,0.106326,1.0606e-05,0.0225692,1.059e-05,0.335873,-2.88023,-0.341255,4.07548,0.383178,-9.86708,0.564737,-0.00937526,-18.978,-0.375756,0.9911,-0.0407924,1.92859,-0.00248344,-0,0,0,0.494293,0.00134365,0.0735894,0.0250264,-0.000160991,-0.0103034,2,0,0.005,1.77772,0.000135141,0.014033,-0.0142574,2.91963,-0.0202763,1.51954,0.229739,-0.0384475,5.09828,0.194072,6.08277,0.253704,0.186002,0.322668,0.0569691,-0.0725098,-0.193401,-0.523697,-0.112865,23.4932,23.3371,23.1811,23.2946,23.2378,23.2946,23.1669,
2,6.27266,1.38484,3.15332,4.11708,6.27426,1.97521,1.55576,0.000900835,0.0275779,0.000121693,0.107499,1.06059e-05,0.0240143,1.0582e-05,0.337286,-2.99956,-0.343109,3.98635,0.390682,-10.3311,0.571982,-0.00899848,-19.0508,-0.377495,0.976194,-0.0407808,1.88228,-0.00227647,-6.68251e-07,0.000110109,-5.94477e-07,0.494293,0.00134365,0.0735894,0.0252454,-0.000175212,-0.0103952,1.99946,3.86427e-06,0.005,1.77699,0.00014837,0.0137731,-0.0162919,3.35353,-0.022497,1.52821,0.265535,-0.0285379,5.04416,0.190597,6.10483,0.264672,0.177246,0.298205,0.0569691,-0.0809682,-0.189374,-0.543838,-0.120917,23.4932,23.3655,23.1669,23.2804,23.2378,23.3087,23.1669,
3,6.27266,1.38487,3.15332,4.11719,6.27426,1.97524,1.55576,0.000947298,0.0280617,0.000121693,0.10993,1.0606e-05,0.0270097,1.0582e-05,0.338373,-3.09335,-0.344305,3.91613,0.397294,-10.6929,0.577847,-0.00870848,-19.1082,-0.378852,0.964602,-0.0407672,1.84623,-0.00209854,-1.27288e-06,0.000212629,-1.10721e-06,0.494293,0.00134365,0.0735894,0.0258463,-0.000184509,-0.0103135,1.99896,8.06084e-06,0.005,1.77634,0.000164945,0.0138557,-0.0180447,3.69182,-0.0235838,1.52667,0.291211,-0.0108901,5.03784,0.179429,6.08552,0.253496,0.185303,0.265991,0.0483398,-0.0970148,-0.185347,-0.523682,-0.12085,23.5074,23.3371,23.1811,23.2946,23.252,23.3087,23.1669,
4,6.27266,1.3849,3.15332,4.11731,6.27426,1.97526,1.55576,0.00100302,0.0280861,0.000121784,0.108583,1.0606e-05,0.0259294,1.05901e-05,0.339805,-3.21365,-0.346232,3.82483,0.404718,-11.1602,0.585235,-0.00832691,-19.1816,-0.380611,0.949339,-0.0407563,1.79943,-0.00188024,-1.89379e-06,0.000320075,-1.69169e-06,0.494293,0.00134365,0.0735894,0.0254509,-0.000211264,-0.0104098,1.99845,1.20768e-05,0.005,1.77534,0.000176927,0.0137821,-0.0201914,4.13019,-0.0259618,1.52416,0.321161,0.00961381,5.02904,0.185855,6.08136,0.248122,0.201577,0.274044,0.0644531,-0.14502,-0.185347,-0.527725,-0.125138,23.5074,23.3513,23.1669,23.2946,23.2378,23.2946,23.1527,
5,6.27266,1.38493,3.15332,4.11741,6.27426,1.97529,1.55576,0.000998549,0.0270097,0.000121877,0.106148,1.0606e-05,0.0280901,0,0.340499,-3.27646,-0.346396,3.77817,0.410998,-11.4029,0.589507,-0.00814242,-19.2203,-0.38148,0.942012,-0.0407348,1.77522,-0.00173756,-2.54854e-06,0.000431249,-2.34186e-06,0.494293,0.00134365,0.0735894,0.0249753,-0.000209042,-0.00970809,1.99791,1.59194e-05,0.005,1.77521,0.000204465,0.0138688,-0.0216028,4.35681,-0.0250913,1.50477,0.336761,0.0155293,5.03972,0.19069,6.0632,0.232316,0.201577,0.257812,0.0402832,-0.088623,-0.189374,-0.495549,-0.128906,23.4932,23.3371,23.1669,23.3087,23.2236,23.3087,23.1527,
6,6.27266,1.38495,3.15332,4.11752,6.27426,1.97532,1.55576,0.000998549,0.0253892,0.000121877,0.106148,1.0606e-05,0.0305938,0,0.341543,-3.36061,-0.348372,3.7165,0.414502,-11.7345,0.597313,-0.00786497,-19.272,-0.382763,0.932101,-0.0407383,1.7421,-0.00131395,-4.08031e-06,0.000536831,-3.42561e-06,0.494293,0.00134365,0.0735894,0.025318,-0.000201459,-0.00880193,1.99742,1.58271e-05,0.005,1.7752,0.000202382,0.0132373,-0.025793,4.66596,-0.0282846,1.50825,0.376364,0.0200665,5.05129,0.179784,6.03432,0.23668,0.201577,0.12085,0.0509547,-0.0241699,-0.177292,-0.499512,-0.120917,23.479,23.3371,23.1669,23.2946,23.2378,23.2946,23.1669,
7,6.27267,1.38497,3.15332,4.11762,6.27426,1.97536,1.55576,0.000998607,0.0218779,0.000116665,0.104692,1.0606e-05,0.0345725,0,0.342985,-3.47589,-0.351036,3.62933,0.419468,-12.1883,0.604464,-0.0074835,-19.3424,-0.384507,0.917513,-0.0407404,1.69654,-0.00109144,-4.6962e-06,0.000648671,-4.58605e-06,0.494293,0.00134365,0.0735894,0.0256401,-0.000189102,-0.00696575,1.99692,1.55168e-05,0.005,1.77444,0.000195278,0.0124217,-0.0279794,5.09165,-0.0325485,1.48607,0.439462,0.0389629,5.07388,0.171904,6.03254,0.237278,0.201577,-0.090076,0.041081,0.00805664,-0.181319,-0.487493,-0.120917,23.5074,23.3513,23.1811,23.3371,23.252,23.3087,23.1669,
8,6.27267,1.38499,3.15332,4.11772,6.27426,1.97539,1.55576,0.000998549,0.0147814,0.000116666,0.105878,1.59091e-05,0.0377753,0,0.344616,-3.60787,-0.353327,3.5294,0.427384,-12.7144,0.612916,-0.00705313,-19.4231,-0.386453,0.900678,-0.0407306,1.64359,-0.000822267,-5.33886e-06,0.000764638,-5.22655e-06,0.494293,0.00134365,0.0735894,0.0274828,-0.000165115,-0.00384752,1.99641,1.92481e-05,0.005,1.7737,0.000187515,0.0107692,-0.0306283,5.58574,-0.0355984,1.49397,0.547064,0.0369631,5.11899,0.163286,6.01663,0.234495,0.217529,-0.330322,0.0332184,0.0332184,-0.181319,-0.495483,-0.124943,23.5074,23.3513,23.1811,23.2946,23.2378,23.2946,23.1527,
9,6.27267,1.38499,3.15332,4.11784,6.27426,1.97543,1.55576,0.000967344,0.0037852,0.000116578,0.106326,1.58969e-05,0.041595,0,0.346935,-3.78793,-0.35753,3.38888,0.435498,-13.4381,0.625916,-0.00644284,-19.5331,-0.389174,0.876367,-0.040728,1.57016,-0.000302978,-6.26458e-06,0.000890451,-6.9446e-06,0.494293,0.00134365,0.0735894,0.0299361,-0.000121323,0.000889679,1.99588,1.73399e-05,0.005,1.77155,0.000164209,0.00796277,-0.0357432,6.26999,-0.0422391,1.46079,0.641641,0.0234589,5.20253,0.148225,6.00781,0.23857,0.210091,-0.427078,0.041081,0.0569691,-0.177292,-0.491455,-0.116821,23.479,23.3513,23.1811,23.3087,23.2236,23.2946,23.1385,
10,6.27267,1.38499,3.15332,4.11795,6.27426,1.97548,1.55576,0.000967344,-0.00755507,0.000113928,0.108849,5.30294e-06,0.0456399,0,0.349821,-4.0135,-0.362015,3.21293,0.447817,-14.351,0.641961,-0.00568242,-19.6706,-0.392519,0.845594,-0.0407132,1.4774,0.000314129,-7.17763e-06,0.00104064,-8.32818e-06,0.494293,0.00134365,0.0735894,0.0330616,-8.44963e-05,0.00574802,1.99524,1.5438e-05,0.005,1.76877,0.000123085,0.00369929,-0.04181,7.13336,-0.0487872,1.46074,0.793006,0.0635269,5.2281,0.13709,5.9732,0.237126,0.225586,-0.435357,0.0241699,0.0483398,-0.177292,-0.50354,-0.104814,23.5074,23.3513,23.1952,23.2946,23.2378,23.3087,23.1669,
11,6.27267,1.38499,3.15332,4.11795,6.27426,1.97548,1.55576,0.000967344,-0.00755507,0.000113928,0.108849,5.30294e-06,0.0456399,0,0.353009,-4.27115,-0.366012,3.01425,0.464488,-15.3877,0.660924,-0.00483463,-19.8256,-0.396212,0.810036,-0.0406837,1.3724,0.00108014,-8.42138e-06,0.00120387,-9.27995e-06,0.494293,0.00134365,0.0735894,0.0330616,-8.44963e-05,0.00574802,1.99459,1.57601e-05,0.005,1.76537,9.02308e-05,-0.000673214,-0.0493457,8.11131,-0.0537733,1.46074,0.793006,0.0635269,5.2281,0.13709,5.9732,0.237126,0.225586,-0.435357,0.0241699,0.0483398,-0.177292,-0.50354,-0.104814,23.5074,23.3513,23.1952,23.2946,23.2378,23.3087,23.1669,
12,6.27267,1.38497,3.15332,4.11806,6.27426,1.97553,1.55576,0.000973518,-0.0110684,0.000111363,0.112786,5.30299e-06,0.0480774,0,0.35302,-4.27036,-0.366066,3.01341,0.464557,-15.3861,0.660932,-0.00483882,-19.8266,-0.396243,0.810911,-0.0406806,1.37232,0.00107999,-8.42138e-06,0.00120387,-9.27995e-06,0.494293,0.00134365,0.0735894,0.034941,-6.59242e-05,0.00732219,1.99459,1.57601e-05,0.005,1.76537,9.02308e-05,-0.000673214,-0.0493457,8.11131,-0.0537733,1.41688,0.990357,0.0835003,5.29224,0.161202,5.93172,0.239013,0.233781,-0.403154,0.0254773,0.0254773,-0.173265,-0.511597,-0.116891,23.4932,23.3513,23.1811,23.3087,23.2378,23.3087,23.1385,
13,6.27267,1.38495,3.15332,4.11817,6.27426,1.97558,1.55576,0.000967344,-0.0195599,0.00010606,0.115178,5.30299e-06,0.0491577,0,0.35557,-4.47615,-0.369671,2.85335,0.476713,-16.1968,0.67505,-0.00416836,-19.9522,-0.399273,0.783277,-0.0406649,1.2906,0.00160028,-9.51336e-06,0.00137736,-1.02125e-05,0.494293,0.00134365,0.0735894,0.0374249,-3.62348e-05,0.0107472,1.99388,1.71106e-05,0.005,1.76305,7.47313e-05,-0.00208997,-0.0544706,8.87634,-0.0585787,1.4504,1.24888,0.0513873,5.35304,0.182114,5.9157,0.235572,0.217678,-0.572078,0.0254773,-0.0180152,-0.177292,-0.515641,-0.112865,23.479,23.3229,23.1811,23.3087,23.2378,23.3087,23.1527,
14,6.27267,1.38493,3.15332,4.1183,6.27426,1.97563,1.55576,0.000936194,-0.024849,0.000105979,0.118251,5.30299e-06,0.0513185,0,0.358359,-4.7013,-0.373224,2.67771,0.491253,-17.0979,0.693011,-0.00343482,-20,-0.402552,0.753005,-0.040639,1.19923,0.0024125,-1.12096e-05,0.00155989,-1.12814e-05,0.494293,0.00134365,0.0735894,0.039429,-2.0197e-06,0.0130114,1.99314,1.50848e-05,0.005,1.76014,4.61877e-05,-0.00517252,-0.0624835,9.72807,-0.0629867,1.42622,1.42702,0.0515988,5.41024,0.170134,5.85676,0.228957,0.241699,-0.564022,0.0241699,-0.041081,-0.177429,-0.511613,-0.116821,23.479,23.3513,23.1811,23.3229,23.252,23.3087,23.1527,
15,6.27267,1.38493,3.15332,4.1183,6.27426,1.97563,1.55576,0.000936194,-0.024849,0.000105979,0.118251,5.30299e-06,0.0513185,0,0.361227,-4.93221,-0.378021,2.50119,0.502365,-18.0092,0.708937,-0.002672,-20,-0.405955,0.721572,-0.0406405,1.10762,0.00302197,-1.25244e-05,0.00176041,-1.2956e-05,0.494293,0.00134365,0.0735894,0.039429,-2.0197e-06,0.0130114,1.99231,1.10766e-05,0.005,1.75759,1.17867e-05,-0.00721024,-0.0684799,10.5851,-0.0704767,1.42622,1.42702,0.0515988,5.41024,0.170134,5.85676,0.228957,0.241699,-0.564022,0.0241699,-0.041081,-0.177429,-0.511613,-0.116821,23.479,23.3513,23.1811,23.3229,23.252,23.3087,23.1527,
16,6.27267,1.3849,3.15332,4.11841,6.27426,1.97568,1.55576,0.000967401,-0.0288711,0.000100682,0.121004,5.29898e-06,0.0518602,0,0.361243,-4.93092,-0.378092,2.50015,0.502438,-18.0069,0.708951,-0.00267756,-20,-0.405983,0.722589,-0.0406367,1.1075,0.00302248,-1.25244e-05,0.00176041,-1.2956e-05,0.494293,0.00134365,0.0735894,0.041072,2.90423e-06,0.0146107,1.99231,1.10766e-05,0.005,1.75759,1.17867e-05,-0.00721024,-0.0684799,10.5851,-0.0704767,1.43659,1.66229,0.0704096,5.40435,0.173171,5.78747,0.225781,0.241699,-0.652787,0.0241699,-0.090076,-0.177246,-0.511597,-0.11308,23.4932,23.3513,23.1811,23.2946,23.2378,23.3087,23.1527,
17,6.27267,1.38487,3.15332,4.11853,6.27426,1.97574,1.55576,0.00100302,-0.0329519,0.000100681,0.121544,1.59088e-05,0.0540195,0,0.363726,-5.13756,-0.380512,2.34037,0.51796,-18.821,0.723738,-0.00202924,-20,-0.408934,0.695419,-0.0406013,1.02541,0.00359279,-1.38287e-05,0.00196332,-1.35618e-05,0.494293,0.00134365,0.0735894,0.0420887,3.47477e-06,0.0164466,1.9915,1.54272e-05,0.005,1.75538,1.12707e-05,-0.00864959,-0.0741068,11.3525,-0.0723972,1.3573,1.89299,0.107902,5.40416,0.172303,5.72828,0.233851,0.241833,-0.733199,0.0180152,-0.105046,-0.165161,-0.495483,-0.100708,23.479,23.3513,23.1811,23.2946,23.2378,23.2946,23.1527,
18,6.27267,1.38483,3.15332,4.11866,6.27426,1.97579,1.55576,0.000998549,-0.0378136,9.01508e-05,0.123975,1.5909e-05,0.0540195,0,0.366254,-5.3415,-0.384076,2.18405,0.530217,-19.6272,0.739084,-0.00136668,-20,-0.411938,0.66903,-0.0405818,0.94423,0.00423544,-1.56037e-05,0.00216902,-1.51228e-05,0.494293,0.00134365,0.0735894,0.0438155,2.42497e-05,0.0183276,1.99067,1.75587e-05,0.005,1.75372,1.26755e-05,-0.010302,-0.0804469,12.1112,-0.0769931,1.38296,2.20836,0.0983113,5.36448,0.181552,5.68354,0.233492,0.257938,-0.81388,0.00805664,-0.104736,-0.169237,-0.507584,-0.104736,23.5074,23.3371,23.1952,23.2946,23.2378,23.3087,23.1527,
19,6.27268,1.38478,3.15332,4.11879,6.27426,1.97584,1.55576,0.000998549,-0.0431322,9.00827e-05,0.124883,1.59088e-05,0.0550999,0,0.368869,-5.55398,-0.387531,2.01894,0.543505,-20.4673,0.756088,-0.000684364,-20,-0.415046,0.64105,-0.0405617,0.859365,0.00501537,-1.75464e-05,0.00238164,-1.63645e-05,0.494293,0.00134365,0.0735894,0.0451987,3.96825e-05,0.0205333,1.98981,1.42665e-05,0.005,1.75139,-8.98488e-06,-0.0119948,-0.0881352,12.9041,-0.0813707,1.31205,2.36932,0.0928843,5.31876,0.181552,5.64412,0.234792,0.241833,-0.870117,0.0180152,-0.153076,-0.16521,-0.491472,-0.10103,23.479,23.3513,23.1527,23.2946,23.2094,23.3087,23.1527,
20,6.27268,1.38473,3.15332,4.11891,6.27426,1.97591,1.55576,0.000998549,-0.0502381,8.47837e-05,0.12277,1.58969e-05,0.0571752,1.0582e-05,0.371623,-5.78128,-0.39045,1.84344,0.559874,-21.3669,0.772363,3.45241e-05,-20,-0.418307,0.611169,-0.0405285,0.768561,0.00564582,-1.91437e-05,0.00261452,-1.7111e-05,0.494293,0.00134365,0.0735894,0.0460865,5.55055e-05,0.0236067,1.98884,1.72904e-05,0.005,1.74928,-2.01529e-05,-0.01398,-0.0943449,13.752,-0.0841834,1.33097,2.62127,0.137648,5.24098,0.178408,5.60903,0.2294,0.274044,-0.886377,0.00805664,-0.1372,-0.173405,-0.487443,-0.104814,23.479,23.3371,23.1669,23.2946,23.2236,23.2946,23.1385,
21,6.27268,1.38468,3.15332,4.11903,6.27426,1.97596,1.55576,0.00102975,-0.0578009,8.21342e-05,0.122084,1.5909e-05,0.0588813,1.0582e-05,0.374362,-6.00397,-0.393691,1.67275,0.575071,-22.256,0.785459,0.000747844,-20,-0.421531,0.582235,-0.0404998,0.678771,0.00597309,-1.97524e-05,0.00284606,-1.83598e-05,0.494293,0.00134365,0.0735894,0.0474823,6.17845e-05,0.0267956,1.98794,1.62457e-05,0.005,1.74766,-3.53338e-05,-0.016746,-0.0975362,14.5892,-0.0877868,1.24711,2.86048,0.142041,5.12448,0.167445,5.54865,0.231538,0.265869,-0.862061,0.0254773,-0.0725098,-0.169237,-0.499512,-0.0966797,23.479,23.3229,23.1669,23.2946,23.2094,23.2946,23.1527,
22,6.27268,1.38461,3.15332,4.11915,6.27426,1.97602,1.55576,0.00105977,-0.0642832,7.41857e-05,0.122894,2.65147e-05,0.0599009,1.059e-05,0.377236,-6.24137,-0.396158,1.48968,0.594064,-23.2032,0.802754,0.00149698,-20,-0.424899,0.551105,-0.0404511,0.58302,0.00664504,-2.13631e-05,0.00308146,-1.90209e-05,0.494293,0.00134365,0.0735894,0.0490813,7.08342e-05,0.0294584,1.987,1.92038e-05,0.005,1.74556,-3.83227e-05,-0.019616,-0.104167,15.4823,-0.0891783,1.28929,3.18974,0.151632,5.01951,0.173027,5.4958,0.21302,0.257938,-0.846101,0.0113938,-0.041081,-0.157104,-0.511613,-0.0970148,23.4932,23.3513,23.1811,23.2804,23.2378,23.3087,23.1385,
23,6.27268,1.38454,3.15332,4.11928,6.27426,1.97608,1.55576,0.00112607,-0.0726544,6.89389e-05,0.123378,2.65147e-05,0.0607719,1.059e-05,0.380231,-6.48323,-0.400109,1.30198,0.609495,-24.1641,0.822465,0.00227441,-20,-0.428436,0.51913,-0.040425,0.48591,0.0075572,-2.37322e-05,0.00332496,-2.07314e-05,0.494293,0.00134365,0.0735894,0.0509839,6.69648e-05,0.0328596,1.98603,1.82485e-05,0.005,1.74325,-4.73271e-05,-0.0220125,-0.113159,16.3891,-0.0939647,1.23795,3.42612,0.147343,4.91838,0.205117,5.44972,0.203509,0.257812,-0.838046,0.00805664,-0.0433863,-0.165358,-0.507584,-0.0966797,23.479,23.3229,23.1527,23.3087,23.2378,23.2946,23.1527,
24,6.27268,1.38454,3.15332,4.11928,6.27426,1.97608,1.55576,0.00112607,-0.0726544,6.89389e-05,0.123378,2.65147e-05,0.0607719,1.059e-05,0.383446,-6.75533,-0.402482,1.09449,0.631926,-25.2439,0.842699,0.00312893,-20,-0.432216,0.482338,-0.040368,0.377245,0.00837364,-2.5642e-05,0.00359299,-2.15428e-05,0.494293,0.00134365,0.0735894,0.0509839,6.69648e-05,0.0328596,1.98495,1.97948e-05,0.005,1.74057,-4.24531e-05,-0.0250736,-0.121215,17.4045,-0.0947485,1.23795,3.42612,0.147343,4.91838,0.205117,5.44972,0.203509,0.257812,-0.838046,0.00805664,-0.0433863,-0.165358,-0.507584,-0.0966797,23.479,23.3229,23.1527,23.3087,23.2378,23.2946,23.1527,
25,6.27268,1.38446,3.15332,4.11941,6.27426,1.97614,1.55576,0.00119954,-0.0764376,6.62372e-05,0.124785,2.64949e-05,0.0615822,1.059e-05,0.383484,-6.75357,-0.402607,1.09314,0.632017,-25.2408,0.842737,0.00311816,-20,-0.43224,0.483676,-0.0403639,0.377047,0.00837459,-2.5642e-05,0.00359299,-2.15428e-05,0.494293,0.00134365,0.0735894,0.0521843,5.13125e-05,0.034425,1.98495,1.97948e-05,0.005,1.74057,-4.24531e-05,-0.0250736,-0.121215,17.4045,-0.0947485,1.27079,3.77286,0.189467,4.76702,0.21477,5.38061,0.204394,0.257938,-0.773479,0.00805664,-0.0322266,-0.161133,-0.511613,-0.0927389,23.479,23.3229,23.1669,23.2946,23.2378,23.2804,23.1669,
26,6.27268,1.38438,3.15332,4.11953,6.27426,1.97621,1.55576,0.0013212,-0.0777881,5.56393e-05,0.126136,3.71209e-05,0.061689,1.0582e-05,0.386321,-6.99124,-0.404811,0.910863,0.651651,-26.1759,0.859923,0.00384816,-20,-0.43559,0.453351,-0.0403141,0.282894,0.00903545,-2.74665e-05,0.00385222,-2.2276e-05,0.494293,0.00134365,0.0735894,0.0528546,1.32291e-05,0.0349565,1.98392,2.1742e-05,0.005,1.73856,-2.66135e-05,-0.0264825,-0.127749,18.2844,-0.095385,1.12364,4.11008,0.204989,4.6139,0.214936,5.27775,0.203766,0.257938,-0.81408,-0.00805664,-0.0483398,-0.157311,-0.507568,-0.0927389,23.479,23.3513,23.1811,23.2946,23.2378,23.2946,23.1527,
27,6.27268,1.38438,3.15332,4.11953,6.27426,1.97621,1.55576,0.0013212,-0.0777881,5.56393e-05,0.126136,3.71209e-05,0.061689,1.0582e-05,0.388909,-7.21248,-0.4074,0.744263,0.667831,-27.0347,0.877,0.00453602,-20,-0.438717,0.42402,-0.0402802,0.197273,0.0097759,-2.97392e-05,0.0041189,-2.40742e-05,0.494293,0.00134365,0.0735894,0.0528546,1.32291e-05,0.0349565,1.98288,2.13484e-05,0.005,1.73702,7.30741e-06,-0.0269608,-0.13507,19.0887,-0.0974513,1.12364,4.11008,0.204989,4.6139,0.214936,5.27775,0.203766,0.257938,-0.81408,-0.00805664,-0.0483398,-0.157311,-0.507568,-0.0927389,23.479,23.3513,23.1811,23.2946,23.2378,23.2946,23.1527,
28,6.27269,1.38431,3.15332,4.11965,6.27426,1.97627,1.55576,0.00138791,-0.0783283,5.03784e-05,0.125865,3.71209e-05,0.0626626,1.0582e-05,0.388957,-7.2109,-0.407525,0.743554,0.667939,-27.0324,0.877065,0.00452451,-20,-0.438734,0.425887,-0.040275,0.19695,0.00977697,-2.97392e-05,0.0041189,-2.40742e-05,0.494293,0.00134365,0.0735894,0.0528859,-9.65323e-06,0.0352895,1.98288,2.13484e-05,0.005,1.73702,7.30741e-06,-0.0269608,-0.13507,19.0887,-0.0974513,1.15641,4.48837,0.227191,4.47913,0.227731,5.19774,0.213661,0.257938,-0.894287,0.0113938,-0.0664368,-0.161183,-0.507584,-0.088623,23.479,23.3513,23.1669,23.3087,23.2378,23.2946,23.1243,
29,6.27269,1.38431,3.15332,4.11965,6.27426,1.97627,1.55576,0.00138791,-0.0783283,5.03784e-05,0.125865,3.71209e-05,0.0626626,1.0582e-05,0.391323,-7.41737,-0.409231,0.589642,0.684727,-27.8321,0.891391,0.00515344,-20,-0.441603,0.398949,-0.0402386,0.117433,0.0103069,-3.15895e-05,0.00438186,-2.48335e-05,0.494293,0.00134365,0.0735894,0.0528859,-9.65323e-06,0.0352895,1.98183,2.31489e-05,0.005,1.73605,2.95219e-05,-0.0272605,-0.140308,19.836,-0.0978709,1.15641,4.48837,0.227191,4.47913,0.227731,5.19774,0.213661,0.257938,-0.894287,0.0113938,-0.0664368,-0.161183,-0.507584,-0.088623,23.479,23.3513,23.1669,23.3087,23.2378,23.2946,23.1243,
30,6.27269,1.38422,3.15332,4.11979,6.27426,1.97633,1.55576,0.00154553,-0.0799951,4.77274e-05,0.124014,3.71209e-05,0.0607719,1.059e-05,0.391382,-7.4152,-0.409388,0.589177,0.684828,-27.8294,0.891468,0.00514053,-20,-0.441612,0.401068,-0.0402349,0.117038,0.0103093,-3.15895e-05,0.00438186,-2.48335e-05,0.494293,0.00134365,0.0735894,0.0526977,-7.47831e-05,0.0357941,1.98183,2.31489e-05,0.005,1.73605,2.95219e-05,-0.0272605,-0.140308,19.836,-0.0978709,1.10023,4.75897,0.217571,4.36537,0.227859,5.12465,0.201714,0.249886,-0.999056,0.0227876,-0.0322266,-0.165161,-0.523697,-0.0926514,23.4932,23.3513,23.1669,23.2946,23.2378,23.2946,23.1527,
31,6.27269,1.38414,3.15332,4.11991,6.27426,1.97639,1.55576,0.00153898,-0.0837302,4.23918e-05,0.121544,3.70925e-05,0.0591814,1.059e-05,0.393449,-7.60184,-0.4087,0.447683,0.706953,-28.5591,0.90565,0.00567067,-20,-0.444081,0.378183,-0.0401518,0.0437985,0.0108634,-3.35844e-05,0.00465854,-2.51207e-05,0.494293,0.00134365,0.0735894,0.0527668,-7.05697e-05,0.0371584,1.98071,2.85361e-05,0.005,1.73521,9.29873e-05,-0.0277147,-0.145803,20.5208,-0.0924353,1.14447,5.07965,0.207637,4.19866,0.229001,5.02477,0.208963,0.265991,-1.03934,-0.0113938,0.0113938,-0.161183,-0.50354,-0.0846906,23.479,23.3371,23.1811,23.2946,23.2094,23.2804,23.1385,
32,6.27269,1.38405,3.15332,4.12002,6.27426,1.97645,1.55576,0.00163517,-0.0860738,3.17939e-05,0.118573,3.71206e-05,0.0558535,1.0582e-05,0.39575,-7.79223,-0.410469,0.303398,0.72264,-29.3118,0.919963,0.00625836,-20,-0.446764,0.354974,-0.0401144,-0.0320166,0.0114474,-3.54567e-05,0.0049239,-2.58466e-05,0.494293,0.00134365,0.0735894,0.0523979,-0.000112459,0.0377978,1.97967,3.02497e-05,0.005,1.73422,9.07375e-05,-0.0289426,-0.151549,21.2275,-0.0930448,1.04873,5.35574,0.230568,4.02353,0.227074,4.88645,0.21675,0.265991,-1.04739,0.0113938,0.0509547,-0.157104,-0.483415,-0.088623,23.479,23.3229,23.1527,23.2946,23.2236,23.2804,23.1385,
33,6.27269,1.38397,3.15332,4.12014,6.27426,1.9765,1.55576,0.00164885,-0.0864312,2.38635e-05,0.118303,4.77269e-05,0.0529391,1.85184e-05,0.397482,-7.94831,-0.409677,0.185641,0.741699,-29.9251,0.933921,0.00669781,-20,-0.44882,0.336591,-0.0400446,-0.0936444,0.012123,-3.78486e-05,0.00518087,-2.59873e-05,0.494293,0.00134365,0.0735894,0.0523904,-0.0001192,0.0376467,1.97864,3.34643e-05,0.005,1.73362,0.000131331,-0.029518,-0.15828,21.8026,-0.0880644,1.0798,5.69447,0.262212,3.88951,0.222757,4.76648,0.215108,0.258316,-1.07165,-0.0113938,0.11308,-0.149102,-0.451172,-0.088623,23.479,23.3371,23.1811,23.2804,23.2094,23.2946,23.1243,
34,6.2727,1.38387,3.15332,4.12027,6.27426,1.97655,1.55576,0.00164885,-0.0895243,1.85605e-05,0.118752,4.77269e-05,0.0521288,1.85326e-05,0.399505,-8.11315,-0.412693,0.0594799,0.751068,-30.5655,0.944925,0.00721333,-20,-0.45127,0.316424,-0.040035,-0.157879,0.0125121,-3.92112e-05,0.00543516,-2.80303e-05,0.494293,0.00134365,0.0735894,0.0531671,-0.000111366,0.0387885,1.97761,2.92571e-05,0.005,1.73269,0.000133611,-0.0293821,-0.162102,22.4044,-0.0920945,0.997169,5.91517,0.235908,3.76324,0.207985,4.63462,0.220505,0.249756,-1.15213,-0.0113938,0.129158,-0.149048,-0.422974,-0.0887145,23.4932,23.3229,23.1527,23.2946,23.2236,23.2804,23.1243,
35,6.2727,1.38378,3.15332,4.12038,6.27426,1.9766,1.55576,0.00163659,-0.0945341,7.94847e-06,0.119504,4.76908e-05,0.0502381,1.85326e-05,0.402156,-8.33414,-0.415034,-0.110855,0.768274,-31.4342,0.961487,0.00789961,-20,-0.454422,0.288069,-0.0399965,-0.245331,0.0131972,-4.12627e-05,0.00570785,-2.86567e-05,0.494293,0.00134365,0.0735894,0.0544348,-9.40262e-05,0.0405684,1.97648,3.05181e-05,0.005,1.73098,0.000127696,-0.0304097,-0.16886,23.2227,-0.0936003,1.03739,6.18353,0.237989,3.63537,0.21903,4.49667,0.209304,0.250275,-1.16018,0,0.105969,-0.153076,-0.40694,-0.0725098,23.4648,23.3371,23.1669,23.2804,23.2236,23.2804,23.1385,
36,6.2727,1.38368,3.15332,4.1205,6.27426,1.97665,1.55576,0.00168922,-0.0993959,5.29893e-06,0.119532,5.30299e-05,0.047646,1.85184e-05,0.404795,-8.55323,-0.417323,-0.281113,0.78555,-32.3018,0.979989,0.00857912,-20,-0.457538,0.259711,-0.0399581,-0.333032,0.0140846,-4.37464e-05,0.00596814,-2.92523e-05,0.494293,0.00134365,0.0735894,0.0554619,-0.000107138,0.0422291,1.9754,2.9314e-05,0.005,1.72887,0.000111006,-0.0320115,-0.177617,24.0416,-0.0950337,0.94239,6.38816,0.243209,3.48912,0.228578,4.32748,0.213412,0.257938,-1.10376,0.0113938,0.105969,-0.14502,-0.38674,-0.0846906,23.4648,23.3229,23.1669,23.2662,23.2378,23.2662,23.1385,
37,6.2727,1.38358,3.15332,4.12062,6.27426,1.9767,1.55576,0.00164902,-0.101557,-5.30294e-06,0.122354,5.30299e-05,0.0464568,1.85184e-05,0.40727,-8.76443,-0.418466,-0.44484,0.805252,-33.137,0.997189,0.00921652,-20,-0.460476,0.232736,-0.0398973,-0.417364,0.0148559,-4.59666e-05,0.00623443,-2.97256e-05,0.494293,0.00134365,0.0735894,0.0567267,-7.93514e-05,0.042921,1.97431,3.40282e-05,0.005,1.72696,0.00012705,-0.0335062,-0.185258,24.8295,-0.0937304,0.950648,6.70949,0.253542,3.39617,0.2686,4.16395,0.191487,0.257938,-1.06396,-0.00805664,0.105969,-0.145075,-0.358543,-0.0809682,23.4932,23.3229,23.1527,23.2804,23.2236,23.2804,23.1243,
38,6.2727,1.38347,3.15332,4.12075,6.27426,1.97674,1.55576,0.00170221,-0.104222,-1.0606e-05,0.121121,5.30294e-05,0.0432156,1.85324e-05,0.410034,-8.98975,-0.422025,-0.619349,0.819469,-34.0205,1.01425,0.0099235,-20,-0.463764,0.204198,-0.0398802,-0.506443,0.0155918,-4.8022e-05,0.00650072,-3.07337e-05,0.494293,0.00134365,0.0735894,0.0569263,-0.000101131,0.0436687,1.97319,3.12967e-05,0.005,1.72482,9.95832e-05,-0.0341289,-0.192483,25.6623,-0.0981516,0.847624,6.94711,0.236707,3.28917,0.261758,4.00502,0.18687,0.257938,-1.0636,-0.0113938,0.0332184,-0.149102,-0.330347,-0.0765381,23.479,23.3229,23.1385,23.2946,23.2094,23.3087,23.1385,
39,6.2727,1.38347,3.15332,4.12075,6.27426,1.97674,1.55576,0.00170221,-0.104222,-1.0606e-05,0.121121,5.30294e-05,0.0432156,1.85324e-05,0.41218,-9.18355,-0.42199,-0.76552,0.839789,-34.7751,1.02962,0.0104939,-20,-0.466343,0.178538,-0.0398193,-0.581773,0.0162636,-5.02509e-05,0.00678273,-3.0724e-05,0.494293,0.00134365,0.0735894,0.0569263,-0.000101131,0.0436687,1.97198,3.62708e-05,0.005,1.72355,0.000123662,-0.0348018,-0.199153,26.3694,-0.0946683,0.847624,6.94711,0.236707,3.28917,0.261758,4.00502,0.18687,0.257938,-1.0636,-0.0113938,0.0332184,-0.149102,-0.330347,-0.0765381,23.479,23.3229,23.1385,23.2946,23.2094,23.3087,23.1385,
40,6.2727,1.38337,3.15332,4.12087,6.27426,1.97678,1.55576,0.00168939,-0.106689,-1.32474e-05,0.121004,6.36352e-05,0.0426322,1.85326e-05,0.412213,-9.18141,-0.422101,-0.766441,0.839839,-34.772,1.02961,0.010479,-20,-0.46636,0.180422,-0.0398128,-0.582068,0.0162623,-5.02509e-05,0.00678273,-3.0724e-05,0.494293,0.00134365,0.0735894,0.057406,-9.02348e-05,0.044599,1.97198,3.62708e-05,0.005,1.72355,0.000123662,-0.0348018,-0.199153,26.3694,-0.0946683,0.893756,7.20005,0.24466,3.13111,0.231267,3.78059,0.158388,0.257938,-1.07156,-0.0180152,0.0490066,-0.14502,-0.302124,-0.076961,23.479,23.3229,23.1385,23.2662,23.2236,23.2946,23.1101,
41,6.2727,1.38337,3.15332,4.12087,6.27426,1.97678,1.55576,0.00168939,-0.106689,-1.32474e-05,0.121004,6.36352e-05,0.0426322,1.85326e-05,0.414737,-9.39264,-0.425339,-0.925998,0.852947,-35.5959,1.04647,0.0111499,-20,-0.469402,0.152377,-0.0398002,-0.664374,0.0170454,-5.27681e-05,0.00704914,-3.21055e-05,0.494293,0.00134365,0.0735894,0.057406,-9.02348e-05,0.044599,1.97085,3.56364e-05,0.005,1.7221,0.000113284,-0.0356391,-0.206878,27.1417,-0.0987823,0.893756,7.20005,0.24466,3.13111,0.231267,3.78059,0.158388,0.257938,-1.07156,-0.0180152,0.0490066,-0.14502,-0.302124,-0.076961,23.479,23.3229,23.1385,23.2662,23.2236,23.2946,23.1101,
42,6.27271,1.38326,3.15332,4.12099,6.27426,1.97683,1.55576,0.00174201,-0.107499,-2.38454e-05,0.121274,6.36359e-05,0.0421291,1.85186e-05,0.414809,-9.39057,-0.425508,-0.926752,0.85303,-35.593,1.04659,0.0111404,-20,-0.46942,0.154483,-0.039792,-0.664701,0.0170493,-5.27681e-05,0.00704914,-3.21055e-05,0.494293,0.00134365,0.0735894,0.0576487,-0.000106771,0.0448758,1.97085,3.56364e-05,0.005,1.7221,0.000113284,-0.0356391,-0.206878,27.1417,-0.0987823,0.798598,7.45643,0.232424,3.01271,0.230707,3.56022,0.167784,0.257938,-1.07165,0.0113938,0.0483398,-0.141049,-0.290039,-0.0726216,23.4648,23.3371,23.1669,23.2946,23.2236,23.2804,23.1527,
43,6.27271,1.38315,3.15332,4.12111,6.27426,1.97687,1.55576,0.00175523,-0.108039,-2.91664e-05,0.118573,5.83329e-05,0.0394342,1.85186e-05,0.417134,-9.5945,-0.425821,-1.08196,0.873891,-36.389,1.0635,0.0117311,-20,-0.472186,0.129745,-0.0397274,-0.744661,0.0178263,-5.53946e-05,0.00731955,-3.15864e-05,0.494293,0.00134365,0.0735894,0.056977,-0.000120253,0.0448654,1.96971,4.23813e-05,0.005,1.72086,0.000134237,-0.0358882,-0.214574,27.8891,-0.0957216,0.836755,7.7201,0.237453,2.94127,0.264551,3.37407,0.161427,0.249886,-1.11987,-0.0180152,0.0402832,-0.137495,-0.273926,-0.0765381,23.479,23.3371,23.1669,23.2946,23.2094,23.2804,23.1385,
44,6.27271,1.38302,3.15332,4.12123,6.27427,1.9769,1.55576,0.00177013,-0.109247,-3.4443e-05,0.119366,6.89389e-05,0.0378136,1.85184e-05,0.418922,-9.74826,-0.426337,-1.19841,0.889,-36.9887,1.0756,0.0121747,-20,-0.474312,0.112053,-0.0396827,-0.804809,0.0183486,-5.74816e-05,0.00758185,-3.19161e-05,0.494293,0.00134365,0.0735894,0.0574536,-0.000122045,0.045174,1.96859,4.3973e-05,0.005,1.72045,0.000147804,-0.0358789,-0.219773,28.4517,-0.0939492,0.733838,7.98533,0.218791,2.89126,0.251155,3.17541,0.158681,0.257812,-1.16018,-0.0113938,0.0809682,-0.136963,-0.245761,-0.0685998,23.4932,23.3087,23.1385,23.2804,23.2094,23.2946,23.1385,
45,6.27271,1.38293,3.15332,4.12135,6.27427,1.97694,1.55576,0.00187238,-0.110486,-3.44437e-05,0.121151,6.88867e-05,0.0378136,2.64751e-05,0.421605,-9.96974,-0.429495,-1.36875,0.904049,-37.8517,1.09464,0.0128601,-20,-0.477526,0.0840907,-0.0396578,-0.891443,0.0192913,-6.06066e-05,0.00787835,-3.33593e-05,0.494293,0.00134365,0.0735894,0.0582248,-0.000156148,0.0456469,1.9673,4.04751e-05,0.005,1.71886,0.000146268,-0.0361566,-0.229043,29.2636,-0.0972591,0.766671,8.20322,0.25146,2.8121,0.254783,2.91885,0.143867,0.249886,-1.20044,-0.0113938,0.0483398,-0.141221,-0.217529,-0.0725098,23.479,23.3229,23.1811,23.2662,23.2094,23.2804,23.1385,
46,6.27271,1.38282,3.15332,4.12147,6.27427,1.97698,1.55576,0.00188814,-0.110358,-3.97423e-05,0.121544,6.89389e-05,0.0340724,2.64549e-05,0.423969,-10.1767,-0.429372,-1.52815,0.926777,-38.662,1.10747,0.0134618,-20,-0.480312,0.0585546,-0.0395778,-0.973038,0.0196258,-6.16287e-05,0.00812734,-3.26295e-05,0.494293,0.00134365,0.0735894,0.0583067,-0.000166474,0.0452075,1.96622,5.10762e-05,0.005,1.7172,0.000186501,-0.0365822,-0.232369,30.0266,-0.0928321,0.642722,8.46241,0.243392,2.73362,0.279228,2.69561,0.176103,0.233781,-1.19282,-0.00805664,0.041081,-0.132996,-0.221594,-0.0726216,23.479,23.3229,23.1669,23.2804,23.2094,23.2804,23.1243,
47,6.27272,1.3827,3.15332,4.12159,6.27427,1.97701,1.55576,0.00194693,-0.109852,-3.97724e-05,0.119113,6.89389e-05,0.0329519,2.64549e-05,0.425935,-10.3445,-0.430362,-1.65656,0.941998,-39.312,1.12236,0.0139486,-20,-0.482641,0.0387342,-0.0395353,-1.03834,0.0203732,-6.42864e-05,0.00839216,-3.30478e-05,0.494293,0.00134365,0.0735894,0.0574923,-0.000198263,0.0449457,1.96507,4.95466e-05,0.005,1.71609,0.000194418,-0.0361867,-0.239731,30.6374,-0.0919658,0.658048,8.81597,0.238394,2.72272,0.313958,2.46758,0.159675,0.233643,-1.23269,-0.0113938,0,-0.132996,-0.177246,-0.0685998,23.4648,23.3229,23.1527,23.2662,23.2094,23.2662,23.1527,
48,6.27272,1.3826,3.15332,4.12172,6.27427,1.97704,1.55576,0.00198694,-0.109333,-3.97724e-05,0.118864,6.89389e-05,0.0280901,2.64549e-05,0.427802,-10.5147,-0.42949,-1.7844,0.962539,-39.9742,1.13551,0.0144186,-20,-0.484887,0.0191996,-0.0394643,-1.10459,0.0209106,-6.65617e-05,0.00866684,-3.22194e-05,0.494293,0.00134365,0.0735894,0.0573081,-0.000223731,0.0442432,1.96387,5.89705e-05,0.005,1.71574,0.00023151,-0.0359511,-0.245081,31.2573,-0.0866192,0.574655,9.07015,0.217102,2.68727,0.288185,2.25568,0.156989,0.241699,-1.29734,-0.0113938,0.0161133,-0.132935,-0.161183,-0.0645789,23.4648,23.3087,23.1527,23.2804,23.2236,23.2662,23.1527,
49,6.27272,1.38247,3.15332,4.12183,6.27427,1.97706,1.55576,0.00205317,-0.109054,-3.97423e-05,0.117492,6.88867e-05,0.0270097,2.64749e-05,0.429423,-10.6568,-0.429543,-1.89336,0.977712,-40.5223,1.14736,0.0148145,-20,-0.486811,0.00272584,-0.0394138,-1.15962,0.0214548,-6.86489e-05,0.00892022,-3.24858e-05,0.494293,0.00134365,0.0735894,0.0568477,-0.000255582,0.0440565,1.96272,6.08391e-05,0.005,1.71487,0.000256113,-0.0353189,-0.250461,31.7725,-0.083862,0.603839,9.32665,0.249761,2.58882,0.257891,1.99532,0.134582,0.22573,-1.34546,-0.0241699,0.0254773,-0.133178,-0.108839,-0.0685998,23.479,23.3087,23.1527,23.2662,23.2094,23.2804,23.1385,
50,6.27272,1.38237,3.15332,4.12194,6.27427,1.97709,1.55576,0.00198719,-0.106959,-3.97423e-05,0.111707,7.95448e-05,0.0240738,2.64749e-05,0.431375,-10.8321,-0.429233,-2.02488,0.997131,-41.2034,1.16094,0.0153068,-20,-0.489144,-0.0173304,-0.0393448,-1.22791,0.0220198,-7.09012e-05,0.00918665,-3.20854e-05,0.494293,0.00134365,0.0735894,0.0547324,-0.000250592,0.0430272,1.96153,6.63473e-05,0.005,1.71421,0.000289736,-0.0351509,-0.256086,32.41,-0.0798301,0.521999,9.64299,0.240428,2.54465,0.281116,1.75826,0.159058,0.209628,-1.38595,-0.0180152,0.0483398,-0.128906,-0.100789,-0.0644531,23.479,23.3229,23.1669,23.2662,23.2094,23.2804,23.1385,
51,6.27272,1.38225,3.15332,4.12205,6.27427,1.97711,1.55576,0.00198719,-0.107329,-4.50754e-05,0.11074,7.94246e-05,0.0210676,2.64549e-05,0.432471,-10.9245,-0.430081,-2.09117,1.00449,-41.557,1.16956,0.0155705,-20,-0.490471,-0.0260327,-0.0393316,-1.26288,0.0224833,-7.33355e-05,0.00942817,-3.25853e-05,0.494293,0.00134365,0.0735894,0.054527,-0.000255399,0.0428852,1.96045,7.08696e-05,0.005,1.71514,0.000289315,-0.0342245,-0.260663,32.7376,-0.0801339,0.543152,10.0015,0.214644,2.52787,0.335317,1.54836,0.147779,0.218125,-1.47439,-0.0241699,0.161936,-0.125138,-0.0644531,-0.0605589,23.4648,23.3087,23.1527,23.252,23.1952,23.2804,23.1385,
52,6.27272,1.38225,3.15332,4.12205,6.27427,1.97711,1.55576,0.00198719,-0.107329,-4.50754e-05,0.11074,7.94246e-05,0.0210676,2.64549e-05,0.434167,-11.0771,-0.430511,-2.20599,1.01894,-42.1452,1.18331,0.016021,-20,-0.492538,-0.0460975,-0.0392973,-1.32138,0.0231957,-7.59507e-05,0.00967209,-3.26523e-05,0.494293,0.00134365,0.0735894,0.054527,-0.000255399,0.0428852,1.95934,7.00951e-05,0.005,1.71433,0.000292944,-0.0340966,-0.267733,33.2881,-0.0786512,0.543152,10.0015,0.214644,2.52787,0.335317,1.54836,0.147779,0.218125,-1.47439,-0.0241699,0.161936,-0.125138,-0.0644531,-0.0605589,23.4648,23.3087,23.1527,23.252,23.1952,23.2804,23.1385,
53,6.27273,1.38215,3.15332,4.12217,6.27427,1.97713,1.55576,0.00205343,-0.107499,-5.03779e-05,0.108583,8.48478e-05,0.0202573,2.64749e-05,0.434219,-11.0752,-0.430653,-2.20634,1.019,-42.1429,1.18336,0.0160042,-20,-0.492546,-0.0437552,-0.0392905,-1.32176,0.0231976,-7.59507e-05,0.00967209,-3.26523e-05,0.494293,0.00134365,0.0735894,0.0539352,-0.000285519,0.0429163,1.95934,7.00951e-05,0.005,1.71433,0.000292944,-0.0340966,-0.267733,33.2881,-0.0786512,0.473189,10.2829,0.20789,2.53871,0.318849,1.3487,0.141916,0.225586,-1.48251,-0.0161133,0.193527,-0.120917,-0.0362549,-0.0605589,23.4648,23.3087,23.1527,23.2662,23.2094,23.2804,23.1385,
54,6.27273,1.38204,3.15332,4.12227,6.27427,1.97715,1.55576,0.00192095,-0.106959,-5.56393e-05,0.106148,8.46557e-05,0.0164759,2.64749e-05,0.435978,-11.2305,-0.430659,-2.32322,1.03556,-42.7491,1.19629,0.016451,-20,-0.494649,-0.061575,-0.0392304,-1.38254,0.0237864,-7.82197e-05,0.00991347,-3.26351e-05,0.494293,0.00134365,0.0735894,0.0531157,-0.000244271,0.042355,1.95823,7.55996e-05,0.005,1.71386,0.000325007,-0.0341247,-0.273575,33.8559,-0.0756862,0.502005,10.5518,0.249648,2.50446,0.307738,1.10857,0.116529,0.217678,-1.49888,-0.0254773,0.201416,-0.121118,-0.0245033,-0.0605589,23.479,23.2946,23.1385,23.2804,23.2094,23.2662,23.1243,
55,6.27273,1.38193,3.15332,4.12238,6.27427,1.97716,1.55576,0.00198694,-0.107499,-5.56393e-05,0.106689,9.53816e-05,0.0160341,3.70369e-05,0.437333,-11.3434,-0.431988,-2.40889,1.04362,-43.185,1.20716,0.0167822,-20,-0.496282,-0.0742835,-0.0392243,-1.42616,0.0244021,-8.07093e-05,0.01014,-3.25801e-05,0.494293,0.00134365,0.0735894,0.0533808,-0.000267952,0.0425254,1.95718,7.55417e-05,0.005,1.71366,0.000287831,-0.0336195,-0.279653,34.2648,-0.0769923,0.464353,10.894,0.249543,2.47443,0.338883,0.923959,0.147116,0.201577,-1.51467,-0.0290486,0.257812,-0.120917,0.0127387,-0.0645789,23.4932,23.3087,23.1527,23.2804,23.1952,23.2662,23.1101,
56,6.27273,1.38193,3.15332,4.12238,6.27427,1.97716,1.55576,0.00198694,-0.107499,-5.56393e-05,0.106689,9.53816e-05,0.0160341,3.70369e-05,0.439317,-11.5185,-0.432959,-2.5416,1.05927,-43.8629,1.21896,0.017309,-20,-0.498687,-0.0975497,-0.0391835,-1.49377,0.0248092,-8.21708e-05,0.0103683,-3.28915e-05,0.494293,0.00134365,0.0735894,0.0533808,-0.000267952,0.0425254,1.95612,8.05555e-05,0.005,1.71247,0.000313656,-0.0337729,-0.283691,34.9004,-0.0761338,0.464353,10.894,0.249543,2.47443,0.338883,0.923959,0.147116,0.201577,-1.51467,-0.0290486,0.257812,-0.120917,0.0127387,-0.0645789,23.4932,23.3087,23.1527,23.2804,23.1952,23.2662,23.1101,
57,6.27273,1.38182,3.15332,4.12248,6.27427,1.97718,1.55576,0.00185471,-0.10823,-5.56814e-05,0.106959,0.000105901,0.0124245,3.70372e-05,0.43933,-11.5161,-0.433019,-2.54173,1.05926,-43.8604,1.21891,0.0172919,-20,-0.4987,-0.0952489,-0.0391744,-1.4941,0.024808,-8.21708e-05,0.0103683,-3.28915e-05,0.494293,0.00134365,0.0735894,0.0536092,-0.000218224,0.0424412,1.95612,8.05555e-05,0.005,1.71247,0.000313656,-0.0337729,-0.283691,34.9004,-0.0761338,0.492656,11.296,0.229531,2.52718,0.382372,0.74401,0.10761,0.201577,-1.52279,-0.0241699,0.22573,-0.117099,0.0293266,-0.0605589,23.479,23.3087,23.1385,23.252,23.2094,23.2662,23.1101,
58,6.27273,1.38171,3.15332,4.1226,6.27427,1.97719,1.55576,0.00185471,-0.105878,-5.56814e-05,0.105975,0.00010582,0.0108039,3.70369e-05,0.441213,-11.6663,-0.436102,-2.65755,1.06655,-44.4456,1.23244,0.0177628,-20,-0.500949,-0.11299,-0.0391775,-1.55305,0.0255349,-8.46627e-05,0.0106013,-3.36685e-05,0.494293,0.00134365,0.0735894,0.0528282,-0.000228302,0.0413658,1.95503,8.10895e-05,0.005,1.71128,0.000269383,-0.0336971,-0.290818,35.4512,-0.080958,0.431065,11.6296,0.18618,2.55619,0.366854,0.529643,0.114965,0.217529,-1.52273,-0.0180152,0.201577,-0.116821,0.0645789,-0.0525229,23.4648,23.3087,23.1527,23.2662,23.2094,23.252,23.1101,
59,6.27274,1.38161,3.15331,4.1227,6.27427,1.97719,1.55576,0.00193089,-0.103447,-5.83329e-05,0.106148,0.000116403,0.00626921,3.70648e-05,0.442702,-11.7958,-0.436538,-2.7549,1.07905,-44.943,1.24264,0.0181292,-20,-0.502738,-0.12728,-0.0391424,-1.60267,0.0259846,-8.66786e-05,0.0108287,-3.35219e-05,0.494293,0.00134365,0.0735894,0.0523669,-0.000269121,0.0399303,1.95394,8.39222e-05,0.005,1.711,0.000281002,-0.0327292,-0.295261,35.9166,-0.0794917,0.440913,11.9024,0.236335,2.52411,0.34042,0.244481,0.0808187,0.209628,-1.58734,-0.0322266,0.225586,-0.109063,0.0765381,-0.0485074,23.4648,23.3087,23.1385,23.2662,23.1952,23.2662,23.1243,
60,6.27274,1.38151,3.15331,4.12281,6.27427,1.9772,1.55576,0.00188814,-0.102907,-5.82888e-05,0.107499,0.000126983,0.00377753,3.70648e-05,0.443792,-11.9,-0.435402,-2.83511,1.09328,-45.339,1.25387,0.0183956,-20,-0.504089,-0.138997,-0.0390847,-1.64221,0.0266312,-8.92802e-05,0.011042,-3.31874e-05,0.494293,0.00134365,0.0735894,0.0526414,-0.000253506,0.0394414,1.95291,9.22134e-05,0.005,1.71049,0.000325201,-0.0314372,-0.301739,36.2887,-0.0746311,0.366577,12.2152,0.280258,2.55378,0.38301,0.0010938,0.128771,0.193527,-1.6678,-0.0241699,0.217678,-0.108839,0.133178,-0.0523682,23.479,23.2946,23.1527,23.2662,23.1385,23.2662,23.1243,
61,6.27274,1.38141,3.15331,4.12291,6.27427,1.9772,1.55576,0.00194693,-0.102097,-5.83329e-05,0.106148,0.000132374,0.00108039,4.76188e-05,0.445532,-12.0424,-0.437641,-2.94521,1.10227,-45.8909,1.26669,0.0188292,-20,-0.506174,-0.155987,-0.0390722,-1.69772,0.0273069,-9.16303e-05,0.0112531,-3.38408e-05,0.494293,0.00134365,0.0735894,0.0520796,-0.000285542,0.0388682,1.95187,9.3611e-05,0.005,1.70931,0.000312405,-0.0309973,-0.308353,36.8084,-0.0773159,0.37981,12.5963,0.273456,2.62135,0.443039,-0.171508,0.0933472,0.185303,-1.69189,-0.0332184,0.177429,-0.101431,0.153129,-0.0563965,23.4648,23.3087,23.1385,23.2804,23.1952,23.2662,23.1101,
62,6.27274,1.3813,3.15331,4.12302,6.27427,1.9772,1.55576,0.00192071,-0.099712,-5.83329e-05,0.105072,0.00015344,0,4.76188e-05,0.446733,-12.1559,-0.436158,-3.03151,1.11851,-46.329,1.27383,0.0191197,-20,-0.507612,-0.168373,-0.0390049,-1.74167,0.0274939,-9.2677e-05,0.0114594,-3.28837e-05,0.494293,0.00134365,0.0735894,0.0512655,-0.000282563,0.0378374,1.95085,0.000104685,0.005,1.70889,0.000351204,-0.0304814,-0.310315,37.2195,-0.0714371,0.309485,12.8842,0.272144,2.65862,0.442812,-0.349597,0.0969487,0.201577,-1.68478,-0.0332184,0.217529,-0.100789,0.185347,-0.0529843,23.4506,23.2946,23.1243,23.2804,23.1952,23.2804,23.1101,
63,6.27274,1.38121,3.15331,4.12313,6.27428,1.9772,1.55576,0.00192071,-0.098956,-5.83329e-05,0.105878,0.000169313,0,3.70652e-05,0.448305,-12.2818,-0.439234,-3.12675,1.12336,-46.8111,1.28608,0.0195111,-20,-0.509546,-0.182697,-0.0390117,-1.78972,0.028199,-9.55406e-05,0.011677,-3.45241e-05,0.494293,0.00134365,0.0735894,0.0513365,-0.000281081,0.0375353,1.94976,0.000103687,0.005,1.70864,0.000347625,-0.0295536,-0.317263,37.671,-0.0763784,0.32569,13.1299,0.315553,2.63541,0.441933,-0.497403,0.0739143,0.185478,-1.74025,-0.0360304,0.201577,-0.0974321,0.201577,-0.0525229,23.4506,23.3087,23.1385,23.252,23.1952,23.2662,23.1243,
64,6.27274,1.38121,3.15331,4.12313,6.27428,1.9772,1.55576,0.00192071,-0.098956,-5.83329e-05,0.105878,0.000169313,0,3.70652e-05,0.450075,-12.4333,-0.44127,-3.2415,1.13339,-47.3938,1.29924,0.0199811,-20,-0.511714,-0.202781,-0.0390004,-1.84772,0.0288712,-9.78318e-05,0.0118787,-3.51034e-05,0.494293,0.00134365,0.0735894,0.0513365,-0.000281081,0.0375353,1.94875,0.000105465,0.005,1.70767,0.000347891,-0.0292818,-0.323899,38.2171,-0.0786613,0.32569,13.1299,0.315553,2.63541,0.441933,-0.497403,0.0739143,0.185478,-1.74025,-0.0360304,0.201577,-0.0974321,0.201577,-0.0525229,23.4506,23.3087,23.1385,23.252,23.1952,23.2662,23.1243,
65,6.27275,1.38111,3.15331,4.12323,6.27428,1.9772,1.55576,0.00194693,-0.0998348,-5.83329e-05,0.106418,0.000190475,0,3.70372e-05,0.450111,-12.4314,-0.441398,-3.24221,1.13339,-47.3912,1.29923,0.0199649,-20,-0.51173,-0.200874,-0.0389938,-1.84796,0.0288723,-9.78318e-05,0.0118787,-3.51034e-05,0.494293,0.00134365,0.0735894,0.0516735,-0.000286531,0.0378865,1.94875,0.000105465,0.005,1.70767,0.000347891,-0.0292818,-0.323899,38.2171,-0.0786613,0.279642,13.4232,0.329662,2.60322,0.484201,-0.607178,0.0922627,0.177246,-1.74831,-0.0332184,0.177977,-0.100789,0.201456,-0.0483398,23.479,23.3087,23.1385,23.252,23.1811,23.2662,23.1243,
66,6.27275,1.38111,3.15331,4.12336,6.27428,1.9772,1.55576,0.00192095,-0.0998348,-6.36359e-05,0.10442,0.000201057,0,3.70369e-05,0.451998,-12.5923,-0.442698,-3.36687,1.14694,-48.0196,1.31323,0.0204613,-20,-0.514006,-0.22119,-0.0389564,-1.91121,0.0295664,-0.000100137,0.0120823,-3.51563e-05,0.494293,0.00134365,0.0735894,0.0510967,-0.000278179,0.0379267,1.94773,0.000111392,0.005,1.70645,0.000358131,-0.0295979,-0.330763,38.8093,-0.078788,0.28533,13.4232,0.297925,2.59665,0.510176,-0.721454,0.0816926,0.169189,-1.74831,-0.0402832,0.169381,-0.088623,0.193359,-0.0443115,23.4648,23.3087,23.1243,23.252,23.1952,23.252,23.1243,
67,6.27275,1.381,3.15331,4.12346,6.27428,1.9772,1.55576,0.00192095,-0.0998058,-6.36352e-05,0.105338,0.000206348,-0.000425595,3.70369e-05,0.452927,-12.6686,-0.443466,-3.42548,1.15316,-48.3195,1.32062,0.0206808,-20,-0.515112,-0.229139,-0.0389398,-1.94147,0.0299717,-0.000101702,0.0122091,-3.51137e-05,0.494293,0.00134365,0.0735894,0.0513524,-0.000276575,0.0378667,1.94699,0.00011553,0.005,1.70631,0.000354338,-0.029634,-0.334764,39.0916,-0.0790841,0.197947,13.7617,0.279359,2.54391,0.506678,-0.802753,0.0797212,0.169189,-1.7322,-0.0332184,0.194864,-0.0927389,0.193527,-0.0444942,23.4648,23.2946,23.1385,23.252,23.1952,23.2662,23.1243,
68,6.27275,1.381,3.15331,4.12346,6.27428,1.9772,1.55576,0.00192095,-0.0998058,-6.36352e-05,0.105338,0.000206348,-0.000425595,3.70369e-05,0.454745,-12.8274,-0.444764,-3.54639,1.16599,-48.9327,1.33364,0.0211634,-20,-0.517325,-0.250337,-0.0389147,-2.00264,0.0305894,-0.000103869,0.012417,-3.51674e-05,0.494293,0.00134365,0.0735894,0.0513524,-0.000276575,0.0378667,1.94595,0.000118056,0.005,1.70514,0.000355168,-0.0295801,-0.340877,39.667,-0.0795005,0.197947,13.7617,0.279359,2.54391,0.506678,-0.802753,0.0797212,0.169189,-1.7322,-0.0332184,0.194864,-0.0927389,0.193527,-0.0444942,23.4648,23.2946,23.1385,23.252,23.1952,23.2662,23.1243,
69,6.27275,1.38091,3.15331,4.12357,6.27428,1.97719,1.55576,0.00181386,-0.0983155,-6.36359e-05,0.10712,0.000216932,-0.00062213,3.70648e-05,0.454768,-12.8256,-0.444841,-3.54699,1.16599,-48.9302,1.33357,0.0211473,-20,-0.517344,-0.248208,-0.0389064,-2.00289,0.0305862,-0.000103869,0.012417,-3.51674e-05,0.494293,0.00134365,0.0735894,0.0515515,-0.000232837,0.0372366,1.94595,0.000118056,0.005,1.70514,0.000355168,-0.0295801,-0.340877,39.667,-0.0795005,0.225948,14.0334,0.347164,2.45812,0.48847,-0.918653,0.0463831,0.161334,-1.74023,-0.0402832,0.185303,-0.0845947,0.197388,-0.0402832,23.4506,23.2804,23.1385,23.2804,23.1952,23.252,23.1101,
70,6.27275,1.38081,3.15331,4.12366,6.27428,1.97719,1.55576,0.00159294,-0.0983155,-6.36359e-05,0.108251,0.000216932,-0.00109471,3.70648e-05,0.456641,-12.9754,-0.448765,-3.66283,1.1706,-49.5088,1.34605,0.0216282,-20,-0.519664,-0.266578,-0.038923,-2.06089,0.0312287,-0.000106166,0.0126177,-3.62668e-05,0.494293,0.00134365,0.0735894,0.0518751,-0.000143494,0.0371787,1.94493,0.00011564,0.005,1.70404,0.000313629,-0.0290129,-0.347165,40.2115,-0.0865011,0.167614,14.2674,0.36608,2.36289,0.497324,-1.04526,0.0661505,0.177246,-1.77248,-0.0402832,0.137907,-0.0926514,0.197388,-0.0485074,23.4648,23.3087,23.1385,23.252,23.1952,23.2378,23.1101,
71,6.27275,1.38071,3.15331,4.12377,6.27428,1.97718,1.55576,0.00153394,-0.095292,-6.36359e-05,0.109389,0.000216932,-0.00152351,4.76908e-05,0.458469,-13.1156,-0.452981,-3.77151,1.17339,-50.055,1.35676,0.0220862,-20,-0.521867,-0.283181,-0.0389545,-2.11593,0.0317461,-0.00010792,0.012801,-3.67123e-05,0.494293,0.00134365,0.0735894,0.0515676,-0.000124977,0.0359259,1.944,0.000111803,0.005,1.70292,0.000229767,-0.0289608,-0.352172,40.7263,-0.0945095,0.176422,14.5659,0.399376,2.30737,0.497324,-1.1651,0.0644106,0.161334,-1.74831,-0.0332184,0.0966797,-0.0926514,0.197388,-0.0404841,23.4648,23.3087,23.1385,23.252,23.1952,23.2662,23.1101,
72,6.27275,1.38062,3.15331,4.1239,6.27428,1.97718,1.55576,0.0012981,-0.0912005,-6.36359e-05,0.112537,0.000227512,-0.00212416,4.77269e-05,0.460045,-13.2496,-0.45484,-3.87475,1.18199,-50.5678,1.36405,0.0224852,-20,-0.523845,-0.298403,-0.0389422,-2.16722,0.0319167,-0.000108927,0.0130053,-3.68139e-05,0.494293,0.00134365,0.0735894,0.0516175,-3.33388e-05,0.0341995,1.94296,0.000111273,0.005,1.70225,0.000212625,-0.0278333,-0.353894,41.2084,-0.0967525,0.119747,14.8955,0.416976,2.23414,0.496826,-1.29353,0.0587972,0.153922,-1.81339,-0.0332184,0.0742786,-0.0849775,0.201416,-0.0404841,23.4648,23.3087,23.1385,23.252,23.1669,23.2662,23.1243,
73,6.27275,1.38062,3.15331,4.1239,6.27428,1.97718,1.55576,0.0012981,-0.0912005,-6.36359e-05,0.112537,0.000227512,-0.00212416,4.77269e-05,0.462065,-13.4045,-0.461281,-3.99254,1.17943,-51.1524,1.37635,0.0230216,-20,-0.526378,-0.319047,-0.039019,-2.22511,0.0325709,-0.000111411,0.0132252,-3.87296e-05,0.494293,0.00134365,0.0735894,0.0516175,-3.33388e-05,0.0341995,1.94179,0.000103725,0.005,1.70115,0.000123357,-0.0262795,-0.360211,41.7559,-0.11011,0.119747,14.8955,0.416976,2.23414,0.496826,-1.29353,0.0587972,0.153922,-1.81339,-0.0332184,0.0742786,-0.0849775,0.201416,-0.0404841,23.4648,23.3087,23.1385,23.252,23.1669,23.2662,23.1243,
74,6.27275,1.38053,3.15331,4.12401,6.27428,1.97717,1.55576,0.00123909,-0.088592,-6.36359e-05,0.11155,0.000227512,-0.00276609,4.77264e-05,0.462099,-13.4029,-0.461367,-3.99277,1.17946,-51.1506,1.37636,0.0230054,-20,-0.526388,-0.31667,-0.0390109,-2.22544,0.0325727,-0.000111411,0.0132252,-3.87296e-05,0.494293,0.00134365,0.0735894,0.0507841,-1.88719e-05,0.033122,1.94179,0.000103725,0.005,1.70115,0.000123357,-0.0262795,-0.360211,41.7559,-0.11011,0.123171,15.2058,0.444086,2.13982,0.492309,-1.47169,0.0846225,0.153076,-1.88527,-0.0332184,0,-0.076961,0.193359,-0.0483398,23.479,23.2946,23.1101,23.2662,23.1811,23.2662,23.1101,
75,6.27275,1.38044,3.15331,4.12412,6.27428,1.97716,1.55576,0.00112108,-0.0869714,-6.36352e-05,0.10793,0.000227512,-0.00336622,4.77264e-05,0.463352,-13.5099,-0.46266,-4.07329,1.18686,-51.5589,1.3847,0.0233154,-20,-0.527935,-0.328212,-0.0390003,-2.26619,0.0329593,-0.000113222,0.0134137,-3.87973e-05,0.494293,0.00134365,0.0735894,0.0493968,1.5519e-05,0.0324826,1.94079,0.000103836,0.005,1.701,0.000110437,-0.0253098,-0.36403,42.1378,-0.111436,0.0713823,15.4609,0.440184,1.97796,0.473836,-1.64223,0.0597643,0.161133,-1.93386,-0.0332184,0.0180152,-0.0805664,0.197552,-0.0444942,23.4648,23.2946,23.1243,23.2662,23.1669,23.2378,23.1101,
76,6.27275,1.38036,3.15331,4.12422,6.27428,1.97715,1.55576,0.000885065,-0.0875116,-6.36359e-05,0.104904,0.000238094,-0.00484018,4.76908e-05,0.464429,-13.5986,-0.46463,-4.13884,1.19025,-51.9008,1.39158,0.0235855,-20,-0.529295,-0.337235,-0.03901,-2.30024,0.033298,-0.000114994,0.0135967,-3.93459e-05,0.494293,0.00134365,0.0735894,0.0486348,0.0001025,0.0325991,1.93981,9.99507e-05,0.005,1.70137,7.59885e-05,-0.0247344,-0.367406,42.4565,-0.114939,0.0887285,15.7564,0.452484,1.88386,0.479497,-1.77541,0.0543195,0.161334,-1.94986,-0.0332184,0.0809682,-0.0685998,0.189331,-0.0402832,23.4648,23.2946,23.1385,23.252,23.1811,23.252,23.1101,
77,6.27275,1.38036,3.15331,4.12422,6.27428,1.97715,1.55576,0.000885065,-0.0875116,-6.36359e-05,0.104904,0.000238094,-0.00484018,4.76908e-05,0.465809,-13.6987,-0.46973,-4.21315,1.18602,-52.2888,1.40079,0.023952,-20,-0.530996,-0.350088,-0.0390773,-2.33879,0.0338586,-0.000117166,0.0137748,-4.13396e-05,0.494293,0.00134365,0.0735894,0.0486348,0.0001025,0.0325991,1.93885,8.99467e-05,0.005,1.7012,-1.1298e-05,-0.0248392,-0.372813,42.8187,-0.125991,0.0887285,15.7564,0.452484,1.88386,0.479497,-1.77541,0.0543195,0.161334,-1.94986,-0.0332184,0.0809682,-0.0685998,0.189331,-0.0402832,23.4648,23.2946,23.1385,23.252,23.1811,23.252,23.1101,
78,6.27275,1.38027,3.15331,4.12433,6.27428,1.97714,1.55576,0.000766971,-0.0867659,-6.36359e-05,0.101466,0.000238094,-0.0079272,4.77269e-05,0.465831,-13.6968,-0.469786,-4.21304,1.18603,-52.287,1.40076,0.023935,-20,-0.531,-0.34766,-0.0390697,-2.33916,0.0338587,-0.000117166,0.0137748,-4.13396e-05,0.494293,0.00134365,0.0735894,0.0474856,0.000135319,0.0320405,1.93885,8.99467e-05,0.005,1.7012,-1.1298e-05,-0.0248392,-0.372813,42.8187,-0.125991,0.0453796,16.0741,0.460081,1.72448,0.475511,-1.86956,0.0308774,0.153076,-1.90152,-0.0360304,0.145243,-0.072956,0.197388,-0.0404841,23.4648,23.3087,23.1243,23.2662,23.2094,23.2662,23.0959,
79,6.27275,1.38018,3.15331,4.12443,6.27428,1.97712,1.55576,0.000707974,-0.0864312,-6.36359e-05,0.099666,0.000248678,-0.0111269,4.77269e-05,0.466818,-13.7774,-0.471305,-4.27334,1.19004,-52.5989,1.40795,0.0241758,-20,-0.532215,-0.355842,-0.0390747,-2.37035,0.0342541,-0.000119015,0.0139636,-4.18755e-05,0.494293,0.00134365,0.0735894,0.0468965,0.000149981,0.0316063,1.93784,8.57848e-05,0.005,1.70132,-4.45806e-05,-0.0243365,-0.376715,43.1104,-0.12841,0.046028,16.3348,0.498107,1.6167,0.463939,-1.98683,0.031973,0.136963,-1.90944,-0.0490066,0.210091,-0.0725098,0.213501,-0.036478,23.4364,23.2946,23.1385,23.252,23.1952,23.252,23.0959,
80,6.27276,1.3801,3.15331,4.12452,6.27428,1.97711,1.55576,0.000648976,-0.0866134,-6.36359e-05,0.096965,0.000248678,-0.0125521,4.77269e-05,0.467843,-13.8604,-0.472885,-4.3369,1.19443,-52.9207,1.41673,0.0244256,-20,-0.533461,-0.364823,-0.0390732,-2.40269,0.034789,-0.000121127,0.0141348,-4.27319e-05,0.494293,0.00134365,0.0735894,0.0461536,0.000165602,0.0315792,1.93692,8.45407e-05,0.005,1.70102,-5.88961e-05,-0.0239457,-0.381982,43.4127,-0.13073,-0.0332772,16.6321,0.530399,1.41664,0.451045,-2.09733,0.0305059,0.161133,-1.87721,-0.0402832,0.241833,-0.0605589,0.237671,-0.0332184,23.479,23.2804,23.1243,23.252,23.1811,23.252,23.1101,
81,6.27276,1.38001,3.15331,4.12462,6.27428,1.9771,1.55576,0.000649048,-0.0848106,-6.36359e-05,0.0964248,0.000248676,-0.0135239,5.82882e-05,0.468942,-13.9509,-0.474036,-4.40551,1.20084,-53.2743,1.42454,0.0246925,-20,-0.534776,-0.374552,-0.0390639,-2.43822,0.0351859,-0.000122803,0.0143015,-4.30811e-05,0.494293,0.00134365,0.0735894,0.0456192,0.000158879,0.030777,1.93601,8.13111e-05,0.005,1.70087,-7.58616e-05,-0.0239213,-0.385892,43.7445,-0.131873,0.0206151,17.0063,0.556354,1.33867,0.436499,-2.20291,0.0356251,0.14502,-1.86115,-0.0332184,0.265991,-0.0563965,0.237807,-0.0362549,23.4506,23.2946,23.1385,23.252,23.1952,23.252,23.1101,
82,6.27276,1.38001,3.15331,4.12472,6.27428,1.97708,1.55576,0.000649048,-0.0848106,-6.36352e-05,0.0967966,0.000253967,-0.0129647,5.83329e-05,0.470041,-14.0475,-0.474886,-4.47984,1.20848,-53.6436,1.42953,0.0249794,-20,-0.536165,-0.386225,-0.0390506,-2.47506,0.0352739,-0.000123523,0.0144669,-4.34381e-05,0.494293,0.00134365,0.0735894,0.0457267,0.000161115,0.0308358,1.93511,7.81532e-05,0.005,1.70054,-7.26535e-05,-0.0231993,-0.386816,44.0915,-0.132211,0.0206151,17.0063,0.54637,1.29636,0.428233,-2.29633,0.0223836,0.14502,-1.86115,-0.041081,0.257938,-0.0525229,0.241699,-0.036478,23.4506,23.2946,23.1243,23.252,23.1811,23.2662,23.1101,
83,6.27276,1.37993,3.15331,4.12472,6.27428,1.97708,1.55576,0.000638329,-0.0794936,-6.36352e-05,0.0967966,0.000253967,-0.0129647,5.83329e-05,0.47105,-14.1223,-0.477436,-4.53648,1.20959,-53.934,1.43579,0.0252231,-20,-0.537333,-0.394944,-0.0390605,-2.50424,0.0355872,-0.000124582,0.0145574,-4.49263e-05,0.494293,0.00134365,0.0735894,0.0446117,0.000153736,0.0287257,1.93451,7.29942e-05,0.005,1.69991,-7.93091e-05,-0.0232522,-0.389826,44.3639,-0.136755,0.0152715,17.3477,0.54637,1.29636,0.428233,-2.29633,0.0223836,0.136963,-1.88527,-0.041081,0.257938,-0.0525229,0.241699,-0.036478,23.4648,23.3087,23.1243,23.252,23.1811,23.2662,23.1101,
84,6.27276,1.37985,3.15331,4.12482,6.27428,1.97707,1.55576,0.000531941,-0.0734665,-6.36359e-05,0.0963271,0.000253967,-0.0135239,5.83329e-05,0.471275,-14.1459,-0.477138,-4.55232,1.21258,-54.0102,1.43738,0.0252591,-20,-0.537652,-0.395105,-0.0390514,-2.51139,0.0356529,-0.000125457,0.0146419,-4.43916e-05,0.494293,0.00134365,0.0735894,0.0432142,0.000180989,0.0262854,1.93416,7.35522e-05,0.005,1.70059,-7.21651e-05,-0.0213532,-0.390518,44.4323,-0.135634,0.0234629,17.6315,0.570933,1.21755,0.406184,-2.42039,0.0378745,0.136963,-1.97414,-0.0402832,0.233781,-0.0537445,0.225586,-0.036478,23.4648,23.3087,23.1385,23.2378,23.1952,23.2662,23.0959,
85,6.27276,1.37979,3.15331,4.12491,6.27428,1.97705,1.55576,0.000478699,-0.0688749,-5.83329e-05,0.0958846,0.000253967,-0.0167666,5.83329e-05,0.472024,-14.2061,-0.479594,-4.59586,1.21149,-54.2264,1.44171,0.0254356,-20,-0.53866,-0.400223,-0.0390846,-2.53242,0.0358757,-0.000126997,0.0147942,-4.52536e-05,0.494293,0.00134365,0.0735894,0.0421282,0.000184567,0.0241304,1.93331,6.67045e-05,0.005,1.70108,-0.000102856,-0.0191569,-0.392673,44.6319,-0.140743,-0.0360029,17.8473,0.579033,1.12052,0.374584,-2.55636,0.0310734,0.129909,-2.0707,-0.0254773,0.225586,-0.0529843,0.221704,-0.036478,23.4506,23.2662,23.1385,23.2662,23.1811,23.252,23.0959,
86,6.27276,1.37979,3.15331,4.12491,6.27428,1.97705,1.55576,0.000478699,-0.0688749,-5.83329e-05,0.0958846,0.000253967,-0.0167666,5.83329e-05,0.472504,-14.25,-0.480606,-4.6274,1.21265,-54.3777,1.44425,0.025563,-20,-0.539325,-0.405557,-0.0390989,-2.54674,0.0359681,-0.000127961,0.0149376,-4.59565e-05,0.494293,0.00134365,0.0735894,0.0421282,0.000184567,0.0241304,1.93248,6.31924e-05,0.005,1.70131,-0.000109237,-0.0172174,-0.39357,44.7708,-0.142606,-0.0360029,17.8473,0.579033,1.12052,0.374584,-2.55636,0.0310734,0.129909,-2.0707,-0.0254773,0.225586,-0.0529843,0.221704,-0.036478,23.4506,23.2662,23.1385,23.2662,23.1811,23.252,23.0959,
87,6.27276,1.37972,3.15331,4.12501,6.27428,1.97703,1.55576,0.000369517,-0.0661739,-5.83329e-05,0.0964248,0.000253969,-0.020787,5.83329e-05,0.47252,-14.2482,-0.480646,-4.62733,1.21264,-54.376,1.44419,0.0255497,-20,-0.539334,-0.40353,-0.0390933,-2.54699,0.0359666,-0.000127961,0.0149376,-4.59565e-05,0.494293,0.00134365,0.0735894,0.0417227,0.000216938,0.0226294,1.93248,6.31924e-05,0.005,1.70131,-0.000109237,-0.0172174,-0.39357,44.7708,-0.142606,-0.0293584,18.0579,0.606868,1.03464,0.377179,-2.65788,0.0252058,0.136963,-2.1109,-0.0161133,0.217529,-0.0404841,0.241699,-0.0284845,23.4506,23.2946,23.1243,23.252,23.1811,23.2662,23.1101,
88,6.27276,1.37972,3.15331,4.12501,6.27428,1.97703,1.55576,0.000369517,-0.0661739,-5.83329e-05,0.0964248,0.000253969,-0.020787,5.83329e-05,0.473194,-14.3037,-0.482454,-4.66949,1.21281,-54.5778,1.4495,0.0257286,-20,-0.540208,-0.410895,-0.0391183,-2.56674,0.0362982,-0.000129424,0.0150761,-4.67208e-05,0.494293,0.00134365,0.0735894,0.0417227,0.000216938,0.0226294,1.93165,5.68694e-05,0.005,1.70094,-0.000144062,-0.0158664,-0.396808,44.9593,-0.146332,-0.0293584,18.0579,0.606868,1.03464,0.377179,-2.65788,0.0252058,0.136963,-2.1109,-0.0161133,0.217529,-0.0404841,0.241699,-0.0284845,23.4506,23.2946,23.1243,23.252,23.1811,23.2662,23.1101,
89,6.27276,1.37966,3.15331,4.12511,6.27428,1.977,1.55576,0.000319133,-0.0655672,-5.83329e-05,0.0960443,0.000264549,-0.0243088,5.82888e-05,0.47321,-14.3018,-0.482508,-4.66962,1.21277,-54.5758,1.44936,0.025715,-20,-0.540218,-0.408964,-0.0391143,-2.56697,0.0362921,-0.000129424,0.0150761,-4.67208e-05,0.494293,0.00134365,0.0735894,0.041489,0.000230292,0.0220284,1.93165,5.68694e-05,0.005,1.70094,-0.000144062,-0.0158664,-0.396808,44.9593,-0.146332,-0.0243812,18.2314,0.623157,0.93406,0.369044,-2.74597,0.0136486,0.11308,-2.14308,-0.0227876,0.20206,-0.0525229,0.261872,-0.0281982,23.4648,23.3087,23.1527,23.2662,23.1811,23.2662,23.1101,
90,6.27276,1.37959,3.15331,4.12511,6.27428,1.97698,1.55576,0.000319133,-0.0644475,-5.83329e-05,0.0960443,0.000264552,-0.0289004,6.62874e-05,0.474129,-14.3716,-0.485073,-4.72232,1.2129,-54.8433,1.45727,0.0259434,-20,-0.54133,-0.417397,-0.0391356,-2.5936,0.0368117,-0.000131358,0.0152189,-4.85144e-05,0.494293,0.00134365,0.0735894,0.0412588,0.000220578,0.0210995,1.93079,4.82553e-05,0.005,1.70037,-0.000163833,-0.0153255,-0.401866,45.2097,-0.151271,-0.0238316,18.3655,0.660028,0.93406,0.37004,-2.85337,0.0196987,0.104736,-2.10284,-0.00805664,0.20206,-0.0404841,0.294178,-0.0322266,23.4506,23.2946,23.1385,23.2662,23.1811,23.252,23.1243,
91,6.27276,1.37959,3.15331,4.12511,6.27428,1.97698,1.55576,0.000319133,-0.0644475,-5.83329e-05,0.0960443,0.000264552,-0.0289004,6.62874e-05,0.473856,-14.3561,-0.483583,-4.71108,1.21515,-54.7756,1.45541,0.025871,-20,-0.541019,-0.415475,-0.0391207,-2.58666,0.0366866,-0.000131136,0.0152589,-4.80829e-05,0.494293,0.00134365,0.0735894,0.0412588,0.000220578,0.0210995,1.93051,4.61774e-05,0.005,1.70032,-0.00015696,-0.0144896,-0.400674,45.1463,-0.148047,-0.0238316,18.3655,0.660028,0.93406,0.37004,-2.85337,0.0196987,0.104736,-2.10284,-0.00805664,0.20206,-0.0404841,0.294178,-0.0322266,23.4506,23.2946,23.1385,23.2662,23.1811,23.252,23.1243,
92,6.27276,1.37953,3.15331,4.1252,6.27428,1.97694,1.55576,0.000290527,-0.0632028,-5.83329e-05,0.0921032,0.000264549,-0.0295907,6.62874e-05,0.473883,-14.355,-0.483652,-4.71108,1.21515,-54.7745,1.45537,0.0258572,-20,-0.541023,-0.413612,-0.0391165,-2.58691,0.0366859,-0.000131136,0.0152589,-4.80829e-05,0.494293,0.00134365,0.0735894,0.0398601,0.000219516,0.0205984,1.93051,4.61774e-05,0.005,1.70032,-0.00015696,-0.0144896,-0.400674,45.1463,-0.148047,-0.0537298,18.4718,0.654553,0.855646,0.346169,-2.93652,0.0302037,0.12085,-2.10284,-0.0180152,0.185478,-0.041081,0.322366,-0.0201416,23.4648,23.2804,23.1385,23.2378,23.1952,23.252,23.1243,
93,6.27276,1.37946,3.15332,4.12529,6.27428,1.97691,1.55576,0.000240466,-0.0629327,-5.56814e-05,0.0890419,0.000275131,-0.0318715,6.62874e-05,0.474384,-14.3979,-0.484262,-4.74169,1.21785,-54.9394,1.45948,0.0259718,-20,-0.541661,-0.416911,-0.0391156,-2.60326,0.0369252,-0.000132534,0.0153807,-4.86545e-05,0.494293,0.00134365,0.0735894,0.0389211,0.000228811,0.0203025,1.92972,4.04657e-05,0.005,1.70087,-0.000161146,-0.0140386,-0.403087,45.2989,-0.148782,-0.0414894,18.6126,0.685052,0.688781,0.339404,-3.00598,0.0463098,0.112793,-2.09479,-0.0180152,0.250275,-0.036478,0.318237,-0.0284845,23.4506,23.2946,23.1243,23.252,23.1811,23.2662,23.1101,
94,6.27276,1.3794,3.15332,4.12538,6.27428,1.97688,1.55576,0.000144267,-0.0626626,-5.56814e-05,0.0867659,0.000275131,-0.0318392,6.62874e-05,0.47496,-14.4397,-0.486115,-4.77313,1.21718,-55.1017,1.46445,0.026107,-20,-0.542376,-0.420503,-0.0391305,-2.61956,0.0372648,-0.00013406,0.0154993,-5.01256e-05,0.494293,0.00134365,0.0735894,0.0382065,0.000261567,0.0202396,1.92895,3.43183e-05,0.005,1.70103,-0.000175044,-0.0137722,-0.406412,45.4509,-0.152458,-0.0879843,18.7522,0.678832,0.634783,0.352363,-3.03721,0.0424836,0.105046,-2.06252,-0.00805664,0.290039,-0.0402832,0.326393,-0.0324774,23.4506,23.3087,23.1385,23.2662,23.1952,23.252,23.0959,
95,6.27276,1.37933,3.15332,4.12547,6.27428,1.97685,1.55576,9.68422e-05,-0.0636952,-5.56814e-05,0.0867013,0.000275131,-0.0318715,6.62874e-05,0.475856,-14.5093,-0.488113,-4.82612,1.21886,-55.374,1.4704,0.0263274,-20,-0.543477,-0.428023,-0.0391449,-2.64688,0.0375869,-0.000135464,0.0156219,-5.07126e-05,0.494293,0.00134365,0.0735894,0.0384031,0.000282506,0.0206543,1.92816,2.85705e-05,0.005,1.70096,-0.000209697,-0.0137156,-0.409555,45.7066,-0.156159,-0.0928074,18.8972,0.702689,0.590669,0.358561,-3.08784,0.0411095,0.0966797,-2.0464,-0.0241699,0.306152,-0.036478,0.326319,-0.0284845,23.4506,23.2804,23.1527,23.252,23.1811,23.2378,23.1101,
96,6.27276,1.37933,3.15332,4.12547,6.27428,1.97685,1.55576,9.68422e-05,-0.0636952,-5.56814e-05,0.0867013,0.000275131,-0.0318715,6.62874e-05,0.477034,-14.6063,-0.489907,-4.90074,1.22392,-55.7526,1.47862,0.02664,-20,-0.544901,-0.441126,-0.0391472,-2.68485,0.038005,-0.00013687,0.0157435,-5.1223e-05,0.494293,0.00134365,0.0735894,0.0384031,0.000282506,0.0206543,1.92738,2.28712e-05,0.005,1.70008,-0.000233671,-0.0140888,-0.413658,46.0629,-0.158924,-0.0928074,18.8972,0.702689,0.590669,0.358561,-3.08784,0.0411095,0.0966797,-2.0464,-0.0241699,0.306152,-0.036478,0.326319,-0.0284845,23.4506,23.2804,23.1527,23.252,23.1811,23.2378,23.1101,
97,6.27276,1.37927,3.15332,4.12555,6.27429,1.97682,1.55576,4.84211e-05,-0.0615822,-5.56814e-05,0.0842704,0.000285716,-0.0331014,6.62867e-05,0.477059,-14.6052,-0.489971,-4.90064,1.22388,-55.7516,1.47851,0.0266268,-20,-0.544907,-0.439333,-0.0391435,-2.68507,0.0380002,-0.00013687,0.0157435,-5.1223e-05,0.494293,0.00134365,0.0735894,0.0372601,0.000290943,0.0197259,1.92738,2.28712e-05,0.005,1.70008,-0.000233671,-0.0140888,-0.413658,46.0629,-0.158924,-0.109077,19.0123,0.714484,0.557924,0.362349,-3.10911,0.0406418,0.088623,-1.99806,-0.00805664,0.290151,-0.0241699,0.314312,-0.0161133,23.4506,23.2946,23.1385,23.252,23.1952,23.252,23.1243,
98,6.27276,1.37922,3.15332,4.12564,6.27429,1.97678,1.55577,0,-0.0561803,-5.56814e-05,0.0825028,0.000285713,-0.0356529,7.42418e-05,0.477562,-14.64,-0.491974,-4.92554,1.22196,-55.8813,1.48335,0.0267387,-20,-0.545531,-0.441515,-0.0391655,-2.69787,0.0383625,-0.000138603,0.015852,-5.26299e-05,0.494293,0.00134365,0.0735894,0.0356231,0.000290569,0.0173382,1.92665,1.56229e-05,0.005,1.70045,-0.000247788,-0.0132533,-0.417196,46.1826,-0.163082,-0.0845839,19.2171,0.693345,0.532393,0.375677,-3.1056,0.0099628,0.105046,-2.01418,-0.0113938,0.33042,-0.0362549,0.322291,-0.0254773,23.4506,23.3087,23.1243,23.2662,23.1811,23.252,23.1101,
99,6.27276,1.37917,3.15332,4.12572,6.27429,1.97674,1.55577,0,-0.0518062,-5.03779e-05,0.0826498,0.000291004,-0.0375435,7.41857e-05,0.477588,-14.6453,-0.492381,-4.92733,1.2209,-55.8844,1.4819,0.0267261,-20,-0.545655,-0.439818,-0.0391802,-2.69752,0.0382228,-0.00013897,0.0159599,-5.31045e-05,0.494293,0.00134365,0.0735894,0.0347538,0.000277434,0.0153997,1.92591,1.04727e-05,0.005,1.70126,-0.000252087,-0.0111043,-0.415823,46.1822,-0.164064,-0.0720141,19.3525,0.678933,0.571048,0.377596,-3.10871,0.0173661,0.0970148,-2.11086,0.0113938,0.34681,-0.0201416,0.326294,-0.0324774,23.4364,23.3087,23.1385,23.252,23.1811,23.252,23.1101,
100,6.27276,1.37917,3.15332,4.12572,6.27429,1.97674,1.55577,0,-0.0518062,-5.03779e-05,0.0826498,0.000291004,-0.0375435,7.41857e-05,0.477858,-14.6707,-0.493141,-4.94542,1.22107,-55.966,1.4838,0.0267977,-20,-0.546054,-0.44286,-0.0391903,-2.70502,0.0383214,-0.000139856,0.0160553,-5.38783e-05,0.494293,0.00134365,0.0735894,0.0347538,0.000277434,0.0153997,1.92522,7.79892e-06,0.005,1.70142,-0.000242671,-0.00935977,-0.416789,46.2564,-0.165478,-0.0720141,19.3525,0.678933,0.571048,0.377596,-3.10871,0.0173661,0.0970148,-2.11086,0.0113938,0.34681,-0.0201416,0.326294,-0.0324774,23.4364,23.3087,23.1385,23.252,23.1811,23.252,23.1101,
101,6.27276,1.37912,3.15332,4.1258,6.27429,1.97671,1.55577,0,-0.0461414,-5.03789e-05,0.0831057,0.000301814,-0.0386239,7.42418e-05,0.477887,-14.6697,-0.493216,-4.94539,1.22103,-55.965,1.4837,0.0267859,-20,-0.546062,-0.441117,-0.039187,-2.70521,0.0383166,-0.000139856,0.0160553,-5.38783e-05,0.494293,0.00134365,0.0735894,0.0337033,0.000265487,0.0130284,1.92522,7.79892e-06,0.005,1.70142,-0.000242671,-0.00935977,-0.416789,46.2564,-0.165478,-0.0578018,19.477,0.704144,0.620736,0.385215,-3.08965,0.0126167,0.0805664,-2.15114,-0.0113938,0.322266,-0.0201416,0.338403,-0.0166092,23.4648,23.2946,23.1243,23.2662,23.1952,23.2378,23.0959,
102,6.27276,1.37907,3.15332,4.12588,6.27429,1.97666,1.55577,0,-0.044296,-5.03784e-05,0.084356,0.000312168,-0.0410873,7.42418e-05,0.478186,-14.6917,-0.494922,-4.96134,1.21837,-56.0337,1.4871,0.0268504,-20,-0.546509,-0.442226,-0.0392111,-2.71152,0.0385977,-0.00014146,0.0161484,-5.52295e-05,0.494293,0.00134365,0.0735894,0.0336823,0.000261366,0.0120187,1.92454,1.18681e-06,0.005,1.70176,-0.00023787,-0.0072256,-0.41958,46.319,-0.169103,-0.0574089,19.5327,0.706817,0.650209,0.403149,-3.07357,0.0377715,0.0805664,-2.24803,0,0.298205,-0.0127387,0.346436,-0.012085,23.4648,23.2946,23.1385,23.2378,23.1952,23.252,23.1101,
103,6.27276,1.37903,3.15332,4.12597,6.27429,1.97662,1.55577,0,-0.0437558,-5.56814e-05,0.0834273,0.00032275,-0.041595,7.42418e-05,0.478688,-14.729,-0.496531,-4.99187,1.21791,-56.1726,1.49254,0.0269688,-20,-0.547148,-0.446133,-0.039223,-2.72552,0.0390048,-0.000143015,0.0162313,-5.65074e-05,0.494293,0.00134365,0.0735894,0.033302,0.000259899,0.0117686,1.92388,-5.05425e-06,0.005,1.70118,-0.000239778,-0.00631687,-0.423628,46.4512,-0.172171,-0.0583216,19.6077,0.676393,0.698397,0.412301,-3.03898,0.0431341,0.090076,-2.22363,-0.00805664,0.241833,-0.0205405,0.362571,-0.0166092,23.4506,23.2946,23.1243,23.252,23.1952,23.252,23.1101,
104,6.27276,1.37903,3.15332,4.12597,6.27429,1.97662,1.55577,0,-0.0437558,-5.56814e-05,0.0834273,0.00032275,-0.041595,7.42418e-05,0.479354,-14.7809,-0.498376,-5.03119,1.21822,-56.3714,1.49888,0.0271454,-20,-0.547975,-0.452973,-0.0392368,-2.74527,0.0394321,-0.000144611,0.0163223,-5.78936e-05,0.494293,0.00134365,0.0735894,0.033302,0.000259899,0.0117686,1.92319,-1.16113e-05,0.005,1.7009,-0.000244359,-0.00609172,-0.427815,46.6374,-0.175692,-0.0583216,19.6077,0.676393,0.698397,0.412301,-3.03898,0.0431341,0.090076,-2.22363,-0.00805664,0.241833,-0.0205405,0.362571,-0.0166092,23.4506,23.2946,23.1243,23.252,23.1952,23.252,23.1101,
105,6.27276,1.37899,3.15332,4.12605,6.27429,1.97658,1.55577,0,-0.0437558,-5.03784e-05,0.0823797,0.000333332,-0.041595,8.48478e-05,0.479343,-14.7799,-0.498401,-5.03136,1.21817,-56.3702,1.49874,0.0271281,-20,-0.547984,-0.451595,-0.0392355,-2.74539,0.039428,-0.000144611,0.0163223,-5.78936e-05,0.494293,0.00134365,0.0735894,0.0329996,0.000257159,0.0117886,1.92319,-1.16113e-05,0.005,1.7009,-0.000244359,-0.00609172,-0.427815,46.6374,-0.175692,-0.0705253,19.6218,0.662273,0.739666,0.427118,-3.01202,0.0468764,0.072956,-2.20758,-0.00805664,0.241833,-0.0161133,0.346459,-0.0201416,23.4648,23.2804,23.1385,23.2662,23.1669,23.2662,23.0959,
106,6.27276,1.37894,3.15332,4.12614,6.27429,1.97654,1.55577,0,-0.0428814,-5.03784e-05,0.0840003,0.000333587,-0.0432156,8.48487e-05,0.480038,-14.8319,-0.500192,-5.072,1.21898,-56.5756,1.50052,0.0272981,-20,-0.548835,-0.457205,-0.0392423,-2.76613,0.0393922,-0.00014469,0.0164057,-5.9094e-05,0.494293,0.00134365,0.0735894,0.0332877,0.000256314,0.0112492,1.92254,-1.4848e-05,0.005,1.70058,-0.000244807,-0.00610971,-0.427414,46.8313,-0.178833,-0.0487382,19.6319,0.650283,0.761183,0.429763,-2.97459,0.023738,0.0805664,-2.1673,0,0.241833,-0.012085,0.346459,-0.0166092,23.4648,23.3087,23.1385,23.252,23.1952,23.2662,23.1243,
107,6.27276,1.3789,3.15332,4.12622,6.27429,1.97649,1.55577,0,-0.0410132,-5.03784e-05,0.0842704,0.000338878,-0.0441352,8.48478e-05,0.480712,-14.8881,-0.500923,-5.11728,1.2229,-56.7913,1.50609,0.0274622,-20,-0.54966,-0.463778,-0.0392347,-2.78794,0.0397178,-0.000145844,0.0164913,-5.9405e-05,0.494293,0.00134365,0.0735894,0.0329771,0.000251939,0.0104082,1.92187,-1.91204e-05,0.005,1.69972,-0.000247891,-0.00562427,-0.430659,47.0363,-0.179516,-0.0503963,19.5532,0.651859,0.781661,0.434081,-2.93301,0.0247722,0.0563965,-2.15114,0.0113938,0.185303,-0.0090076,0.350464,-0.0216932,23.4648,23.3087,23.1385,23.252,23.1952,23.2662,23.1243,
108,6.27276,1.37886,3.15332,4.12631,6.27429,1.97645,1.55577,0,-0.0386239,-5.03784e-05,0.0825028,0.000349205,-0.0453764,8.48478e-05,0.481186,-14.9252,-0.502009,-5.14654,1.22382,-56.9307,1.5106,0.0275725,-20,-0.550255,-0.467333,-0.0392394,-2.80192,0.040026,-0.000147156,0.016568,-6.01494e-05,0.494293,0.00134365,0.0735894,0.0319692,0.000241934,0.00935579,1.92122,-2.40898e-05,0.005,1.69941,-0.000248426,-0.00486739,-0.433741,47.1678,-0.181356,-0.0685836,19.493,0.650982,0.768187,0.441975,-2.92578,0.0169214,0.0649547,-2.1673,-0.00805664,0.169189,-0.0090076,0.358521,-0.0127387,23.4506,23.2946,23.1385,23.2662,23.1811,23.252,23.1243,
109,6.27276,1.37886,3.15332,4.12631,6.27429,1.97645,1.55577,0,-0.0386239,-5.03784e-05,0.0825028,0.000349205,-0.0453764,8.48478e-05,0.481429,-14.9438,-0.503256,-5.15918,1.22214,-56.9937,1.51434,0.0276368,-20,-0.550597,-0.469396,-0.0392565,-2.80777,0.0403396,-0.000148689,0.0166491,-6.14679e-05,0.494293,0.00134365,0.0735894,0.0319692,0.000241934,0.00935579,1.92055,-3.02646e-05,0.005,1.69972,-0.000244979,-0.00392021,-0.436817,47.2248,-0.18404,-0.0685836,19.493,0.650982,0.768187,0.441975,-2.92578,0.0169214,0.0649547,-2.1673,-0.00805664,0.169189,-0.0090076,0.358521,-0.0127387,23.4506,23.2946,23.1385,23.2662,23.1811,23.252,23.1243,
110,6.27276,1.37883,3.15332,4.12639,6.27429,1.9764,1.55577,0,-0.0361931,-5.03784e-05,0.0804891,0.000363345,-0.044296,8.48478e-05,0.481448,-14.9431,-0.503315,-5.15931,1.22209,-56.9929,1.51423,0.0276267,-20,-0.550607,-0.468004,-0.0392542,-2.8079,0.040335,-0.000148689,0.0166491,-6.14679e-05,0.494293,0.00134365,0.0735894,0.0308786,0.000235333,0.00853567,1.92055,-3.02646e-05,0.005,1.69972,-0.000244979,-0.00392021,-0.436817,47.2248,-0.18404,-0.0823742,19.3937,0.648936,0.803812,0.439362,-2.93162,0.0308047,0.0649547,-2.19952,0.0180152,0.209473,-0.00402832,0.354492,-0.0241699,23.4506,23.2946,23.1385,23.252,23.1952,23.2804,23.1101,
111,6.27276,1.37879,3.15332,4.12647,6.27429,1.97636,1.55577,0,-0.0351076,-4.50073e-05,0.0809471,0.000363733,-0.0442511,8.48478e-05,0.48183,-14.97,-0.505029,-5.1785,1.2202,-57.0923,1.51803,0.0277148,-20,-0.551113,-0.46979,-0.0392724,-2.81759,0.040622,-0.000150131,0.0167205,-6.27037e-05,0.494293,0.00134365,0.0735894,0.0307848,0.000232608,0.00810511,1.91994,-3.60037e-05,0.005,1.70015,-0.000244203,-0.0031821,-0.439614,47.3165,-0.18756,-0.0621884,19.3184,0.635715,0.820987,0.432865,-2.92982,0.0274537,0.0649547,-2.23976,0.0113938,0.233781,-0.00805664,0.342407,-0.0216932,23.479,23.2946,23.1385,23.2662,23.1952,23.252,23.1243,
112,6.27276,1.37876,3.15332,4.12654,6.27429,1.97631,1.55577,0,-0.0340323,-4.50754e-05,0.0807591,0.000378923,-0.0446368,8.48478e-05,0.482427,-15.0196,-0.505791,-5.21761,1.22333,-57.2834,1.52247,0.0278608,-20,-0.551854,-0.475316,-0.0392681,-2.83681,0.0408642,-0.000151176,0.0167938,-6.29655e-05,0.494293,0.00134365,0.0735894,0.030507,0.000230777,0.00764237,1.91932,-3.97569e-05,0.005,1.69968,-0.000245129,-0.0027946,-0.442052,47.4971,-0.188427,-0.0484205,19.1825,0.625368,0.878084,0.435115,-2.92516,0.0310133,0.0586532,-2.21559,0.0113938,0.209628,-0.00569691,0.334351,-0.0205405,23.4648,23.2946,23.1527,23.2662,23.1952,23.252,23.1243,
113,6.27276,1.37876,3.15332,4.12654,6.27429,1.97631,1.55577,0,-0.0340323,-4.50754e-05,0.0807591,0.000378923,-0.0446368,8.48478e-05,0.482906,-15.0557,-0.507466,-5.24526,1.22244,-57.4192,1.52755,0.0279878,-20,-0.552458,-0.480154,-0.0392838,-2.85026,0.0412343,-0.000152594,0.0168593,-6.41486e-05,0.494293,0.00134365,0.0735894,0.030507,0.000230777,0.00764237,1.91872,-4.52869e-05,0.005,1.69939,-0.000248457,-0.00237813,-0.445674,47.6245,-0.191807,-0.0484205,19.1825,0.625368,0.878084,0.435115,-2.92516,0.0310133,0.0586532,-2.21559,0.0113938,0.209628,-0.00569691,0.334351,-0.0205405,23.4648,23.2946,23.1527,23.2662,23.1952,23.252,23.1243,
114,6.27276,1.37872,3.15332,4.12662,6.27429,1.97626,1.55577,0,-0.0340323,-4.49733e-05,0.0791386,0.000379523,-0.0464568,8.48478e-05,0.482915,-15.0546,-0.507508,-5.24526,1.22239,-57.4181,1.52748,0.027978,-20,-0.552465,-0.478847,-0.0392817,-2.85038,0.0412345,-0.000152594,0.0168593,-6.41486e-05,0.494293,0.00134365,0.0735894,0.0300414,0.000224394,0.007477,1.91872,-4.52869e-05,0.005,1.69939,-0.000248457,-0.00237813,-0.445674,47.6245,-0.191807,-0.0718851,19.0368,0.600029,0.946756,0.443453,-2.92191,0.0315578,0.0563965,-2.21559,0,0.217678,-0.0113938,0.342431,-0.0281982,23.4648,23.3087,23.1385,23.2662,23.1952,23.2662,23.1101,
115,6.27276,1.37869,3.15332,4.1267,6.27429,1.97622,1.55577,0,-0.0353469,-4.50073e-05,0.0764844,0.000383603,-0.0464568,8.49112e-05,0.48314,-15.0747,-0.507361,-5.26133,1.225,-57.4968,1.53061,0.0280252,-20,-0.552743,-0.480326,-0.0392713,-2.8584,0.0414628,-0.000153584,0.0169252,-6.43612e-05,0.494293,0.00134365,0.0735894,0.0295493,0.000221844,0.0080433,1.91813,-4.87382e-05,0.005,1.69928,-0.000245819,-0.0022293,-0.447952,47.6992,-0.191026,-0.064175,18.8726,0.590363,1.03318,0.460671,-2.92945,0.0196892,0.0563965,-2.18335,0.0113938,0.241833,0.00402832,0.342502,-0.0293266,23.4648,23.2946,23.1243,23.2662,23.1952,23.2662,23.1243,
116,6.27276,1.37869,3.15332,4.1267,6.27429,1.97622,1.55577,0,-0.0353469,-4.50073e-05,0.0764844,0.000383603,-0.0464568,8.49112e-05,0.483605,-15.1148,-0.507591,-5.29143,1.22861,-57.6568,1.53498,0.0281486,-20,-0.553296,-0.485517,-0.0392622,-2.87446,0.0417232,-0.000154614,0.0169957,-6.46106e-05,0.494293,0.00134365,0.0735894,0.0295493,0.000221844,0.0080433,1.91751,-5.23886e-05,0.005,1.69917,-0.00024681,-0.00273897,-0.450537,47.8492,-0.190898,-0.064175,18.8726,0.590363,1.03318,0.460671,-2.92945,0.0196892,0.0563965,-2.18335,0.0113938,0.241833,0.00402832,0.342502,-0.0293266,23.4648,23.2946,23.1243,23.2662,23.1952,23.2662,23.1243,
117,6.27276,1.37865,3.15332,4.12678,6.27429,1.97617,1.55577,0,-0.0363614,-4.50077e-05,0.0740067,0.000399865,-0.0472671,8.48478e-05,0.483615,-15.1139,-0.507637,-5.2914,1.22853,-57.656,1.53485,0.0281384,-20,-0.553305,-0.484253,-0.0392606,-2.87456,0.041719,-0.000154614,0.0169957,-6.46106e-05,0.494293,0.00134365,0.0735894,0.0290465,0.000218926,0.00840135,1.91751,-5.23886e-05,0.005,1.69917,-0.00024681,-0.00273897,-0.450537,47.8492,-0.190898,-0.0778102,18.7935,0.56278,1.07783,0.453052,-2.95916,0.00455328,0.0402832,-2.13503,0,0.281982,0.00569691,0.33042,-0.0245033,23.4506,23.3087,23.1385,23.2662,23.2094,23.252,23.1243,
118,6.27276,1.37861,3.15332,4.12685,6.27429,1.97612,1.55577,0,-0.0367333,-4.50073e-05,0.0740067,0.000413723,-0.0465991,8.48478e-05,0.48401,-15.1418,-0.508843,-5.31302,1.22839,-57.7694,1.53973,0.0282314,-20,-0.553784,-0.486769,-0.0392662,-2.88611,0.0420983,-0.000156032,0.0170606,-6.57312e-05,0.494293,0.00134365,0.0735894,0.0291238,0.000222162,0.00862363,1.91693,-5.78825e-05,0.005,1.69909,-0.000249127,-0.00306122,-0.454259,47.9564,-0.193159,-0.0258489,18.653,0.559409,1.12304,0.444304,-2.95041,0.00297125,0.0402832,-2.11084,0.0180152,0.306152,0.0113938,0.342502,-0.0245033,23.4506,23.2946,23.1385,23.252,23.1952,23.2804,23.1101,
119,6.27276,1.37861,3.15332,4.12685,6.27429,1.97612,1.55577,0,-0.0367333,-4.50073e-05,0.0740067,0.000413723,-0.0465991,8.48478e-05,0.484635,-15.1941,-0.509605,-5.3537,1.23175,-57.9736,1.54489,0.0283971,-20,-0.554538,-0.493931,-0.0392623,-2.90663,0.0423928,-0.000157007,0.0171204,-6.58298e-05,0.494293,0.00134365,0.0735894,0.0291238,0.000222162,0.00862363,1.91635,-6.11106e-05,0.005,1.69851,-0.000254946,-0.00326127,-0.457167,48.149,-0.19411,-0.0258489,18.653,0.559409,1.12304,0.444304,-2.95041,0.00297125,0.0402832,-2.11084,0.0180152,0.306152,0.0113938,0.342502,-0.0245033,23.4506,23.2946,23.1385,23.252,23.1952,23.2804,23.1101,
120,6.27276,1.37858,3.15332,4.12692,6.2743,1.97607,1.55577,0,-0.0353828,-4.49733e-05,0.0756273,0.000428196,-0.0491577,8.48478e-05,0.484643,-15.1929,-0.509647,-5.35363,1.23168,-57.9725,1.54478,0.0283874,-20,-0.554548,-0.492627,-0.0392601,-2.90672,0.0423909,-0.000157007,0.0171204,-6.58298e-05,0.494293,0.00134365,0.0735894,0.0293141,0.000220183,0.00779431,1.91635,-6.11106e-05,0.005,1.69851,-0.000254946,-0.00326127,-0.457167,48.149,-0.19411,-0.021584,18.5729,0.531365,1.17833,0.453603,-2.94109,-0.00510762,0.0433863,-2.08673,-0.00805664,0.306258,0.0205405,0.318339,-0.0281982,23.4648,23.3229,23.1385,23.2662,23.1811,23.2662,23.1101,
121,6.27276,1.37858,3.15332,4.12692,6.2743,1.97607,1.55577,0,-0.0353828,-4.49733e-05,0.0756273,0.000428196,-0.0491577,8.48478e-05,0.484979,-15.2206,-0.510455,-5.37649,1.23222,-58.073,1.54923,0.0284765,-20,-0.554978,-0.496772,-0.0392656,-2.91673,0.042729,-0.00015819,0.0171812,-6.64491e-05,0.494293,0.00134365,0.0735894,0.0293141,0.000220183,0.00779431,1.91577,-6.54139e-05,0.005,1.69781,-0.000257037,-0.00251488,-0.460502,48.2446,-0.1956,-0.021584,18.5729,0.531365,1.17833,0.453603,-2.94109,-0.00510762,0.0433863,-2.08673,-0.00805664,0.306258,0.0205405,0.318339,-0.0281982,23.4648,23.3229,23.1385,23.2662,23.1811,23.2662,23.1101,
122,6.27276,1.37855,3.15332,4.12701,6.2743,1.97603,1.55577,0,-0.0340323,-4.50073e-05,0.0759114,0.000444132,-0.0502381,8.49121e-05,0.484989,-15.2196,-0.510501,-5.37654,1.23215,-58.0719,1.54909,0.0284666,-20,-0.55499,-0.495425,-0.0392637,-2.91683,0.0427245,-0.00015819,0.0171812,-6.64491e-05,0.494293,0.00134365,0.0735894,0.0291162,0.00021776,0.00714113,1.91577,-6.54139e-05,0.005,1.69781,-0.000257037,-0.00251488,-0.460502,48.2446,-0.1956,0.00408626,18.4454,0.513168,1.23835,0.456547,-2.92552,0.00745963,0.041081,-2.10284,0,0.265991,0.0216932,0.338379,-0.0205405,23.4506,23.2946,23.1527,23.252,23.1952,23.2662,23.1101,
123,6.27276,1.37851,3.15332,4.12708,6.2743,1.97597,1.55577,0,-0.0320682,-3.97123e-05,0.0750871,0.000461294,-0.0513185,9.54529e-05,0.485425,-15.2505,-0.51212,-5.40124,1.23103,-58.1888,1.55397,0.0285688,-20,-0.555538,-0.49847,-0.0392769,-2.92858,0.0431013,-0.000159618,0.0172461,-6.76171e-05,0.494293,0.00134365,0.0735894,0.0284698,0.00021018,0.0062591,1.91517,-7.09413e-05,0.005,1.69744,-0.000259831,-0.00192701,-0.464185,48.3553,-0.198813,4.19617e-05,18.3507,0.484453,1.307,0.436748,-2.89053,0.0109758,0.0402832,-2.14308,0,0.250275,0.0281982,0.330322,-0.00805664,23.4648,23.3087,23.1385,23.2662,23.1952,23.252,23.1243,
124,6.27276,1.37848,3.15332,4.12715,6.2743,1.97592,1.55577,0,-0.0302509,-3.97123e-05,0.0753572,0.000465729,-0.0536645,9.54538e-05,0.485557,-15.2626,-0.512214,-5.41045,1.23194,-58.2309,1.55332,0.028592,-20,-0.555728,-0.498755,-0.0392755,-2.93266,0.0429944,-0.000159647,0.0173036,-6.77088e-05,0.494293,0.00134365,0.0735894,0.0281722,0.000203585,0.00528557,1.91459,-7.40859e-05,0.005,1.69751,-0.000255839,-0.00113319,-0.463169,48.3945,-0.198737,0.00768542,18.2247,0.471702,1.33128,0.44256,-2.84097,0.0062164,0.0254773,-2.15931,0.0113938,0.266357,0.0201416,0.330347,-0.0201416,23.4648,23.3087,23.1527,23.252,23.1811,23.2662,23.0959,
125,6.27276,1.37845,3.15332,4.12723,6.2743,1.97586,1.55577,0,-0.0286303,-3.96823e-05,0.0772479,0.000471406,-0.0550999,9.54538e-05,0.48564,-15.2665,-0.513038,-5.41482,1.2301,-58.2408,1.5565,0.0286033,-20,-0.555864,-0.498345,-0.0392855,-2.93365,0.0433154,-0.000160982,0.0173507,-6.86898e-05,0.494293,0.00134365,0.0735894,0.028383,0.000202538,0.00446344,1.91404,-7.89314e-05,0.005,1.69728,-0.000254265,-0.000257014,-0.466323,48.4049,-0.200556,-0.0107092,18.0952,0.480638,1.37489,0.429484,-2.79758,0.0225445,0.0161133,-2.19948,0.0180152,0.257938,0.0245033,0.350556,-0.0201416,23.4648,23.2946,23.1669,23.2662,23.1952,23.2662,23.1101,
126,6.27276,1.37843,3.15332,4.12731,6.2743,1.97581,1.55577,0,-0.0283602,-3.97127e-05,0.0787413,0.000486194,-0.0540195,9.54538e-05,0.485966,-15.2943,-0.513405,-5.43876,1.23197,-58.3446,1.56002,0.0286795,-20,-0.556292,-0.501396,-0.0392822,-2.94417,0.0435626,-0.000161899,0.0174006,-6.87518e-05,0.494293,0.00134365,0.0735894,0.0287577,0.00020843,0.00445206,1.91348,-8.17944e-05,0.005,1.69659,-0.000255899,0.000482906,-0.468821,48.5048,-0.200894,0.0124022,17.9121,0.490073,1.35229,0.417939,-2.72659,0.0230183,0.041081,-2.23988,0,0.209628,0.0324774,0.350464,-0.0161133,23.4648,23.3087,23.1527,23.2662,23.1952,23.2662,23.1243,
127,6.27276,1.3784,3.15332,4.12739,6.2743,1.97576,1.55577,0,-0.0280861,-3.97123e-05,0.0782489,0.000491929,-0.0539648,9.54538e-05,0.486788,-15.3553,-0.515783,-5.48758,1.23201,-58.5833,1.56674,0.0288861,-20,-0.557298,-0.508805,-0.0392963,-2.96834,0.0439948,-0.000163293,0.017459,-6.98962e-05,0.494293,0.00134365,0.0735894,0.0285588,0.000207423,0.00435887,1.91288,-8.70886e-05,0.005,1.69571,-0.000265966,0.000493143,-0.473033,48.7313,-0.205394,-0.00165594,17.7814,0.479422,1.30223,0.417471,-2.65027,0.0234345,0.041081,-2.22376,0.0227876,0.177429,0.0324774,0.33042,-0.0201416,23.479,23.2946,23.1527,23.2662,23.1952,23.2662,23.1243,
128,6.27276,1.37837,3.15332,4.12747,6.2743,1.9757,1.55577,0,-0.0288711,-3.97123e-05,0.0759744,0.000498811,-0.0546675,9.54538e-05,0.487188,-15.3887,-0.516161,-5.51396,1.23451,-58.7141,1.5705,0.0289811,-20,-0.55779,-0.51223,-0.0392907,-2.98157,0.044236,-0.000164236,0.0175127,-6.99865e-05,0.494293,0.00134365,0.0735894,0.0280667,0.000203708,0.00463313,1.91231,-9.01086e-05,0.005,1.69537,-0.000267779,0.000577015,-0.475438,48.8552,-0.205653,0.0401316,17.6296,0.466866,1.30718,0.422627,-2.57194,0.00256077,0.0332184,-2.21559,0,0.185303,0.0322266,0.322492,-0.0216932,23.4648,23.3087,23.1385,23.2804,23.1952,23.2662,23.1101,
129,6.27276,1.37834,3.15332,4.12754,6.2743,1.97564,1.55577,0,-0.0308224,-3.96823e-05,0.0739317,0.000490566,-0.0561803,9.54529e-05,0.487378,-15.4028,-0.516467,-5.52516,1.23532,-58.7738,1.57387,0.029021,-20,-0.558019,-0.513004,-0.0392879,-2.98774,0.0445179,-0.000165354,0.0175581,-7.04698e-05,0.494293,0.00134365,0.0735894,0.0278862,0.000200274,0.00528318,1.91175,-9.38557e-05,0.005,1.69532,-0.000267807,0.000330186,-0.47822,48.912,-0.206052,0.013849,17.4545,0.472977,1.24857,0.404239,-2.52719,0.0247716,0.0180152,-2.20789,0.0180152,0.217529,0.0443115,0.318339,-0.0166092,23.4648,23.2946,23.1527,23.252,23.1952,23.2662,23.1243,
130,6.27276,1.37831,3.15332,4.12762,6.2743,1.97559,1.55577,0,-0.0324117,-3.97123e-05,0.0729736,0.000505889,-0.0559102,0.000103407,0.487599,-15.4226,-0.51599,-5.54173,1.23891,-58.8587,1.57719,0.029069,-20,-0.558272,-0.514729,-0.0392704,-2.99662,0.0447612,-0.000166268,0.0176062,-7.04813e-05,0.494293,0.00134365,0.0735894,0.0279413,0.000203573,0.00596242,1.9112,-9.66491e-05,0.005,1.69498,-0.000267231,-0.000254861,-0.480701,48.9937,-0.204475,0.0474266,17.2516,0.48557,1.17335,0.375743,-2.47814,0.0270164,0.0180152,-2.15112,0,0.257938,0.0404841,0.318339,-0.0145243,23.4648,23.2804,23.1385,23.252,23.1952,23.252,23.1243,
131,6.27276,1.37831,3.15332,4.12762,6.2743,1.97559,1.55577,0,-0.0324117,-3.97123e-05,0.0729736,0.000505889,-0.0559102,0.000103407,0.488214,-15.4686,-0.517609,-5.57777,1.23945,-59.0427,1.58311,0.029232,-20,-0.559002,-0.52109,-0.0392784,-3.01527,0.045163,-0.000167653,0.0176607,-7.15275e-05,0.494293,0.00134365,0.0735894,0.0279413,0.000203573,0.00596242,1.91062,-0.000101796,0.005,1.69441,-0.000274833,-0.00086618,-0.484637,49.1677,-0.207514,0.0474266,17.2516,0.48557,1.17335,0.375743,-2.47814,0.0270164,0.0180152,-2.15112,0,0.257938,0.0404841,0.318339,-0.0145243,23.4648,23.2804,23.1385,23.252,23.1952,23.252,23.1243,
132,6.27276,1.37827,3.15332,4.12769,6.2743,1.97553,1.55577,0,-0.0350746,-3.97123e-05,0.0758974,0.000505889,-0.0569906,0.000114014,0.48821,-15.4672,-0.517638,-5.57774,1.23936,-59.0413,1.58301,0.029222,-20,-0.559016,-0.51992,-0.0392766,-3.0153,0.045164,-0.000167653,0.0176607,-7.15275e-05,0.494293,0.00134365,0.0735894,0.0293447,0.000214131,0.00687165,1.91062,-0.000101796,0.005,1.69441,-0.000274833,-0.00086618,-0.484637,49.1677,-0.207514,0.0125343,17.1322,0.454289,1.11375,0.398009,-2.42772,0.0440497,0.0290486,-2.12695,0.0227876,0.281982,0.0404841,0.298096,-0.0161133,23.4648,23.2946,23.1527,23.2662,23.1952,23.252,23.1243,
133,6.27276,1.37823,3.15332,4.12776,6.2743,1.97547,1.55577,0,-0.0372735,-3.97123e-05,0.0742768,0.000505336,-0.0581783,0.000114014,0.489121,-15.5414,-0.518472,-5.63936,1.24511,-59.3396,1.58722,0.0294523,-20,-0.560087,-0.529853,-0.0392608,-3.04595,0.0452678,-0.000167588,0.0177164,-7.15424e-05,0.494293,0.00134365,0.0735894,0.0293374,0.000213438,0.00764924,1.91003,-0.000104939,0.005,1.69262,-0.000287163,-0.00168449,-0.485693,49.4535,-0.208078,0.034602,17.0588,0.427199,1.0975,0.411785,-2.39524,0.0383175,0.0180152,-2.06256,0,0.201416,0.045038,0.302124,-0.0166092,23.4506,23.2804,23.1527,23.2662,23.1952,23.252,23.1243,
134,6.27276,1.37819,3.15332,4.12784,6.2743,1.97541,1.55577,0,-0.0372735,-3.96823e-05,0.072116,0.000505889,-0.0588216,0.000114014,0.489512,-15.5692,-0.519288,-5.66214,1.24613,-59.4565,1.59249,0.0295425,-20,-0.560531,-0.532666,-0.0392583,-3.0581,0.0456801,-0.000168985,0.0177646,-7.244e-05,0.494293,0.00134365,0.0735894,0.028714,0.000207729,0.00761508,1.90945,-0.000109892,0.005,1.6921,-0.000290997,-0.00238432,-0.489748,49.5653,-0.209398,0.0392017,17.0083,0.448227,1.04393,0.404979,-2.38016,0.0374293,0.0180152,-2.03034,0.0113938,0.233781,0.0485074,0.302124,-0.0161133,23.4648,23.3229,23.1527,23.2662,23.1952,23.252,23.1243,
135,6.27276,1.37816,3.15332,4.12791,6.2743,1.97535,1.55577,0,-0.0372735,-3.96823e-05,0.0703996,0.000521219,-0.0615822,0.000113928,0.48965,-15.5824,-0.518931,-5.6721,1.24854,-59.51,1.59506,0.0295662,-20,-0.5607,-0.533035,-0.0392474,-3.06354,0.0458838,-0.00016995,0.0178144,-7.23882e-05,0.494293,0.00134365,0.0735894,0.028222,0.000201112,0.00735036,1.90888,-0.000112795,0.005,1.69215,-0.000288472,-0.00235358,-0.491826,49.6157,-0.208243,0.129783,16.8689,0.448227,1.01193,0.413197,-2.36735,0.0332239,0.0113938,-2.0464,0.0113938,0.273926,0.0525229,0.290067,-0.0161133,23.4648,23.3087,23.1527,23.2662,23.2094,23.2662,23.1243,
136,6.27276,1.37812,3.15332,4.12798,6.2743,1.97528,1.55577,0,-0.0380809,-3.97123e-05,0.072116,0.000545023,-0.0646983,0.000114014,0.489687,-15.5824,-0.519437,-5.67289,1.24725,-59.5119,1.59848,0.0295643,-20,-0.560761,-0.531962,-0.0392524,-3.06382,0.0462416,-0.000171361,0.0178651,-7.33183e-05,0.494293,0.00134365,0.0735894,0.0288918,0.000204096,0.0073216,1.9083,-0.000117849,0.005,1.69207,-0.000287065,-0.00211533,-0.49539,49.6183,-0.209357,0.109767,16.8016,0.450593,0.999886,0.409692,-2.36735,0.0204047,0.0180152,-2.0625,0,0.306152,0.0523682,0.306179,-0.00569691,23.479,23.2946,23.1385,23.2662,23.1811,23.2662,23.1101,
137,6.27276,1.37808,3.15332,4.12805,6.2743,1.97522,1.55577,0,-0.0378136,-3.70648e-05,0.0731964,0.000563685,-0.0686048,0.000114013,0.490044,-15.6072,-0.520475,-5.69557,1.2472,-59.612,1.60421,0.029647,-20,-0.561188,-0.534952,-0.0392556,-3.07432,0.0467246,-0.000172777,0.017908,-7.409e-05,0.494293,0.00134365,0.0735894,0.0291545,0.000200843,0.00678938,1.90772,-0.000122652,0.005,1.69094,-0.000294074,-0.00208944,-0.500159,49.7163,-0.211304,0.155388,16.7418,0.468553,0.974832,0.40529,-2.38107,0.0310566,0.0161133,-2.03835,-0.0113938,0.241833,0.0645789,0.322291,-0.0180152,23.4932,23.2946,23.1385,23.2662,23.1952,23.252,23.1243,
138,6.27276,1.37808,3.15332,4.12805,6.2743,1.97522,1.55577,0,-0.0378136,-3.70648e-05,0.0731964,0.000563685,-0.0686048,0.000114013,0.490108,-15.6133,-0.520491,-5.70267,1.24775,-59.6314,1.60796,0.0296641,-20,-0.561271,-0.53642,-0.0392536,-3.07639,0.047079,-0.000173963,0.0179499,-7.43996e-05,0.494293,0.00134365,0.0735894,0.0291545,0.000200843,0.00678938,1.90714,-0.000126366,0.005,1.69019,-0.000294488,-0.00161044,-0.503679,49.7367,-0.211273,0.155388,16.7418,0.468553,0.974832,0.40529,-2.38107,0.0310566,0.0161133,-2.03835,-0.0113938,0.241833,0.0645789,0.322291,-0.0180152,23.4932,23.2946,23.1385,23.2662,23.1952,23.252,23.1243,
139,6.27276,1.37804,3.15332,4.12813,6.2743,1.97515,1.55577,0,-0.0380837,-3.70648e-05,0.0734665,0.00055612,-0.0702253,0.000114014,0.490113,-15.6123,-0.52053,-5.70233,1.24763,-59.6308,1.60781,0.0296532,-20,-0.561281,-0.535108,-0.0392523,-3.07645,0.0470759,-0.000173963,0.0179499,-7.43996e-05,0.494293,0.00134365,0.0735894,0.0292919,0.000198767,0.00672515,1.90714,-0.000126366,0.005,1.69019,-0.000294488,-0.00161044,-0.503679,49.7367,-0.211273,0.144722,16.6649,0.456813,0.927697,0.412738,-2.38303,0.0265427,0.00805664,-2.05446,-0.0113938,0.217678,0.0565402,0.346459,-0.0113938,23.479,23.2946,23.1385,23.252,23.1952,23.252,23.1243,
140,6.27276,1.37804,3.15332,4.12813,6.2743,1.97515,1.55577,0,-0.0380837,-3.70648e-05,0.0734665,0.00055612,-0.0702253,0.000114014,0.490384,-15.6331,-0.521204,-5.71998,1.24801,-59.7112,1.61253,0.0297251,-20,-0.561609,-0.538342,-0.0392549,-3.08465,0.0474645,-0.000175361,0.0179905,-7.51749e-05,0.494293,0.00134365,0.0735894,0.0292919,0.000198767,0.00672515,1.90656,-0.000131082,0.005,1.68954,-0.000296865,-0.00155264,-0.507516,49.8139,-0.212529,0.144722,16.6649,0.456813,0.927697,0.412738,-2.38303,0.0265427,0.00805664,-2.05446,-0.0113938,0.217678,0.0565402,0.346459,-0.0113938,23.479,23.2946,23.1385,23.252,23.1952,23.252,23.1243,
141,6.27276,1.378,3.15332,4.1282,6.27431,1.97508,1.55577,0,-0.038894,-3.17459e-05,0.0727229,0.000556129,-0.0713057,0.000114014,0.49039,-15.6322,-0.521247,-5.71967,1.24789,-59.7105,1.61238,0.0297139,-20,-0.56162,-0.536981,-0.0392535,-3.08472,0.0474613,-0.000175361,0.0179905,-7.51749e-05,0.494293,0.00134365,0.0735894,0.0292482,0.000195722,0.00694801,1.90656,-0.000131082,0.005,1.68954,-0.000296865,-0.00155264,-0.507516,49.8139,-0.212529,0.179821,16.5443,0.474565,0.860341,0.406068,-2.37787,0.0329279,0.0180152,-2.06252,0,0.201577,0.0605589,0.350464,-0.0113938,23.3797,23.3087,23.1243,23.2662,23.1952,23.2662,23.1385,
142,6.27276,1.37796,3.15332,4.12828,6.27431,1.975,1.55577,0,-0.0406245,-3.17699e-05,0.0731964,0.000547324,-0.0723861,0.000121969,0.490711,-15.6553,-0.522066,-5.73893,1.24828,-59.8054,1.61714,0.0297866,-20,-0.562009,-0.539194,-0.0392542,-3.0945,0.0478499,-0.000176805,0.0180355,-7.59896e-05,0.494293,0.00134365,0.0735894,0.0297485,0.000198003,0.00752107,1.90595,-0.000136006,0.005,1.68904,-0.000298556,-0.00175321,-0.511327,49.905,-0.213963,0.159374,16.4659,0.48175,0.774457,0.431015,-2.36128,0.0329279,0.0241699,-2.0464,-0.0113938,0.209628,0.0684814,0.346436,-0.0166092,23.4648,23.3087,23.1385,23.252,23.2094,23.252,23.1101,
143,6.27276,1.37796,3.15332,4.12828,6.27431,1.975,1.55577,0,-0.0406245,-3.17699e-05,0.0731964,0.000547324,-0.0723861,0.000121969,0.491159,-15.6951,-0.521848,-5.77186,1.25313,-59.9646,1.61954,0.0299054,-20,-0.562525,-0.545149,-0.0392365,-3.11082,0.0479089,-0.000176912,0.0180795,-7.57474e-05,0.494293,0.00134365,0.0735894,0.0297485,0.000198003,0.00752107,1.90535,-0.000138818,0.005,1.68805,-0.000303138,-0.00226896,-0.511934,50.0573,-0.212745,0.159374,16.4659,0.48175,0.774457,0.431015,-2.36128,0.0329279,0.0241699,-2.0464,-0.0113938,0.209628,0.0684814,0.346436,-0.0166092,23.4648,23.3087,23.1385,23.252,23.2094,23.252,23.1101,
144,6.27276,1.37792,3.15332,4.12835,6.27431,1.97492,1.55577,0,-0.0432156,-3.17695e-05,0.0733921,0.000555876,-0.0761619,0.000121969,0.491156,-15.6939,-0.521879,-5.77114,1.25298,-59.9641,1.61936,0.0298935,-20,-0.562534,-0.543782,-0.0392355,-3.11087,0.0479065,-0.000176912,0.0180795,-7.57474e-05,0.494293,0.00134365,0.0735894,0.0303517,0.000198979,0.00815609,1.90535,-0.000138818,0.005,1.68805,-0.000303138,-0.00226896,-0.511934,50.0573,-0.212745,0.15797,16.4094,0.477277,0.745864,0.431483,-2.35679,0.0304559,0.0113938,-2.01422,0,0.193359,0.0645789,0.334351,-0.0127387,23.479,23.3087,23.1385,23.252,23.2094,23.2804,23.1385,
145,6.27276,1.37792,3.15332,4.12835,6.27431,1.97492,1.55577,0,-0.0432156,-3.17695e-05,0.0733921,0.000555876,-0.0761619,0.000121969,0.491359,-15.7087,-0.522096,-5.78587,1.25415,-60.0272,1.62493,0.0299472,-20,-0.562746,-0.546667,-0.0392295,-3.11771,0.0483982,-0.000178363,0.0181138,-7.63515e-05,0.494293,0.00134365,0.0735894,0.0303517,0.000198979,0.00815609,1.90476,-0.0001434,0.005,1.68696,-0.000308141,-0.00284048,-0.516806,50.1204,-0.212998,0.15797,16.4094,0.477277,0.745864,0.431483,-2.35679,0.0304559,0.0113938,-2.01422,0,0.193359,0.0645789,0.334351,-0.0127387,23.479,23.3087,23.1385,23.252,23.2094,23.2804,23.1385,
146,6.27276,1.37787,3.15332,4.12842,6.27431,1.97485,1.55577,0,-0.0464568,-3.17699e-05,0.0740067,0.000538773,-0.0791386,0.000121968,0.491355,-15.7073,-0.522124,-5.78521,1.254,-60.0265,1.62475,0.029935,-20,-0.562756,-0.545313,-0.0392287,-3.11775,0.0483956,-0.000178363,0.0181138,-7.63515e-05,0.494293,0.00134365,0.0735894,0.0312107,0.000201054,0.00912965,1.90476,-0.0001434,0.005,1.68696,-0.000308141,-0.00284048,-0.516806,50.1204,-0.212998,0.160127,16.3838,0.459138,0.690717,0.43332,-2.34311,0.0256287,0.0113938,-1.96597,-0.00805664,0.193359,0.076644,0.354584,-0.00402832,23.4648,23.2946,23.1385,23.2662,23.1952,23.2662,23.1243,
147,6.27276,1.37782,3.15332,4.1285,6.27431,1.97477,1.55577,0,-0.0491577,-2.64549e-05,0.0732244,0.000530221,-0.0791386,0.000121969,0.491786,-15.7404,-0.522496,-5.81462,1.25682,-60.1665,1.63117,0.030036,-20,-0.563245,-0.54945,-0.0392161,-3.13251,0.0488981,-0.00017985,0.0181545,-7.70038e-05,0.494293,0.00134365,0.0735894,0.0315488,0.000202898,0.0102227,1.90414,-0.000148229,0.005,1.68564,-0.000314354,-0.00371669,-0.52179,50.2567,-0.21317,0.173265,16.3166,0.499862,0.642578,0.422164,-2.32455,0.0259645,0.00805664,-1.91755,0,0.153922,0.0725098,0.374655,-0.0090076,23.479,23.3087,23.1527,23.2804,23.1952,23.2662,23.1385,
148,6.27276,1.37778,3.15332,4.12857,6.27431,1.97467,1.55577,0,-0.0480286,-2.64749e-05,0.0707655,0.000530229,-0.0776572,0.000114015,0.492388,-15.7885,-0.522938,-5.85298,1.26092,-60.3636,1.63724,0.0301778,-20,-0.563928,-0.554915,-0.0392015,-3.15271,0.0493028,-0.000181195,0.0182026,-7.72208e-05,0.494293,0.00134365,0.0735894,0.0306005,0.000197388,0.00996686,1.90349,-0.000152342,0.005,1.68474,-0.000319716,-0.00470041,-0.525819,50.4441,-0.213221,0.158432,16.2975,0.514047,0.581685,0.437145,-2.27543,0.026803,0.00805664,-1.88532,0.0113938,0.161334,0.0765381,0.346459,-0.00402832,23.4648,23.3229,23.1527,23.2662,23.2094,23.2662,23.1385,
149,6.27276,1.37778,3.15332,4.12857,6.27431,1.97467,1.55577,0,-0.0480286,-2.64749e-05,0.0707655,0.000530229,-0.0776572,0.000114015,0.492402,-15.7891,-0.523269,-5.8523,1.26,-60.3635,1.64049,0.0301816,-20,-0.56396,-0.554693,-0.0392079,-3.1525,0.0496325,-0.00018267,0.0182255,-7.75954e-05,0.494293,0.00134365,0.0735894,0.0306005,0.000197388,0.00996686,1.90288,-0.000156587,0.005,1.68505,-0.000318578,-0.00447017,-0.529078,50.4427,-0.214054,0.158432,16.2975,0.514047,0.581685,0.437145,-2.27543,0.026803,0.00805664,-1.88532,0.0113938,0.161334,0.0765381,0.346459,-0.00402832,23.4648,23.3229,23.1527,23.2662,23.2094,23.2662,23.1385,
150,6.27276,1.37773,3.15332,4.12864,6.27431,1.97461,1.55577,0,-0.047646,-2.64749e-05,0.0683347,0.000538795,-0.0775957,0.000114014,0.492418,-15.7885,-0.523329,-5.85196,1.25991,-60.3632,1.64037,0.030169,-20,-0.563968,-0.553278,-0.0392061,-3.1526,0.0496296,-0.00018267,0.0182255,-7.75954e-05,0.494293,0.00134365,0.0735894,0.0298178,0.000192146,0.00985803,1.90288,-0.000156587,0.005,1.68505,-0.000318578,-0.00447017,-0.529078,50.4427,-0.214054,0.143595,16.2796,0.517556,0.528999,0.448605,-2.26893,0.0291627,0.00805664,-1.92555,-0.0227876,0.201416,0.0805664,0.314209,-0.0166092,23.4506,23.3229,23.1527,23.2662,23.2094,23.2662,23.1385,
151,6.27276,1.37768,3.15332,4.1287,6.27431,1.97453,1.55577,0,-0.0459166,-2.64751e-05,0.0680646,0.000547106,-0.0809471,0.000114014,0.492657,-15.805,-0.524146,-5.86351,1.25945,-60.429,1.64434,0.0302165,-20,-0.564262,-0.55384,-0.0392116,-3.15913,0.0499726,-0.00018416,0.0182786,-7.83829e-05,0.494293,0.00134365,0.0735894,0.0293841,0.000183354,0.00882001,1.90228,-0.000161792,0.005,1.68522,-0.000318544,-0.00437222,-0.53248,50.5035,-0.215611,0.145437,16.2967,0.531423,0.48159,0.426401,-2.23833,0.0346469,0.0180152,-1.93359,-0.00805664,0.250275,0.080667,0.294095,-0.0161133,23.479,23.3087,23.1527,23.252,23.1952,23.2662,23.1243,
152,6.27276,1.37764,3.15332,4.12878,6.27431,1.97445,1.55577,0,-0.0453764,-2.38094e-05,0.0692121,0.000555632,-0.0821096,0.000121969,0.492443,-15.7862,-0.524104,-5.85031,1.25757,-60.351,1.64674,0.0301453,-20,-0.56403,-0.55028,-0.0392153,-3.15127,0.0503112,-0.000185594,0.0183112,-7.89405e-05,0.494293,0.00134365,0.0735894,0.0296056,0.000182998,0.00846919,1.9017,-0.000166288,0.005,1.68508,-0.000314678,-0.00343801,-0.535838,50.431,-0.215762,0.154837,16.2819,0.537534,0.458438,0.423769,-2.23994,0.0339618,0.00805664,-1.97403,-0.0113938,0.233643,0.0846906,0.294067,-0.0090076,23.4506,23.3229,23.1385,23.2662,23.2094,23.2662,23.1243,
153,6.27276,1.37759,3.15332,4.12884,6.27431,1.97434,1.55577,0,-0.0459166,-2.38094e-05,0.0682654,0.000564428,-0.0862838,0.000121877,0.492721,-15.8087,-0.524492,-5.86897,1.25882,-60.4388,1.64835,0.0302046,-20,-0.564373,-0.552421,-0.0392126,-3.16017,0.0503921,-0.000185932,0.0183485,-7.90633e-05,0.494293,0.00134365,0.0735894,0.029451,0.000176395,0.00825933,1.90109,-0.000169966,0.005,1.68433,-0.000317667,-0.00312227,-0.536644,50.515,-0.216193,0.136806,16.3031,0.528915,0.451473,0.42553,-2.21995,0.0364621,0.00805664,-1.99025,-0.0113938,0.201416,0.0927389,0.286011,-0.00402832,23.4648,23.3087,23.1527,23.252,23.1952,23.2662,23.1385,
154,6.27276,1.37754,3.15332,4.12891,6.27431,1.97427,1.55577,0,-0.0481022,-2.38274e-05,0.0656337,0.000574229,-0.0877089,0.00012197,0.492333,-15.7761,-0.52369,-5.84598,1.25774,-60.3136,1.65077,0.0300872,-20,-0.563892,-0.547376,-0.0392063,-3.14793,0.0507816,-0.000187366,0.0183566,-7.92536e-05,0.494293,0.00134365,0.0735894,0.0291481,0.000174068,0.00902069,1.9005,-0.000173695,0.005,1.68395,-0.000315081,-0.0029334,-0.540555,50.3995,-0.214766,0.118025,16.298,0.537253,0.459423,0.412353,-2.21972,0.0294365,0.0180152,-1.97389,0,0.217678,0.0926514,0.294095,-0.00402832,23.4648,23.3087,23.1385,23.2662,23.2236,23.2804,23.1243,
155,6.27276,1.37749,3.15332,4.12897,6.27432,1.97418,1.55577,0,-0.0507783,-2.38274e-05,0.0648234,0.000582884,-0.088592,0.00012197,0.492525,-15.7894,-0.524013,-5.85652,1.25845,-60.375,1.6554,0.030125,-20,-0.56411,-0.548064,-0.0392025,-3.15433,0.0511961,-0.000188839,0.0183991,-7.98835e-05,0.494293,0.00134365,0.0735894,0.0294737,0.00017757,0.0100104,1.89991,-0.000178539,0.005,1.68369,-0.000317347,-0.00361862,-0.544676,50.458,-0.215199,0.0849987,16.3432,0.536074,0.491384,0.415968,-2.21567,0.0182003,0,-1.93361,0,0.258316,0.0967636,0.286011,-0.00402832,23.4648,23.3087,23.1527,23.252,23.2094,23.2662,23.1243,
156,6.27276,1.37744,3.15332,4.12904,6.27432,1.97408,1.55577,0,-0.0513185,-2.38094e-05,0.064949,0.000593332,-0.0861198,0.000121877,0.492861,-15.8137,-0.524531,-5.87715,1.25986,-60.4795,1.66105,0.0301988,-20,-0.564486,-0.550553,-0.0391963,-3.16528,0.051666,-0.000190293,0.0184255,-8.02912e-05,0.494293,0.00134365,0.0735894,0.0296197,0.00018396,0.01049,1.89933,-0.00018286,0.005,1.68287,-0.000324387,-0.00450934,-0.549338,50.559,-0.21587,0.058563,16.3894,0.549948,0.551579,0.425382,-2.23653,0.0216961,0,-1.89333,-0.0113938,0.241699,0.0966797,0.265869,0.00402832,23.4648,23.3087,23.1527,23.2662,23.2094,23.2662,23.1243,
