LWingKi/MAS_RnD/main/log/us2/contactless/48/grasp_log_12_08_2023_16_23_48.csv
Index,joint_angle_0,joint_angle_1,joint_angle_2,joint_angle_3,joint_angle_4,joint_angle_5,joint_angle_6,joint_velocity_0,joint_velocity_1,joint_velocity_2,joint_velocity_3,joint_velocity_4,joint_velocity_5,joint_velocity_6,joint_accel_0,joint_accel_1,joint_accel_2,joint_accel_3,joint_accel_4,joint_accel_5,joint_accel_6,constraint_tau_0,constraint_tau_1,constraint_tau_2,constraint_tau_3,constraint_tau_4,constraint_tau_5,constraint_tau_6,current_pos_x,current_pos_y,current_pos_z,target_pos_x,target_pos_y,target_pos_z,current_vel_x,current_vel_y,current_vel_z,target_vel_x,target_vel_y,target_vel_z,control_signal_linear_x,control_signal_linear_y,control_signal_linear_z,control_signal_angular_x,control_signal_angular_y,control_signal_angular_z,joint_torque_0,joint_torque_1,joint_torque_2,joint_torque_3,joint_torque_4,joint_torque_5,joint_torque_6,actuar_current_0,actuar_current_1,actuar_current_2,actuar_current_3,actuar_current_4,actuar_current_5,actuar_current_6,actuar_voltage_0,actuar_voltage_1,actuar_voltage_2,actuar_voltage_3,actuar_voltage_4,actuar_voltage_5,actuar_voltage_6
0,6.27302,1.38118,3.15336,4.11659,6.27419,1.97575,1.55572,0.00473997,0.0328507,6.89389e-05,0.0791386,8.48478e-05,0.0337622,1.0582e-05,0.356853,-2.83599,-0.722292,4.18498,-0.650574,-9.87195,0.594348,-0.00456118,-18.9467,-0.401916,1.04585,-0.0462447,1.92763,0.00425916,-2.85737e-05,0.00105514,-0.000340169,0.494975,0.00119164,0.0750821,0.015984,-0.00173392,-0.0108455,1.99808,-0.00319453,0.005,1.79827,-0.00287508,0.0045,-0.077149,2.84887,-0.918455,1.5458,1.31725,0.0218562,5.19292,0.240344,5.49263,0.0994737,0.548088,0.12085,0.177977,-0.0509547,-0.0205405,-0.47937,-0.137022,23.479,23.3939,23.2094,23.3087,23.2236,23.3087,23.1527,
1,6.27302,1.38121,3.15336,4.11667,6.27419,1.97579,1.55572,0.00473841,0.0313313,7.42411e-05,0.0791386,8.47837e-05,0.0355756,1.0582e-05,0.332216,-2.73074,-0.299292,4.21154,0.50634,-9.33383,0.564931,-0.0111026,-18.8838,-0.370694,1.04885,-0.0393217,1.97876,-0.00314752,0,0,0,0.494975,0.00119164,0.0750821,0.016302,-0.0017288,-0.0100528,2,0,0.005,1.78561,0.00156053,0.0142609,-0.00720942,2.40119,0.0975268,1.50776,1.37858,0.0343296,5.22434,0.228456,5.48497,0.10882,0.548088,0.1372,0.177246,-0.0360304,-0.0180152,-0.459246,-0.128969,23.479,23.3797,23.1952,23.3229,23.2378,23.3087,23.1669,
2,6.27303,1.38124,3.15336,4.11675,6.27419,1.97583,1.55572,0.00486175,0.0291705,6.89389e-05,0.0828359,8.47837e-05,0.0367333,1.0582e-05,0.333086,-2.82026,-0.296516,4.14426,0.523675,-9.68596,0.569145,-0.0108747,-18.9386,-0.371705,1.03753,-0.0392442,1.94347,-0.00316784,2.2703e-07,8.5216e-05,3.4195e-06,0.494975,0.00119164,0.0750821,0.0178228,-0.00176203,-0.00914341,1.99968,3.76929e-05,0.005,1.78504,0.00158985,0.0135475,-0.00687453,2.73125,0.105921,1.50443,1.4208,0.0377201,5.2107,0.229871,5.48973,0.110899,0.564022,0.161936,0.185303,-0.0241699,-0.0145243,-0.463274,-0.133178,23.479,23.3797,23.1811,23.3371,23.2378,23.3087,23.1527,
3,6.27303,1.38127,3.15336,4.11684,6.27419,1.97587,1.55572,0.00491391,0.0289004,6.89389e-05,0.0852613,9.54538e-05,0.0394342,1.05821e-05,0.334265,-2.94209,-0.29315,4.04995,0.546182,-10.1642,0.579333,-0.0105624,-19.0127,-0.373105,1.02125,-0.0391385,1.89525,-0.00274476,-6.40834e-07,0.000174283,6.6214e-06,0.494975,0.00119164,0.0750821,0.0185795,-0.00177182,-0.00879395,1.99933,6.92355e-05,0.005,1.78335,0.00164814,0.0127291,-0.0108919,3.18218,0.116434,1.46271,1.4518,0.0550051,5.24285,0.232343,5.48625,0.107811,0.580078,0.209628,0.177246,-0.0563965,-0.0180152,-0.459229,-0.145075,23.5074,23.3655,23.1669,23.3229,23.2378,23.3087,23.1527,
4,6.27304,1.3813,3.15336,4.11693,6.27419,1.97591,1.55572,0.00526663,0.0295628,6.89389e-05,0.0867013,9.54529e-05,0.0424053,0,0.335489,-3.06146,-0.29141,3.95977,0.563784,-10.6279,0.588173,-0.0102394,-19.0853,-0.374584,1.00583,-0.039065,1.84887,-0.00242209,-1.47894e-06,0.000275323,9.33405e-06,0.494975,0.00119164,0.0750821,0.0188562,-0.001905,-0.00876635,1.99892,0.000105429,0.005,1.78231,0.00168952,0.0124146,-0.0139024,3.61686,0.122966,1.4634,1.53055,0.0373269,5.2595,0.231476,5.49897,0.10946,0.555967,0.20206,0.169381,-0.0889885,-0.012085,-0.471313,-0.140991,23.479,23.3797,23.1952,23.3087,23.2236,23.3229,23.1527,
5,6.27304,1.38133,3.15336,4.11701,6.27419,1.97595,1.55572,0.0052649,0.0297107,6.90433e-05,0.0864312,0.000100757,0.0438845,0,0.336198,-3.16436,-0.284039,3.88274,0.595587,-11.0251,0.597901,-0.0100483,-19.1479,-0.375454,0.99291,-0.0388896,1.80925,-0.00202279,-2.75829e-06,0.000371319,1.35749e-05,0.494975,0.00119164,0.0750821,0.0187462,-0.00190251,-0.00866233,1.99856,0.000148149,0.005,1.78173,0.00184783,0.0123897,-0.0177699,3.9885,0.143153,1.44434,1.604,0.021265,5.28244,0.247323,5.51005,0.108793,0.540035,0.186002,0.193359,-0.121118,-0.012085,-0.495483,-0.132996,23.479,23.3939,23.1811,23.3229,23.2236,23.3229,23.1669,
6,6.27304,1.38133,3.15336,4.11701,6.27419,1.97595,1.55572,0.0052649,0.0297107,6.90433e-05,0.0864312,0.000100757,0.0438845,0,0.337019,-3.25011,-0.282005,3.81972,0.609976,-11.3563,0.603538,-0.0098304,-19.1995,-0.37645,0.981908,-0.0388333,1.77644,-0.00186125,-3.33223e-06,0.000473831,1.6191e-05,0.494975,0.00119164,0.0750821,0.0187462,-0.00190251,-0.00866233,1.99819,0.000181192,0.005,1.7815,0.00187533,0.0122961,-0.0192424,4.29711,0.149443,1.44434,1.604,0.021265,5.28244,0.247323,5.51005,0.108793,0.540035,0.186002,0.193359,-0.121118,-0.012085,-0.495483,-0.132996,23.479,23.3939,23.1811,23.3229,23.2236,23.3229,23.1669,
7,6.27305,1.38136,3.15336,4.1171,6.27419,1.976,1.55572,0.00558201,0.0313313,6.89911e-05,0.088592,0.00010068,0.0453764,0,0.337021,-3.24995,-0.282081,3.81987,0.610017,-11.3563,0.603582,-0.00982934,-19.2002,-0.376472,0.982543,-0.0388286,1.77632,-0.001861,-3.33223e-06,0.000473831,1.6191e-05,0.494975,0.00119164,0.0750821,0.0190299,-0.00202453,-0.00918299,1.99819,0.000181192,0.005,1.7815,0.00187533,0.0122961,-0.0192424,4.29711,0.149443,1.4428,1.66037,0.0263162,5.29931,0.263084,5.51327,0.11254,0.531738,0.0483398,0.161334,-0.0966797,-0.00402832,-0.4955,-0.14502,23.4932,23.3797,23.1811,23.3087,23.2236,23.3087,23.1669,
8,6.27305,1.38136,3.15336,4.1171,6.27419,1.976,1.55572,0.00558201,0.0313313,6.89911e-05,0.088592,0.00010068,0.0453764,0,0.337638,-3.34412,-0.274922,3.74943,0.639996,-11.7142,0.609879,-0.00966558,-19.2568,-0.377219,0.970159,-0.0386698,1.74089,-0.00175436,-3.69771e-06,0.000575152,2.03653e-05,0.494975,0.00119164,0.0750821,0.0190299,-0.00202453,-0.00918299,1.99781,0.000223726,0.005,1.78091,0.00202343,0.0127647,-0.0202189,4.63163,0.168804,1.4428,1.66037,0.0263162,5.29931,0.263084,5.51327,0.11254,0.531738,0.0483398,0.161334,-0.0966797,-0.00402832,-0.4955,-0.14502,23.4932,23.3797,23.1811,23.3087,23.2236,23.3087,23.1669,
9,6.27306,1.38139,3.15336,4.11719,6.27419,1.97605,1.55572,0.00544219,0.0307911,6.89382e-05,0.0907527,0.000111363,0.0472192,0,0.337637,-3.34386,-0.274974,3.74928,0.640032,-11.7138,0.609912,-0.00966401,-19.2576,-0.377246,0.970748,-0.0386624,1.74079,-0.00175493,-3.69771e-06,0.000575152,2.03653e-05,0.494975,0.00119164,0.0750821,0.0197662,-0.00195985,-0.00881272,1.99781,0.000223726,0.005,1.78091,0.00202343,0.0127647,-0.0202189,4.63163,0.168804,1.43002,1.748,0.0116259,5.30348,0.261222,5.49339,0.108531,0.539795,-0.22573,0.169189,-0.0980133,-0.0090076,-0.487427,-0.141049,23.5074,23.3797,23.1952,23.3087,23.2378,23.3229,23.1669,
10,6.27306,1.38139,3.15336,4.11719,6.27419,1.97605,1.55572,0.00544219,0.0307911,6.89382e-05,0.0907527,0.000111363,0.0472192,0,0.338894,-3.45963,-0.274649,3.66177,0.652586,-12.1637,0.618128,-0.0093301,-19.3272,-0.37876,0.955232,-0.0386314,1.69588,-0.00143677,-4.5037e-06,0.000680852,2.35082e-05,0.494975,0.00119164,0.0750821,0.0197662,-0.00195985,-0.00881272,1.99742,0.000264025,0.005,1.77989,0.00200149,0.0124314,-0.0231658,5.05332,0.171218,1.43002,1.748,0.0116259,5.30348,0.261222,5.49339,0.108531,0.539795,-0.22573,0.169189,-0.0980133,-0.0090076,-0.487427,-0.141049,23.5074,23.3797,23.1952,23.3087,23.2378,23.3229,23.1669,
11,6.27306,1.38142,3.15336,4.11729,6.27419,1.9761,1.55572,0.00561589,0.0250768,6.89382e-05,0.0905274,0.000111363,0.0502381,0,0.338937,-3.45897,-0.274785,3.66086,0.652657,-12.1621,0.618187,-0.00932985,-19.328,-0.378782,0.955728,-0.0386276,1.6958,-0.00143714,-4.5037e-06,0.000680852,2.35082e-05,0.494975,0.00119164,0.0750821,0.020899,-0.00201222,-0.00622992,1.99742,0.000264025,0.005,1.77989,0.00200149,0.0124314,-0.0231658,5.05332,0.171218,1.44384,1.82129,0.00309765,5.29781,0.264701,5.47412,0.116644,0.555908,-0.523682,0.177246,-0.112793,-0.00402832,-0.47937,-0.141049,23.4932,23.3797,23.1811,23.3229,23.2378,23.3229,23.1669,
12,6.27307,1.38143,3.15336,4.11737,6.27419,1.97615,1.55572,0.00561589,0.0153956,6.89389e-05,0.0882324,0.000121969,0.0511568,0,0.34049,-3.61125,-0.27064,3.54303,0.681239,-12.7729,0.629045,-0.00893071,-19.4207,-0.38053,0.935448,-0.0384906,1.6339,-0.00111945,-4.97824e-06,0.000799882,2.6976e-05,0.494975,0.00119164,0.0750821,0.0222659,-0.0019942,-0.00226426,1.99698,0.000301664,0.005,1.77847,0.00208249,0.0101069,-0.026081,5.62992,0.184505,1.42705,1.91488,0.00504386,5.32515,0.262059,5.43,0.119364,0.547911,-0.636526,0.153076,-0.072956,-0.00805664,-0.491455,-0.136963,23.479,23.3797,23.1811,23.3229,23.2236,23.3087,23.1527,
13,6.27307,1.38143,3.15336,4.11737,6.27419,1.97615,1.55572,0.00561589,0.0153956,6.89389e-05,0.0882324,0.000121969,0.0511568,0,0.342137,-3.76471,-0.268285,3.42598,0.704346,-13.3986,0.641718,-0.00849336,-19.513,-0.382393,0.914619,-0.0383955,1.57042,-0.000584804,-5.91533e-06,0.000925954,3.00322e-05,0.494975,0.00119164,0.0750821,0.0222659,-0.0019942,-0.00226426,1.99654,0.000341185,0.005,1.77685,0.00210185,0.00653784,-0.0311024,6.21944,0.192848,1.42705,1.91488,0.00504386,5.32515,0.262059,5.43,0.119364,0.547911,-0.636526,0.153076,-0.072956,-0.00805664,-0.491455,-0.136963,23.479,23.3797,23.1811,23.3229,23.2236,23.3087,23.1527,
14,6.27307,1.38143,3.15336,4.11746,6.27419,1.9762,1.55572,0.00594014,0.004587,6.36359e-05,0.0888621,0.000121877,0.0550999,0,0.342249,-3.76387,-0.268565,3.42427,0.704459,-13.396,0.641851,-0.00849012,-19.5139,-0.382416,0.914854,-0.0383935,1.57039,-0.000584832,-5.91533e-06,0.000925954,3.00322e-05,0.494975,0.00119164,0.0750821,0.0247146,-0.00209062,0.00241493,1.99654,0.000341185,0.005,1.77685,0.00210185,0.00653784,-0.0311024,6.21944,0.192848,1.42154,2.00444,0.00624982,5.32193,0.262405,5.4045,0.120556,0.548088,-0.636526,0.161936,-0.0180152,-0.00569691,-0.495549,-0.141049,23.5074,23.3655,23.2094,23.3087,23.2378,23.2946,23.1527,
15,6.27307,1.38143,3.15336,4.11746,6.27419,1.9762,1.55572,0.00594014,0.004587,6.36359e-05,0.0888621,0.000121877,0.0550999,0,0.344405,-3.98227,-0.262179,3.25645,0.746213,-14.2782,0.659874,-0.00791748,-19.6452,-0.384855,0.884906,-0.0381938,1.481,0.000118439,-7.06595e-06,0.00106322,3.44936e-05,0.494975,0.00119164,0.0750821,0.0247146,-0.00209062,0.00241493,1.99605,0.000383534,0.005,1.77421,0.00222674,0.00232656,-0.0377258,7.05147,0.212597,1.42154,2.00444,0.00624982,5.32193,0.262405,5.4045,0.120556,0.548088,-0.636526,0.161936,-0.0180152,-0.00569691,-0.495549,-0.141049,23.5074,23.3655,23.2094,23.3087,23.2378,23.2946,23.1527,
16,6.27308,1.38143,3.15336,4.11755,6.27419,1.97626,1.55572,0.00650186,-0.00459166,6.36359e-05,0.0891322,0.000132576,0.0569906,0,0.344508,-3.98128,-0.262475,3.25493,0.746308,-14.2757,0.659985,-0.00792002,-19.6459,-0.384874,0.885255,-0.0381945,1.48093,0.000118183,-7.06595e-06,0.00106322,3.44936e-05,0.494975,0.00119164,0.0750821,0.0267175,-0.00228888,0.00623987,1.99605,0.000383534,0.005,1.77421,0.00222674,0.00232656,-0.0377258,7.05147,0.212597,1.37856,2.16502,0.025634,5.32154,0.254343,5.37586,0.112906,0.555908,-0.620571,0.153076,-0.00805664,0.00569691,-0.507568,-0.132996,23.479,23.3797,23.1952,23.3229,23.2236,23.3087,23.1669,
17,6.27308,1.38143,3.15336,4.11755,6.27419,1.97626,1.55572,0.00650186,-0.00459166,6.36359e-05,0.0891322,0.000132576,0.0569906,0,0.346237,-4.17683,-0.25331,3.1049,0.793862,-15.062,0.67682,-0.00746092,-19.7635,-0.386815,0.858528,-0.0379417,1.40137,0.000749663,-8.20603e-06,0.00121179,3.8576e-05,0.494975,0.00119164,0.0750821,0.0267175,-0.00228888,0.00623987,1.99553,0.000430554,0.005,1.77193,0.00244749,-0.00111588,-0.043728,7.79278,0.239231,1.37856,2.16502,0.025634,5.32154,0.254343,5.37586,0.112906,0.555908,-0.620571,0.153076,-0.00805664,0.00569691,-0.507568,-0.132996,23.479,23.3797,23.1952,23.3229,23.2236,23.3087,23.1669,
18,6.27309,1.38142,3.15336,4.11764,6.27419,1.97632,1.55572,0.00650186,-0.00832238,5.83329e-05,0.0899425,0.000132573,0.0591257,0,0.346277,-4.17608,-0.253452,3.10412,0.793937,-15.0605,0.676905,-0.00746323,-19.7641,-0.386838,0.85925,-0.0379342,1.40123,0.000748996,-8.20603e-06,0.00121179,3.8576e-05,0.494975,0.00119164,0.0750821,0.0277326,-0.00227475,0.00792863,1.99553,0.000430554,0.005,1.77193,0.00244749,-0.00111588,-0.043728,7.79278,0.239231,1.42497,2.39415,0.016433,5.35227,0.258435,5.31968,0.0981185,0.539795,-0.628624,0.14502,0.0180152,-0.00402832,-0.519653,-0.132996,23.4932,23.3797,23.1952,23.2946,23.2236,23.3229,23.1385,
19,6.27309,1.38142,3.15336,4.11764,6.27419,1.97632,1.55572,0.00650186,-0.00832238,5.83329e-05,0.0899425,0.000132573,0.0591257,0,0.348038,-4.34992,-0.250191,2.97285,0.821026,-15.7453,0.68895,-0.00699563,-19.8687,-0.388913,0.836034,-0.0378297,1.3326,0.00114069,-9.00832e-06,0.00137556,4.29968e-05,0.494975,0.00119164,0.0750821,0.0277326,-0.00227475,0.00792863,1.99496,0.00047487,0.005,1.77051,0.00247466,-0.00263577,-0.0473179,8.43522,0.249893,1.42497,2.39415,0.016433,5.35227,0.258435,5.31968,0.0981185,0.539795,-0.628624,0.14502,0.0180152,-0.00402832,-0.519653,-0.132996,23.4932,23.3797,23.1952,23.2946,23.2236,23.3229,23.1385,
20,6.27309,1.38142,3.15336,4.11764,6.27419,1.97632,1.55572,0.00650186,-0.00832238,5.83329e-05,0.0899425,0.000132573,0.0591257,0,0.348038,-4.34992,-0.250191,2.97285,0.821026,-15.7453,0.68895,-0.00699563,-19.8687,-0.388913,0.836034,-0.0378297,1.3326,0.00114069,-9.00832e-06,0.00137556,4.29968e-05,0.494975,0.00119164,0.0750821,0.0277326,-0.00227475,0.00792863,1.99496,0.00047487,0.005,1.77051,0.00247466,-0.00263577,-0.0473179,8.43522,0.249893,1.42497,2.39415,0.016433,5.35227,0.258435,5.31968,0.0981185,0.539795,-0.628624,0.14502,0.0180152,-0.00402832,-0.519653,-0.132996,23.4932,23.3797,23.1952,23.2946,23.2236,23.3229,23.1385,
21,6.27309,1.3814,3.15336,4.11773,6.27419,1.97638,1.55572,0.00675244,-0.0137839,5.30299e-05,0.0907782,0.000143181,0.0569906,0,0.348111,-4.34865,-0.25041,2.97193,0.821091,-15.7431,0.689056,-0.00699379,-19.8692,-0.388935,0.836822,-0.0378242,1.33246,0.00113961,-9.00832e-06,0.00137556,4.29968e-05,0.494975,0.00119164,0.0750821,0.0291185,-0.0023618,0.00984932,1.99496,0.00047487,0.005,1.77051,0.00247466,-0.00263577,-0.0473179,8.43522,0.249893,1.40693,2.67361,-0.00364827,5.392,0.275192,5.2645,0.0922459,0.555967,-0.765381,0.145243,0.0322266,0,-0.519669,-0.128969,23.4932,23.3797,23.1669,23.3229,23.2378,23.3087,23.1527,
22,6.27309,1.3814,3.15336,4.11773,6.27419,1.97638,1.55572,0.00675244,-0.0137839,5.30299e-05,0.0907782,0.000143181,0.0569906,0,0.349509,-4.5039,-0.244071,2.85277,0.855505,-16.358,0.704354,-0.00662232,-19.9626,-0.390545,0.815593,-0.037656,1.2705,0.001877,-1.085e-05,0.00154384,4.68812e-05,0.494975,0.00119164,0.0750821,0.0291185,-0.0023618,0.00984932,1.99434,0.000518092,0.005,1.7687,0.0025919,-0.00436439,-0.0544153,9.01442,0.268259,1.40693,2.67361,-0.00364827,5.392,0.275192,5.2645,0.0922459,0.555967,-0.765381,0.145243,0.0322266,0,-0.519669,-0.128969,23.4932,23.3797,23.1669,23.3229,23.2378,23.3087,23.1527,
23,6.2731,1.38138,3.15336,4.11783,6.27419,1.97644,1.55572,0.00728894,-0.019447,5.30304e-05,0.091563,0.000143072,0.0578009,0,0.349605,-4.50287,-0.24436,2.8517,0.855601,-16.3559,0.704494,-0.00662633,-19.9632,-0.390562,0.816238,-0.0376549,1.27039,0.00187764,-1.085e-05,0.00154384,4.68812e-05,0.494975,0.00119164,0.0750821,0.030532,-0.00255941,0.0121628,1.99434,0.000518092,0.005,1.7687,0.0025919,-0.00436439,-0.0544153,9.01442,0.268259,1.41805,2.88401,0.0408531,5.35363,0.287726,5.24201,0.113558,0.531799,-0.813761,0.136963,0.0402832,-0.0090076,-0.4955,-0.129158,23.479,23.3655,23.1952,23.3087,23.2236,23.3087,23.1527,
24,6.2731,1.38138,3.15336,4.11783,6.27419,1.97644,1.55572,0.00728894,-0.019447,5.30304e-05,0.091563,0.000143072,0.0578009,0,0.351013,-4.6818,-0.233393,2.71521,0.905893,-17.0649,0.71878,-0.00625255,-20,-0.392159,0.792027,-0.0373879,1.19903,0.0023242,-1.17324e-05,0.00171027,5.24354e-05,0.494975,0.00119164,0.0750821,0.030532,-0.00255941,0.0121628,1.99374,0.000570674,0.005,1.76688,0.00281707,-0.00644654,-0.0586477,9.68151,0.298718,1.41805,2.88401,0.0408531,5.35363,0.287726,5.24201,0.113558,0.531799,-0.813761,0.136963,0.0402832,-0.0090076,-0.4955,-0.129158,23.479,23.3655,23.1952,23.3087,23.2236,23.3087,23.1527,
25,6.2731,1.38138,3.15336,4.11783,6.27419,1.97644,1.55572,0.00728894,-0.019447,5.30304e-05,0.091563,0.000143072,0.0578009,0,0.351013,-4.6818,-0.233393,2.71521,0.905893,-17.0649,0.71878,-0.00625255,-20,-0.392159,0.792027,-0.0373879,1.19903,0.0023242,-1.17324e-05,0.00171027,5.24354e-05,0.494975,0.00119164,0.0750821,0.030532,-0.00255941,0.0121628,1.99374,0.000570674,0.005,1.76688,0.00281707,-0.00644654,-0.0586477,9.68151,0.298718,1.41805,2.88401,0.0408531,5.35363,0.287726,5.24201,0.113558,0.531799,-0.813761,0.136963,0.0402832,-0.0090076,-0.4955,-0.129158,23.479,23.3655,23.1952,23.3087,23.2236,23.3087,23.1527,
26,6.27311,1.38136,3.15336,4.11792,6.27419,1.97649,1.55572,0.00753847,-0.0226652,4.76908e-05,0.0941685,0.000148484,0.0578009,0,0.351084,-4.68083,-0.233629,2.71446,0.905966,-17.0632,0.718912,-0.00625375,-20,-0.392183,0.792872,-0.0373821,1.1989,0.00232424,-1.17324e-05,0.00171027,5.24354e-05,0.494975,0.00119164,0.0750821,0.0319581,-0.00264432,0.013392,1.99374,0.000570674,0.005,1.76688,0.00281707,-0.00644654,-0.0586477,9.68151,0.298718,1.31623,3.15524,0.0710492,5.27317,0.287493,5.20287,0.120952,0.523929,-0.862211,0.1372,0.0490066,0.00569691,-0.4955,-0.124878,23.479,23.3513,23.1952,23.3229,23.2236,23.2946,23.1527,
27,6.27311,1.38136,3.15336,4.11792,6.27419,1.97649,1.55572,0.00753847,-0.0226652,4.76908e-05,0.0941685,0.000148484,0.0578009,0,0.352607,-4.85479,-0.22616,2.58145,0.945199,-17.7444,0.733577,-0.00584923,-20,-0.393964,0.769238,-0.0371945,1.13057,0.00290901,-1.31396e-05,0.00188281,5.79505e-05,0.494975,0.00119164,0.0750821,0.0319581,-0.00264432,0.013392,1.99311,0.000624692,0.005,1.76503,0.00294211,-0.00755278,-0.0642144,10.3221,0.320018,1.31623,3.15524,0.0710492,5.27317,0.287493,5.20287,0.120952,0.523929,-0.862211,0.1372,0.0490066,0.00569691,-0.4955,-0.124878,23.479,23.3513,23.1952,23.3229,23.2236,23.2946,23.1527,
28,6.27312,1.38134,3.15336,4.11801,6.27419,1.97655,1.55572,0.00754216,-0.0256853,4.77269e-05,0.0964248,0.000148484,0.0578009,0,0.352646,-4.85377,-0.226326,2.58071,0.945259,-17.7426,0.733681,-0.00585297,-20,-0.393989,0.770141,-0.0371859,1.13043,0.00290879,-1.31396e-05,0.00188281,5.79505e-05,0.494975,0.00119164,0.0750821,0.0332414,-0.00263523,0.0145496,1.99311,0.000624692,0.005,1.76503,0.00294211,-0.00755278,-0.0642144,10.3221,0.320018,1.32729,3.41155,0.0716013,5.18866,0.301347,5.19299,0.136869,0.515688,-0.974854,0.1372,0.0113938,0,-0.483398,-0.132996,23.5074,23.3655,23.1669,23.3087,23.2378,23.2946,23.1385,
29,6.27312,1.38134,3.15336,4.11801,6.27419,1.97655,1.55572,0.00754216,-0.0256853,4.77269e-05,0.0964248,0.000148484,0.0578009,0,0.354312,-5.0271,-0.221583,2.44853,0.976276,-18.4209,0.746268,-0.0054107,-20,-0.395955,0.746676,-0.037059,1.06243,0.00334479,-1.41191e-05,0.0020603,6.34476e-05,0.494975,0.00119164,0.0750821,0.0332414,-0.00263523,0.0145496,1.99245,0.000676833,0.005,1.76329,0.00298086,-0.00859462,-0.0682606,10.9596,0.334192,1.32729,3.41155,0.0716013,5.18866,0.301347,5.19299,0.136869,0.515688,-0.974854,0.1372,0.0113938,0,-0.483398,-0.132996,23.5074,23.3655,23.1669,23.3087,23.2378,23.2946,23.1385,
30,6.27312,1.3813,3.15336,4.11811,6.27419,1.97661,1.55572,0.00783283,-0.031066,3.71209e-05,0.0980454,0.000159088,0.0591814,0,0.354418,-5.02598,-0.221882,2.44733,0.97637,-18.4186,0.74641,-0.00541054,-20,-0.395979,0.74742,-0.0370545,1.06231,0.00334348,-1.41191e-05,0.0020603,6.34476e-05,0.494975,0.00119164,0.0750821,0.0348359,-0.00272979,0.0167988,1.99245,0.000676833,0.005,1.76329,0.00298086,-0.00859462,-0.0682606,10.9596,0.334192,1.27143,3.69178,0.0503547,5.11211,0.279088,5.15067,0.137258,0.515688,-1.03981,0.129909,-0.00805664,0.0113938,-0.479387,-0.128969,23.479,23.3655,23.1952,23.3087,23.2236,23.3087,23.1527,
31,6.27312,1.3813,3.15336,4.11811,6.27419,1.97661,1.55572,0.00783283,-0.031066,3.71209e-05,0.0980454,0.000159088,0.0591814,0,0.356373,-5.2336,-0.215138,2.28904,1.01741,-19.2384,0.76494,-0.00489131,-20,-0.398257,0.719335,-0.0368625,0.979922,0.00416207,-1.61288e-05,0.00225267,6.82963e-05,0.494975,0.00119164,0.0750821,0.0348359,-0.00272979,0.0167988,1.99175,0.000727564,0.005,1.76123,0.00311162,-0.010619,-0.0760693,11.7304,0.354472,1.27143,3.69178,0.0503547,5.11211,0.279088,5.15067,0.137258,0.515688,-1.03981,0.129909,-0.00805664,0.0113938,-0.479387,-0.128969,23.479,23.3655,23.1952,23.3087,23.2236,23.3087,23.1527,
32,6.27313,1.38126,3.15336,4.11822,6.27419,1.97667,1.55572,0.00837302,-0.0378136,3.71209e-05,0.0995551,0.00015909,0.0588813,0,0.356492,-5.23212,-0.215506,2.28767,1.01751,-19.2355,0.765113,-0.00489779,-20,-0.398276,0.720108,-0.0368624,0.9798,0.00416261,-1.61288e-05,0.00225267,6.82963e-05,0.494975,0.00119164,0.0750821,0.0366853,-0.00292715,0.0194135,1.99175,0.000727564,0.005,1.76123,0.00311162,-0.010619,-0.0760693,11.7304,0.354472,1.28743,3.88217,0.0550499,5.01006,0.291176,5.11447,0.127199,0.523682,-1.0557,0.136963,-0.0180152,0,-0.471331,-0.128969,23.479,23.3655,23.1952,23.2946,23.2236,23.3087,23.1385,
33,6.27313,1.38126,3.15336,4.11822,6.27419,1.97667,1.55572,0.00837302,-0.0378136,3.71209e-05,0.0995551,0.00015909,0.0588813,0,0.358195,-5.44162,-0.20362,2.12689,1.07356,-20.0652,0.782222,-0.00444564,-20,-0.400214,0.691521,-0.0365708,0.896218,0.00474404,-1.73088e-05,0.00245372,7.47219e-05,0.494975,0.00119164,0.0750821,0.0366853,-0.00292715,0.0194135,1.99099,0.000787176,0.005,1.75887,0.0033429,-0.0129722,-0.0815974,12.5119,0.387644,1.28743,3.88217,0.0550499,5.01006,0.291176,5.11447,0.127199,0.523682,-1.0557,0.136963,-0.0180152,0,-0.471331,-0.128969,23.479,23.3655,23.1952,23.2946,23.2236,23.3087,23.1385,
34,6.27314,1.38122,3.15336,4.11832,6.27419,1.97673,1.55572,0.00864312,-0.0448362,3.17939e-05,0.102907,0.000169567,0.0588216,0,0.358296,-5.44017,-0.203962,2.12534,1.07363,-20.0622,0.78236,-0.00445206,-20,-0.400239,0.692169,-0.0365692,0.896147,0.00474291,-1.73088e-05,0.00245372,7.47219e-05,0.494975,0.00119164,0.0750821,0.0391236,-0.00301052,0.0221304,1.99099,0.000787176,0.005,1.75887,0.0033429,-0.0129722,-0.0815974,12.5119,0.387644,1.18666,4.10439,0.0530405,4.87941,0.292359,5.10384,0.121882,0.507824,-1.02323,0.112793,-0.0254773,0.0113938,-0.467303,-0.128969,23.4648,23.3655,23.1811,23.3087,23.2236,23.2804,23.1527,
35,6.27314,1.38122,3.15336,4.11832,6.27419,1.97673,1.55572,0.00864312,-0.0448362,3.17939e-05,0.102907,0.000169567,0.0588216,0,0.360499,-5.67033,-0.196863,1.94767,1.11809,-20.9733,0.801736,-0.00386726,-20,-0.40279,0.660459,-0.0363631,0.804278,0.00553941,-1.89422e-05,0.00265729,8.02183e-05,0.494975,0.00119164,0.0750821,0.0391236,-0.00301052,0.0221304,1.99022,0.000844617,0.005,1.75598,0.00346962,-0.0154173,-0.0891405,13.371,0.409139,1.18666,4.10439,0.0530405,4.87941,0.292359,5.10384,0.121882,0.507824,-1.02323,0.112793,-0.0254773,0.0113938,-0.467303,-0.128969,23.4648,23.3655,23.1811,23.3087,23.2236,23.2804,23.1527,
36,6.27314,1.38122,3.15336,4.11832,6.27419,1.97673,1.55572,0.00864312,-0.0448362,3.17939e-05,0.102907,0.000169567,0.0588216,0,0.360499,-5.67033,-0.196863,1.94767,1.11809,-20.9733,0.801736,-0.00386726,-20,-0.40279,0.660459,-0.0363631,0.804278,0.00553941,-1.89422e-05,0.00265729,8.02183e-05,0.494975,0.00119164,0.0750821,0.0391236,-0.00301052,0.0221304,1.99022,0.000844617,0.005,1.75598,0.00346962,-0.0154173,-0.0891405,13.371,0.409139,1.18666,4.10439,0.0530405,4.87941,0.292359,5.10384,0.121882,0.507824,-1.02323,0.112793,-0.0254773,0.0113938,-0.467303,-0.128969,23.4648,23.3655,23.1811,23.3087,23.2236,23.2804,23.1527,
37,6.27315,1.38117,3.15336,4.11842,6.27419,1.97679,1.55572,0.00858245,-0.0496979,2.65149e-05,0.102907,0.000169696,0.0600225,0,0.36057,-5.66899,-0.197076,1.94651,1.11816,-20.9708,0.801884,-0.003868,-20,-0.402816,0.661408,-0.03635,0.804103,0.00553967,-1.89422e-05,0.00265729,8.02183e-05,0.494975,0.00119164,0.0750821,0.0401398,-0.00297359,0.0241867,1.99022,0.000844617,0.005,1.75598,0.00346962,-0.0154173,-0.0891405,13.371,0.409139,1.2091,4.35241,0.0714378,4.76542,0.290362,5.06374,0.103577,0.491719,-0.991262,0.12085,-0.072956,0.0166092,-0.467303,-0.125138,23.479,23.3655,23.1811,23.3087,23.2236,23.2804,23.1243,
38,6.27315,1.38117,3.15336,4.11842,6.27419,1.97679,1.55572,0.00858245,-0.0496979,2.65149e-05,0.102907,0.000169696,0.0600225,0,0.362526,-5.87102,-0.191592,1.79367,1.15408,-21.7674,0.818172,-0.0033485,-20,-0.405109,0.634414,-0.0362076,0.724214,0.00621525,-2.07264e-05,0.00286685,8.71124e-05,0.494975,0.00119164,0.0750821,0.0401398,-0.00297359,0.0241867,1.98942,0.000905128,0.005,1.75436,0.00349084,-0.017268,-0.0955026,14.1187,0.425363,1.2091,4.35241,0.0714378,4.76542,0.290362,5.06374,0.103577,0.491719,-0.991262,0.12085,-0.072956,0.0166092,-0.467303,-0.125138,23.479,23.3655,23.1811,23.3087,23.2236,23.2804,23.1243,
39,6.27316,1.38111,3.15336,4.11852,6.2742,1.97685,1.55572,0.00909816,-0.0551691,2.1212e-05,0.103343,0.000169696,0.0606289,0,0.362656,-5.86952,-0.191977,1.7924,1.15419,-21.7646,0.818351,-0.00335661,-20,-0.405127,0.635376,-0.0362056,0.724038,0.00621485,-2.07264e-05,0.00286685,8.71124e-05,0.494975,0.00119164,0.0750821,0.0414095,-0.00316349,0.0264141,1.98942,0.000905128,0.005,1.75436,0.00349084,-0.017268,-0.0955026,14.1187,0.425363,1.13017,4.64447,0.0655492,4.66249,0.288197,4.98471,0.101416,0.523682,-1.03153,0.136963,-0.0809682,0.012085,-0.471331,-0.124878,23.479,23.3655,23.1811,23.2946,23.2094,23.3087,23.1527,
40,6.27316,1.38111,3.15336,4.11852,6.2742,1.97685,1.55572,0.00909816,-0.0551691,2.1212e-05,0.103343,0.000169696,0.0606289,0,0.364444,-6.08654,-0.180424,1.62759,1.20994,-22.6198,0.836831,-0.00288192,-20,-0.407191,0.606251,-0.0359204,0.638195,0.0069082,-2.25035e-05,0.00309212,9.35697e-05,0.494975,0.00119164,0.0750821,0.0414095,-0.00316349,0.0264141,1.98859,0.000970177,0.005,1.75246,0.0037203,-0.0192727,-0.102132,14.9223,0.45782,1.13017,4.64447,0.0655492,4.66249,0.288197,4.98471,0.101416,0.523682,-1.03153,0.136963,-0.0809682,0.012085,-0.471331,-0.124878,23.479,23.3655,23.1811,23.2946,23.2094,23.3087,23.1527,
41,6.27317,1.38106,3.15336,4.11862,6.2742,1.97691,1.55572,0.00864312,-0.0582819,1.85605e-05,0.103717,0.000169696,0.0626626,0,0.364444,-6.08532,-0.180489,1.62654,1.20999,-22.6176,0.836907,-0.00288778,-20,-0.407221,0.60738,-0.0359008,0.637994,0.00690697,-2.25035e-05,0.00309212,9.35697e-05,0.494975,0.00119164,0.0750821,0.0421658,-0.00297292,0.0278614,1.98859,0.000970177,0.005,1.75246,0.0037203,-0.0192727,-0.102132,14.9223,0.45782,1.15997,4.85057,0.0646102,4.53307,0.280183,4.92069,0.100016,0.491455,-1.03153,0.11308,-0.0649547,0.0090076,-0.463257,-0.128969,23.4648,23.3655,23.1527,23.3087,23.2236,23.3087,23.1385,
42,6.27317,1.38106,3.15336,4.11862,6.2742,1.97691,1.55572,0.00864312,-0.0582819,1.85605e-05,0.103717,0.000169696,0.0626626,0,0.366747,-6.29336,-0.18036,1.46997,1.2307,-23.4327,0.850807,-0.00227629,-20,-0.409976,0.579786,-0.0358699,0.556493,0.00742086,-2.38494e-05,0.00331368,9.99777e-05,0.494975,0.00119164,0.0750821,0.0421658,-0.00297292,0.0278614,1.98776,0.00102902,0.005,1.75103,0.00360174,-0.0205752,-0.106778,15.6861,0.460409,1.15997,4.85057,0.0646102,4.53307,0.280183,4.92069,0.100016,0.491455,-1.03153,0.11308,-0.0649547,0.0090076,-0.463257,-0.128969,23.4648,23.3655,23.1527,23.3087,23.2236,23.3087,23.1385,
43,6.27318,1.381,3.15336,4.11873,6.2742,1.97698,1.55572,0.00918331,-0.0605018,1.58969e-05,0.105574,0.000180303,0.0645533,0,0.366886,-6.29207,-0.180757,1.46892,1.23081,-23.4303,0.850983,-0.00228258,-20,-0.409998,0.581059,-0.0358676,0.556295,0.00741907,-2.38494e-05,0.00331368,9.99777e-05,0.494975,0.00119164,0.0750821,0.0431636,-0.00317415,0.028915,1.98776,0.00102902,0.005,1.75103,0.00360174,-0.0205752,-0.106778,15.6861,0.460409,1.0359,5.13409,0.0680281,4.39194,0.285984,4.83619,0.103691,0.515688,-1.05542,0.129158,-0.0805664,0.0205405,-0.479387,-0.120917,23.4932,23.3655,23.1811,23.3087,23.2094,23.2946,23.1385,
44,6.27318,1.381,3.15336,4.11873,6.2742,1.97698,1.55572,0.00918331,-0.0605018,1.58969e-05,0.105574,0.000180303,0.0645533,0,0.368768,-6.51507,-0.170294,1.30031,1.28403,-24.2987,0.869892,-0.00178284,-20,-0.412222,0.551342,-0.0355999,0.469528,0.00814578,-2.59738e-05,0.00354906,0.00010575,0.494975,0.00119164,0.0750821,0.0431636,-0.00317415,0.028915,1.98686,0.00108797,0.005,1.74933,0.00383591,-0.0215235,-0.113727,16.5006,0.4904,1.0359,5.13409,0.0680281,4.39194,0.285984,4.83619,0.103691,0.515688,-1.05542,0.129158,-0.0805664,0.0205405,-0.479387,-0.120917,23.4932,23.3655,23.1811,23.3087,23.2094,23.2946,23.1385,
45,6.27319,1.38093,3.15336,4.11884,6.2742,1.97705,1.55572,0.0100307,-0.0642832,1.0606e-05,0.103447,0.000185605,0.0662029,0,0.368942,-6.51364,-0.170761,1.29926,1.28418,-24.2962,0.870146,-0.00179207,-20,-0.41223,0.55254,-0.0355996,0.469258,0.00814766,-2.59738e-05,0.00354906,0.00010575,0.494975,0.00119164,0.0750821,0.0433383,-0.00350212,0.0306308,1.98686,0.00108797,0.005,1.74933,0.00383591,-0.0215235,-0.113727,16.5006,0.4904,1.0586,5.41238,0.102577,4.27383,0.305185,4.72,0.0998318,0.491719,-1.1199,0.112793,-0.0966797,0.0245033,-0.487427,-0.12085,23.479,23.3655,23.1669,23.2804,23.2378,23.3087,23.1527,
46,6.27319,1.38093,3.15336,4.11884,6.2742,1.97705,1.55572,0.0100307,-0.0642832,1.0606e-05,0.103447,0.000185605,0.0662029,0,0.370206,-6.71411,-0.153461,1.14964,1.35463,-25.0822,0.887125,-0.00145651,-20,-0.41367,0.526406,-0.0352106,0.390766,0.00866881,-2.75763e-05,0.00378486,0.000113674,0.494975,0.00119164,0.0750821,0.0433383,-0.00350212,0.0306308,1.986,0.00116215,0.005,1.7484,0.00419784,-0.0230677,-0.118807,17.2364,0.537037,1.0586,5.41238,0.102577,4.27383,0.305185,4.72,0.0998318,0.491719,-1.1199,0.112793,-0.0966797,0.0245033,-0.487427,-0.12085,23.479,23.3655,23.1669,23.2804,23.2378,23.3087,23.1527,
47,6.2732,1.38086,3.15336,4.11894,6.2742,1.97711,1.55572,0.00917401,-0.0687106,5.30299e-06,0.101827,0.000196211,0.0647577,0,0.370153,-6.7123,-0.153393,1.14877,1.35461,-25.0795,0.887147,-0.00145692,-20,-0.413703,0.527739,-0.0351804,0.390491,0.00866514,-2.75763e-05,0.00378486,0.000113674,0.494975,0.00119164,0.0750821,0.0437929,-0.00315779,0.0322661,1.986,0.00116215,0.005,1.7484,0.00419784,-0.0230677,-0.118807,17.2364,0.537037,0.955138,5.7188,0.059176,4.17624,0.311333,4.5845,0.0955383,0.467285,-1.13599,0.11308,-0.0402832,0.0241699,-0.495549,-0.125461,23.479,23.3655,23.1669,23.3087,23.2094,23.2946,23.1527,
48,6.27321,1.38079,3.15336,4.11904,6.2742,1.97717,1.55572,0.00918331,-0.0729263,5.30299e-06,0.101557,0.000206817,0.0626626,0,0.372489,-6.89516,-0.157745,1.00903,1.36022,-25.804,0.902378,-0.0008567,-20,-0.41647,0.504571,-0.0352379,0.31745,0.0094942,-3.00005e-05,0.0040221,0.00011953,0.494975,0.00119164,0.0750821,0.0445943,-0.00315635,0.0337254,1.98512,0.00121955,0.005,1.74719,0.00393961,-0.0245395,-0.126536,17.9178,0.528047,0.975157,5.97592,0.0842636,4.07542,0.336061,4.46314,0.105341,0.491455,-1.11987,0.104736,-0.00805664,0.0205405,-0.483398,-0.112793,23.479,23.3655,23.1527,23.2946,23.2094,23.2804,23.1385,
49,6.27321,1.38079,3.15336,4.11904,6.2742,1.97717,1.55572,0.00918331,-0.0729263,5.30299e-06,0.101557,0.000206817,0.0626626,0,0.37424,-7.08173,-0.151846,0.867571,1.39586,-26.5358,0.918083,-0.000391996,-20,-0.418531,0.479605,-0.0350877,0.244125,0.0101672,-3.18869e-05,0.00425603,0.000125519,0.494975,0.00119164,0.0750821,0.0445943,-0.00315635,0.0337254,1.98424,0.00128007,0.005,1.74568,0.00399278,-0.0258529,-0.132917,18.6049,0.54525,0.975157,5.97592,0.0842636,4.07542,0.336061,4.46314,0.105341,0.491455,-1.11987,0.104736,-0.00805664,0.0205405,-0.483398,-0.112793,23.479,23.3655,23.1527,23.2946,23.2094,23.2804,23.1385,
50,6.27321,1.38079,3.15336,4.11904,6.2742,1.97717,1.55572,0.00918331,-0.0729263,5.30299e-06,0.101557,0.000206817,0.0626626,0,0.37424,-7.08173,-0.151846,0.867571,1.39586,-26.5358,0.918083,-0.000391996,-20,-0.418531,0.479605,-0.0350877,0.244125,0.0101672,-3.18869e-05,0.00425603,0.000125519,0.494975,0.00119164,0.0750821,0.0445943,-0.00315635,0.0337254,1.98424,0.00128007,0.005,1.74568,0.00399278,-0.0258529,-0.132917,18.6049,0.54525,0.975157,5.97592,0.0842636,4.07542,0.336061,4.46314,0.105341,0.491455,-1.11987,0.104736,-0.00805664,0.0205405,-0.483398,-0.112793,23.479,23.3655,23.1527,23.2946,23.2094,23.2804,23.1385,
51,6.27321,1.38071,3.15336,4.11915,6.2742,1.97723,1.55572,0.00864312,-0.0750871,0,0.102468,0.000217423,0.0607719,0,0.3742,-7.07991,-0.151848,0.866899,1.39584,-26.5334,0.918103,-0.000399337,-20,-0.418563,0.481196,-0.0350648,0.243858,0.0101632,-3.18869e-05,0.00425603,0.000125519,0.494975,0.00119164,0.0750821,0.0453056,-0.00293749,0.0343733,1.98424,0.00128007,0.005,1.74568,0.00399278,-0.0258529,-0.132917,18.6049,0.54525,0.865436,6.27435,0.11295,3.98857,0.335653,4.33145,0.0893501,0.499512,-1.12034,0.12085,0.0113938,0.0281982,-0.447144,-0.12085,23.479,23.3513,23.1527,23.2804,23.2236,23.2804,23.1527,
52,6.27321,1.38064,3.15336,4.11925,6.2742,1.97729,1.55572,0.00864312,-0.075011,-5.30299e-06,0.101016,0.000222726,0.0588813,0,0.376404,-7.26765,-0.153284,0.723464,1.41031,-27.2683,0.932584,0.000170942,-20,-0.421186,0.457768,-0.0350628,0.16992,0.0108399,-3.38606e-05,0.00449874,0.000130903,0.494975,0.00119164,0.0750821,0.0448669,-0.00294201,0.0341766,1.9833,0.00133602,0.005,1.74419,0.00384616,-0.026436,-0.139349,19.2957,0.5438,0.865436,6.55665,0.123547,3.96792,0.313687,4.15231,0.0853722,0.499512,-1.15213,0.104736,-0.00805664,0.0281982,-0.422974,-0.116821,23.479,23.3655,23.1527,23.2804,23.1952,23.2804,23.1527,
53,6.27322,1.38064,3.15336,4.11925,6.2742,1.97729,1.55572,0.00810292,-0.075011,-5.30299e-06,0.101016,0.000222726,0.0588813,0,0.378103,-7.4133,-0.15665,0.61578,1.41567,-27.8288,0.945089,0.000644414,-20,-0.42339,0.438982,-0.0350563,0.114397,0.0114873,-3.60931e-05,0.00473027,0.000128289,0.494975,0.00119164,0.0750821,0.0448663,-0.00272853,0.0341766,1.98242,0.001323,0.005,1.74379,0.00383851,-0.026259,-0.145259,19.8183,0.537931,0.897761,6.55665,0.123547,3.96792,0.313687,4.15231,0.0853722,0.507568,-1.15213,0.104736,-0.00805664,0.0281982,-0.422974,-0.116821,23.4648,23.3655,23.1527,23.2804,23.1952,23.2804,23.1527,
54,6.27322,1.38064,3.15336,4.11925,6.2742,1.97729,1.55572,0.00810292,-0.075011,-5.30299e-06,0.101016,0.000222726,0.0588813,0,0.377948,-7.41336,-0.153779,0.6157,1.42192,-27.8287,0.944614,0.000603215,-20,-0.423187,0.438982,-0.0350526,0.114405,0.0114747,-3.60742e-05,0.00473027,0.000136279,0.494975,0.00119164,0.0750821,0.0448663,-0.00272853,0.0341766,1.98242,0.00138626,0.005,1.74379,0.0037033,-0.026259,-0.145151,19.8183,0.543297,0.897761,6.55665,0.123547,3.96792,0.313687,4.15231,0.0853722,0.507568,-1.15213,0.104736,-0.00805664,0.0281982,-0.422974,-0.116821,23.4648,23.3655,23.1527,23.2804,23.1952,23.2804,23.1527,
55,6.27323,1.38056,3.15336,4.11935,6.2742,1.97735,1.55572,0.00752305,-0.0758035,-1.0606e-05,0.103447,0.000233329,0.0581783,0,0.377907,-7.41174,-0.153774,0.614984,1.42191,-27.8264,0.944629,0.000595412,-20,-0.423221,0.440594,-0.0350294,0.11416,0.0114703,-3.60742e-05,0.00473027,0.000136279,0.494975,0.00119164,0.0750821,0.0457292,-0.0024917,0.0343827,1.98242,0.00138626,0.005,1.74379,0.0037033,-0.026259,-0.145151,19.8183,0.543297,0.841641,6.86819,0.115201,3.93429,0.322644,3.96324,0.0734128,0.507824,-1.23277,0.105046,0.0290486,0.0284845,-0.390747,-0.112793,23.479,23.3513,23.1527,23.2804,23.2236,23.2804,23.1385,
56,6.27323,1.38056,3.15336,4.11935,6.2742,1.97735,1.55572,0.00752305,-0.0758035,-1.0606e-05,0.103447,0.000233329,0.0581783,0,0.380292,-7.61425,-0.156669,0.46154,1.4333,-28.6102,0.959556,0.00122842,-20,-0.426121,0.413487,-0.0350578,0.0359724,0.012166,-3.8055e-05,0.00497445,0.000141181,0.494975,0.00119164,0.0750821,0.0457292,-0.0024917,0.0343827,1.98149,0.00143797,0.005,1.74218,0.00353671,-0.0264444,-0.151531,20.5532,0.538295,0.841641,6.86819,0.115201,3.93429,0.322644,3.96324,0.0734128,0.507824,-1.23277,0.105046,0.0290486,0.0284845,-0.390747,-0.112793,23.479,23.3513,23.1527,23.2804,23.2236,23.2804,23.1385,
57,6.27323,1.38056,3.15336,4.11935,6.2742,1.97735,1.55572,0.00752305,-0.0758035,-1.0606e-05,0.103447,0.000233329,0.0581783,0,0.380292,-7.61425,-0.156669,0.46154,1.4333,-28.6102,0.959556,0.00122842,-20,-0.426121,0.413487,-0.0350578,0.0359724,0.012166,-3.8055e-05,0.00497445,0.000141181,0.494975,0.00119164,0.0750821,0.0457292,-0.0024917,0.0343827,1.98149,0.00143797,0.005,1.74218,0.00353671,-0.0264444,-0.151531,20.5532,0.538295,0.841641,6.86819,0.115201,3.93429,0.322644,3.96324,0.0734128,0.507824,-1.23277,0.105046,0.0290486,0.0284845,-0.390747,-0.112793,23.479,23.3513,23.1527,23.2804,23.2236,23.2804,23.1385,
58,6.27324,1.38048,3.15336,4.11945,6.2742,1.97741,1.55572,0.00702253,-0.0782489,-1.5909e-05,0.104798,0.000243937,0.0561803,0,0.380276,-7.61239,-0.156692,0.460779,1.43328,-28.6076,0.959563,0.00122592,-20,-0.426152,0.414994,-0.0350368,0.0357311,0.0121603,-3.8055e-05,0.00497445,0.000141181,0.494975,0.00119164,0.0750821,0.046627,-0.00228703,0.0351249,1.98149,0.00143797,0.005,1.74218,0.00353671,-0.0264444,-0.151531,20.5532,0.538295,0.854212,7.08016,0.135677,3.82869,0.352357,3.78678,0.0856148,0.507632,-1.27305,0.105046,-0.0241699,0.0281982,-0.38269,-0.112865,23.4648,23.3513,23.1669,23.2946,23.2094,23.2804,23.1385,
59,6.27324,1.38048,3.15336,4.11945,6.2742,1.97741,1.55572,0.00702253,-0.0782489,-1.5909e-05,0.104798,0.000243937,0.0561803,0,0.382514,-7.80113,-0.159401,0.317254,1.44409,-29.3429,0.975629,0.00182001,-20,-0.428854,0.389598,-0.0350587,-0.0378136,0.0130174,-4.05394e-05,0.0052101,0.000145003,0.494975,0.00119164,0.0750821,0.046627,-0.00228703,0.0351249,1.98057,0.00147857,0.005,1.74055,0.00338904,-0.0271124,-0.159541,21.2433,0.533715,0.854212,7.08016,0.135677,3.82869,0.352357,3.78678,0.0856148,0.507632,-1.27305,0.105046,-0.0241699,0.0281982,-0.38269,-0.112865,23.4648,23.3513,23.1669,23.2946,23.2094,23.2804,23.1385,
60,6.27324,1.3804,3.15336,4.11956,6.2742,1.97746,1.55572,0.00702253,-0.0826498,-1.85605e-05,0.104069,0.000254543,0.0558535,0,0.38256,-7.79923,-0.159584,0.316129,1.44413,-29.3399,0.975671,0.0018097,-20,-0.428873,0.390975,-0.0350482,-0.038066,0.0130121,-4.05394e-05,0.0052101,0.000145003,0.494975,0.00119164,0.0750821,0.0473331,-0.00227879,0.0368552,1.98057,0.00147857,0.005,1.74055,0.00338904,-0.0271124,-0.159541,21.2433,0.533715,0.760545,7.27897,0.132809,3.76375,0.336278,3.60137,0.0674282,0.531799,-1.28916,0.105046,-0.0402832,0.0402832,-0.362571,-0.116821,23.4506,23.3513,23.1669,23.2946,23.1952,23.2946,23.1243,
61,6.27324,1.3804,3.15336,4.11956,6.2742,1.97746,1.55572,0.00702253,-0.0826498,-1.85605e-05,0.104069,0.000254543,0.0558535,0,0.384716,-8.00732,-0.156669,0.15875,1.47389,-30.1575,0.992611,0.00238198,-20,-0.431433,0.363251,-0.0349381,-0.119967,0.0137433,-4.25976e-05,0.00545707,0.000148842,0.494975,0.00119164,0.0750821,0.0473331,-0.00227879,0.0368552,1.97959,0.0015217,0.005,1.73903,0.00342044,-0.0286697,-0.166395,22.0105,0.54418,0.760545,7.27897,0.132809,3.76375,0.336278,3.60137,0.0674282,0.531799,-1.28916,0.105046,-0.0402832,0.0402832,-0.362571,-0.116821,23.4506,23.3513,23.1669,23.2946,23.1952,23.2946,23.1243,
62,6.27324,1.3804,3.15336,4.11956,6.2742,1.97746,1.55572,0.00702253,-0.0826498,-1.85605e-05,0.104069,0.000254543,0.0558535,0,0.384716,-8.00732,-0.156669,0.15875,1.47389,-30.1575,0.992611,0.00238198,-20,-0.431433,0.363251,-0.0349381,-0.119967,0.0137433,-4.25976e-05,0.00545707,0.000148842,0.494975,0.00119164,0.0750821,0.0473331,-0.00227879,0.0368552,1.97959,0.0015217,0.005,1.73903,0.00342044,-0.0286697,-0.166395,22.0105,0.54418,0.760545,7.27897,0.132809,3.76375,0.336278,3.60137,0.0674282,0.531799,-1.28916,0.105046,-0.0402832,0.0402832,-0.362571,-0.116821,23.4506,23.3513,23.1669,23.2946,23.1952,23.2946,23.1243,
63,6.27325,1.38032,3.15336,4.11966,6.27421,1.97752,1.55572,0.00675244,-0.0864312,-2.38635e-05,0.102533,0.000265149,0.0540195,1.0582e-05,0.384712,-8.00537,-0.156727,0.158022,1.4739,-30.1548,0.992608,0.00237244,-20,-0.431452,0.364775,-0.034922,-0.12026,0.0137375,-4.25976e-05,0.00545707,0.000148842,0.494975,0.00119164,0.0750821,0.0476765,-0.00216815,0.0381943,1.97959,0.0015217,0.005,1.73903,0.00342044,-0.0286697,-0.166395,22.0105,0.54418,0.758405,7.46699,0.154909,3.71367,0.332863,3.35742,0.0510781,0.531738,-1.24901,0.104736,-0.0241699,0.0362549,-0.342407,-0.116821,23.4648,23.3513,23.1527,23.2804,23.2236,23.2804,23.1243,
64,6.27325,1.38032,3.15336,4.11966,6.27421,1.97752,1.55572,0.00675244,-0.0864312,-2.38635e-05,0.102533,0.000265149,0.0540195,1.0582e-05,0.386708,-8.18477,-0.156774,0.0228556,1.49176,-30.8586,1.00444,0.00290233,-20,-0.433841,0.341002,-0.0348872,-0.190672,0.0141487,-4.36911e-05,0.00569685,0.000152286,0.494975,0.00119164,0.0750821,0.0476765,-0.00216815,0.0381943,1.97865,0.0015609,0.005,1.73788,0.00335614,-0.0298749,-0.170061,22.6703,0.54642,0.758405,7.46699,0.154909,3.71367,0.332863,3.35742,0.0510781,0.531738,-1.24901,0.104736,-0.0241699,0.0362549,-0.342407,-0.116821,23.4648,23.3513,23.1527,23.2804,23.2236,23.2804,23.1243,
65,6.27326,1.38022,3.15336,4.11976,6.27421,1.97757,1.55572,0.00597879,-0.0895243,-2.38632e-05,0.100578,0.000270452,0.0536645,1.0582e-05,0.386636,-8.18298,-0.156657,0.0220957,1.49174,-30.8561,1.00438,0.00289301,-20,-0.433867,0.342623,-0.0348605,-0.190989,0.0141417,-4.36911e-05,0.00569685,0.000152286,0.494975,0.00119164,0.0750821,0.0477531,-0.00185994,0.0394252,1.97865,0.0015609,0.005,1.73788,0.00335614,-0.0298749,-0.170061,22.6703,0.54642,0.68292,7.73289,0.150255,3.64587,0.356355,3.15194,0.02801,0.523744,-1.22464,0.104736,-0.0161133,0.0404841,-0.314235,-0.112865,23.479,23.3371,23.1669,23.2804,23.2236,23.2804,23.1243,
66,6.27326,1.38022,3.15336,4.11976,6.27421,1.97757,1.55572,0.00597879,-0.0895243,-2.38632e-05,0.100578,0.000270452,0.0536645,1.0582e-05,0.389099,-8.37447,-0.162816,-0.121126,1.4927,-31.6062,1.01762,0.0035468,-20,-0.43685,0.3175,-0.0349551,-0.265877,0.0147673,-4.55856e-05,0.00594809,0.000155653,0.494975,0.00119164,0.0750821,0.0477531,-0.00185994,0.0394252,1.97768,0.00159648,0.005,1.73694,0.00311078,-0.0309826,-0.175664,23.3721,0.532995,0.68292,7.73289,0.150255,3.64587,0.356355,3.15194,0.02801,0.523744,-1.22464,0.104736,-0.0161133,0.0404841,-0.314235,-0.112865,23.479,23.3371,23.1669,23.2804,23.2236,23.2804,23.1243,
67,6.27326,1.38022,3.15336,4.11976,6.27421,1.97757,1.55572,0.00597879,-0.0895243,-2.38632e-05,0.100578,0.000270452,0.0536645,1.0582e-05,0.389099,-8.37447,-0.162816,-0.121126,1.4927,-31.6062,1.01762,0.0035468,-20,-0.43685,0.3175,-0.0349551,-0.265877,0.0147673,-4.55856e-05,0.00594809,0.000155653,0.494975,0.00119164,0.0750821,0.0477531,-0.00185994,0.0394252,1.97768,0.00159648,0.005,1.73694,0.00311078,-0.0309826,-0.175664,23.3721,0.532995,0.68292,7.73289,0.150255,3.64587,0.356355,3.15194,0.02801,0.523744,-1.22464,0.104736,-0.0161133,0.0404841,-0.314235,-0.112865,23.479,23.3371,23.1669,23.2804,23.2236,23.2804,23.1243,
68,6.27326,1.38013,3.15336,4.11986,6.27421,1.97763,1.55572,0.0054589,-0.0939939,-2.65149e-05,0.099565,0.000291664,0.0521288,1.05821e-05,0.389066,-8.37249,-0.162799,-0.122017,1.49267,-31.6034,1.01752,0.00353985,-20,-0.436875,0.318921,-0.0349357,-0.266141,0.0147569,-4.55856e-05,0.00594809,0.000155653,0.494975,0.00119164,0.0750821,0.0483903,-0.00164699,0.0410601,1.97768,0.00159648,0.005,1.73694,0.00311078,-0.0309826,-0.175664,23.3721,0.532995,0.706051,7.95797,0.176312,3.53138,0.404713,2.93267,0.0599767,0.539855,-1.21666,0.0809682,0.0490066,0.0322266,-0.306152,-0.112865,23.479,23.3513,23.1669,23.2946,23.2236,23.2946,23.1527,
69,6.27326,1.38013,3.15336,4.11986,6.27421,1.97763,1.55572,0.0054589,-0.0939939,-2.65149e-05,0.099565,0.000291664,0.0521288,1.05821e-05,0.391527,-8.56523,-0.168397,-0.267917,1.4962,-32.362,1.03446,0.00419294,-20,-0.439834,0.293177,-0.0349984,-0.342172,0.0157081,-4.83432e-05,0.00619039,0.000157064,0.494975,0.00119164,0.0750821,0.0483903,-0.00164699,0.0410601,1.97673,0.00162358,0.005,1.7355,0.0029435,-0.0324541,-0.184516,24.0839,0.521658,0.706051,7.95797,0.176312,3.53138,0.404713,2.93267,0.0599767,0.539855,-1.21666,0.0809682,0.0490066,0.0322266,-0.306152,-0.112865,23.479,23.3513,23.1669,23.2946,23.2236,23.2946,23.1527,
70,6.27327,1.38003,3.15336,4.11996,6.27421,1.97768,1.55572,0.00513185,-0.0971366,-3.17939e-05,0.0965459,0.000302042,0.0518587,1.0582e-05,0.391516,-8.56343,-0.168417,-0.268585,1.49621,-32.3595,1.03441,0.00418161,-20,-0.43985,0.294882,-0.0349815,-0.342515,0.015699,-4.83432e-05,0.00619039,0.000157064,0.494975,0.00119164,0.0750821,0.0481699,-0.00151549,0.0423382,1.97673,0.00162358,0.005,1.7355,0.0029435,-0.0324541,-0.184516,24.0839,0.521658,0.653208,8.14829,0.172402,3.45454,0.391325,2.74713,0.0510553,0.547852,-1.1763,0.088623,0.0809682,0.0459299,-0.277983,-0.116891,23.479,23.3513,23.1669,23.2804,23.1811,23.2946,23.1385,
71,6.27327,1.38003,3.15336,4.11996,6.27421,1.97768,1.55572,0.00513185,-0.0971366,-3.17939e-05,0.0965459,0.000302042,0.0518587,1.0582e-05,0.393684,-8.74624,-0.171016,-0.404734,1.50727,-33.0761,1.04872,0.00475689,-20,-0.442467,0.271088,-0.0349907,-0.414004,0.0163792,-5.04863e-05,0.00644016,0.000158924,0.494975,0.00119164,0.0750821,0.0481699,-0.00151549,0.0423382,1.97573,0.00164972,0.005,1.73481,0.00284869,-0.0336044,-0.19078,24.7539,0.517725,0.653208,8.14829,0.172402,3.45454,0.391325,2.74713,0.0510553,0.547852,-1.1763,0.088623,0.0809682,0.0459299,-0.277983,-0.116891,23.479,23.3513,23.1669,23.2804,23.1811,23.2946,23.1385,
72,6.27327,1.38003,3.15336,4.11996,6.27421,1.97768,1.55572,0.00513185,-0.0971366,-3.17939e-05,0.0965459,0.000302042,0.0518587,1.0582e-05,0.393684,-8.74624,-0.171016,-0.404734,1.50727,-33.0761,1.04872,0.00475689,-20,-0.442467,0.271088,-0.0349907,-0.414004,0.0163792,-5.04863e-05,0.00644016,0.000158924,0.494975,0.00119164,0.0750821,0.0481699,-0.00151549,0.0423382,1.97573,0.00164972,0.005,1.73481,0.00284869,-0.0336044,-0.19078,24.7539,0.517725,0.653208,8.14829,0.172402,3.45454,0.391325,2.74713,0.0510553,0.547852,-1.1763,0.088623,0.0809682,0.0459299,-0.277983,-0.116891,23.479,23.3513,23.1669,23.2804,23.1811,23.2946,23.1385,
73,6.27327,1.37994,3.15336,4.12006,6.27421,1.97773,1.55572,0.00459166,-0.096965,-3.18179e-05,0.0945341,0.000312873,0.0502381,1.0582e-05,0.393635,-8.74455,-0.170936,-0.404786,1.50725,-33.0743,1.04864,0.00474639,-20,-0.442484,0.273169,-0.0349691,-0.414389,0.0163698,-5.04863e-05,0.00644016,0.000158924,0.494975,0.00119164,0.0750821,0.0475479,-0.00130787,0.0421424,1.97573,0.00164972,0.005,1.73481,0.00284869,-0.0336044,-0.19078,24.7539,0.517725,0.666154,8.41955,0.192363,3.39022,0.363004,2.48038,0.0598829,0.555967,-1.16027,0.088623,0.129909,0.0444942,-0.273955,-0.108839,23.4648,23.3513,23.1527,23.3087,23.2094,23.2804,23.1385,
74,6.27327,1.37994,3.15336,4.12006,6.27421,1.97773,1.55572,0.00459166,-0.096965,-3.18179e-05,0.0945341,0.000312873,0.0502381,1.0582e-05,0.39552,-8.89207,-0.176064,-0.513664,1.50687,-33.6423,1.05966,0.00524674,-20,-0.444814,0.25422,-0.0350475,-0.470639,0.0169396,-5.25536e-05,0.00667848,0.000160385,0.494975,0.00119164,0.0750821,0.0475479,-0.00130787,0.0421424,1.9748,0.0016721,0.005,1.73452,0.00268197,-0.0334281,-0.195965,25.2833,0.506596,0.666154,8.41955,0.192363,3.39022,0.363004,2.48038,0.0598829,0.555967,-1.16027,0.088623,0.129909,0.0444942,-0.273955,-0.108839,23.4648,23.3513,23.1527,23.3087,23.2094,23.2804,23.1385,
75,6.27328,1.37983,3.15336,4.12015,6.27421,1.97777,1.55572,0.00459166,-0.0955428,-3.71209e-05,0.0948042,0.000318179,0.0472192,1.0582e-05,0.395575,-8.89022,-0.17621,-0.513558,1.5069,-33.6406,1.05971,0.00523961,-20,-0.444827,0.256481,-0.0350352,-0.471006,0.0169332,-5.25536e-05,0.00667848,0.000160385,0.494975,0.00119164,0.0750821,0.0473248,-0.00131354,0.0412645,1.9748,0.0016721,0.005,1.73452,0.00268197,-0.0334281,-0.195965,25.2833,0.506596,0.571488,8.71481,0.179551,3.3355,0.381398,2.2785,0.0370934,0.555967,-1.21679,0.0966797,0.161334,0.045038,-0.241699,-0.112793,23.4506,23.3513,23.1669,23.2946,23.2236,23.2804,23.1243,
76,6.27328,1.37983,3.15336,4.12015,6.27421,1.97777,1.55572,0.00459166,-0.0955428,-3.71209e-05,0.0948042,0.000318179,0.0472192,1.0582e-05,0.397047,-9.0384,-0.173997,-0.624357,1.52796,-34.2047,1.07316,0.00563019,-20,-0.446646,0.237112,-0.0349635,-0.52684,0.01761,-5.49932e-05,0.00691999,0.00016281,0.494975,0.00119164,0.0750821,0.0473248,-0.00131354,0.0412645,1.97383,0.0016966,0.005,1.73386,0.00270913,-0.032638,-0.202421,25.8102,0.514241,0.571488,8.71481,0.179551,3.3355,0.381398,2.2785,0.0370934,0.555967,-1.21679,0.0966797,0.161334,0.045038,-0.241699,-0.112793,23.4506,23.3513,23.1669,23.2946,23.2236,23.2804,23.1243,
77,6.27328,1.37974,3.15336,4.12024,6.27421,1.97782,1.55572,0.00421331,-0.0945341,-3.97724e-05,0.0963271,0.000339391,0.0466429,1.0582e-05,0.397028,-9.03677,-0.173999,-0.624845,1.52795,-34.2026,1.07305,0.00561939,-20,-0.44667,0.239029,-0.0349474,-0.527136,0.0175969,-5.49932e-05,0.00691999,0.00016281,0.494975,0.00119164,0.0750821,0.0475484,-0.00116112,0.0407877,1.97383,0.0016966,0.005,1.73386,0.00270913,-0.032638,-0.202421,25.8102,0.514241,0.601584,8.99875,0.21831,3.22855,0.416666,2.06448,0.044143,0.555967,-1.27297,0.088623,0.169381,0.0525229,-0.217678,-0.104814,23.4648,23.3513,23.1385,23.2804,23.2094,23.2804,23.1385,
78,6.27328,1.37974,3.15336,4.12024,6.27421,1.97782,1.55572,0.00421331,-0.0945341,-3.97724e-05,0.0963271,0.000339391,0.0466429,1.0582e-05,0.399299,-9.21481,-0.180074,-0.758752,1.52864,-34.8865,1.08746,0.00622207,-20,-0.449474,0.215499,-0.0350181,-0.595077,0.0183622,-5.74696e-05,0.00715763,0.00016274,0.494975,0.00119164,0.0750821,0.0475484,-0.00116112,0.0407877,1.97289,0.00171273,0.005,1.73281,0.00258646,-0.032209,-0.209464,26.45,0.501837,0.601584,8.99875,0.21831,3.22855,0.416666,2.06448,0.044143,0.555967,-1.27297,0.088623,0.169381,0.0525229,-0.217678,-0.104814,23.4648,23.3513,23.1385,23.2804,23.2094,23.2804,23.1385,
79,6.27328,1.37965,3.15336,4.12034,6.27421,1.97787,1.55572,0.00403642,-0.0945341,-4.50409e-05,0.0965227,0.000355032,0.0453764,1.0582e-05,0.399329,-9.21307,-0.180161,-0.75915,1.52864,-34.8844,1.08741,0.00621617,-20,-0.449492,0.217401,-0.035005,-0.595388,0.018351,-5.74696e-05,0.00715763,0.00016274,0.494975,0.00119164,0.0750821,0.0476004,-0.00109002,0.04066,1.97289,0.00171273,0.005,1.73281,0.00258646,-0.032209,-0.209464,26.45,0.501837,0.543485,9.22023,0.22758,3.14243,0.408587,1.88207,0.0225497,0.564022,-1.34568,0.0889885,0.112793,0.0485074,-0.201416,-0.112793,23.4648,23.3371,23.1669,23.2946,23.1952,23.2662,23.1101,
80,6.27328,1.37965,3.15336,4.12034,6.27421,1.97787,1.55572,0.00403642,-0.0945341,-4.50409e-05,0.0965227,0.000355032,0.0453764,1.0582e-05,0.401285,-9.37858,-0.182898,-0.883426,1.53772,-35.5225,1.10261,0.00673516,-20,-0.451892,0.195606,-0.0350134,-0.65883,0.019192,-6.02605e-05,0.00739061,0.000163131,0.494975,0.00119164,0.0750821,0.0476004,-0.00109002,0.04066,1.97196,0.00172706,0.005,1.73192,0.00253538,-0.032094,-0.217373,27.0469,0.497632,0.543485,9.22023,0.22758,3.14243,0.408587,1.88207,0.0225497,0.564022,-1.34568,0.0889885,0.112793,0.0485074,-0.201416,-0.112793,23.4648,23.3371,23.1669,23.2946,23.1952,23.2662,23.1101,
81,6.27329,1.37955,3.15336,4.12044,6.27422,1.97791,1.55572,0.00350993,-0.0956145,-4.50754e-05,0.095954,0.000394871,0.0426754,1.05821e-05,0.401234,-9.37656,-0.182832,-0.883751,1.53766,-35.5201,1.10239,0.00672424,-20,-0.451914,0.197576,-0.0349958,-0.659161,0.0191751,-6.02605e-05,0.00739061,0.000163131,0.494975,0.00119164,0.0750821,0.0476581,-0.000881018,0.0408218,1.97196,0.00172706,0.005,1.73192,0.00253538,-0.032094,-0.217373,27.0469,0.497632,0.545119,9.46244,0.22759,3.09459,0.383902,1.66379,0.0266088,0.555967,-1.37778,0.0889885,0.11308,0.0525229,-0.177246,-0.108765,23.4506,23.3371,23.1527,23.2946,23.2094,23.2946,23.1385,
82,6.27329,1.37955,3.15336,4.12044,6.27422,1.97791,1.55572,0.00350993,-0.0956145,-4.50754e-05,0.095954,0.000394871,0.0426754,1.05821e-05,0.403468,-9.53564,-0.191695,-1.00343,1.52857,-36.1366,1.11725,0.00731725,-20,-0.454661,0.176532,-0.0351218,-0.720569,0.0201099,-6.32221e-05,0.00762864,0.000161581,0.494975,0.00119164,0.0750821,0.0476581,-0.000881018,0.0408218,1.97097,0.00173683,0.005,1.73098,0.00235607,-0.0322396,-0.226048,27.6239,0.477972,0.545119,9.46244,0.22759,3.09459,0.383902,1.66379,0.0266088,0.555967,-1.37778,0.0889885,0.11308,0.0525229,-0.177246,-0.108765,23.4506,23.3371,23.1527,23.2946,23.2094,23.2946,23.1385,
83,6.27329,1.37955,3.15336,4.12044,6.27422,1.97791,1.55572,0.00350993,-0.0956145,-4.50754e-05,0.095954,0.000394871,0.0426754,1.05821e-05,0.403468,-9.53564,-0.191695,-1.00343,1.52857,-36.1366,1.11725,0.00731725,-20,-0.454661,0.176532,-0.0351218,-0.720569,0.0201099,-6.32221e-05,0.00762864,0.000161581,0.494975,0.00119164,0.0750821,0.0476581,-0.000881018,0.0408218,1.97097,0.00173683,0.005,1.73098,0.00235607,-0.0322396,-0.226048,27.6239,0.477972,0.545119,9.46244,0.22759,3.09459,0.383902,1.66379,0.0266088,0.555967,-1.37778,0.0889885,0.11308,0.0525229,-0.177246,-0.108765,23.4506,23.3371,23.1527,23.2946,23.2094,23.2946,23.1385,
84,6.27329,1.37946,3.15336,4.12054,6.27422,1.97795,1.55572,0.00324007,-0.0972351,-4.50754e-05,0.0977753,0.000470081,0.0383538,1.05821e-05,0.403447,-9.5334,-0.191718,-1.0038,1.52852,-36.134,1.11705,0.00730559,-20,-0.454682,0.178359,-0.0351102,-0.720833,0.0200943,-6.32221e-05,0.00762864,0.000161581,0.494975,0.00119164,0.0750821,0.0485204,-0.000766884,0.040986,1.97097,0.00173683,0.005,1.73098,0.00235607,-0.0322396,-0.226048,27.6239,0.477972,0.513649,9.74595,0.227901,3.00023,0.395855,1.464,-0.00758931,0.564022,-1.39382,0.0809682,0.129158,0.0576768,-0.145075,-0.108839,23.4506,23.3371,23.1385,23.2804,23.2236,23.2804,23.1243,
85,6.27329,1.37946,3.15336,4.12054,6.27422,1.97795,1.55572,0.00324007,-0.0972351,-4.50754e-05,0.0977753,0.000470081,0.0383538,1.05821e-05,0.405593,-9.69677,-0.198003,-1.12911,1.52766,-36.7671,1.13312,0.00787512,-20,-0.457303,0.156122,-0.0351756,-0.784162,0.0210749,-6.59503e-05,0.00785881,0.000160114,0.494975,0.00119164,0.0750821,0.0485204,-0.000766884,0.040986,1.97002,0.00174371,0.005,1.72935,0.00225953,-0.0323874,-0.235247,28.219,0.465158,0.513649,9.74595,0.227901,3.00023,0.395855,1.464,-0.00758931,0.564022,-1.39382,0.0809682,0.129158,0.0576768,-0.145075,-0.108839,23.4506,23.3371,23.1385,23.2804,23.2236,23.2804,23.1243,
86,6.27329,1.37935,3.15336,4.12064,6.27422,1.97799,1.55572,0.00315998,-0.100213,-4.50754e-05,0.0988557,0.000587491,0.0375799,1.0582e-05,0.405606,-9.69477,-0.198126,-1.13007,1.52764,-36.7642,1.133,0.00786179,-20,-0.457324,0.15771,-0.0351651,-0.784398,0.0210632,-6.59503e-05,0.00785881,0.000160114,0.494975,0.00119164,0.0750821,0.0494492,-0.000716983,0.0420774,1.97002,0.00174371,0.005,1.72935,0.00225953,-0.0323874,-0.235247,28.219,0.465158,0.522378,10.025,0.249584,2.88036,0.426564,1.2714,0.0179317,0.580078,-1.37771,0.088623,0.0980133,0.0565402,-0.108839,-0.100708,23.4648,23.3371,23.1527,23.2946,23.1952,23.2946,23.1385,
87,6.27329,1.37935,3.15336,4.12064,6.27422,1.97799,1.55572,0.00315998,-0.100213,-4.50754e-05,0.0988557,0.000587491,0.0375799,1.0582e-05,0.408098,-9.90095,-0.201856,-1.28722,1.53882,-37.5701,1.15191,0.00852297,-20,-0.460333,0.129949,-0.035164,-0.865116,0.0220843,-6.85773e-05,0.00810271,0.000160158,0.494975,0.00119164,0.0750821,0.0494492,-0.000716983,0.0420774,1.96901,0.00175952,0.005,1.7276,0.00222885,-0.0333697,-0.244826,28.976,0.459611,0.522378,10.025,0.249584,2.88036,0.426564,1.2714,0.0179317,0.580078,-1.37771,0.088623,0.0980133,0.0565402,-0.108839,-0.100708,23.4648,23.3371,23.1527,23.2946,23.1952,23.2946,23.1385,
88,6.27329,1.37935,3.15336,4.12064,6.27422,1.97799,1.55572,0.00315998,-0.100213,-4.50754e-05,0.0988557,0.000587491,0.0375799,1.0582e-05,0.408098,-9.90095,-0.201856,-1.28722,1.53882,-37.5701,1.15191,0.00852297,-20,-0.460333,0.129949,-0.035164,-0.865116,0.0220843,-6.85773e-05,0.00810271,0.000160158,0.494975,0.00119164,0.0750821,0.0494492,-0.000716983,0.0420774,1.96901,0.00175952,0.005,1.7276,0.00222885,-0.0333697,-0.244826,28.976,0.459611,0.522378,10.025,0.249584,2.88036,0.426564,1.2714,0.0179317,0.580078,-1.37771,0.088623,0.0980133,0.0565402,-0.108839,-0.100708,23.4648,23.3371,23.1527,23.2946,23.1952,23.2946,23.1385,
89,6.2733,1.37925,3.15336,4.12073,6.27422,1.97802,1.55572,0.00298443,-0.102907,-4.50413e-05,0.0964248,0.000754182,0.0337622,1.0582e-05,0.408082,-9.89881,-0.2019,-1.28731,1.53876,-37.5679,1.15171,0.00851017,-20,-0.460344,0.13189,-0.0351521,-0.865465,0.0220694,-6.85773e-05,0.00810271,0.000160158,0.494975,0.00119164,0.0750821,0.0493073,-0.000636907,0.0427919,1.96901,0.00175952,0.005,1.7276,0.00222885,-0.0333697,-0.244826,28.976,0.459611,0.467925,10.2809,0.235642,2.76322,0.419922,1.12318,0.0111851,0.563965,-1.34548,0.0821619,0.0586532,0.0609595,-0.0927389,-0.100708,23.4506,23.3513,23.1669,23.2946,23.2094,23.2804,23.1243,
90,6.2733,1.37925,3.15336,4.12073,6.27422,1.97802,1.55572,0.00298443,-0.102907,-4.50413e-05,0.0964248,0.000754182,0.0337622,1.0582e-05,0.409935,-10.0392,-0.207374,-1.39278,1.53805,-38.1165,1.16744,0.00900194,-20,-0.462602,0.113387,-0.035205,-0.920242,0.0230954,-7.13506e-05,0.00833248,0.000158776,0.494975,0.00119164,0.0750821,0.0493073,-0.000636907,0.0427919,1.96804,0.00176638,0.005,1.72686,0.00216295,-0.0340127,-0.254544,29.4897,0.448573,0.467925,10.2809,0.235642,2.76322,0.419922,1.12318,0.0111851,0.563965,-1.34548,0.0821619,0.0586532,0.0609595,-0.0927389,-0.100708,23.4506,23.3513,23.1669,23.2946,23.2094,23.2804,23.1243,
91,6.2733,1.37925,3.15336,4.12073,6.27422,1.97802,1.55572,0.00298443,-0.102907,-4.50413e-05,0.0964248,0.000754182,0.0337622,1.0582e-05,0.409935,-10.0392,-0.207374,-1.39278,1.53805,-38.1165,1.16744,0.00900194,-20,-0.462602,0.113387,-0.035205,-0.920242,0.0230954,-7.13506e-05,0.00833248,0.000158776,0.494975,0.00119164,0.0750821,0.0493073,-0.000636907,0.0427919,1.96804,0.00176638,0.005,1.72686,0.00216295,-0.0340127,-0.254544,29.4897,0.448573,0.467925,10.2809,0.235642,2.76322,0.419922,1.12318,0.0111851,0.563965,-1.34548,0.0821619,0.0586532,0.0609595,-0.0927389,-0.100708,23.4506,23.3513,23.1669,23.2946,23.2094,23.2804,23.1243,
92,6.2733,1.37925,3.15336,4.12073,6.27422,1.97802,1.55572,0.00298443,-0.102907,-4.50413e-05,0.0964248,0.000754182,0.0337622,1.0582e-05,0.409935,-10.0392,-0.207374,-1.39278,1.53805,-38.1165,1.16744,0.00900194,-20,-0.462602,0.113387,-0.035205,-0.920242,0.0230954,-7.13506e-05,0.00833248,0.000158776,0.494975,0.00119164,0.0750821,0.0493073,-0.000636907,0.0427919,1.96804,0.00176638,0.005,1.72686,0.00216295,-0.0340127,-0.254544,29.4897,0.448573,0.467925,10.2809,0.235642,2.76322,0.419922,1.12318,0.0111851,0.563965,-1.34548,0.0821619,0.0586532,0.0609595,-0.0927389,-0.100708,23.4506,23.3513,23.1669,23.2946,23.2094,23.2804,23.1243,
93,6.2733,1.37915,3.15336,4.12083,6.27423,1.97805,1.55572,0.00298443,-0.102637,-5.03779e-05,0.0955428,0.000945365,0.0329519,1.0582e-05,0.409978,-10.0374,-0.207526,-1.39311,1.538,-38.1144,1.16726,0.00899416,-20,-0.462619,0.115508,-0.0351946,-0.920586,0.0230769,-7.13506e-05,0.00833248,0.000158776,0.494975,0.00119164,0.0750821,0.0489916,-0.000620746,0.0426241,1.96804,0.00176638,0.005,1.72686,0.00216295,-0.0340127,-0.254544,29.4897,0.448573,0.526246,10.6274,0.226557,2.6825,0.438187,0.908488,0.00101431,0.564195,-1.32217,0.0889885,0.0966797,0.0604248,-0.0525229,-0.100708,23.4648,23.3371,23.1527,23.2946,23.1952,23.2804,23.1243,
94,6.2733,1.37915,3.15336,4.12083,6.27423,1.97805,1.55572,0.00298443,-0.102637,-5.03779e-05,0.0955428,0.000945365,0.0329519,1.0582e-05,0.412044,-10.1971,-0.213485,-1.5123,1.53828,-38.73,1.1865,0.00954221,-20,-0.465171,0.0946783,-0.0352396,-0.981703,0.0243615,-7.5111e-05,0.0085673,0.000156255,0.494975,0.00119164,0.0750821,0.0489916,-0.000620746,0.0426241,1.96703,0.00176797,0.005,1.72623,0.00214984,-0.0338617,-0.266795,30.0647,0.437129,0.526246,10.6274,0.226557,2.6825,0.438187,0.908488,0.00101431,0.564195,-1.32217,0.0889885,0.0966797,0.0604248,-0.0525229,-0.100708,23.4648,23.3371,23.1527,23.2946,23.1952,23.2804,23.1243,
95,6.2733,1.37905,3.15336,4.12093,6.27423,1.97809,1.55572,0.00291418,-0.100206,-5.03779e-05,0.0957875,0.00116282,0.0305938,1.0582e-05,0.412053,-10.1953,-0.21358,-1.51224,1.53823,-38.7283,1.18632,0.00952925,-20,-0.465186,0.0970151,-0.0352277,-0.982067,0.0243456,-7.5111e-05,0.0085673,0.000156255,0.494975,0.00119164,0.0750821,0.0485517,-0.000580291,0.041416,1.96703,0.00176797,0.005,1.72623,0.00214984,-0.0338617,-0.266795,30.0647,0.437129,0.496692,10.9936,0.210638,2.6141,0.461508,0.709949,-0.0136472,0.564022,-1.36195,0.0970148,0.11308,0.0609595,-0.0402832,-0.104814,23.4648,23.3371,23.1527,23.2946,23.2236,23.2946,23.1243,
96,6.2733,1.37905,3.15336,4.12093,6.27423,1.97809,1.55572,0.00291418,-0.100206,-5.03779e-05,0.0957875,0.00116282,0.0305938,1.0582e-05,0.413813,-10.3292,-0.219563,-1.61194,1.53537,-39.2353,1.2018,0.00999622,-20,-0.467398,0.0796089,-0.0352886,-1.03211,0.0253831,-7.8061e-05,0.00879294,0.000154403,0.494975,0.00119164,0.0750821,0.0485517,-0.000580291,0.041416,1.96607,0.00177396,0.005,1.72577,0.00211882,-0.0327744,-0.27665,30.5375,0.42499,0.496692,10.9936,0.210638,2.6141,0.461508,0.709949,-0.0136472,0.564022,-1.36195,0.0970148,0.11308,0.0609595,-0.0402832,-0.104814,23.4648,23.3371,23.1527,23.2946,23.2236,23.2946,23.1243,
97,6.2733,1.37905,3.15336,4.12093,6.27423,1.97809,1.55572,0.00291418,-0.100206,-5.03779e-05,0.0957875,0.00116282,0.0305938,1.0582e-05,0.413813,-10.3292,-0.219563,-1.61194,1.53537,-39.2353,1.2018,0.00999622,-20,-0.467398,0.0796089,-0.0352886,-1.03211,0.0253831,-7.8061e-05,0.00879294,0.000154403,0.494975,0.00119164,0.0750821,0.0485517,-0.000580291,0.041416,1.96607,0.00177396,0.005,1.72577,0.00211882,-0.0327744,-0.27665,30.5375,0.42499,0.496692,10.9936,0.210638,2.6141,0.461508,0.709949,-0.0136472,0.564022,-1.36195,0.0970148,0.11308,0.0609595,-0.0402832,-0.104814,23.4648,23.3371,23.1527,23.2946,23.2236,23.2946,23.1243,
98,6.2733,1.37895,3.15336,4.12102,6.27424,1.97811,1.55572,0.00270029,-0.0977077,-5.03403e-05,0.0958846,0.00146789,0.0291705,1.0582e-05,0.413797,-10.3275,-0.21962,-1.61197,1.53527,-39.2336,1.20152,0.00998328,-20,-0.467418,0.0819506,-0.0352735,-1.03247,0.0253627,-7.8061e-05,0.00879294,0.000154403,0.494975,0.00119164,0.0750821,0.0480543,-0.000473285,0.0402825,1.96607,0.00177396,0.005,1.72577,0.00211882,-0.0327744,-0.27665,30.5375,0.42499,0.504888,11.3357,0.241869,2.47771,0.479473,0.527297,-0.00886373,0.555908,-1.44214,0.0805664,0.0805664,0.0604248,-0.0090076,-0.109063,23.4506,23.3513,23.1669,23.2804,23.1952,23.2804,23.1243,
99,6.2733,1.37895,3.15336,4.12102,6.27424,1.97811,1.55572,0.00270029,-0.0977077,-5.03403e-05,0.0958846,0.00146789,0.0291705,1.0582e-05,0.415881,-10.468,-0.230105,-1.7164,1.5205,-39.7674,1.21961,0.0105361,-20,-0.470038,0.0637191,-0.0354106,-1.08517,0.0266957,-8.16885e-05,0.00901976,0.000151138,0.494975,0.00119164,0.0750821,0.0480543,-0.000473285,0.0402825,1.96509,0.00177676,0.005,1.72533,0.00202504,-0.0317542,-0.289283,31.0351,0.401935,0.504888,11.3357,0.241869,2.47771,0.479473,0.527297,-0.00886373,0.555908,-1.44214,0.0805664,0.0805664,0.0604248,-0.0090076,-0.109063,23.4506,23.3513,23.1669,23.2804,23.1952,23.2804,23.1243,
100,6.27331,1.37885,3.15335,4.12111,6.27424,1.97814,1.55572,0.00264925,-0.0958846,-5.29898e-05,0.0926434,0.00186468,0.0270097,1.05821e-05,0.415889,-10.4664,-0.230208,-1.7161,1.52042,-39.7661,1.21941,0.0105265,-20,-0.470048,0.0660685,-0.0353969,-1.08558,0.0266797,-8.16885e-05,0.00901976,0.000151138,0.494975,0.00119164,0.0750821,0.0467353,-0.000427704,0.0393923,1.96509,0.00177676,0.005,1.72533,0.00202504,-0.0317542,-0.289283,31.0351,0.401935,0.462592,11.6532,0.245798,2.31276,0.47207,0.372571,-0.028921,0.564022,-1.50659,0.0889885,0.0805664,0.0569691,0.00569691,-0.100789,23.4648,23.3371,23.1527,23.2804,23.1952,23.2804,23.1385,
101,6.27331,1.37885,3.15335,4.12111,6.27424,1.97814,1.55572,0.00264925,-0.0958846,-5.29898e-05,0.0926434,0.00186468,0.0270097,1.05821e-05,0.417387,-10.5681,-0.237824,-1.78934,1.50986,-40.1513,1.23594,0.010924,-20,-0.471947,0.0535033,-0.0354913,-1.12334,0.027981,-8.50421e-05,0.00923221,0.00014887,0.494975,0.00119164,0.0750821,0.0467353,-0.000427704,0.0393923,1.96417,0.00178072,0.005,1.72569,0.00198758,-0.030953,-0.301772,31.3918,0.385393,0.462592,11.6532,0.245798,2.31276,0.47207,0.372571,-0.028921,0.564022,-1.50659,0.0889885,0.0805664,0.0569691,0.00569691,-0.100789,23.4648,23.3371,23.1527,23.2804,23.1952,23.2804,23.1385,
102,6.27331,1.37876,3.15335,4.12121,6.27425,1.97816,1.55572,0.00264925,-0.0950743,-5.30299e-05,0.0942889,0.0023209,0.0240387,1.05821e-05,0.417378,-10.566,-0.237957,-1.78959,1.50973,-40.149,1.23564,0.0109118,-20,-0.47197,0.0555923,-0.0354795,-1.12363,0.0279617,-8.50421e-05,0.00923221,0.00014887,0.494975,0.00119164,0.0750821,0.0470397,-0.000386663,0.0387385,1.96417,0.00178072,0.005,1.72569,0.00198758,-0.030953,-0.301772,31.3918,0.385393,0.499313,12.0071,0.264051,2.24078,0.43856,0.15052,-0.0309709,0.564022,-1.57918,0.088623,0.1372,0.0644531,0.0281982,-0.0970148,23.4506,23.3229,23.1527,23.252,23.2094,23.2804,23.1243,
103,6.27331,1.37876,3.15335,4.12121,6.27425,1.97816,1.55572,0.00264925,-0.0950743,-5.30299e-05,0.0942889,0.0023209,0.0240387,1.05821e-05,0.419496,-10.7117,-0.247693,-1.90033,1.49828,-40.707,1.2568,0.0114736,-20,-0.474604,0.0360393,-0.035585,-1.17914,0.0295441,-8.86131e-05,0.00944971,0.000145614,0.494975,0.00119164,0.0750821,0.0470397,-0.000386663,0.0387385,1.9632,0.00178388,0.005,1.72455,0.00195349,-0.0303647,-0.316894,31.9148,0.364759,0.499313,12.0071,0.264051,2.24078,0.43856,0.15052,-0.0309709,0.564022,-1.57918,0.088623,0.1372,0.0644531,0.0281982,-0.0970148,23.4506,23.3229,23.1527,23.252,23.2094,23.2804,23.1243,
104,6.27331,1.37866,3.15335,4.12131,6.27425,1.97819,1.55572,0.00255255,-0.0945341,-5.30299e-05,0.0953444,0.00278717,0.022148,1.0582e-05,0.419474,-10.7098,-0.24779,-1.90065,1.49815,-40.7049,1.25647,0.0114617,-20,-0.474627,0.0379987,-0.035572,-1.17942,0.029524,-8.86131e-05,0.00944971,0.000145614,0.494975,0.00119164,0.0750821,0.0472293,-0.000305165,0.0383157,1.9632,0.00178388,0.005,1.72455,0.00195349,-0.0303647,-0.316894,31.9148,0.364759,0.486462,12.3586,0.261644,2.13156,0.440622,-0.0171289,-0.0318553,0.564022,-1.5953,0.0805664,0.088623,0.0523682,0.0644531,-0.108765,23.4506,23.3229,23.1527,23.2804,23.1952,23.2662,23.1101,
105,6.27331,1.37866,3.15335,4.12131,6.27425,1.97819,1.55572,0.00255255,-0.0945341,-5.30299e-05,0.0953444,0.00278717,0.022148,1.0582e-05,0.421694,-10.8551,-0.25937,-2.01063,1.4814,-41.2635,1.27729,0.0120506,-20,-0.477386,0.0186159,-0.0357128,-1.23499,0.0311032,-9.2133e-05,0.00965882,0.000141921,0.494975,0.00119164,0.0750821,0.0472293,-0.000305165,0.0383157,1.96227,0.00178314,0.005,1.72354,0.00187948,-0.0299842,-0.331919,32.438,0.339483,0.486462,12.3586,0.261644,2.13156,0.440622,-0.0171289,-0.0318553,0.564022,-1.5953,0.0805664,0.088623,0.0523682,0.0644531,-0.108765,23.4506,23.3229,23.1527,23.2804,23.1952,23.2662,23.1101,
106,6.27331,1.37866,3.15335,4.12131,6.27425,1.97819,1.55572,0.00255255,-0.0945341,-5.30299e-05,0.0953444,0.00278717,0.022148,1.0582e-05,0.421694,-10.8551,-0.25937,-2.01063,1.4814,-41.2635,1.27729,0.0120506,-20,-0.477386,0.0186159,-0.0357128,-1.23499,0.0311032,-9.2133e-05,0.00965882,0.000141921,0.494975,0.00119164,0.0750821,0.0472293,-0.000305165,0.0383157,1.96227,0.00178314,0.005,1.72354,0.00187948,-0.0299842,-0.331919,32.438,0.339483,0.486462,12.3586,0.261644,2.13156,0.440622,-0.0171289,-0.0318553,0.564022,-1.5953,0.0805664,0.088623,0.0523682,0.0644531,-0.108765,23.4506,23.3229,23.1527,23.2804,23.1952,23.2662,23.1101,
107,6.27331,1.37856,3.15335,4.1214,6.27426,1.97821,1.55572,0.00244668,-0.0947905,-5.30299e-05,0.0956145,0.00353263,0.0215458,1.0582e-05,0.421647,-10.8533,-0.259481,-2.01115,1.48121,-41.2612,1.27688,0.0120385,-20,-0.477413,0.020521,-0.035696,-1.23527,0.0310813,-9.2133e-05,0.00965882,0.000141921,0.494975,0.00119164,0.0750821,0.0473567,-0.000190777,0.0383583,1.96227,0.00178314,0.005,1.72354,0.00187948,-0.0299842,-0.331919,32.438,0.339483,0.495298,12.6566,0.29415,2.00366,0.456116,-0.184115,-0.018269,0.555908,-1.61946,0.0809682,0.0649547,0.0490066,0.0846906,-0.104814,23.4506,23.3229,23.1385,23.2804,23.1952,23.2662,23.1243,
108,6.27331,1.37856,3.15335,4.1214,6.27426,1.97821,1.55572,0.00244668,-0.0947905,-5.30299e-05,0.0956145,0.00353263,0.0215458,1.0582e-05,0.424281,-11.0145,-0.27522,-2.13273,1.45482,-41.8857,1.30219,0.0127374,-20,-0.480679,-0.000874711,-0.0358962,-1.29749,0.0330848,-9.59353e-05,0.00987631,0.000137724,0.494975,0.00119164,0.0750821,0.0473567,-0.000190777,0.0383583,1.96131,0.00178103,0.005,1.72256,0.00177463,-0.0300225,-0.350985,33.0226,0.304541,0.495298,12.6566,0.29415,2.00366,0.456116,-0.184115,-0.018269,0.555908,-1.61946,0.0809682,0.0649547,0.0490066,0.0846906,-0.104814,23.4506,23.3229,23.1385,23.2804,23.1952,23.2662,23.1243,
109,6.27332,1.37847,3.15335,4.12149,6.27426,1.97823,1.55572,0.00230531,-0.0934537,-5.29893e-05,0.0926434,0.0043879,0.0202573,1.0582e-05,0.424231,-11.013,-0.275295,-2.13267,1.45461,-41.8843,1.30172,0.0127262,-20,-0.480699,0.00131793,-0.0358786,-1.29787,0.0330593,-9.59353e-05,0.00987631,0.000137724,0.494975,0.00119164,0.0750821,0.046217,-6.25137e-05,0.0377472,1.96131,0.00178103,0.005,1.72256,0.00177463,-0.0300225,-0.350985,33.0226,0.304541,0.451977,12.9469,0.278656,1.84335,0.453102,-0.326854,-0.0181322,0.547911,-1.62746,0.0809682,0.0644531,0.0444942,0.088623,-0.108839,23.4648,23.3371,23.1669,23.2662,23.1952,23.2662,23.1101,
110,6.27332,1.37847,3.15335,4.12149,6.27426,1.97823,1.55572,0.00230531,-0.0934537,-5.29893e-05,0.0926434,0.0043879,0.0202573,1.0582e-05,0.426378,-11.1204,-0.293329,-2.21059,1.4162,-42.2953,1.32578,0.0132957,-20,-0.483414,-0.0121516,-0.036134,-1.33833,0.035208,-0.00010026,0.0100798,0.000132133,0.494975,0.00119164,0.0750821,0.046217,-6.25137e-05,0.0377472,1.9604,0.00177637,0.005,1.72276,0.00165499,-0.0294725,-0.371532,33.4038,0.263162,0.451977,12.9469,0.278656,1.84335,0.453102,-0.326854,-0.0181322,0.547911,-1.62746,0.0809682,0.0644531,0.0444942,0.088623,-0.108839,23.4648,23.3371,23.1669,23.2662,23.1952,23.2662,23.1101,
111,6.27332,1.37838,3.15335,4.12159,6.27427,1.97825,1.55572,0.00212755,-0.0906608,-5.29893e-05,0.0902766,0.00505831,0.0172862,1.0582e-05,0.426348,-11.1187,-0.293382,-2.21026,1.41605,-42.294,1.32541,0.0132837,-20,-0.48343,-0.0097176,-0.0361188,-1.33873,0.0351864,-0.00010026,0.0100798,0.000132133,0.494975,0.00119164,0.0750821,0.0449502,5.7833e-05,0.0363701,1.9604,0.00177637,0.005,1.72276,0.00165499,-0.0294725,-0.371532,33.4038,0.263162,0.469064,13.2779,0.284604,1.70099,0.457945,-0.509855,-0.022917,0.563965,-1.65232,0.0809682,0.0805664,0.0404841,0.104736,-0.104814,23.4506,23.3513,23.1385,23.2804,23.2094,23.2662,23.1385,
112,6.27332,1.37838,3.15335,4.12159,6.27427,1.97825,1.55572,0.00212755,-0.0906608,-5.29893e-05,0.0902766,0.00505831,0.0172862,1.0582e-05,0.428085,-11.2062,-0.308241,-2.2733,1.38393,-42.6216,1.34458,0.0137443,-20,-0.485657,-0.020565,-0.0363374,-1.37069,0.0369101,-0.000103969,0.0102824,0.000127468,0.494975,0.00119164,0.0750821,0.0449502,5.7833e-05,0.0363701,1.95947,0.0017706,0.005,1.72307,0.00154149,-0.0282331,-0.387996,33.7066,0.228846,0.469064,13.2779,0.284604,1.70099,0.457945,-0.509855,-0.022917,0.563965,-1.65232,0.0809682,0.0805664,0.0404841,0.104736,-0.104814,23.4506,23.3513,23.1385,23.2804,23.2094,23.2662,23.1385,
113,6.27332,1.37829,3.15335,4.12168,6.27427,1.97826,1.55572,0.00202117,-0.0882705,-5.83329e-05,0.0898513,0.00568805,0.0162058,1.05821e-05,0.428066,-11.2047,-0.308336,-2.27337,1.38377,-42.62,1.34418,0.0137324,-20,-0.485678,-0.0184204,-0.0363237,-1.37101,0.0368862,-0.000103969,0.0102824,0.000127468,0.494975,0.00119164,0.0750821,0.0443264,0.000155123,0.0353215,1.95947,0.0017706,0.005,1.72307,0.00154149,-0.0282331,-0.387996,33.7066,0.228846,0.450728,13.574,0.292077,1.57995,0.477038,-0.673871,-0.0268769,0.563965,-1.71606,0.0725098,0.129158,0.0322266,0.132996,-0.100708,23.4506,23.3371,23.1669,23.2662,23.2094,23.2804,23.1101,
114,6.27332,1.37829,3.15335,4.12168,6.27427,1.97826,1.55572,0.00202117,-0.0882705,-5.83329e-05,0.0898513,0.00568805,0.0162058,1.05821e-05,0.430181,-11.323,-0.323749,-2.36093,1.35366,-43.0693,1.36671,0.0142933,-20,-0.488353,-0.033687,-0.0365334,-1.41532,0.0388038,-0.000108285,0.0104807,0.000121965,0.494975,0.00119164,0.0750821,0.0443264,0.000155123,0.0353215,1.95857,0.00176612,0.005,1.72282,0.00144989,-0.0272893,-0.406307,34.1249,0.193977,0.450728,13.574,0.292077,1.57995,0.477038,-0.673871,-0.0268769,0.563965,-1.71606,0.0725098,0.129158,0.0322266,0.132996,-0.100708,23.4506,23.3371,23.1669,23.2662,23.2094,23.2804,23.1101,
115,6.27332,1.3782,3.15335,4.12176,6.27428,1.97828,1.55572,0.00191518,-0.0869714,-6.36359e-05,0.0872415,0.00613243,0.0135415,1.05821e-05,0.430203,-11.3214,-0.323834,-2.36074,1.35352,-43.0679,1.36631,0.0142876,-20,-0.488367,-0.0315855,-0.0365241,-1.41567,0.0387772,-0.000108285,0.0104807,0.000121965,0.494975,0.00119164,0.0750821,0.0433012,0.000229587,0.0345726,1.95857,0.00176612,0.005,1.72282,0.00144989,-0.0272893,-0.406307,34.1249,0.193977,0.470301,13.8798,0.325182,1.44154,0.493275,-0.850049,-0.0279833,0.555967,-1.76448,0.088623,0.129158,0.0362549,0.145243,-0.10103,23.4648,23.3371,23.1527,23.2662,23.1952,23.2946,23.1385,
116,6.27332,1.3782,3.15335,4.12176,6.27428,1.97828,1.55572,0.00191518,-0.0869714,-6.36359e-05,0.0872415,0.00613243,0.0135415,1.05821e-05,0.431877,-11.4079,-0.337468,-2.42359,1.32508,-43.3968,1.38697,0.0147316,-20,-0.490492,-0.0424446,-0.0367138,-1.44798,0.0406244,-0.000113238,0.0106667,0.000115399,0.494975,0.00119164,0.0750821,0.0433012,0.000229587,0.0345726,1.95771,0.00175387,0.005,1.72297,0.00137185,-0.0266154,-0.424032,34.4298,0.162842,0.470301,13.8798,0.325182,1.44154,0.493275,-0.850049,-0.0279833,0.555967,-1.76448,0.088623,0.129158,0.0362549,0.145243,-0.10103,23.4648,23.3371,23.1527,23.2662,23.1952,23.2946,23.1385,
117,6.27332,1.37812,3.15335,4.12185,6.27429,1.97829,1.55572,0.00178173,-0.0861611,-6.35877e-05,0.0832551,0.00691594,0.0116142,1.05981e-05,0.43185,-11.4064,-0.337523,-2.42345,1.32488,-43.3955,1.38645,0.0147203,-20,-0.490507,-0.0403588,-0.0367023,-1.44834,0.0405951,-0.000113238,0.0106667,0.000115399,0.494975,0.00119164,0.0750821,0.0419798,0.00034584,0.0341171,1.95771,0.00175387,0.005,1.72297,0.00137185,-0.0266154,-0.424032,34.4298,0.162842,0.40428,14.122,0.343992,1.26725,0.505639,-0.967653,-0.0362386,0.547852,-1.78059,0.0805664,0.169955,0.0201416,0.157311,-0.0967636,23.4648,23.3229,23.1385,23.2662,23.1811,23.2662,23.1243,
118,6.27332,1.37812,3.15335,4.12185,6.27429,1.97829,1.55572,0.00178173,-0.0861611,-6.35877e-05,0.0832551,0.00691594,0.0116142,1.05981e-05,0.433783,-11.4901,-0.356321,-2.48329,1.28209,-43.7164,1.40994,0.0152331,-20,-0.492961,-0.0506363,-0.0369727,-1.47984,0.0427958,-0.000118095,0.0108514,0.000107966,0.494975,0.00119164,0.0750821,0.0419798,0.00034584,0.0341171,1.95685,0.00174257,0.005,1.72338,0.00125706,-0.0262054,-0.445093,34.7264,0.119337,0.40428,14.122,0.343992,1.26725,0.505639,-0.967653,-0.0362386,0.547852,-1.78059,0.0805664,0.169955,0.0201416,0.157311,-0.0967636,23.4648,23.3229,23.1385,23.2662,23.1811,23.2662,23.1243,
119,6.27332,1.37803,3.15335,4.12193,6.2743,1.9783,1.55572,0.00159598,-0.0856209,-6.35877e-05,0.0807591,0.00734005,0.00971366,1.0598e-05,0.433776,-11.4887,-0.35635,-2.48323,1.28193,-43.715,1.40945,0.0152216,-20,-0.492974,-0.048747,-0.0369655,-1.48015,0.0427658,-0.000118095,0.0108514,0.000107966,0.494975,0.00119164,0.0750821,0.0411453,0.00045157,0.0337476,1.95685,0.00174257,0.005,1.72338,0.00125706,-0.0262054,-0.445093,34.7264,0.119337,0.440204,14.4557,0.343352,1.20998,0.486945,-1.13737,-0.0572111,0.547852,-1.79665,0.0725098,0.233781,0.0216932,0.181319,-0.0967636,23.4648,23.3229,23.1385,23.2662,23.1811,23.2662,23.0959,
120,6.27332,1.37803,3.15335,4.12193,6.2743,1.9783,1.55572,0.00159598,-0.0856209,-6.35877e-05,0.0807591,0.00734005,0.00971366,1.0598e-05,0.435624,-11.5782,-0.372321,-2.54879,1.24738,-44.0592,1.42945,0.0157116,-20,-0.495305,-0.0601272,-0.0371924,-1.51413,0.0445612,-0.000122881,0.0110248,0.000100131,0.494975,0.00119164,0.0750821,0.0411453,0.00045157,0.0337476,1.95604,0.00172748,0.005,1.7234,0.00114832,-0.0258729,-0.462207,35.0463,0.0825879,0.440204,14.4557,0.343352,1.20998,0.486945,-1.13737,-0.0572111,0.547852,-1.79665,0.0725098,0.233781,0.0216932,0.181319,-0.0967636,23.4648,23.3229,23.1385,23.2662,23.1811,23.2662,23.0959,
121,6.27332,1.37795,3.15335,4.12201,6.27431,1.97831,1.55572,0.00159566,-0.0834601,-6.36359e-05,0.0796788,0.00847761,0.00783283,1.0598e-05,0.435589,-11.5768,-0.372445,-2.5487,1.24711,-44.0579,1.42886,0.0157017,-20,-0.495327,-0.0581735,-0.0371796,-1.51443,0.0445299,-0.000122881,0.0110248,0.000100131,0.494975,0.00119164,0.0750821,0.0403822,0.000552602,0.0327128,1.95604,0.00172748,0.005,1.7234,0.00114832,-0.0258729,-0.462207,35.0463,0.0825879,0.4186,14.7947,0.346841,1.14623,0.493026,-1.28804,-0.0541784,0.580078,-1.80476,0.072956,0.273926,0.0161133,0.189374,-0.108765,23.4506,23.3229,23.1527,23.252,23.1811,23.2662,23.0818,
122,6.27332,1.37795,3.15335,4.12201,6.27431,1.97831,1.55572,0.00159566,-0.0834601,-6.36359e-05,0.0796788,0.00847761,0.00783283,1.0598e-05,0.437752,-11.6624,-0.395172,-2.61143,1.19412,-44.382,1.45748,0.0162754,-20,-0.498087,-0.0691117,-0.0375007,-1.54626,0.0472695,-0.000128051,0.0111932,9.18871e-05,0.494975,0.00119164,0.0750821,0.0403822,0.000552602,0.0327128,1.95524,0.00171474,0.005,1.72337,0.00104592,-0.0249416,-0.488482,35.347,0.0300618,0.4186,14.7947,0.346841,1.14623,0.493026,-1.28804,-0.0541784,0.580078,-1.80476,0.072956,0.273926,0.0161133,0.189374,-0.108765,23.4506,23.3229,23.1527,23.252,23.1811,23.2662,23.0818,
123,6.27333,1.37786,3.15335,4.12209,6.27432,1.97831,1.55572,0.00148929,-0.0841789,-6.36365e-05,0.0790584,0.00874253,0.00626921,1.0606e-05,0.437756,-11.6609,-0.395233,-2.61164,1.19397,-44.3802,1.45703,0.0162632,-20,-0.498104,-0.0674173,-0.037495,-1.54651,0.0472427,-0.000128051,0.0111932,9.18871e-05,0.494975,0.00119164,0.0750821,0.0403513,0.000618224,0.0328495,1.95524,0.00171474,0.005,1.72337,0.00104592,-0.0249416,-0.488482,35.347,0.0300618,0.411598,15.0808,0.405116,1.09822,0.503219,-1.38845,-0.0268082,0.555908,-1.82888,0.0725098,0.282097,0.0090076,0.209511,-0.108765,23.4648,23.3229,23.1385,23.252,23.1952,23.252,23.1243,
124,6.27333,1.37786,3.15335,4.12209,6.27432,1.97831,1.55572,0.00148929,-0.0841789,-6.36365e-05,0.0790584,0.00874253,0.00626921,1.0606e-05,0.439764,-11.7779,-0.408316,-2.70006,1.17051,-44.8349,1.47767,0.0167955,-20,-0.500595,-0.082971,-0.0376607,-1.59185,0.0489351,-0.00013287,0.0113673,8.46447e-05,0.494975,0.00119164,0.0750821,0.0403513,0.000618224,0.0328495,1.95442,0.00170384,0.005,1.72266,0.000977051,-0.0250645,-0.504617,35.7728,0.00088975,0.411598,15.0808,0.405116,1.09822,0.503219,-1.38845,-0.0268082,0.555908,-1.82888,0.0725098,0.282097,0.0090076,0.209511,-0.108765,23.4648,23.3229,23.1385,23.252,23.1952,23.252,23.1243,
125,6.27333,1.37786,3.15335,4.12209,6.27432,1.97831,1.55572,0.00148929,-0.0841789,-6.36365e-05,0.0790584,0.00874253,0.00626921,1.0606e-05,0.439764,-11.7779,-0.408316,-2.70006,1.17051,-44.8349,1.47767,0.0167955,-20,-0.500595,-0.082971,-0.0376607,-1.59185,0.0489351,-0.00013287,0.0113673,8.46447e-05,0.494975,0.00119164,0.0750821,0.0403513,0.000618224,0.0328495,1.95442,0.00170384,0.005,1.72266,0.000977051,-0.0250645,-0.504617,35.7728,0.00088975,0.411598,15.0808,0.405116,1.09822,0.503219,-1.38845,-0.0268082,0.555908,-1.82888,0.0725098,0.282097,0.0090076,0.209511,-0.108765,23.4648,23.3229,23.1385,23.252,23.1952,23.252,23.1243,
126,6.27333,1.37778,3.15335,4.12216,6.27433,1.97832,1.55572,0.00146702,-0.0848106,-6.35877e-05,0.0758974,0.00947994,0.00567205,1.85464e-05,0.43975,-11.7767,-0.408391,-2.70015,1.17029,-44.8336,1.47707,0.0167845,-20,-0.500611,-0.0812906,-0.037654,-1.59213,0.0489017,-0.00013287,0.0113673,8.46447e-05,0.494975,0.00119164,0.0750821,0.0395677,0.000692606,0.0330927,1.95442,0.00170384,0.005,1.72266,0.000977051,-0.0250645,-0.504617,35.7728,0.00088975,0.377354,15.3324,0.434325,1.04408,0.477033,-1.48805,-0.02126,0.539855,-1.80471,0.0805664,0.274044,0.00805664,0.225622,-0.100789,23.4506,23.3371,23.1385,23.2804,23.1811,23.2804,23.0959,
127,6.27333,1.37778,3.15335,4.12216,6.27433,1.97832,1.55572,0.00146702,-0.0848106,-6.35877e-05,0.0758974,0.00947994,0.00567205,1.85464e-05,0.441873,-11.8726,-0.427831,-2.77048,1.1276,-45.2081,1.50053,0.0173477,-20,-0.503273,-0.093514,-0.0379169,-1.62928,0.0510282,-0.000137508,0.0115311,7.54993e-05,0.494975,0.00119164,0.0750821,0.0395677,0.000692606,0.0330927,1.95364,0.00168919,0.005,1.72266,0.000896927,-0.0252834,-0.524884,36.1212,-0.0435196,0.377354,15.3324,0.434325,1.04408,0.477033,-1.48805,-0.02126,0.539855,-1.80471,0.0805664,0.274044,0.00805664,0.225622,-0.100789,23.4506,23.3371,23.1385,23.2804,23.1811,23.2804,23.0959,
128,6.27333,1.37778,3.15335,4.12216,6.27434,1.97832,1.55572,0.00146702,-0.0848106,-6.35877e-05,0.0758974,0.00877483,0.00486175,1.85464e-05,0.441928,-11.8725,-0.427807,-2.77044,1.12757,-45.208,1.50028,0.0173473,-20,-0.503271,-0.0934842,-0.0379288,-1.6293,0.0510032,-0.000137508,0.0115311,7.54993e-05,0.494975,0.00119164,0.0750821,0.0395687,0.000622748,0.0330078,1.95364,0.00168919,0.005,1.72266,0.000896927,-0.0252834,-0.524884,36.1212,-0.0435196,0.377354,15.3324,0.434325,1.04408,0.456121,-1.60285,-0.00330409,0.539855,-1.80471,0.0805664,0.274044,-0.00805664,0.225622,-0.104736,23.4506,23.3371,23.1385,23.2804,23.1811,23.252,23.1101,
129,6.27333,1.3777,3.15335,4.12224,6.27434,1.97832,1.55572,0.00138291,-0.0823797,-6.35877e-05,0.0739767,0.00877483,0.00486175,1.85464e-05,0.441921,-11.8684,-0.427533,-2.76829,1.12872,-45.1947,1.50015,0.0173194,-20,-0.503211,-0.0911921,-0.037907,-1.62836,0.0509732,-0.00014043,0.0115358,6.85681e-05,0.494975,0.00119164,0.0750821,0.0385054,0.000647213,0.0320788,1.95364,0.00167454,0.005,1.72266,0.00094661,-0.025207,-0.524605,36.1099,-0.0423645,0.416674,15.7206,0.427277,1.06116,0.456121,-1.60285,-0.00330409,0.539795,-1.78054,0.072956,0.322266,-0.00805664,0.225622,-0.104736,23.4648,23.3371,23.1385,23.252,23.1811,23.252,23.1101,
130,6.27333,1.3777,3.15335,4.12224,6.27434,1.97832,1.55572,0.00138291,-0.0823797,-6.35877e-05,0.0739767,0.00877483,0.00486175,1.85464e-05,0.442891,-11.9545,-0.428627,-2.83078,1.13408,-45.5192,1.50643,0.0175765,-20,-0.504441,-0.101887,-0.0379112,-1.66015,0.0512524,-0.000141833,0.0116956,6.8725e-05,0.494975,0.00119164,0.0750821,0.0385054,0.000647213,0.0320788,1.95284,0.00167651,0.005,1.72291,0.000926365,-0.024371,-0.52719,36.4108,-0.0438161,0.416674,15.7206,0.427277,1.06116,0.456121,-1.60285,-0.00330409,0.539795,-1.78054,0.072956,0.322266,-0.00805664,0.225622,-0.104736,23.4648,23.3371,23.1385,23.252,23.1811,23.252,23.1101,
131,6.27333,1.37762,3.15335,4.12231,6.27434,1.97833,1.55572,0.00148929,-0.0788685,-6.89389e-05,0.0729263,0.00859933,0.00378136,1.85462e-05,0.442974,-11.9534,-0.428727,-2.83068,1.13408,-45.5181,1.50619,0.0175637,-20,-0.504445,-0.0999774,-0.0379141,-1.66043,0.0512287,-0.000141833,0.0116956,6.8725e-05,0.494975,0.00119164,0.0750821,0.0374702,0.000578239,0.0305921,1.95284,0.00167651,0.005,1.72291,0.000926365,-0.024371,-0.52719,36.4108,-0.0438161,0.387336,16.064,0.398515,1.12598,0.469885,-1.69806,-0.00913995,0.547852,-1.80533,0.0821619,0.346529,0.00402832,0.237705,-0.108839,23.4648,23.3229,23.1385,23.2804,23.1811,23.2662,23.1101,
132,6.27333,1.37762,3.15335,4.12231,6.27434,1.97833,1.55572,0.00148929,-0.0788685,-6.89389e-05,0.0729263,0.00859933,0.00378136,1.85462e-05,0.443963,-12.0252,-0.433274,-2.88246,1.12943,-45.7828,1.51813,0.0178261,-20,-0.505731,-0.108834,-0.0379517,-1.68615,0.0521419,-0.000146275,0.0118489,6.20839e-05,0.494975,0.00119164,0.0750821,0.0374702,0.000578239,0.0305921,1.95211,0.00166747,0.005,1.72317,0.000980305,-0.0230329,-0.536001,36.6554,-0.0528986,0.387336,16.064,0.398515,1.12598,0.469885,-1.69806,-0.00913995,0.547852,-1.80533,0.0821619,0.346529,0.00402832,0.237705,-0.108839,23.4648,23.3229,23.1385,23.2804,23.1811,23.2662,23.1101,
133,6.27333,1.37762,3.15335,4.12231,6.27434,1.97833,1.55572,0.00148929,-0.0788685,-6.89389e-05,0.0729263,0.00859933,0.00378136,1.85462e-05,0.443963,-12.0252,-0.433274,-2.88246,1.12943,-45.7828,1.51813,0.0178261,-20,-0.505731,-0.108834,-0.0379517,-1.68615,0.0521419,-0.000146275,0.0118489,6.20839e-05,0.494975,0.00119164,0.0750821,0.0374702,0.000578239,0.0305921,1.95211,0.00166747,0.005,1.72317,0.000980305,-0.0230329,-0.536001,36.6554,-0.0528986,0.387336,16.064,0.398515,1.12598,0.469885,-1.69806,-0.00913995,0.547852,-1.80533,0.0821619,0.346529,0.00402832,0.237705,-0.108839,23.4648,23.3229,23.1385,23.2804,23.1811,23.2662,23.1101,
134,6.27333,1.37754,3.15335,4.12239,6.27435,1.97833,1.55572,0.00142177,-0.0762336,-6.89389e-05,0.0737366,0.00684016,0.00175373,1.85605e-05,0.444124,-12.0238,-0.43328,-2.88247,1.12967,-45.7815,1.51822,0.0178103,-20,-0.505723,-0.107008,-0.0379661,-1.68639,0.0521276,-0.000146275,0.0118489,6.20839e-05,0.494975,0.00119164,0.0750821,0.0371562,0.000426923,0.0293262,1.95211,0.00166747,0.005,1.72317,0.000980305,-0.0230329,-0.536001,36.6554,-0.0528986,0.384462,16.3684,0.443832,1.1405,0.470759,-1.78768,-0.00779309,0.539855,-1.85304,0.0809682,0.33042,0.0090076,0.233677,-0.104814,23.4506,23.3229,23.1669,23.2662,23.1952,23.252,23.0959,
135,6.27333,1.37754,3.15335,4.12239,6.27435,1.97833,1.55572,0.00142177,-0.0762336,-6.89389e-05,0.0737366,0.00684016,0.00175373,1.85605e-05,0.444251,-12.1113,-0.41894,-2.94842,1.17772,-46.1071,1.51098,0.0178442,-20,-0.505875,-0.118437,-0.0377184,-1.71845,0.0508523,-0.000149505,0.0120042,5.78705e-05,0.494975,0.00119164,0.0750821,0.0371562,0.000426923,0.0293262,1.95135,0.00166031,0.005,1.72277,0.00111005,-0.0218935,-0.52373,36.96,-0.0170139,0.384462,16.3684,0.443832,1.1405,0.470759,-1.78768,-0.00779309,0.539855,-1.85304,0.0809682,0.33042,0.0090076,0.233677,-0.104814,23.4506,23.3229,23.1669,23.2662,23.1952,23.252,23.0959,
136,6.27333,1.37746,3.15335,4.12246,6.27435,1.97833,1.55572,0.00133336,-0.0756273,-6.88867e-05,0.0734665,0.00544219,0,1.85605e-05,0.44437,-12.11,-0.418935,-2.94853,1.17791,-46.1056,1.51102,0.0178298,-20,-0.50587,-0.116828,-0.0377286,-1.71867,0.050841,-0.000149505,0.0120042,5.78705e-05,0.494975,0.00119164,0.0750821,0.0369524,0.000321447,0.0289114,1.95135,0.00166031,0.005,1.72277,0.00111005,-0.0218935,-0.52373,36.96,-0.0170139,0.327618,16.5784,0.480201,1.1613,0.444896,-1.86812,-0.0179343,0.547911,-1.89333,0.0889885,0.281982,0.0127387,0.245728,-0.100708,23.4648,23.3087,23.1527,23.252,23.1811,23.2804,23.1101,
137,6.27333,1.37746,3.15335,4.12246,6.27435,1.97833,1.55572,0.00133336,-0.0756273,-6.88867e-05,0.0734665,0.00544219,0,1.85605e-05,0.444712,-12.1991,-0.407758,-3.0159,1.21753,-46.4451,1.50688,0.0179205,-20,-0.506266,-0.128545,-0.0375304,-1.75236,0.0499051,-0.000152252,0.012151,5.46679e-05,0.494975,0.00119164,0.0750821,0.0369524,0.000321447,0.0289114,1.95062,0.00165556,0.005,1.7223,0.0012007,-0.0215202,-0.514705,37.278,0.0112365,0.327618,16.5784,0.480201,1.1613,0.444896,-1.86812,-0.0179343,0.547911,-1.89333,0.0889885,0.281982,0.0127387,0.245728,-0.100708,23.4648,23.3087,23.1527,23.252,23.1811,23.2804,23.1101,
138,6.27333,1.37739,3.15335,4.12253,6.27436,1.97833,1.55572,0.00114092,-0.0734665,-6.88867e-05,0.072116,0.00403775,-0.000945341,1.85464e-05,0.444826,-12.198,-0.407721,-3.0159,1.21772,-46.444,1.50691,0.0179062,-20,-0.506259,-0.126827,-0.0375398,-1.7526,0.0498914,-0.000152252,0.012151,5.46679e-05,0.494975,0.00119164,0.0750821,0.0361122,0.000252656,0.0279809,1.95062,0.00165556,0.005,1.7223,0.0012007,-0.0215202,-0.514705,37.278,0.0112365,0.338945,16.8677,0.468916,1.22382,0.419496,-1.99342,-0.0358902,0.547911,-1.88527,0.0805664,0.282097,0.0371393,0.253912,-0.100708,23.4648,23.3229,23.1385,23.2662,23.1811,23.2662,23.1101,
139,6.27333,1.37739,3.15335,4.12253,6.27436,1.97833,1.55572,0.00114092,-0.0734665,-6.88867e-05,0.072116,0.00403775,-0.000945341,1.85464e-05,0.445046,-12.2699,-0.398086,-3.06848,1.25092,-46.7122,1.50085,0.0179646,-20,-0.506536,-0.135802,-0.0373807,-1.77887,0.0488724,-0.000154973,0.0122926,5.09758e-05,0.494975,0.00119164,0.0750821,0.0361122,0.000252656,0.0279809,1.94991,0.00164677,0.005,1.72242,0.0012547,-0.0206828,-0.50483,37.5273,0.035239,0.338945,16.8677,0.468916,1.22382,0.419496,-1.99342,-0.0358902,0.547911,-1.88527,0.0805664,0.282097,0.0371393,0.253912,-0.100708,23.4648,23.3229,23.1385,23.2662,23.1811,23.2662,23.1101,
140,6.27333,1.37732,3.15335,4.1226,6.27436,1.97832,1.55572,0.00106651,-0.0707655,-6.88867e-05,0.0709007,0.00298443,-0.00162058,1.85464e-05,0.445145,-12.2687,-0.398099,-3.06853,1.2511,-46.711,1.50095,0.0179507,-20,-0.506532,-0.134042,-0.0373857,-1.77912,0.0488676,-0.000154973,0.0122926,5.09758e-05,0.494975,0.00119164,0.0750821,0.0351986,0.000170681,0.0268615,1.94991,0.00164677,0.005,1.72242,0.0012547,-0.0206828,-0.50483,37.5273,0.035239,0.263967,17.1083,0.478778,1.25479,0.422889,-2.08923,-0.0300268,0.531982,-1.91755,0.105046,0.306258,0.0444942,0.253784,-0.104814,23.4648,23.3229,23.1527,23.2662,23.2094,23.252,23.1101,
141,6.27333,1.37732,3.15335,4.1226,6.27436,1.97832,1.55572,0.00106651,-0.0707655,-6.88867e-05,0.0709007,0.00298443,-0.00162058,1.85464e-05,0.445355,-12.3404,-0.388397,-3.12083,1.28461,-46.977,1.49664,0.0180063,-20,-0.506803,-0.142948,-0.0372215,-1.8051,0.0480185,-0.000156864,0.012435,4.97431e-05,0.494975,0.00119164,0.0750821,0.0351986,0.000170681,0.0268615,1.94918,0.00164633,0.005,1.72259,0.00132808,-0.0196754,-0.496653,37.7742,0.0595428,0.263967,17.1083,0.478778,1.25479,0.422889,-2.08923,-0.0300268,0.531982,-1.91755,0.105046,0.306258,0.0444942,0.253784,-0.104814,23.4648,23.3229,23.1527,23.2662,23.2094,23.252,23.1101,
142,6.27333,1.37725,3.15335,4.12267,6.27436,1.97832,1.55572,0.000977633,-0.0656395,-6.36359e-05,0.0713057,0.00288104,-0.00211993,1.85605e-05,0.445374,-12.3394,-0.388425,-3.1208,1.28463,-46.976,1.49649,0.0179882,-20,-0.506808,-0.141121,-0.037219,-1.80535,0.0480059,-0.000156864,0.012435,4.97431e-05,0.494975,0.00119164,0.0750821,0.0342484,0.000183975,0.02477,1.94918,0.00164633,0.005,1.72259,0.00132808,-0.0196754,-0.496653,37.7742,0.0595428,0.286529,17.3227,0.52964,1.22563,0.439749,-2.19215,-0.018052,0.539855,-1.94972,0.0809682,0.314312,0.0563965,0.253912,-0.100708,23.4648,23.3513,23.1385,23.252,23.1811,23.252,23.1101,
143,6.27333,1.37725,3.15335,4.12267,6.27436,1.97832,1.55572,0.000977633,-0.0656395,-6.36359e-05,0.0713057,0.00288104,-0.00211993,1.85605e-05,0.446222,-12.4034,-0.392168,-3.16697,1.28047,-47.2053,1.50147,0.0182129,-20,-0.507933,-0.149012,-0.0372682,-1.82741,0.0482808,-0.00015882,0.0125713,4.66772e-05,0.494975,0.00119164,0.0750821,0.0342484,0.000183975,0.02477,1.94849,0.00164176,0.005,1.72281,0.00131201,-0.017793,-0.499154,37.9857,0.0515662,0.286529,17.3227,0.52964,1.22563,0.439749,-2.19215,-0.018052,0.539855,-1.94972,0.0809682,0.314312,0.0563965,0.253912,-0.100708,23.4648,23.3513,23.1385,23.252,23.1811,23.252,23.1101,
144,6.27333,1.37725,3.15335,4.12267,6.27436,1.97832,1.55572,0.000977633,-0.0656395,-6.36359e-05,0.0713057,0.00288104,-0.00211993,1.85605e-05,0.446222,-12.4034,-0.392168,-3.16697,1.28047,-47.2053,1.50147,0.0182129,-20,-0.507933,-0.149012,-0.0372682,-1.82741,0.0482808,-0.00015882,0.0125713,4.66772e-05,0.494975,0.00119164,0.0750821,0.0342484,0.000183975,0.02477,1.94849,0.00164176,0.005,1.72281,0.00131201,-0.017793,-0.499154,37.9857,0.0515662,0.286529,17.3227,0.52964,1.22563,0.439749,-2.19215,-0.018052,0.539855,-1.94972,0.0809682,0.314312,0.0563965,0.253912,-0.100708,23.4648,23.3513,23.1385,23.252,23.1811,23.252,23.1101,
145,6.27334,1.37719,3.15335,4.12275,6.27436,1.97831,1.55572,0.000799882,-0.0632028,-6.35877e-05,0.0731964,0.00280795,-0.00265997,1.85606e-05,0.446238,-12.4022,-0.392195,-3.16723,1.28044,-47.2038,1.50126,0.0182025,-20,-0.507947,-0.147508,-0.037264,-1.82759,0.0482658,-0.00015882,0.0125713,4.66772e-05,0.494975,0.00119164,0.0750821,0.0342868,0.000245455,0.0237201,1.94849,0.00164176,0.005,1.72281,0.00131201,-0.017793,-0.499154,37.9857,0.0515662,0.240074,17.4039,0.568861,1.2475,0.422636,-2.32549,-0.0249141,0.531738,-2.0464,0.0889885,0.298205,0.0605589,0.253912,-0.0967636,23.4506,23.3229,23.1527,23.2662,23.2094,23.252,23.1243,
146,6.27334,1.37719,3.15335,4.12275,6.27436,1.97831,1.55572,0.000799882,-0.0632028,-6.35877e-05,0.0731964,0.00280795,-0.00265997,1.85606e-05,0.447542,-12.4922,-0.398399,-3.23564,1.27228,-47.5434,1.51071,0.0185481,-20,-0.509592,-0.15954,-0.0373455,-1.86119,0.0489047,-0.00016145,0.012701,4.30164e-05,0.494975,0.00119164,0.0750821,0.0342868,0.000245455,0.0237201,1.94781,0.00163343,0.005,1.72217,0.00124918,-0.0168481,-0.505113,38.3035,0.0379553,0.240074,17.4039,0.568861,1.2475,0.422636,-2.32549,-0.0249141,0.531738,-2.0464,0.0889885,0.298205,0.0605589,0.253912,-0.0967636,23.4506,23.3229,23.1527,23.2662,23.2094,23.252,23.1243,
147,6.27334,1.37713,3.15335,4.12282,6.27437,1.97831,1.55572,0.000702218,-0.0632028,-6.35877e-05,0.072116,0.00350993,-0.00302177,1.85464e-05,0.447518,-12.491,-0.398464,-3.23589,1.27215,-47.5419,1.51039,0.0185388,-20,-0.509608,-0.158141,-0.037336,-1.86138,0.0488897,-0.00016145,0.012701,4.30164e-05,0.494975,0.00119164,0.0750821,0.0339737,0.000349764,0.0237024,1.94781,0.00163343,0.005,1.72217,0.00124918,-0.0168481,-0.505113,38.3035,0.0379553,0.20991,17.5446,0.579129,1.2635,0.383683,-2.47281,-0.0275489,0.539795,-2.05446,0.0809682,0.249886,0.0689537,0.245728,-0.100789,23.4506,23.3371,23.1385,23.2662,23.1811,23.2662,23.1243,
148,6.27334,1.37713,3.15335,4.12282,6.27437,1.97831,1.55572,0.000702218,-0.0632028,-6.35877e-05,0.072116,0.00350993,-0.00302177,1.85464e-05,0.449196,-12.5749,-0.412248,-3.29864,1.24303,-47.8674,1.52816,0.0189839,-20,-0.511709,-0.169127,-0.0375298,-1.89374,0.0504623,-0.000164072,0.0128297,3.93677e-05,0.494975,0.00119164,0.0750821,0.0339737,0.000349764,0.0237024,1.94714,0.00162515,0.005,1.72185,0.00114785,-0.0168321,-0.520055,38.6075,0.00627605,0.20991,17.5446,0.579129,1.2635,0.383683,-2.47281,-0.0275489,0.539795,-2.05446,0.0809682,0.249886,0.0689537,0.245728,-0.100789,23.4506,23.3371,23.1385,23.2662,23.1811,23.2662,23.1243,
149,6.27334,1.37713,3.15335,4.12282,6.27437,1.97831,1.55572,0.000702218,-0.0632028,-6.35877e-05,0.072116,0.00350993,-0.00302177,1.85464e-05,0.449196,-12.5749,-0.412248,-3.29864,1.24303,-47.8674,1.52816,0.0189839,-20,-0.511709,-0.169127,-0.0375298,-1.89374,0.0504623,-0.000164072,0.0128297,3.93677e-05,0.494975,0.00119164,0.0750821,0.0339737,0.000349764,0.0237024,1.94714,0.00162515,0.005,1.72185,0.00114785,-0.0168321,-0.520055,38.6075,0.00627605,0.20991,17.5446,0.579129,1.2635,0.383683,-2.47281,-0.0275489,0.539795,-2.05446,0.0809682,0.249886,0.0689537,0.245728,-0.100789,23.4506,23.3371,23.1385,23.2662,23.1811,23.2662,23.1243,
150,6.27334,1.37706,3.15335,4.12289,6.27437,1.9783,1.55572,0.000526577,-0.0642832,-6.35877e-05,0.0704659,0.00331157,-0.00362386,1.85464e-05,0.449215,-12.5737,-0.41225,-3.29891,1.24304,-47.8658,1.52798,0.0189725,-20,-0.511716,-0.167731,-0.0375281,-1.89393,0.0504496,-0.000164072,0.0128297,3.93677e-05,0.494975,0.00119164,0.0750821,0.0337212,0.000398229,0.0240988,1.94714,0.00162515,0.005,1.72185,0.00114785,-0.0168321,-0.520055,38.6075,0.00627605,0.144849,17.7074,0.581606,1.29397,0.399401,-2.59174,-0.0334123,0.539855,-2.02228,0.0970148,0.258316,0.0563965,0.22573,-0.0970148,23.4506,23.3229,23.1385,23.252,23.1811,23.2662,23.1243,
151,6.27334,1.37706,3.15335,4.12289,6.27437,1.9783,1.55572,0.000526577,-0.0642832,-6.35877e-05,0.0704659,0.00331157,-0.00362386,1.85464e-05,0.450375,-12.6605,-0.415917,-3.36422,1.2417,-48.2049,1.53532,0.01928,-20,-0.513135,-0.179134,-0.0375682,-1.92777,0.0508529,-0.000166318,0.0129603,3.61652e-05,0.494975,0.00119164,0.0750821,0.0337212,0.000398229,0.0240988,1.94644,0.0016146,0.005,1.72145,0.00109474,-0.0171889,-0.523765,38.925,-0.00131387,0.144849,17.7074,0.581606,1.29397,0.399401,-2.59174,-0.0334123,0.539855,-2.02228,0.0970148,0.258316,0.0563965,0.22573,-0.0970148,23.4506,23.3229,23.1385,23.252,23.1811,23.2662,23.1243,
152,6.27334,1.377,3.15335,4.12296,6.27437,1.97829,1.55572,0.000533254,-0.0621906,-6.36359e-05,0.0682654,0.00357649,-0.00423933,1.85464e-05,0.450398,-12.6595,-0.415992,-3.36418,1.24164,-48.2039,1.53508,0.0192689,-20,-0.513141,-0.177529,-0.0375647,-1.928,0.0508369,-0.000166318,0.0129603,3.61652e-05,0.494975,0.00119164,0.0750821,0.03265,0.000411632,0.0232394,1.94644,0.0016146,0.005,1.72145,0.00109474,-0.0171889,-0.523765,38.925,-0.00131387,0.163544,17.8565,0.595984,1.32195,0.412666,-2.69007,-0.0368116,0.531738,-1.97389,0.088623,0.290039,0.0645789,0.225622,-0.100789,23.4364,23.3087,23.1527,23.2804,23.1811,23.252,23.1101,
153,6.27334,1.377,3.15335,4.12296,6.27437,1.97829,1.55572,0.000533254,-0.0621906,-6.36359e-05,0.0682654,0.00357649,-0.00423933,1.85464e-05,0.451388,-12.7145,-0.423552,-3.40332,1.22667,-48.4096,1.54668,0.0195314,-20,-0.514417,-0.184182,-0.037665,-1.94802,0.0518408,-0.000169155,0.0130852,3.21251e-05,0.494975,0.00119164,0.0750821,0.03265,0.000411632,0.0232394,1.94578,0.0016054,0.005,1.72182,0.00107439,-0.0164154,-0.533363,39.1147,-0.0183244,0.163544,17.8565,0.595984,1.32195,0.412666,-2.69007,-0.0368116,0.531738,-1.97389,0.088623,0.290039,0.0645789,0.225622,-0.100789,23.4364,23.3087,23.1527,23.2804,23.1811,23.252,23.1101,
154,6.27334,1.377,3.15335,4.12296,6.27437,1.97829,1.55572,0.000533254,-0.0621906,-6.36359e-05,0.0682654,0.00357649,-0.00423933,1.85464e-05,0.451388,-12.7145,-0.423552,-3.40332,1.22667,-48.4096,1.54668,0.0195314,-20,-0.514417,-0.184182,-0.037665,-1.94802,0.0518408,-0.000169155,0.0130852,3.21251e-05,0.494975,0.00119164,0.0750821,0.03265,0.000411632,0.0232394,1.94578,0.0016054,0.005,1.72182,0.00107439,-0.0164154,-0.533363,39.1147,-0.0183244,0.163544,17.8565,0.595984,1.32195,0.412666,-2.69007,-0.0368116,0.531738,-1.97389,0.088623,0.290039,0.0645789,0.225622,-0.100789,23.4364,23.3087,23.1527,23.2804,23.1811,23.252,23.1101,
155,6.27334,1.37694,3.15335,4.12303,6.27438,1.97828,1.55572,0.000457916,-0.0596915,-6.35877e-05,0.0675244,0.00314361,-0.00543164,1.85605e-05,0.451439,-12.7135,-0.423576,-3.40332,1.22674,-48.4086,1.54664,0.0195199,-20,-0.514418,-0.18266,-0.037666,-1.94822,0.0518329,-0.000169155,0.0130852,3.21251e-05,0.494975,0.00119164,0.0750821,0.0319169,0.000390988,0.0221355,1.94578,0.0016054,0.005,1.72182,0.00107439,-0.0164154,-0.533363,39.1147,-0.0183244,0.158694,17.8897,0.614642,1.37668,0.393458,-2.77579,-0.0504538,0.515688,-1.99805,0.0970148,0.314209,0.0649547,0.221594,-0.0967636,23.4506,23.3371,23.1527,23.2662,23.1811,23.2662,23.1243,
156,6.27334,1.37694,3.15335,4.12303,6.27438,1.97828,1.55572,0.000457916,-0.0596915,-6.35877e-05,0.0675244,0.00314361,-0.00543164,1.85605e-05,0.451889,-12.7662,-0.421868,-3.44186,1.23647,-48.6027,1.54778,0.0196391,-20,-0.515004,-0.189255,-0.0376316,-1.96711,0.0517071,-0.000170876,0.013201,3.0028e-05,0.494975,0.00119164,0.0750821,0.0319169,0.000390988,0.0221355,1.94515,0.00159751,0.005,1.72191,0.00108587,-0.0154219,-0.532105,39.2946,-0.013479,0.158694,17.8897,0.614642,1.37668,0.393458,-2.77579,-0.0504538,0.515688,-1.99805,0.0970148,0.314209,0.0649547,0.221594,-0.0967636,23.4506,23.3371,23.1527,23.2662,23.1811,23.2662,23.1243,
157,6.27334,1.37688,3.15336,4.12309,6.27438,1.97827,1.55572,0.000301988,-0.0583411,-6.62372e-05,0.0680646,0.00287277,-0.00777663,1.85464e-05,0.451905,-12.765,-0.421865,-3.4419,1.23648,-48.6014,1.54764,0.0196253,-20,-0.515009,-0.187828,-0.0376308,-1.96729,0.0516972,-0.000170876,0.013201,3.0028e-05,0.494975,0.00119164,0.0750821,0.0317942,0.000422027,0.0213465,1.94515,0.00159751,0.005,1.72191,0.00108587,-0.0154219,-0.532105,39.2946,-0.013479,0.157024,18.0419,0.619496,1.42764,0.372022,-2.85205,-0.0644995,0.523744,-2.02247,0.088623,0.306258,0.0726216,0.209511,-0.100789,23.4506,23.3229,23.1385,23.2804,23.1811,23.252,23.1101,
