LWingKi/MAS_RnD/log/us2/contact/41/grasp_log_12_08_2023_13_46_34.csv
Index,joint_angle_0,joint_angle_1,joint_angle_2,joint_angle_3,joint_angle_4,joint_angle_5,joint_angle_6,joint_velocity_0,joint_velocity_1,joint_velocity_2,joint_velocity_3,joint_velocity_4,joint_velocity_5,joint_velocity_6,joint_accel_0,joint_accel_1,joint_accel_2,joint_accel_3,joint_accel_4,joint_accel_5,joint_accel_6,constraint_tau_0,constraint_tau_1,constraint_tau_2,constraint_tau_3,constraint_tau_4,constraint_tau_5,constraint_tau_6,current_pos_x,current_pos_y,current_pos_z,target_pos_x,target_pos_y,target_pos_z,current_vel_x,current_vel_y,current_vel_z,target_vel_x,target_vel_y,target_vel_z,control_signal_linear_x,control_signal_linear_y,control_signal_linear_z,control_signal_angular_x,control_signal_angular_y,control_signal_angular_z,joint_torque_0,joint_torque_1,joint_torque_2,joint_torque_3,joint_torque_4,joint_torque_5,joint_torque_6,actuar_current_0,actuar_current_1,actuar_current_2,actuar_current_3,actuar_current_4,actuar_current_5,actuar_current_6,actuar_voltage_0,actuar_voltage_1,actuar_voltage_2,actuar_voltage_3,actuar_voltage_4,actuar_voltage_5,actuar_voltage_6
0,0.0218037,1.4137,3.14654,4.56496,0.1049,1.60475,1.57042,0,0,0,0,0,0,0,0.6071,0.0224538,-0.817191,0.0233962,0.514031,-0.0820076,0.798698,0.0505685,-18.3214,-0.380018,0.0382604,-0.0134424,2.20517,-0.00304897,0,0,-0,0.523959,-0.000585571,0.040794,0,0,-0,0,0,0,0,0,0,0,0,-0,0.0359986,21.641,1.33146,-2.69462,0.448531,-2.76178,-0.0311159,-0.145912,-2.37672,0.088623,0.33042,-0.217529,0.551895,-0.0113938,23.4648,23.2804,23.1527,23.2804,23.3229,23.2662,23.1243,
1,0.0218055,1.44217,3.14743,4.56474,0.104917,1.6046,1.57042,2.65149e-05,0.400825,0.0102815,-0.00158968,0.000312876,-0.0232284,0,0.563215,0.0142087,-0.738538,0.00371243,0.474533,-0.0639123,0.738492,0.0477816,-18.3977,-0.379928,-0.295728,-0.00671847,2.21151,-0.00351971,0,0,-0,0.523959,-0.000585571,0.040794,-0.104251,-0.00103284,-0.20992,0,0,0,0,0,0,0,0,0,0.268563,16.187,1.01079,-1.37042,0.411513,-2.4501,-0.0313875,-0.0563965,-1.03125,0.386719,-0.185303,-0.0649547,0.310181,-0.0245033,23.5074,23.3655,23.2378,23.3513,23.3939,23.3371,23.2378,
2,0.0218055,1.44217,3.14743,4.56474,0.104917,1.6046,1.57042,2.65149e-05,0.400825,0.0102815,-0.00158968,0.000312876,-0.0232284,0,0.716419,-21.872,-2.37545,19.4307,0.425684,-37.5926,-1.68327,0.0894584,-20,-0.935004,9.64992,-0.226358,4.84623,0.0337213,0.000265101,-0.0288643,0.000113596,0.523959,-0.000585571,0.040794,-0.104251,-0.00103284,-0.20992,0.289206,0.00512436,0.1,11.8037,0.184716,9.29761,0.0331572,-3.73781,0.0136086,0.268563,16.187,1.01079,-1.37042,0.411513,-2.4501,-0.0313875,-0.0563965,-1.03125,0.386719,-0.185303,-0.0649547,0.310181,-0.0245033,23.5074,23.3655,23.2378,23.3513,23.3939,23.3371,23.2378,
3,0.021806,1.4426,3.14744,4.56474,0.104919,1.60457,1.57042,2.65149e-05,0.400728,0.0108039,-0.0022171,0.000331437,-0.0210676,0,0.715869,-21.8835,-2.37433,19.4093,0.425509,-37.5827,-1.68308,0.0894267,-20,-0.935168,9.64276,-0.226225,4.8473,0.0337111,0.000265101,-0.0288643,0.000113596,0.523959,-0.000585571,0.040794,-0.104519,-0.00119355,-0.209671,0.289206,0.00512436,0.1,11.8037,0.184716,9.29761,0.0331572,-3.73781,0.0136086,0.257154,16.3464,1.00751,-1.38296,0.43086,-2.45006,-0.0431449,-0.0644531,-1.03125,0.378748,-0.185303,-0.0605589,0.338403,-0.0090076,23.5215,23.3939,23.2378,23.3655,23.3939,23.3513,23.2378,
4,0.021806,1.4426,3.14744,4.56474,0.104919,1.60457,1.57042,2.65149e-05,0.400728,0.0108039,-0.0022171,0.000331437,-0.0210676,0,0.716043,-21.8607,-2.40444,19.8796,0.420495,-37.989,-1.69785,0.089474,-20,-0.938017,9.76588,-0.227877,4.85191,0.0340574,0.000267994,-0.0293152,0.000113601,0.523959,-0.000585571,0.040794,-0.104519,-0.00119355,-0.209671,0.29367,0.00516631,0.1,11.9457,0.190796,9.29012,0.0341027,-3.77968,0.0136865,0.257154,16.3464,1.00751,-1.38296,0.43086,-2.45006,-0.0431449,-0.0644531,-1.03125,0.378748,-0.185303,-0.0605589,0.338403,-0.0090076,23.5215,23.3939,23.2378,23.3655,23.3939,23.3513,23.2378,
5,0.021806,1.4426,3.14744,4.56474,0.104919,1.60457,1.57042,2.65149e-05,0.400728,0.0108039,-0.0022171,0.000331437,-0.0210676,0,0.716043,-21.8607,-2.40444,19.8796,0.420495,-37.989,-1.69785,0.089474,-20,-0.938017,9.76588,-0.227877,4.85191,0.0340574,0.000267994,-0.0293152,0.000113601,0.523959,-0.000585571,0.040794,-0.104519,-0.00119355,-0.209671,0.29367,0.00516631,0.1,11.9457,0.190796,9.29012,0.0341027,-3.77968,0.0136865,0.257154,16.3464,1.00751,-1.38296,0.43086,-2.45006,-0.0431449,-0.0644531,-1.03125,0.378748,-0.185303,-0.0605589,0.338403,-0.0090076,23.5215,23.3939,23.2378,23.3655,23.3939,23.3513,23.2378,
6,0.021806,1.44299,3.14745,4.56473,0.10492,1.60456,1.57042,2.64549e-05,0.403796,0.0116024,-0.00354836,0.000342043,-0.0183666,0,0.715356,-21.8715,-2.403,19.8594,0.420097,-37.9796,-1.69805,0.089428,-20,-0.938171,9.75797,-0.227737,4.85308,0.0340463,0.000267994,-0.0293152,0.000113601,0.523959,-0.000585571,0.040794,-0.105822,-0.00142182,-0.211076,0.29367,0.00516631,0.1,11.9457,0.190796,9.29012,0.0341027,-3.77968,0.0136865,0.274008,16.2829,0.999814,-1.34837,0.43171,-2.44803,-0.0314133,-0.0644531,-0.999316,0.394775,-0.193527,-0.0565402,0.306179,-0.0166092,23.5357,23.3655,23.252,23.3655,23.3939,23.3371,23.2236,
7,0.021806,1.44299,3.14745,4.56473,0.10492,1.60456,1.57042,2.64549e-05,0.403796,0.0116024,-0.00354836,0.000342043,-0.0183666,0,0.716895,-21.968,-2.44401,20.3039,0.415707,-38.4763,-1.71185,0.0898467,-20,-0.944175,9.89963,-0.229408,4.86956,0.0343584,0.000272034,-0.0297369,0.000114202,0.523959,-0.000585571,0.040794,-0.105822,-0.00142182,-0.211076,0.297865,0.00521895,0.1,12.1106,0.199223,9.33228,0.0354526,-3.8253,0.0139145,0.274008,16.2829,0.999814,-1.34837,0.43171,-2.44803,-0.0314133,-0.0644531,-0.999316,0.394775,-0.193527,-0.0565402,0.306179,-0.0166092,23.5357,23.3655,23.252,23.3655,23.3939,23.3371,23.2236,
8,0.021806,1.44339,3.14746,4.56473,0.104921,1.60454,1.57042,2.64946e-05,0.402577,0.0121544,-0.00476984,0.000360331,-0.0180553,0,0.716294,-21.9794,-2.44274,20.2822,0.41547,-38.4659,-1.71179,0.0897871,-20,-0.944307,9.89285,-0.229299,4.8706,0.0343501,0.000272034,-0.0297369,0.000114202,0.523959,-0.000585571,0.040794,-0.105976,-0.00159531,-0.210504,0.297865,0.00521895,0.1,12.1106,0.199223,9.33228,0.0354526,-3.8253,0.0139145,0.295993,16.4063,1.02265,-1.28951,0.438139,-2.43104,-0.0371165,-0.0563965,-1.03934,0.362638,-0.169381,-0.0565402,0.274044,-0.0205405,23.5215,23.3797,23.2236,23.3655,23.3797,23.3513,23.2236,
9,0.021806,1.44339,3.14746,4.56473,0.104921,1.60454,1.57042,2.64946e-05,0.402577,0.0121544,-0.00476984,0.000360331,-0.0180553,0,0.716492,-21.9332,-2.47461,20.7342,0.410284,-38.8313,-1.72107,0.0898409,-20,-0.946915,10.0061,-0.230512,4.87289,0.0346114,0.000276705,-0.030158,0.000113935,0.523959,-0.000585571,0.040794,-0.105976,-0.00159531,-0.210504,0.302048,0.00527478,0.1,12.2407,0.206103,9.31512,0.0369615,-3.86682,0.0139934,0.295993,16.4063,1.02265,-1.28951,0.438139,-2.43104,-0.0371165,-0.0563965,-1.03934,0.362638,-0.169381,-0.0565402,0.274044,-0.0205405,23.5215,23.3797,23.2236,23.3655,23.3797,23.3513,23.2236,
10,0.021806,1.44379,3.14748,4.56472,0.104923,1.60452,1.57042,2.64949e-05,0.405558,0.0135049,-0.00509108,0.000394972,-0.018348,0,0.715693,-21.9451,-2.47258,20.7121,0.40957,-38.8209,-1.72181,0.0897633,-20,-0.947015,9.99772,-0.230408,4.87411,0.0346034,0.000276705,-0.030158,0.000113935,0.523959,-0.000585571,0.040794,-0.106941,-0.00200718,-0.212092,0.302048,0.00527478,0.1,12.2407,0.206103,9.31512,0.0369615,-3.86682,0.0139934,0.338953,16.3194,1.03298,-1.25323,0.429611,-2.42552,-0.0318659,-0.0586532,-1.19306,0.338762,-0.153076,-0.0483398,0.269928,-0.0166092,23.5215,23.3797,23.252,23.3655,23.408,23.3371,23.2236,
11,0.021806,1.44379,3.14748,4.56472,0.104923,1.60452,1.57042,2.64949e-05,0.405558,0.0135049,-0.00509108,0.000394972,-0.018348,0,0.718598,-22.053,-2.53429,21.1164,0.404357,-39.287,-1.71368,0.0905541,-20,-0.955271,10.1312,-0.230523,4.89218,0.034652,0.000282556,-0.0305811,0.000113841,0.523959,-0.000585571,0.040794,-0.106941,-0.00200718,-0.212092,0.306264,0.00534706,0.1,12.3962,0.220627,9.36277,0.0401285,-3.91637,0.0142521,0.338953,16.3194,1.03298,-1.25323,0.429611,-2.42552,-0.0318659,-0.0586532,-1.19306,0.338762,-0.153076,-0.0483398,0.269928,-0.0166092,23.5215,23.3797,23.252,23.3655,23.408,23.3371,23.2236,
12,0.021806,1.44422,3.14749,4.56472,0.104925,1.6045,1.57042,2.65149e-05,0.403357,0.0137923,-0.00456291,0.000452006,-0.019447,0,0.717915,-22.066,-2.53295,21.0925,0.404171,-39.2761,-1.71357,0.0904646,-20,-0.9554,10.1244,-0.230418,4.89322,0.0346439,0.000282556,-0.0305811,0.000113841,0.523959,-0.000585571,0.040794,-0.106297,-0.00210828,-0.210981,0.306264,0.00534706,0.1,12.3962,0.220627,9.36277,0.0401285,-3.91637,0.0142521,0.315161,16.5109,1.04492,-1.19009,0.409954,-2.41642,-0.0344916,-0.0569691,-1.45028,0.306258,-0.0889885,-0.0529843,0.294095,-0.0166092,23.5357,23.3939,23.252,23.3655,23.3939,23.3655,23.2236,
13,0.021806,1.44422,3.14749,4.56472,0.104925,1.6045,1.57042,2.65149e-05,0.403357,0.0137923,-0.00456291,0.000452006,-0.019447,0,0.717581,-21.9805,-2.55881,21.532,0.398966,-39.5889,-1.72337,0.0903736,-20,-0.956717,10.2257,-0.231613,4.89175,0.0349147,0.000289198,-0.0310329,0.00011392,0.523959,-0.000585571,0.040794,-0.106297,-0.00210828,-0.210981,0.31077,0.00543025,0.1,12.512,0.226156,9.32943,0.041662,-3.9583,0.0142079,0.315161,16.5109,1.04492,-1.19009,0.409954,-2.41642,-0.0344916,-0.0569691,-1.45028,0.306258,-0.0889885,-0.0529843,0.294095,-0.0166092,23.5357,23.3939,23.252,23.3655,23.3939,23.3655,23.2236,
14,0.021806,1.44461,3.14751,4.56471,0.104926,1.60448,1.57042,2.64949e-05,0.398124,0.0143152,-0.00386093,0.000530551,-0.019447,0,0.716987,-21.9922,-2.55762,21.5111,0.39882,-39.5797,-1.72328,0.0902749,-20,-0.956806,10.2209,-0.231564,4.89254,0.0349103,0.000289198,-0.0310329,0.00011392,0.523959,-0.000585571,0.040794,-0.104803,-0.00230139,-0.208181,0.31077,0.00543025,0.1,12.512,0.226156,9.32943,0.041662,-3.9583,0.0142079,0.303924,16.4537,1.04652,-1.15225,0.414049,-2.42018,-0.0356354,-0.0563965,-1.71637,0.274044,0.0161133,-0.0569691,0.326294,-0.0205405,23.5357,23.3939,23.252,23.3797,23.408,23.3655,23.252,
15,0.021806,1.44461,3.14751,4.56471,0.104926,1.60448,1.57042,2.64949e-05,0.398124,0.0143152,-0.00386093,0.000530551,-0.019447,0,0.71644,-21.786,-2.58995,21.9326,0.392564,-39.7675,-1.71376,0.090126,-20,-0.956659,10.2918,-0.231265,4.87792,0.0349536,0.000296133,-0.0314473,0.000114869,0.523959,-0.000585571,0.040794,-0.104803,-0.00230139,-0.208181,0.314887,0.00551897,0.1,12.5907,0.234611,9.24543,0.0436503,-3.9879,0.0142576,0.303924,16.4537,1.04652,-1.15225,0.414049,-2.42018,-0.0356354,-0.0563965,-1.71637,0.274044,0.0161133,-0.0569691,0.326294,-0.0205405,23.5357,23.3939,23.252,23.3797,23.408,23.3655,23.252,
16,0.021806,1.44499,3.14752,4.56472,0.104927,1.60446,1.57042,2.38454e-05,0.38894,0.0148403,-0.00144003,0.00064089,-0.0160492,0,0.715922,-21.7966,-2.58914,21.9157,0.392586,-39.7612,-1.7136,0.0900106,-20,-0.956728,10.2897,-0.231278,4.87836,0.0349537,0.000296133,-0.0314473,0.000114869,0.523959,-0.000585571,0.040794,-0.101743,-0.00252325,-0.202817,0.314887,0.00551897,0.1,12.5907,0.234611,9.24543,0.0436503,-3.9879,0.0142576,0.322637,16.581,1.08678,-1.11432,0.42084,-2.43051,-0.040779,-0.0483398,-1.70808,0.273926,0.121118,-0.0483398,0.354584,-0.0161133,23.5357,23.3939,23.2662,23.3655,23.408,23.3655,23.252,
17,0.021806,1.44499,3.14752,4.56472,0.104927,1.60446,1.57042,2.38454e-05,0.38894,0.0148403,-0.00144003,0.00064089,-0.0160492,0,0.714381,-21.4081,-2.62032,22.3251,0.385022,-39.7751,-1.68639,0.0895911,-20,-0.953278,10.3185,-0.229547,4.84371,0.034797,0.000303736,-0.0318459,0.000115865,0.523959,-0.000585571,0.040794,-0.101743,-0.00252325,-0.202817,0.318854,0.00561783,0.1,12.6179,0.244232,9.08451,0.0453991,-3.9978,0.014199,0.322637,16.581,1.08678,-1.11432,0.42084,-2.43051,-0.040779,-0.0483398,-1.70808,0.273926,0.121118,-0.0483398,0.354584,-0.0161133,23.5357,23.3939,23.2662,23.3655,23.408,23.3655,23.252,
18,0.021806,1.44537,3.14753,4.56472,0.104928,1.60445,1.57042,2.38452e-05,0.378677,0.0151255,0.0019311,0.000770863,-0.0135049,0,0.713891,-21.4185,-2.61964,22.3088,0.385122,-39.7692,-1.68613,0.0894697,-20,-0.953339,10.317,-0.229567,4.84405,0.0347979,0.000303736,-0.0318459,0.000115865,0.523959,-0.000585571,0.040794,-0.0980952,-0.00267954,-0.196891,0.318854,0.00561783,0.1,12.6179,0.244232,9.08451,0.0453991,-3.9978,0.014199,0.362023,16.5196,1.1041,-1.11953,0.420599,-2.4317,-0.0472238,-0.0322266,-1.82109,0.241833,0.225586,-0.041081,0.342431,-0.0205405,23.5499,23.3939,23.252,23.3797,23.408,23.3655,23.252,
19,0.021806,1.44537,3.14753,4.56472,0.104928,1.60445,1.57042,2.38452e-05,0.378677,0.0151255,0.0019311,0.000770863,-0.0135049,0,0.711784,-20.9897,-2.64284,22.681,0.377845,-39.7094,-1.65884,0.0888961,-20,-0.94837,10.327,-0.22774,4.80487,0.0346331,0.000311616,-0.0322263,0.000116858,0.523959,-0.000585571,0.040794,-0.0980952,-0.00267954,-0.196891,0.322664,0.00572345,0.1,12.6228,0.25209,8.90674,0.0469288,-4.00352,0.0140407,0.362023,16.5196,1.1041,-1.11953,0.420599,-2.4317,-0.0472238,-0.0322266,-1.82109,0.241833,0.225586,-0.041081,0.342431,-0.0205405,23.5499,23.3939,23.252,23.3797,23.408,23.3655,23.252,
20,0.021806,1.44576,3.14755,4.56473,0.104929,1.60444,1.57042,2.38635e-05,0.367125,0.014043,0.00370988,0.00092475,-0.0116142,0,0.711378,-21.0006,-2.64285,22.6628,0.378472,-39.7022,-1.65765,0.0887904,-20,-0.948504,10.3252,-0.227694,4.8053,0.0346291,0.000311616,-0.0322263,0.000116858,0.523959,-0.000585571,0.040794,-0.0946029,-0.00238877,-0.190498,0.322664,0.00572345,0.1,12.6228,0.25209,8.90674,0.0469288,-4.00352,0.0140407,0.329096,16.8272,1.11558,-1.19275,0.421204,-2.44214,-0.0247953,-0.0254773,-1.68384,0.22573,0.273926,-0.0443115,0.334351,-0.0201416,23.5215,23.3939,23.2804,23.3655,23.3939,23.3655,23.252,
21,0.021806,1.44576,3.14755,4.56473,0.104929,1.60444,1.57042,2.38635e-05,0.367125,0.014043,0.00370988,0.00092475,-0.0116142,0,0.706222,-20.539,-2.6194,23.0916,0.372829,-39.6586,-1.67598,0.0873864,-20,-0.938326,10.3429,-0.229056,4.76335,0.034994,0.000319041,-0.0326188,0.000117805,0.523959,-0.000585571,0.040794,-0.0946029,-0.00238877,-0.190498,0.326617,0.00582586,0.1,12.6366,0.246439,8.71494,0.0457906,-4.0123,0.0135114,0.329096,16.8272,1.11558,-1.19275,0.421204,-2.44214,-0.0247953,-0.0254773,-1.68384,0.22573,0.273926,-0.0443115,0.334351,-0.0201416,23.5215,23.3939,23.2804,23.3655,23.3939,23.3655,23.252,
22,0.021806,1.44576,3.14755,4.56473,0.104929,1.60444,1.57042,2.38635e-05,0.367125,0.014043,0.00370988,0.00092475,-0.0116142,0,0.706222,-20.539,-2.6194,23.0916,0.372829,-39.6586,-1.67598,0.0873864,-20,-0.938326,10.3429,-0.229056,4.76335,0.034994,0.000319041,-0.0326188,0.000117805,0.523959,-0.000585571,0.040794,-0.0946029,-0.00238877,-0.190498,0.326617,0.00582586,0.1,12.6366,0.246439,8.71494,0.0457906,-4.0123,0.0135114,0.329096,16.8272,1.11558,-1.19275,0.421204,-2.44214,-0.0378284,-0.0254773,-1.68384,0.22573,0.273926,-0.0443115,0.334351,-0.0254773,23.5215,23.3939,23.2804,23.3655,23.3939,23.3655,23.2378,
23,0.0218065,1.44611,3.14756,4.56474,0.104929,1.60443,1.57042,2.64949e-05,0.355088,0.0145853,0.00755225,0.000995855,-0.00863436,0,0.705767,-20.5486,-2.61876,23.0772,0.372861,-39.6537,-1.67582,0.087266,-20,-0.93837,10.3424,-0.229104,4.76356,0.0349963,0.000319041,-0.0326188,0.000117805,0.523959,-0.000585571,0.040794,-0.0903327,-0.00264892,-0.18358,0.326617,0.00582586,0.1,12.6366,0.246439,8.71494,0.0457906,-4.0123,0.0135114,0.286355,16.9132,1.09865,-1.29671,0.408863,-2.4425,-0.0378284,-0.0332184,-1.66804,0.249756,0.362549,-0.045038,0.346459,-0.0254773,23.5357,23.3939,23.252,23.3939,23.408,23.3513,23.2378,
24,0.0218065,1.44611,3.14756,4.56474,0.104929,1.60443,1.57042,2.64949e-05,0.355088,0.0145853,0.00755225,0.000995855,-0.00863436,0,0.703939,-20.0486,-2.65153,23.4196,0.365018,-39.5032,-1.62981,0.0867682,-20,-0.933103,10.3294,-0.225866,4.71641,0.0346233,0.000326641,-0.032965,0.000120075,0.523959,-0.000585571,0.040794,-0.0903327,-0.00264892,-0.18358,0.330114,0.00594478,0.1,12.6134,0.257811,8.50739,0.0478312,-4.00926,0.0136601,0.286355,16.9132,1.09865,-1.29671,0.408863,-2.4425,-0.0378284,-0.0332184,-1.66804,0.249756,0.362549,-0.045038,0.346459,-0.0254773,23.5357,23.3939,23.252,23.3939,23.408,23.3513,23.2378,
25,0.0218065,1.44645,3.14758,4.56476,0.104929,1.60442,1.57042,2.38454e-05,0.345725,0.0135049,0.0143152,0.00100085,-0.00756273,0,0.703555,-20.0583,-2.65152,23.4059,0.365469,-39.4992,-1.62905,0.0866728,-20,-0.93321,10.3283,-0.225841,4.71662,0.0346206,0.000326641,-0.032965,0.000120075,0.523959,-0.000585571,0.040794,-0.0858299,-0.00239356,-0.177924,0.330114,0.00594478,0.1,12.6134,0.257811,8.50739,0.0478312,-4.00926,0.0136601,0.331641,17.2556,1.10165,-1.41549,0.379327,-2.4535,-0.0153286,-0.0322266,-1.49873,0.22573,0.394775,-0.0529843,0.330347,-0.0127387,23.5357,23.3939,23.252,23.3797,23.3939,23.3371,23.252,
26,0.0218065,1.44645,3.14758,4.56476,0.104929,1.60442,1.57042,2.38454e-05,0.345725,0.0135049,0.0143152,0.00100085,-0.00756273,0,0.699319,-19.6497,-2.62869,23.6384,0.361819,-39.3229,-1.6327,0.0855194,-20,-0.923921,10.3041,-0.225996,4.67793,0.0347952,0.000333387,-0.0332981,0.000121717,0.523959,-0.000585571,0.040794,-0.0858299,-0.00239356,-0.177924,0.333479,0.00604326,0.1,12.5793,0.253105,8.33771,0.0468994,-4.00814,0.0134432,0.331641,17.2556,1.10165,-1.41549,0.379327,-2.4535,-0.0153286,-0.0322266,-1.49873,0.22573,0.394775,-0.0529843,0.330347,-0.0127387,23.5357,23.3939,23.252,23.3797,23.3939,23.3371,23.252,
27,0.0218065,1.44645,3.14758,4.56476,0.104929,1.60442,1.57042,2.38454e-05,0.345725,0.0135049,0.0143152,0.00100085,-0.00756273,0,0.699319,-19.6497,-2.62869,23.6384,0.361819,-39.3229,-1.6327,0.0855194,-20,-0.923921,10.3041,-0.225996,4.67793,0.0347952,0.000333387,-0.0332981,0.000121717,0.523959,-0.000585571,0.040794,-0.0858299,-0.00239356,-0.177924,0.333479,0.00604326,0.1,12.5793,0.253105,8.33771,0.0468994,-4.00814,0.0134432,0.331641,17.2556,1.10165,-1.41549,0.379327,-2.4535,-0.0153286,-0.0322266,-1.49873,0.22573,0.394775,-0.0529843,0.330347,-0.0127387,23.5357,23.3939,23.252,23.3797,23.3939,23.3371,23.252,
28,0.0218065,1.44678,3.14759,4.56478,0.10493,1.60442,1.57042,2.38454e-05,0.338162,0.0135049,0.0171109,0.00102975,-0.00626921,0,0.698835,-19.6588,-2.62806,23.6237,0.361892,-39.3173,-1.63249,0.0854219,-20,-0.924,10.3019,-0.225983,4.67835,0.0347937,0.000333387,-0.0332981,0.000121717,0.523959,-0.000585571,0.040794,-0.0830394,-0.0024501,-0.173588,0.333479,0.00604326,0.1,12.5793,0.253105,8.33771,0.0468994,-4.00814,0.0134432,0.350668,17.3303,1.09333,-1.5497,0.391096,-2.48711,-0.0304575,-0.0322266,-1.52279,0.265869,0.338379,-0.0444942,0.334351,-0.0180152,23.5215,23.3797,23.2662,23.3939,23.4222,23.3655,23.2236,
29,0.0218065,1.44678,3.14759,4.56478,0.10493,1.60442,1.57042,2.38454e-05,0.338162,0.0135049,0.0171109,0.00102975,-0.00626921,0,0.697011,-19.3445,-2.64171,23.9272,0.3566,-39.2993,-1.61848,0.0849251,-20,-0.920039,10.3176,-0.225101,4.65029,0.0347596,0.000340329,-0.0336176,0.000122376,0.523959,-0.000585571,0.040794,-0.0830394,-0.0024501,-0.173588,0.336704,0.00614073,0.1,12.5923,0.257725,8.20765,0.0478358,-4.01681,0.0133997,0.350668,17.3303,1.09333,-1.5497,0.391096,-2.48711,-0.0304575,-0.0322266,-1.52279,0.265869,0.338379,-0.0444942,0.334351,-0.0180152,23.5215,23.3797,23.2662,23.3939,23.4222,23.3655,23.2236,
30,0.0218065,1.44678,3.14759,4.56478,0.10493,1.60442,1.57042,2.38454e-05,0.338162,0.0135049,0.0171109,0.00102975,-0.00626921,0,0.697011,-19.3445,-2.64171,23.9272,0.3566,-39.2993,-1.61848,0.0849251,-20,-0.920039,10.3176,-0.225101,4.65029,0.0347596,0.000340329,-0.0336176,0.000122376,0.523959,-0.000585571,0.040794,-0.0830394,-0.0024501,-0.173588,0.336704,0.00614073,0.1,12.5923,0.257725,8.20765,0.0478358,-4.01681,0.0133997,0.350668,17.3303,1.09333,-1.5497,0.391096,-2.48711,-0.0304575,-0.0322266,-1.52279,0.265869,0.338379,-0.0444942,0.334351,-0.0180152,23.5215,23.3797,23.2662,23.3939,23.4222,23.3655,23.2236,
31,0.0218065,1.44678,3.14759,4.56478,0.10493,1.60442,1.57042,2.38454e-05,0.338162,0.0135049,0.0171109,0.00102975,-0.00626921,0,0.697011,-19.3445,-2.64171,23.9272,0.3566,-39.2993,-1.61848,0.0849251,-20,-0.920039,10.3176,-0.225101,4.65029,0.0347596,0.000340329,-0.0336176,0.000122376,0.523959,-0.000585571,0.040794,-0.0830394,-0.0024501,-0.173588,0.336704,0.00614073,0.1,12.5923,0.257725,8.20765,0.0478358,-4.01681,0.0133997,0.350668,17.3303,1.09333,-1.5497,0.391096,-2.48711,-0.0304575,-0.0322266,-1.52279,0.265869,0.338379,-0.0444942,0.334351,-0.0180152,23.5215,23.3797,23.2662,23.3939,23.4222,23.3655,23.2236,
32,0.0218065,1.44714,3.1476,4.5648,0.10493,1.60441,1.57042,2.38635e-05,0.333021,0.0132907,0.0172228,0.00103631,-0.00486175,0,0.696436,-19.3543,-2.641,23.9104,0.35667,-39.2922,-1.61815,0.0848312,-20,-0.92016,10.3138,-0.225035,4.65097,0.0347537,0.000340329,-0.0336176,0.000122376,0.523959,-0.000585571,0.040794,-0.0817221,-0.00240857,-0.170746,0.336704,0.00614073,0.1,12.5923,0.257725,8.20765,0.0478358,-4.01681,0.0133997,0.310122,17.881,1.09684,-1.79248,0.392444,-2.52014,-0.0123746,-0.0180152,-1.44216,0.249756,0.378662,-0.0404841,0.346459,-0.0245033,23.5074,23.3797,23.252,23.3797,23.3939,23.3513,23.2236,
33,0.0218065,1.44714,3.1476,4.5648,0.10493,1.60441,1.57042,2.38635e-05,0.333021,0.0132907,0.0172228,0.00103631,-0.00486175,0,0.694668,-19.1477,-2.64977,24.2929,0.352074,-39.447,-1.6267,0.0843497,-20,-0.917627,10.3737,-0.225925,4.635,0.0349881,0.000347335,-0.0339618,0.000124106,0.523959,-0.000585571,0.040794,-0.0817221,-0.00240857,-0.170746,0.340222,0.00624621,0.1,12.6583,0.259643,8.12238,0.0481093,-4.0379,0.0134857,0.310122,17.881,1.09684,-1.79248,0.392444,-2.52014,-0.0123746,-0.0180152,-1.44216,0.249756,0.378662,-0.0404841,0.346459,-0.0245033,23.5074,23.3797,23.252,23.3797,23.3939,23.3513,23.2236,
34,0.0218065,1.44714,3.1476,4.5648,0.10493,1.60441,1.57042,2.38635e-05,0.333021,0.0132907,0.0172228,0.00103631,-0.00486175,0,0.694668,-19.1477,-2.64977,24.2929,0.352074,-39.447,-1.6267,0.0843497,-20,-0.917627,10.3737,-0.225925,4.635,0.0349881,0.000347335,-0.0339618,0.000124106,0.523959,-0.000585571,0.040794,-0.0817221,-0.00240857,-0.170746,0.340222,0.00624621,0.1,12.6583,0.259643,8.12238,0.0481093,-4.0379,0.0134857,0.310122,17.881,1.09684,-1.79248,0.392444,-2.52014,-0.0123746,-0.0180152,-1.44216,0.249756,0.378662,-0.0404841,0.346459,-0.0245033,23.5074,23.3797,23.252,23.3797,23.3939,23.3513,23.2236,
35,0.0218065,1.44746,3.14762,4.56481,0.10493,1.60441,1.57042,1.85464e-05,0.329249,0.0132214,0.0172862,0.00100418,-0.00421238,0,0.694109,-19.1568,-2.649,24.2771,0.352061,-39.4403,-1.62652,0.0842631,-20,-0.917734,10.3699,-0.225863,4.63567,0.0349825,0.000347335,-0.0339618,0.000124106,0.523959,-0.000585571,0.040794,-0.0807708,-0.00240737,-0.168701,0.340222,0.00624621,0.1,12.6583,0.259643,8.12238,0.0481093,-4.0379,0.0134857,0.238254,18.1708,1.08161,-1.961,0.38049,-2.55656,-0.0308165,-0.0254773,-1.53916,0.241833,0.475342,-0.0402832,0.346529,-0.0205405,23.5215,23.3655,23.2236,23.3655,23.408,23.3513,23.2094,
36,0.0218065,1.44746,3.14762,4.56481,0.10493,1.60441,1.57042,1.85464e-05,0.329249,0.0132214,0.0172862,0.00100418,-0.00421238,0,0.693021,-19.0073,-2.66193,24.615,0.348056,-39.6068,-1.63245,0.0839668,-20,-0.916591,10.4299,-0.226571,4.62523,0.0351716,0.000353975,-0.0342744,0.000125683,0.523959,-0.000585571,0.040794,-0.0807708,-0.00240737,-0.168701,0.343406,0.00634516,0.1,12.7253,0.262576,8.06103,0.0486981,-4.06019,0.0136657,0.238254,18.1708,1.08161,-1.961,0.38049,-2.55656,-0.0308165,-0.0254773,-1.53916,0.241833,0.475342,-0.0402832,0.346529,-0.0205405,23.5215,23.3655,23.2236,23.3655,23.408,23.3513,23.2094,
37,0.0218065,1.44778,3.14763,4.56483,0.10493,1.6044,1.57042,1.85464e-05,0.323577,0.0129647,0.0177856,0.000972045,-0.00451383,0,0.692519,-19.0163,-2.66129,24.5993,0.348148,-39.6,-1.63212,0.0838809,-20,-0.916692,10.4267,-0.226519,4.62582,0.0351668,0.000353975,-0.0342744,0.000125683,0.523959,-0.000585571,0.040794,-0.0791816,-0.00236239,-0.165733,0.343406,0.00634516,0.1,12.7253,0.262576,8.06103,0.0486981,-4.06019,0.0136657,0.302908,18.7064,1.10547,-2.15341,0.356148,-2.60283,-0.0188411,-0.0180152,-1.54721,0.257938,0.548088,-0.0332184,0.346436,-0.0241699,23.5215,23.3797,23.2236,23.3655,23.3939,23.3513,23.2094,
38,0.0218065,1.44778,3.14763,4.56483,0.10493,1.6044,1.57042,1.85464e-05,0.323577,0.0129647,0.0177856,0.000972045,-0.00451383,0,0.690721,-18.8002,-2.66739,24.9231,0.344065,-39.6891,-1.63657,0.083391,-20,-0.913697,10.4686,-0.227036,4.60845,0.03534,0.000360543,-0.0345783,0.000127204,0.523959,-0.000585571,0.040794,-0.0791816,-0.00236239,-0.165733,0.346495,0.0064427,0.1,12.7703,0.264153,7.97198,0.049167,-4.07884,0.0138063,0.302908,18.7064,1.10547,-2.15341,0.356148,-2.60283,-0.0188411,-0.0180152,-1.54721,0.257938,0.548088,-0.0332184,0.346436,-0.0241699,23.5215,23.3797,23.2236,23.3655,23.3939,23.3513,23.2094,
39,0.0218065,1.44778,3.14763,4.56483,0.10493,1.6044,1.57042,1.85464e-05,0.323577,0.0129647,0.0177856,0.000972045,-0.00451383,0,0.690721,-18.8002,-2.66739,24.9231,0.344065,-39.6891,-1.63657,0.083391,-20,-0.913697,10.4686,-0.227036,4.60845,0.03534,0.000360543,-0.0345783,0.000127204,0.523959,-0.000585571,0.040794,-0.0791816,-0.00236239,-0.165733,0.346495,0.0064427,0.1,12.7703,0.264153,7.97198,0.049167,-4.07884,0.0138063,0.302908,18.7064,1.10547,-2.15341,0.356148,-2.60283,-0.0188411,-0.0180152,-1.54721,0.257938,0.548088,-0.0332184,0.346436,-0.0241699,23.5215,23.3797,23.2236,23.3655,23.3939,23.3513,23.2094,
40,0.0218069,1.44809,3.14764,4.56485,0.104931,1.6044,1.57042,1.85464e-05,0.319255,0.0121544,0.0195599,0.000972015,-0.00449479,0,0.690266,-18.8091,-2.66703,24.9083,0.344308,-39.6832,-1.63607,0.0833189,-20,-0.913823,10.4653,-0.226963,4.60903,0.035334,0.000360543,-0.0345783,0.000127204,0.523959,-0.000585571,0.040794,-0.0775423,-0.00213567,-0.163291,0.346495,0.0064427,0.1,12.7703,0.264153,7.97198,0.049167,-4.07884,0.0138063,0.288315,18.898,1.09334,-2.31161,0.35758,-2.71201,-0.0423319,-0.0180152,-1.52305,0.257938,0.612358,-0.045038,0.366599,-0.0216932,23.5215,23.3797,23.252,23.3655,23.3939,23.3513,23.2094,
41,0.0218069,1.44809,3.14764,4.56485,0.104931,1.6044,1.57042,1.85464e-05,0.319255,0.0121544,0.0195599,0.000972015,-0.00449479,0,0.687696,-18.6316,-2.65406,25.1907,0.3416,-39.7688,-1.65785,0.0826187,-20,-0.909573,10.5039,-0.228674,4.59502,0.0357029,0.000366322,-0.0348763,0.000128115,0.523959,-0.000585571,0.040794,-0.0775423,-0.00213567,-0.163291,0.349535,0.00653644,0.1,12.8123,0.260163,7.89872,0.0484024,-4.09638,0.0136691,0.288315,18.898,1.09334,-2.31161,0.35758,-2.71201,-0.0423319,-0.0180152,-1.52305,0.257938,0.612358,-0.045038,0.366599,-0.0216932,23.5215,23.3797,23.252,23.3655,23.3939,23.3513,23.2094,
42,0.0218069,1.44809,3.14764,4.56485,0.104931,1.6044,1.57042,1.85464e-05,0.319255,0.0121544,0.0195599,0.000972015,-0.00449479,0,0.687696,-18.6316,-2.65406,25.1907,0.3416,-39.7688,-1.65785,0.0826187,-20,-0.909573,10.5039,-0.228674,4.59502,0.0357029,0.000366322,-0.0348763,0.000128115,0.523959,-0.000585571,0.040794,-0.0775423,-0.00213567,-0.163291,0.349535,0.00653644,0.1,12.8123,0.260163,7.89872,0.0484024,-4.09638,0.0136691,0.288315,18.898,1.09334,-2.31161,0.35758,-2.71201,-0.0423319,-0.0180152,-1.52305,0.257938,0.612358,-0.045038,0.366599,-0.0216932,23.5215,23.3797,23.252,23.3655,23.3939,23.3513,23.2094,
43,0.0218069,1.44809,3.14764,4.56485,0.104931,1.6044,1.57042,1.85464e-05,0.319255,0.0121544,0.0195599,0.000972015,-0.00449479,0,0.687696,-18.6316,-2.65406,25.1907,0.3416,-39.7688,-1.65785,0.0826187,-20,-0.909573,10.5039,-0.228674,4.59502,0.0357029,0.000366322,-0.0348763,0.000128115,0.523959,-0.000585571,0.040794,-0.0775423,-0.00213567,-0.163291,0.349535,0.00653644,0.1,12.8123,0.260163,7.89872,0.0484024,-4.09638,0.0136691,0.288315,18.898,1.09334,-2.31161,0.35758,-2.71201,-0.0423319,-0.0180152,-1.52305,0.257938,0.612358,-0.045038,0.366599,-0.0216932,23.5215,23.3797,23.252,23.3655,23.3939,23.3513,23.2094,
44,0.0218069,1.44843,3.14765,4.56487,0.104931,1.60439,1.57042,1.85605e-05,0.316673,0.0116142,0.0210676,0.000947944,-0.00377945,0,0.687221,-18.641,-2.65354,25.1752,0.341742,-39.7627,-1.65746,0.0825601,-20,-0.909714,10.4999,-0.228586,4.59571,0.0356955,0.000366322,-0.0348763,0.000128115,0.523959,-0.000585571,0.040794,-0.0764459,-0.00198685,-0.161702,0.349535,0.00653644,0.1,12.8123,0.260163,7.89872,0.0484024,-4.09638,0.0136691,0.279083,19.442,1.12871,-2.61314,0.354289,-2.80885,0.000260346,-0.00805664,-1.53884,0.265869,0.644582,-0.0293266,0.374655,-0.0205405,23.5215,23.3655,23.2378,23.3655,23.3797,23.3229,23.2236,
45,0.0218069,1.44843,3.14765,4.56487,0.104931,1.60439,1.57042,1.85605e-05,0.316673,0.0116142,0.0210676,0.000947944,-0.00377945,0,0.685401,-18.525,-2.64899,25.4799,0.339035,-39.9276,-1.67949,0.0820641,-20,-0.907388,10.5577,-0.230409,4.5883,0.0360728,0.000371129,-0.0351962,0.000129425,0.523959,-0.000585571,0.040794,-0.0764459,-0.00198685,-0.161702,0.352804,0.00661281,0.1,12.8775,0.25799,7.85106,0.0478754,-4.11874,0.0136848,0.279083,19.442,1.12871,-2.61314,0.354289,-2.80885,0.000260346,-0.00805664,-1.53884,0.265869,0.644582,-0.0293266,0.374655,-0.0205405,23.5215,23.3655,23.2378,23.3655,23.3797,23.3229,23.2236,
46,0.0218069,1.44843,3.14765,4.56487,0.104931,1.60439,1.57042,1.85605e-05,0.316673,0.0116142,0.0210676,0.000947944,-0.00377945,0,0.685401,-18.525,-2.64899,25.4799,0.339035,-39.9276,-1.67949,0.0820641,-20,-0.907388,10.5577,-0.230409,4.5883,0.0360728,0.000371129,-0.0351962,0.000129425,0.523959,-0.000585571,0.040794,-0.0764459,-0.00198685,-0.161702,0.352804,0.00661281,0.1,12.8775,0.25799,7.85106,0.0478754,-4.11874,0.0136848,0.279083,19.442,1.12871,-2.61314,0.354289,-2.80885,0.000260346,-0.00805664,-1.53884,0.265869,0.644582,-0.0293266,0.374655,-0.0205405,23.5215,23.3655,23.2378,23.3655,23.3797,23.3229,23.2236,
47,0.0218069,1.44874,3.14767,4.5649,0.104932,1.60439,1.57042,1.85464e-05,0.311963,0.0112846,0.0216078,0.000972045,-0.0040123,0,0.684931,-18.5337,-2.64839,25.4649,0.339137,-39.9213,-1.67921,0.0819877,-20,-0.907491,10.5544,-0.230354,4.5889,0.0360683,0.000371129,-0.0351962,0.000129425,0.523959,-0.000585571,0.040794,-0.0750893,-0.00190727,-0.15922,0.352804,0.00661281,0.1,12.8775,0.25799,7.85106,0.0478754,-4.11874,0.0136848,0.178635,19.7643,1.11811,-2.85133,0.342084,-2.87945,-0.00282089,-0.0180152,-1.54706,0.274399,0.692918,-0.0371393,0.38674,-0.012085,23.5357,23.3797,23.2236,23.3655,23.3939,23.3371,23.2094,
48,0.0218069,1.44874,3.14767,4.5649,0.104932,1.60439,1.57042,1.85464e-05,0.311963,0.0112846,0.0216078,0.000972045,-0.0040123,0,0.683144,-18.3529,-2.65033,25.7694,0.335451,-40.0255,-1.68912,0.0815007,-20,-0.904686,10.5986,-0.231264,4.5749,0.0362921,0.000377165,-0.0354874,0.000129865,0.523959,-0.000585571,0.040794,-0.0750893,-0.00190727,-0.15922,0.355765,0.00669878,0.1,12.9256,0.258181,7.77659,0.048092,-4.1378,0.0135878,0.178635,19.7643,1.11811,-2.85133,0.342084,-2.87945,-0.00282089,-0.0180152,-1.54706,0.274399,0.692918,-0.0371393,0.38674,-0.012085,23.5357,23.3797,23.2236,23.3655,23.3939,23.3371,23.2094,
49,0.0218069,1.44904,3.14768,4.56492,0.104932,1.60438,1.57042,1.32474e-05,0.310072,0.011074,0.022148,0.000943968,-0.00476311,0,0.682666,-18.3617,-2.64963,25.7543,0.335463,-40.0192,-1.68893,0.0814405,-20,-0.904799,10.5945,-0.231187,4.57561,0.0362856,0.000377165,-0.0354874,0.000129865,0.523959,-0.000585571,0.040794,-0.0744705,-0.00185296,-0.158247,0.355765,0.00669878,0.1,12.9256,0.258181,7.77659,0.048092,-4.1378,0.0135878,0.235971,20.2736,1.13294,-3.07429,0.335032,-2.9696,-0.00741697,-0.0113938,-1.57929,0.274044,0.717041,-0.0241699,0.390768,-0.0090076,23.5215,23.3655,23.2378,23.3655,23.3939,23.3371,23.2094,
50,0.0218069,1.44904,3.14768,4.56492,0.104932,1.60438,1.57042,1.32474e-05,0.310072,0.011074,0.022148,0.000943968,-0.00476311,0,0.681756,-18.2893,-2.65568,26.0363,0.332726,-40.2026,-1.70323,0.0811924,-20,-0.904285,10.6556,-0.232487,4.57279,0.0365574,0.000382368,-0.0357782,0.000131117,0.523959,-0.000585571,0.040794,-0.0744705,-0.00185296,-0.158247,0.358702,0.00677553,0.1,12.9952,0.258855,7.74742,0.0484264,-4.16351,0.0136984,0.235971,20.2736,1.13294,-3.07429,0.335032,-2.9696,-0.00741697,-0.0113938,-1.57929,0.274044,0.717041,-0.0241699,0.390768,-0.0090076,23.5215,23.3655,23.2378,23.3655,23.3939,23.3371,23.2094,
51,0.0218069,1.44935,3.14769,4.56494,0.104933,1.60438,1.57042,1.32474e-05,0.310612,0.0108039,0.0226652,0.000941871,-0.00523315,0,0.681255,-18.2981,-2.65494,26.0214,0.332712,-40.1965,-1.70313,0.0811388,-20,-0.90441,10.6509,-0.232394,4.57357,0.0365501,0.000382368,-0.0357782,0.000131117,0.523959,-0.000585571,0.040794,-0.0744968,-0.00176526,-0.158498,0.358702,0.00677553,0.1,12.9952,0.258855,7.74742,0.0484264,-4.16351,0.0136984,0.215926,20.4847,1.12088,-3.27826,0.367877,-3.13694,-0.0221261,-0.0180152,-1.53884,0.274044,0.773479,-0.0324774,0.40688,-0.012085,23.5215,23.3655,23.252,23.3655,23.3797,23.3513,23.2094,
52,0.0218069,1.44935,3.14769,4.56494,0.104933,1.60438,1.57042,1.32474e-05,0.310612,0.0108039,0.0226652,0.000941871,-0.00523315,0,0.680732,-18.314,-2.65896,26.291,0.330695,-40.4509,-1.72666,0.0809963,-20,-0.905226,10.7274,-0.234414,4.57972,0.0369207,0.000387303,-0.0360689,0.000131377,0.523959,-0.000585571,0.040794,-0.0744968,-0.00176526,-0.158498,0.361639,0.00684484,0.1,13.0841,0.258303,7.75495,0.0484613,-4.19356,0.0136526,0.215926,20.4847,1.12088,-3.27826,0.367877,-3.13694,-0.0221261,-0.0180152,-1.53884,0.274044,0.773479,-0.0324774,0.40688,-0.012085,23.5215,23.3655,23.252,23.3655,23.3797,23.3513,23.2094,
53,0.0218069,1.44935,3.14769,4.56494,0.104933,1.60438,1.57042,1.32474e-05,0.310612,0.0108039,0.0226652,0.000941871,-0.00523315,0,0.680732,-18.314,-2.65896,26.291,0.330695,-40.4509,-1.72666,0.0809963,-20,-0.905226,10.7274,-0.234414,4.57972,0.0369207,0.000387303,-0.0360689,0.000131377,0.523959,-0.000585571,0.040794,-0.0744968,-0.00176526,-0.158498,0.361639,0.00684484,0.1,13.0841,0.258303,7.75495,0.0484613,-4.19356,0.0136526,0.215926,20.4847,1.12088,-3.27826,0.367877,-3.13694,-0.0221261,-0.0180152,-1.53884,0.274044,0.773479,-0.0324774,0.40688,-0.012085,23.5215,23.3655,23.252,23.3655,23.3797,23.3513,23.2094,
54,0.0218069,1.44935,3.14769,4.56494,0.104933,1.60438,1.57042,1.32474e-05,0.310612,0.0108039,0.0226652,0.000941871,-0.00523315,0,0.680732,-18.314,-2.65896,26.291,0.330695,-40.4509,-1.72666,0.0809963,-20,-0.905226,10.7274,-0.234414,4.57972,0.0369207,0.000387303,-0.0360689,0.000131377,0.523959,-0.000585571,0.040794,-0.0744968,-0.00176526,-0.158498,0.361639,0.00684484,0.1,13.0841,0.258303,7.75495,0.0484613,-4.19356,0.0136526,0.215926,20.4847,1.12088,-3.27826,0.367877,-3.13694,-0.0221261,-0.0180152,-1.53884,0.274044,0.773479,-0.0324774,0.40688,-0.012085,23.5215,23.3655,23.252,23.3655,23.3797,23.3513,23.2094,
55,0.0218069,1.44968,3.1477,4.56496,0.104934,1.60437,1.57042,7.95448e-06,0.311956,0.00972351,0.0235722,0.000943941,-0.00629784,0,0.680304,-18.3236,-2.65856,26.2747,0.330965,-40.4442,-1.72611,0.0809679,-20,-0.905401,10.7221,-0.234276,4.58059,0.0369101,0.000387303,-0.0360689,0.000131377,0.523959,-0.000585571,0.040794,-0.0746123,-0.00141065,-0.159169,0.361639,0.00684484,0.1,13.0841,0.258303,7.75495,0.0484613,-4.19356,0.0136526,0.228684,20.8307,1.15942,-3.52602,0.369996,-3.28143,-0.0186803,-0.00805664,-1.67673,0.290039,0.813761,-0.0324774,0.431106,-0.0205405,23.5215,23.3655,23.2236,23.3513,23.3939,23.3371,23.2094,
56,0.0218069,1.44968,3.1477,4.56496,0.104934,1.60437,1.57042,7.95448e-06,0.311956,0.00972351,0.0235722,0.000943941,-0.00629784,0,0.678249,-18.3701,-2.63378,26.5495,0.330523,-40.7269,-1.77975,0.0804079,-20,-0.903869,10.8062,-0.238424,4.59014,0.0376319,0.000391021,-0.0363856,0.000131474,0.523959,-0.000585571,0.040794,-0.0746123,-0.00141065,-0.159169,0.364806,0.00689537,0.1,13.1825,0.249181,7.77506,0.0468462,-4.22818,0.0133746,0.228684,20.8307,1.15942,-3.52602,0.369996,-3.28143,-0.0186803,-0.00805664,-1.67673,0.290039,0.813761,-0.0324774,0.431106,-0.0205405,23.5215,23.3655,23.2236,23.3513,23.3939,23.3371,23.2094,
57,0.0218069,1.44968,3.1477,4.56496,0.104934,1.60437,1.57042,7.95448e-06,0.311956,0.00972351,0.0235722,0.000943941,-0.00629784,0,0.678249,-18.3701,-2.63378,26.5495,0.330523,-40.7269,-1.77975,0.0804079,-20,-0.903869,10.8062,-0.238424,4.59014,0.0376319,0.000391021,-0.0363856,0.000131474,0.523959,-0.000585571,0.040794,-0.0746123,-0.00141065,-0.159169,0.364806,0.00689537,0.1,13.1825,0.249181,7.77506,0.0468462,-4.22818,0.0133746,0.228684,20.8307,1.15942,-3.52602,0.369996,-3.28143,-0.0186803,-0.00805664,-1.67673,0.290039,0.813761,-0.0324774,0.431106,-0.0205405,23.5215,23.3655,23.2236,23.3513,23.3939,23.3371,23.2094,
58,0.0218069,1.44999,3.14771,4.56499,0.104935,1.60436,1.57042,7.95456e-06,0.308678,0.00917401,0.0237686,0.000947771,-0.00776711,0,0.677901,-18.3791,-2.63334,26.5339,0.33073,-40.7202,-1.77927,0.0803713,-20,-0.903998,10.8023,-0.23834,4.59085,0.0376253,0.000391021,-0.0363856,0.000131474,0.523959,-0.000585571,0.040794,-0.073734,-0.00125219,-0.157586,0.364806,0.00689537,0.1,13.1825,0.249181,7.77506,0.0468462,-4.22818,0.0133746,0.17356,20.9946,1.19852,-3.68534,0.406776,-3.40999,0.000419013,0,-1.72429,0.314209,0.837891,-0.0293266,0.447162,-0.0161133,23.5074,23.3655,23.2236,23.3513,23.3797,23.3513,23.2094,
59,0.0218069,1.44999,3.14771,4.56499,0.104935,1.60436,1.57042,7.95456e-06,0.308678,0.00917401,0.0237686,0.000947771,-0.00776711,0,0.675878,-18.2628,-2.62472,26.8257,0.32816,-40.8689,-1.80391,0.0798198,-20,-0.901257,10.8566,-0.240323,4.58373,0.0380179,0.000394748,-0.0366776,0.000131517,0.523959,-0.000585571,0.040794,-0.073734,-0.00125219,-0.157586,0.367717,0.0069446,0.1,13.2435,0.245904,7.72757,0.0465217,-4.25334,0.0132395,0.17356,20.9946,1.19852,-3.68534,0.406776,-3.40999,0.000419013,0,-1.72429,0.314209,0.837891,-0.0293266,0.447162,-0.0161133,23.5074,23.3655,23.2236,23.3513,23.3797,23.3513,23.2094,
60,0.0218069,1.44999,3.14771,4.56499,0.104935,1.60436,1.57042,7.95456e-06,0.308678,0.00917401,0.0237686,0.000947771,-0.00776711,0,0.675878,-18.2628,-2.62472,26.8257,0.32816,-40.8689,-1.80391,0.0798198,-20,-0.901257,10.8566,-0.240323,4.58373,0.0380179,0.000394748,-0.0366776,0.000131517,0.523959,-0.000585571,0.040794,-0.073734,-0.00125219,-0.157586,0.367717,0.0069446,0.1,13.2435,0.245904,7.72757,0.0465217,-4.25334,0.0132395,0.17356,20.9946,1.19852,-3.68534,0.406776,-3.40999,0.000419013,0,-1.72429,0.314209,0.837891,-0.0293266,0.447162,-0.0161133,23.5074,23.3655,23.2236,23.3513,23.3797,23.3513,23.2094,
61,0.0218069,1.44999,3.14771,4.56499,0.104935,1.60436,1.57042,7.95456e-06,0.308678,0.00917401,0.0237686,0.000947771,-0.00776711,0,0.675878,-18.2628,-2.62472,26.8257,0.32816,-40.8689,-1.80391,0.0798198,-20,-0.901257,10.8566,-0.240323,4.58373,0.0380179,0.000394748,-0.0366776,0.000131517,0.523959,-0.000585571,0.040794,-0.073734,-0.00125219,-0.157586,0.367717,0.0069446,0.1,13.2435,0.245904,7.72757,0.0465217,-4.25334,0.0132395,0.17356,20.9946,1.19852,-3.68534,0.406776,-3.40999,0.000419013,0,-1.72429,0.314209,0.837891,-0.0293266,0.447162,-0.0161133,23.5074,23.3655,23.2236,23.3513,23.3797,23.3513,23.2094,
62,0.0218069,1.45029,3.14772,4.56501,0.104936,1.60434,1.57042,7.94847e-06,0.306061,0.0095292,0.0243088,0.000949394,-0.0106632,0,0.675434,-18.2719,-2.62377,26.8096,0.328025,-40.8619,-1.80397,0.0797636,-20,-0.901339,10.8524,-0.240271,4.58447,0.0380137,0.000394748,-0.0366776,0.000131517,0.523959,-0.000585571,0.040794,-0.0729231,-0.00138508,-0.156481,0.367717,0.0069446,0.1,13.2435,0.245904,7.72757,0.0465217,-4.25334,0.0132395,0.148274,21.2946,1.22113,-3.90348,0.387846,-3.52721,-0.0267803,-0.0180152,-1.65969,0.314209,0.88623,-0.0322266,0.475359,-0.0245033,23.5357,23.3655,23.2236,23.3513,23.3797,23.3087,23.1952,
63,0.0218069,1.45029,3.14772,4.56501,0.104936,1.60434,1.57042,7.94847e-06,0.306061,0.0095292,0.0243088,0.000949394,-0.0106632,0,0.675521,-18.1884,-2.6474,27.0761,0.324289,-41.0174,-1.79943,0.0797871,-20,-0.902384,10.9072,-0.240237,4.58102,0.038065,0.0004,-0.0369703,0.000131717,0.523959,-0.000585571,0.040794,-0.0729231,-0.00138508,-0.156481,0.370588,0.00700851,0.1,13.3053,0.251808,7.69442,0.0483671,-4.28208,0.0133476,0.148274,21.2946,1.22113,-3.90348,0.387846,-3.52721,-0.0267803,-0.0180152,-1.65969,0.314209,0.88623,-0.0322266,0.475359,-0.0245033,23.5357,23.3655,23.2236,23.3513,23.3797,23.3087,23.1952,
64,0.0218069,1.45059,3.14772,4.56504,0.104937,1.60432,1.57042,5.29898e-06,0.301393,0.00837302,0.024849,0.000949394,-0.0141321,0,0.675258,-18.1974,-2.64723,27.0599,0.32471,-41.0104,-1.79862,0.0797601,-20,-0.902523,10.9036,-0.240143,4.5817,0.0380578,0.0004,-0.0369703,0.000131717,0.523959,-0.000585571,0.040794,-0.0715645,-0.00104055,-0.154349,0.370588,0.00700851,0.1,13.3053,0.251808,7.69442,0.0483671,-4.28208,0.0133476,0.0799446,21.408,1.22747,-4.00967,0.422112,-3.68232,-0.0541325,0.0113938,-1.70801,0.306576,0.894323,-0.0254773,0.503556,-0.0205405,23.5215,23.3655,23.2236,23.3371,23.3655,23.3229,23.2094,
65,0.0218069,1.45059,3.14772,4.56504,0.104937,1.60432,1.57042,5.29898e-06,0.301393,0.00837302,0.024849,0.000949394,-0.0141321,0,0.671814,-18.0411,-2.61683,27.3317,0.323025,-41.0967,-1.83766,0.078821,-20,-0.896896,10.9436,-0.24305,4.57065,0.0386116,0.000403667,-0.0372605,0.000131673,0.523959,-0.000585571,0.040794,-0.0715645,-0.00104055,-0.154349,0.373413,0.00704938,0.1,13.3493,0.242698,7.63048,0.0472375,-4.30755,0.0130699,0.0799446,21.408,1.22747,-4.00967,0.422112,-3.68232,-0.0541325,0.0113938,-1.70801,0.306576,0.894323,-0.0254773,0.503556,-0.0205405,23.5215,23.3655,23.2236,23.3371,23.3655,23.3229,23.2094,
66,0.0218069,1.45059,3.14772,4.56504,0.104937,1.60432,1.57042,5.29898e-06,0.301393,0.00837302,0.024849,0.000949394,-0.0141321,0,0.671814,-18.0411,-2.61683,27.3317,0.323025,-41.0967,-1.83766,0.078821,-20,-0.896896,10.9436,-0.24305,4.57065,0.0386116,0.000403667,-0.0372605,0.000131673,0.523959,-0.000585571,0.040794,-0.0715645,-0.00104055,-0.154349,0.373413,0.00704938,0.1,13.3493,0.242698,7.63048,0.0472375,-4.30755,0.0130699,0.0799446,21.408,1.22747,-4.00967,0.422112,-3.68232,-0.0541325,0.0113938,-1.70801,0.306576,0.894323,-0.0254773,0.503556,-0.0205405,23.5215,23.3655,23.2236,23.3371,23.3655,23.3229,23.2094,
67,0.0218069,1.4509,3.14773,4.56506,0.104939,1.60431,1.57042,5.30299e-06,0.298414,0.00890419,0.0260799,0.000971473,-0.0178264,0,0.671441,-18.0508,-2.61587,27.3148,0.322895,-41.0895,-1.83774,0.0787836,-20,-0.89698,10.9393,-0.243002,4.57142,0.038608,0.000403667,-0.0372605,0.000131673,0.523959,-0.000585571,0.040794,-0.0704431,-0.0012349,-0.153081,0.373413,0.00704938,0.1,13.3493,0.242698,7.63048,0.0472375,-4.30755,0.0130699,0.0911484,21.4205,1.22423,-4.11291,0.409832,-3.83502,-0.0583495,-0.00805664,-1.57943,0.330322,0.926549,-0.0205405,0.559951,-0.0166092,23.5074,23.3513,23.2378,23.3371,23.3655,23.3371,23.1952,
68,0.0218069,1.4509,3.14773,4.56506,0.104939,1.60431,1.57042,5.30299e-06,0.298414,0.00890419,0.0260799,0.000971473,-0.0178264,0,0.671681,-17.9548,-2.64296,27.5737,0.31879,-41.2245,-1.82801,0.0788491,-20,-0.898152,10.9895,-0.242593,4.5669,0.038604,0.000407569,-0.0375678,0.000130716,0.523959,-0.000585571,0.040794,-0.0704431,-0.0012349,-0.153081,0.376404,0.00708941,0.1,13.4054,0.249729,7.59242,0.0494742,-4.33724,0.0130594,0.0911484,21.4205,1.22423,-4.11291,0.409832,-3.83502,-0.0583495,-0.00805664,-1.57943,0.330322,0.926549,-0.0205405,0.559951,-0.0166092,23.5074,23.3513,23.2378,23.3371,23.3655,23.3371,23.1952,
69,0.0218069,1.4509,3.14773,4.56506,0.104939,1.60431,1.57042,5.30299e-06,0.298414,0.00890419,0.0260799,0.000971473,-0.0178264,0,0.671681,-17.9548,-2.64296,27.5737,0.31879,-41.2245,-1.82801,0.0788491,-20,-0.898152,10.9895,-0.242593,4.5669,0.038604,0.000407569,-0.0375678,0.000130716,0.523959,-0.000585571,0.040794,-0.0704431,-0.0012349,-0.153081,0.376404,0.00708941,0.1,13.4054,0.249729,7.59242,0.0494742,-4.33724,0.0130594,0.0911484,21.4205,1.22423,-4.11291,0.409832,-3.83502,-0.0583495,-0.00805664,-1.57943,0.330322,0.926549,-0.0205405,0.559951,-0.0166092,23.5074,23.3513,23.2378,23.3371,23.3655,23.3371,23.1952,
70,0.0218069,1.45119,3.14774,4.56509,0.104939,1.60429,1.57042,5.30299e-06,0.291435,0.00946301,0.0296806,0.000978128,-0.0183666,0,0.671348,-17.963,-2.64226,27.5609,0.318747,-41.2199,-1.82808,0.078792,-20,-0.898209,10.9876,-0.242598,4.56734,0.038604,0.000407569,-0.0375678,0.000130716,0.523959,-0.000585571,0.040794,-0.0675212,-0.00147738,-0.149195,0.376404,0.00708941,0.1,13.4054,0.249729,7.59242,0.0494742,-4.33724,0.0130594,0.0643842,21.4469,1.23397,-4.17175,0.437586,-3.98833,-0.038828,0,-1.61957,0.314312,0.926514,-0.0180152,0.596205,-0.0201416,23.5215,23.3513,23.2094,23.3371,23.3655,23.3371,23.1952,
71,0.0218069,1.45119,3.14774,4.56509,0.104939,1.60429,1.57042,5.30299e-06,0.291435,0.00946301,0.0296806,0.000978128,-0.0183666,0,0.670813,-17.6798,-2.67016,27.7736,0.313601,-41.1449,-1.79504,0.0786461,-20,-0.896175,10.9855,-0.240314,4.54193,0.0383329,0.000412696,-0.037844,0.000130797,0.523959,-0.000585571,0.040794,-0.0675212,-0.00147738,-0.149195,0.379066,0.00714754,0.1,13.3976,0.258748,7.47584,0.0516516,-4.34482,0.013141,0.0643842,21.4469,1.23397,-4.17175,0.437586,-3.98833,-0.038828,0,-1.61957,0.314312,0.926514,-0.0180152,0.596205,-0.0201416,23.5215,23.3513,23.2094,23.3371,23.3655,23.3371,23.1952,
72,0.0218069,1.45119,3.14774,4.56509,0.104939,1.60429,1.57042,5.30299e-06,0.291435,0.00946301,0.0296806,0.000978128,-0.0183666,0,0.670813,-17.6798,-2.67016,27.7736,0.313601,-41.1449,-1.79504,0.0786461,-20,-0.896175,10.9855,-0.240314,4.54193,0.0383329,0.000412696,-0.037844,0.000130797,0.523959,-0.000585571,0.040794,-0.0675212,-0.00147738,-0.149195,0.379066,0.00714754,0.1,13.3976,0.258748,7.47584,0.0516516,-4.34482,0.013141,0.0643842,21.4469,1.23397,-4.17175,0.437586,-3.98833,-0.038828,0,-1.61957,0.314312,0.926514,-0.0180152,0.596205,-0.0201416,23.5215,23.3513,23.2094,23.3371,23.3655,23.3371,23.1952,
73,0.0218069,1.45147,3.14775,4.56513,0.104941,1.60427,1.57042,0,0.286844,0.00851811,0.0324117,0.0010312,-0.0180553,0,0.670511,-17.6876,-2.67001,27.7613,0.313973,-41.1405,-1.79455,0.0786033,-20,-0.896294,10.983,-0.240258,4.54245,0.0383287,0.000412696,-0.037844,0.000130797,0.523959,-0.000585571,0.040794,-0.0654928,-0.00120696,-0.146499,0.379066,0.00714754,0.1,13.3976,0.258748,7.47584,0.0516516,-4.34482,0.013141,0.0267222,21.4478,1.22605,-4.25594,0.449802,-4.10607,-0.04458,0,-1.44223,0.306576,0.886267,-0.0241699,0.616346,-0.0180152,23.5215,23.3371,23.2236,23.3371,23.3655,23.3229,23.1952,
74,0.0218069,1.45147,3.14775,4.56513,0.104941,1.60427,1.57042,0,0.286844,0.00851811,0.0324117,0.0010312,-0.0180553,0,0.667444,-17.4923,-2.64647,27.979,0.311807,-41.1486,-1.81827,0.0777672,-20,-0.890643,11.0001,-0.242,4.52576,0.0386934,0.000417783,-0.0381141,0.000129873,0.523959,-0.000585571,0.040794,-0.0654928,-0.00120696,-0.146499,0.38165,0.00719987,0.1,13.4143,0.252205,7.39498,0.0505536,-4.35653,0.0126652,0.0267222,21.4478,1.22605,-4.25594,0.449802,-4.10607,-0.04458,0,-1.44223,0.306576,0.886267,-0.0241699,0.616346,-0.0180152,23.5215,23.3371,23.2236,23.3371,23.3655,23.3229,23.1952,
75,0.0218069,1.45147,3.14775,4.56513,0.104941,1.60427,1.57042,0,0.286844,0.00851811,0.0324117,0.0010312,-0.0180553,0,0.667444,-17.4923,-2.64647,27.979,0.311807,-41.1486,-1.81827,0.0777672,-20,-0.890643,11.0001,-0.242,4.52576,0.0386934,0.000417783,-0.0381141,0.000129873,0.523959,-0.000585571,0.040794,-0.0654928,-0.00120696,-0.146499,0.38165,0.00719987,0.1,13.4143,0.252205,7.39498,0.0505536,-4.35653,0.0126652,0.0267222,21.4478,1.22605,-4.25594,0.449802,-4.10607,-0.04458,0,-1.44223,0.306576,0.886267,-0.0241699,0.616346,-0.0180152,23.5215,23.3371,23.2236,23.3371,23.3655,23.3229,23.1952,
76,0.0218069,1.45176,3.14776,4.56516,0.104942,1.60425,1.57042,0,0.288734,0.00837302,0.0351127,0.00100418,-0.0183666,0,0.667041,-17.5003,-2.64581,27.9665,0.311812,-41.1441,-1.8183,0.0777375,-20,-0.890758,10.996,-0.241921,4.52647,0.0386873,0.000417783,-0.0381141,0.000129873,0.523959,-0.000585571,0.040794,-0.0651848,-0.00116874,-0.147225,0.38165,0.00719987,0.1,13.4143,0.252205,7.39498,0.0505536,-4.35653,0.0126652,-0.0670941,21.4436,1.23046,-4.28287,0.466844,-4.22909,-0.0546343,-0.0113938,-1.40195,0.322266,0.862098,-0.0127387,0.616386,-0.0166092,23.5074,23.3513,23.2236,23.3371,23.3655,23.3087,23.1669,
77,0.0218069,1.45176,3.14776,4.56516,0.104942,1.60425,1.57042,0,0.288734,0.00837302,0.0351127,0.00100418,-0.0183666,0,0.667085,-17.5505,-2.65157,28.1402,0.310624,-41.3417,-1.83416,0.0777496,-20,-0.892298,11.0539,-0.24333,4.53511,0.0389572,0.000422034,-0.0383824,0.000129773,0.523959,-0.000585571,0.040794,-0.0651848,-0.00116874,-0.147225,0.38422,0.00724616,0.1,13.4822,0.252447,7.41675,0.0507827,-4.38234,0.0126377,-0.0670941,21.4436,1.23046,-4.28287,0.466844,-4.22909,-0.0546343,-0.0113938,-1.40195,0.322266,0.862098,-0.0127387,0.616386,-0.0166092,23.5074,23.3513,23.2236,23.3371,23.3655,23.3087,23.1669,
78,0.0218069,1.45176,3.14776,4.56516,0.104942,1.60425,1.57042,0,0.288734,0.00837302,0.0351127,0.00100418,-0.0183666,0,0.667085,-17.5505,-2.65157,28.1402,0.310624,-41.3417,-1.83416,0.0777496,-20,-0.892298,11.0539,-0.24333,4.53511,0.0389572,0.000422034,-0.0383824,0.000129773,0.523959,-0.000585571,0.040794,-0.0651848,-0.00116874,-0.147225,0.38422,0.00724616,0.1,13.4822,0.252447,7.41675,0.0507827,-4.38234,0.0126377,-0.0670941,21.4436,1.23046,-4.28287,0.466844,-4.22909,-0.0546343,-0.0113938,-1.40195,0.322266,0.862098,-0.0127387,0.616386,-0.0166092,23.5074,23.3513,23.2236,23.3371,23.3655,23.3087,23.1669,
79,0.0218069,1.45207,3.14777,4.5652,0.104944,1.60423,1.57042,0,0.289365,0.00945341,0.0366122,0.00103628,-0.0172862,0,0.666611,-17.5589,-2.65045,28.1269,0.310312,-41.3366,-1.83466,0.0777049,-20,-0.892379,11.0498,-0.243294,4.53585,0.0389545,0.000422034,-0.0383824,0.000129773,0.523959,-0.000585571,0.040794,-0.0649315,-0.00151912,-0.147297,0.38422,0.00724616,0.1,13.4822,0.252447,7.41675,0.0507827,-4.38234,0.0126377,-0.0376731,21.2443,1.23959,-4.22529,0.441265,-4.3774,-0.0561246,-0.00805664,-1.5389,0.322668,0.837929,-0.0166092,0.644544,-0.0205405,23.5074,23.3513,23.2094,23.3229,23.3371,23.3229,23.1811,
80,0.0218069,1.45207,3.14777,4.5652,0.104944,1.60423,1.57042,0,0.289365,0.00945341,0.0366122,0.00103628,-0.0172862,0,0.668607,-17.5617,-2.69732,28.3633,0.306142,-41.5544,-1.81396,0.0782493,-20,-0.897237,11.1152,-0.242205,4.54016,0.0388141,0.000426841,-0.0386682,0.000128817,0.523959,-0.000585571,0.040794,-0.0649315,-0.00151912,-0.147297,0.386981,0.00729795,0.1,13.5574,0.264512,7.41892,0.053269,-4.40709,0.0127023,-0.0376731,21.2443,1.23959,-4.22529,0.441265,-4.3774,-0.0561246,-0.00805664,-1.5389,0.322668,0.837929,-0.0166092,0.644544,-0.0205405,23.5074,23.3513,23.2094,23.3229,23.3371,23.3229,23.1811,
81,0.0218069,1.45207,3.14777,4.5652,0.104944,1.60423,1.57042,0,0.289365,0.00945341,0.0366122,0.00103628,-0.0172862,0,0.668607,-17.5617,-2.69732,28.3633,0.306142,-41.5544,-1.81396,0.0782493,-20,-0.897237,11.1152,-0.242205,4.54016,0.0388141,0.000426841,-0.0386682,0.000128817,0.523959,-0.000585571,0.040794,-0.0649315,-0.00151912,-0.147297,0.386981,0.00729795,0.1,13.5574,0.264512,7.41892,0.053269,-4.40709,0.0127023,-0.0376731,21.2443,1.23959,-4.22529,0.441265,-4.3774,-0.0561246,-0.00805664,-1.5389,0.322668,0.837929,-0.0166092,0.644544,-0.0205405,23.5074,23.3513,23.2094,23.3229,23.3371,23.3229,23.1811,
82,0.0218069,1.45235,3.14778,4.56524,0.104945,1.60422,1.57042,-5.30299e-06,0.289544,0.00918331,0.0383538,0.00100415,-0.0172862,0,0.668194,-17.5696,-2.69673,28.3505,0.306217,-41.5496,-1.81388,0.0782095,-20,-0.897353,11.1114,-0.242133,4.54084,0.0388083,0.000426841,-0.0386682,0.000128817,0.523959,-0.000585571,0.040794,-0.0644727,-0.00144187,-0.1472,0.386981,0.00729795,0.1,13.5574,0.264512,7.41892,0.053269,-4.40709,0.0127023,0.0272604,20.9963,1.24325,-4.19136,0.491268,-4.54314,-0.0323915,-0.0241699,-1.50668,0.281982,0.829873,-0.0161133,0.644531,-0.0201416,23.4932,23.3513,23.2094,23.3229,23.3513,23.3087,23.1669,
83,0.0218069,1.45235,3.14778,4.56524,0.104945,1.60422,1.57042,-5.30299e-06,0.289544,0.00918331,0.0383538,0.00100415,-0.0172862,0,0.66761,-17.5609,-2.69861,28.5568,0.304569,-41.7231,-1.83089,0.0780503,-20,-0.897494,11.1655,-0.243595,4.5436,0.0390926,0.000431858,-0.0389333,0.000128798,0.523959,-0.000585571,0.040794,-0.0644727,-0.00144187,-0.1472,0.389524,0.00735509,0.1,13.6199,0.263909,7.41601,0.053307,-4.43046,0.0126623,0.0272604,20.9963,1.24325,-4.19136,0.491268,-4.54314,-0.0323915,-0.0241699,-1.50668,0.281982,0.829873,-0.0161133,0.644531,-0.0201416,23.4932,23.3513,23.2094,23.3229,23.3513,23.3087,23.1669,
84,0.0218069,1.45264,3.14779,4.56528,0.104946,1.6042,1.57042,-5.29898e-06,0.288464,0.00902766,0.0405146,0.00100646,-0.0178174,0,0.667191,-17.5689,-2.69797,28.544,0.304626,-41.7182,-1.83085,0.0780008,-20,-0.897593,11.1621,-0.243539,4.54425,0.0390881,0.000431858,-0.0389333,0.000128798,0.523959,-0.000585571,0.040794,-0.0635499,-0.00141083,-0.146475,0.389524,0.00735509,0.1,13.6199,0.263909,7.41601,0.053307,-4.43046,0.0126623,-0.0663106,20.6049,1.2044,-4.2261,0.49019,-4.59257,-0.0393358,-0.0113938,-1.57156,0.306152,0.837929,-0.0201416,0.640503,-0.0166092,23.5074,23.3513,23.2094,23.3087,23.3655,23.3371,23.1952,
85,0.0218069,1.45264,3.14779,4.56528,0.104946,1.6042,1.57042,-5.29898e-06,0.288464,0.00902766,0.0405146,0.00100646,-0.0178174,0,0.666638,-17.5144,-2.70403,28.7408,0.302424,-41.8396,-1.83866,0.0778499,-20,-0.897351,11.204,-0.244303,4.54229,0.0392659,0.000437556,-0.0391958,0.000128843,0.523959,-0.000585571,0.040794,-0.0635499,-0.00141083,-0.146475,0.392028,0.00741994,0.1,13.6674,0.264923,7.39424,0.0537996,-4.45128,0.0125957,-0.0663106,20.6049,1.2044,-4.2261,0.49019,-4.59257,-0.0393358,-0.0113938,-1.57156,0.306152,0.837929,-0.0201416,0.640503,-0.0166092,23.5074,23.3513,23.2094,23.3087,23.3655,23.3371,23.1952,
86,0.0218069,1.45264,3.14779,4.56528,0.104946,1.6042,1.57042,-5.29898e-06,0.288464,0.00902766,0.0405146,0.00100646,-0.0178174,0,0.666638,-17.5144,-2.70403,28.7408,0.302424,-41.8396,-1.83866,0.0778499,-20,-0.897351,11.204,-0.244303,4.54229,0.0392659,0.000437556,-0.0391958,0.000128843,0.523959,-0.000585571,0.040794,-0.0635499,-0.00141083,-0.146475,0.392028,0.00741994,0.1,13.6674,0.264923,7.39424,0.0537996,-4.45128,0.0125957,-0.0663106,20.6049,1.2044,-4.2261,0.49019,-4.59257,-0.0393358,-0.0113938,-1.57156,0.306152,0.837929,-0.0201416,0.640503,-0.0166092,23.5074,23.3513,23.2094,23.3087,23.3655,23.3371,23.1952,
87,0.0218069,1.45291,3.1478,4.56532,0.104947,1.60418,1.57042,-5.30299e-06,0.281712,0.00999361,0.0404736,0.00100635,-0.0178046,0,0.666248,-17.5219,-2.70315,28.7277,0.302286,-41.8339,-1.83882,0.0777854,-20,-0.8974,11.2018,-0.244309,4.54284,0.039266,0.000437556,-0.0391958,0.000128843,0.523959,-0.000585571,0.040794,-0.0618223,-0.00176067,-0.143013,0.392028,0.00741994,0.1,13.6674,0.264923,7.39424,0.0537996,-4.45128,0.0125957,-0.145472,20.3905,1.20691,-4.11919,0.512089,-4.62157,-0.0463004,-0.0180152,-1.58718,0.282097,0.821777,-0.0113938,0.672729,-0.0127387,23.5215,23.3371,23.2236,23.3371,23.3655,23.2946,23.1952,
88,0.0218069,1.45291,3.1478,4.56532,0.104947,1.60418,1.57042,-5.30299e-06,0.281712,0.00999361,0.0404736,0.00100635,-0.0178046,0,0.666534,-17.2697,-2.74566,29.0073,0.296273,-41.8531,-1.80187,0.0778634,-20,-0.897401,11.2246,-0.241862,4.52125,0.0389453,0.000443726,-0.0394527,0.000128929,0.523959,-0.000585571,0.040794,-0.0618223,-0.00176067,-0.143013,0.394465,0.00748972,0.1,13.6886,0.277512,7.2904,0.0566252,-4.46356,0.012826,-0.145472,20.3905,1.20691,-4.11919,0.512089,-4.62157,-0.0463004,-0.0180152,-1.58718,0.282097,0.821777,-0.0113938,0.672729,-0.0127387,23.5215,23.3371,23.2236,23.3371,23.3655,23.2946,23.1952,
89,0.0218069,1.45291,3.1478,4.56532,0.104947,1.60418,1.57042,-5.30299e-06,0.281712,0.00999361,0.0404736,0.00100635,-0.0178046,0,0.666534,-17.2697,-2.74566,29.0073,0.296273,-41.8531,-1.80187,0.0778634,-20,-0.897401,11.2246,-0.241862,4.52125,0.0389453,0.000443726,-0.0394527,0.000128929,0.523959,-0.000585571,0.040794,-0.0618223,-0.00176067,-0.143013,0.394465,0.00748972,0.1,13.6886,0.277512,7.2904,0.0566252,-4.46356,0.012826,-0.145472,20.3905,1.20691,-4.11919,0.512089,-4.62157,-0.0463004,-0.0180152,-1.58718,0.282097,0.821777,-0.0113938,0.672729,-0.0127387,23.5215,23.3371,23.2236,23.3371,23.3655,23.2946,23.1952,
90,0.0218069,1.45321,3.14781,4.56536,0.104948,1.60416,1.57042,-5.30299e-06,0.275344,0.00971366,0.0406245,0.000975174,-0.0164759,0,0.66619,-17.2774,-2.74531,28.9943,0.296519,-41.8478,-1.8015,0.0778143,-20,-0.897511,11.2224,-0.241823,4.52181,0.038942,0.000443726,-0.0394527,0.000128929,0.523959,-0.000585571,0.040794,-0.0601309,-0.00170999,-0.139564,0.394465,0.00748972,0.1,13.6886,0.277512,7.2904,0.0566252,-4.46356,0.012826,-0.103796,19.8059,1.16938,-3.89817,0.465679,-4.66344,-0.0554566,-0.0180152,-1.4427,0.290151,0.878174,-0.00805664,0.664673,-0.0201416,23.5074,23.3513,23.2094,23.3229,23.3513,23.3087,23.2094,
91,0.0218069,1.45321,3.14781,4.56536,0.104948,1.60416,1.57042,-5.30299e-06,0.275344,0.00971366,0.0406245,0.000975174,-0.0164759,0,0.664024,-17.028,-2.7458,29.287,0.292553,-41.88,-1.805,0.0772233,-20,-0.893359,11.2487,-0.242195,4.50015,0.0390918,0.000449164,-0.0397184,0.000128927,0.523959,-0.000585571,0.040794,-0.0601309,-0.00170999,-0.139564,0.39702,0.00755337,0.1,13.7145,0.277901,7.18693,0.056681,-4.47444,0.0128055,-0.103796,19.8059,1.16938,-3.89817,0.465679,-4.66344,-0.0554566,-0.0180152,-1.4427,0.290151,0.878174,-0.00805664,0.664673,-0.0201416,23.5074,23.3513,23.2094,23.3229,23.3513,23.3087,23.2094,
92,0.0218069,1.45321,3.14781,4.56536,0.104948,1.60416,1.57042,-5.30299e-06,0.275344,0.00971366,0.0406245,0.000975174,-0.0164759,0,0.664024,-17.028,-2.7458,29.287,0.292553,-41.88,-1.805,0.0772233,-20,-0.893359,11.2487,-0.242195,4.50015,0.0390918,0.000449164,-0.0397184,0.000128927,0.523959,-0.000585571,0.040794,-0.0601309,-0.00170999,-0.139564,0.39702,0.00755337,0.1,13.7145,0.277901,7.18693,0.056681,-4.47444,0.0128055,-0.103796,19.8059,1.16938,-3.89817,0.465679,-4.66344,-0.0554566,-0.0180152,-1.4427,0.290151,0.878174,-0.00805664,0.664673,-0.0201416,23.5074,23.3513,23.2094,23.3229,23.3513,23.3087,23.2094,
93,0.0218069,1.45321,3.14781,4.56536,0.104948,1.60416,1.57042,-5.30299e-06,0.275344,0.00971366,0.0406245,0.000975174,-0.0164759,0,0.664024,-17.028,-2.7458,29.287,0.292553,-41.88,-1.805,0.0772233,-20,-0.893359,11.2487,-0.242195,4.50015,0.0390918,0.000449164,-0.0397184,0.000128927,0.523959,-0.000585571,0.040794,-0.0601309,-0.00170999,-0.139564,0.39702,0.00755337,0.1,13.7145,0.277901,7.18693,0.056681,-4.47444,0.0128055,-0.103796,19.8059,1.16938,-3.89817,0.465679,-4.66344,-0.0554566,-0.0180152,-1.4427,0.290151,0.878174,-0.00805664,0.664673,-0.0201416,23.5074,23.3513,23.2094,23.3229,23.3513,23.3087,23.2094,
94,0.0218069,1.45347,3.14782,4.56536,0.104948,1.60416,1.57042,-5.30299e-06,0.271178,0.00972351,0.0406245,0.000920537,-0.0164759,0,0.663639,-17.0367,-2.74522,29.2734,0.292509,-41.8751,-1.80486,0.077172,-20,-0.893474,11.2454,-0.242139,4.5008,0.0390867,0.000449164,-0.0397184,0.000128927,0.523959,-0.000585571,0.040794,-0.0590653,-0.00174218,-0.137408,0.39702,0.00755337,0.1,13.7145,0.277901,7.18693,0.056681,-4.47444,0.0128055,0.0349702,19.2452,1.15916,-3.89817,0.487226,-4.66344,-0.0624048,-0.0241699,-1.39389,0.298205,0.878174,-0.0090076,0.664673,-0.012085,23.5215,23.3655,23.2094,23.3229,23.3655,23.3087,23.1811,
95,0.0218069,1.45347,3.14782,4.56536,0.104948,1.60416,1.57042,-5.30299e-06,0.271178,0.00972351,0.0406245,0.000920537,-0.0164759,0,0.662573,-16.8801,-2.75683,29.5738,0.288818,-42.0009,-1.80774,0.0768814,-20,-0.892057,11.2937,-0.242575,4.48906,0.0392295,0.00045285,-0.0399858,0.000130061,0.523959,-0.000585571,0.040794,-0.0590653,-0.00174218,-0.137408,0.39985,0.00761549,0.1,13.7675,0.28073,7.12223,0.0572542,-4.49285,0.013024,0.0349702,19.2452,1.15916,-3.89817,0.487226,-4.66344,-0.0624048,-0.0241699,-1.39389,0.298205,0.878174,-0.0090076,0.664673,-0.012085,23.5215,23.3655,23.2094,23.3229,23.3655,23.3087,23.1811,
96,0.0218069,1.45347,3.14782,4.56536,0.104948,1.60416,1.57042,-5.30299e-06,0.271178,0.00972351,0.0406245,0.000920537,-0.0164759,0,0.662573,-16.8801,-2.75683,29.5738,0.288818,-42.0009,-1.80774,0.0768814,-20,-0.892057,11.2937,-0.242575,4.48906,0.0392295,0.00045285,-0.0399858,0.000130061,0.523959,-0.000585571,0.040794,-0.0590653,-0.00174218,-0.137408,0.39985,0.00761549,0.1,13.7675,0.28073,7.12223,0.0572542,-4.49285,0.013024,0.0349702,19.2452,1.15916,-3.89817,0.487226,-4.66344,-0.0624048,-0.0241699,-1.39389,0.298205,0.878174,-0.0090076,0.664673,-0.012085,23.5215,23.3655,23.2094,23.3229,23.3655,23.3087,23.1811,
97,0.0218069,1.45374,3.14783,4.5654,0.104949,1.60415,1.57042,-5.29898e-06,0.266586,0.010783,0.0426754,0.000889333,-0.0145853,0,0.662076,-16.887,-2.75587,29.5632,0.288552,-41.9971,-1.80821,0.0767962,-20,-0.892097,11.2918,-0.242592,4.48954,0.0392302,0.00045285,-0.0399858,0.000130061,0.523959,-0.000585571,0.040794,-0.0572466,-0.0021262,-0.134662,0.39985,0.00761549,0.1,13.7675,0.28073,7.12223,0.0572542,-4.49285,0.013024,-0.0904994,18.4463,1.06169,-3.77255,0.47522,-4.67927,-0.044133,-0.0161133,-1.28916,0.274399,0.88623,-0.00569691,0.664685,-0.0166092,23.5074,23.3371,23.2094,23.3371,23.3655,23.3087,23.1669,
98,0.0218069,1.45374,3.14783,4.5654,0.104949,1.60415,1.57042,-5.29898e-06,0.266586,0.010783,0.0426754,0.000889333,-0.0145853,0,0.663214,-16.6871,-2.8045,29.7733,0.283157,-42.0055,-1.76386,0.0771065,-20,-0.893587,11.307,-0.239601,4.47204,0.0388116,0.000460586,-0.0402213,0.000130333,0.523959,-0.000585571,0.040794,-0.0572466,-0.0021262,-0.134662,0.40211,0.0077097,0.1,13.7807,0.295077,7.03987,0.0601154,-4.49939,0.013318,-0.0904994,18.4463,1.06169,-3.77255,0.47522,-4.67927,-0.044133,-0.0161133,-1.28916,0.274399,0.88623,-0.00569691,0.664685,-0.0166092,23.5074,23.3371,23.2094,23.3371,23.3655,23.3087,23.1669,
99,0.0218069,1.45374,3.14783,4.5654,0.104949,1.60415,1.57042,-5.29898e-06,0.266586,0.010783,0.0426754,0.000889333,-0.0145853,0,0.663214,-16.6871,-2.8045,29.7733,0.283157,-42.0055,-1.76386,0.0771065,-20,-0.893587,11.307,-0.239601,4.47204,0.0388116,0.000460586,-0.0402213,0.000130333,0.523959,-0.000585571,0.040794,-0.0572466,-0.0021262,-0.134662,0.40211,0.0077097,0.1,13.7807,0.295077,7.03987,0.0601154,-4.49939,0.013318,-0.0904994,18.4463,1.06169,-3.77255,0.47522,-4.67927,-0.044133,-0.0161133,-1.28916,0.274399,0.88623,-0.00569691,0.664685,-0.0166092,23.5074,23.3371,23.2094,23.3371,23.3655,23.3087,23.1669,
100,0.0218069,1.45374,3.14783,4.5654,0.104949,1.60415,1.57042,-5.29898e-06,0.266586,0.010783,0.0426754,0.000889333,-0.0145853,0,0.663214,-16.6871,-2.8045,29.7733,0.283157,-42.0055,-1.76386,0.0771065,-20,-0.893587,11.307,-0.239601,4.47204,0.0388116,0.000460586,-0.0402213,0.000130333,0.523959,-0.000585571,0.040794,-0.0572466,-0.0021262,-0.134662,0.40211,0.0077097,0.1,13.7807,0.295077,7.03987,0.0601154,-4.49939,0.013318,-0.0904994,18.4463,1.06169,-3.77255,0.47522,-4.67927,-0.044133,-0.0161133,-1.28916,0.274399,0.88623,-0.00569691,0.664685,-0.0166092,23.5074,23.3371,23.2094,23.3371,23.3655,23.3087,23.1669,
101,0.0218069,1.45402,3.14784,4.56545,0.10495,1.60414,1.57042,-5.29898e-06,0.262805,0.011074,0.0459166,0.000887357,-0.0124119,0,0.662763,-16.6944,-2.80382,29.7625,0.283112,-42.002,-1.76403,0.0770363,-20,-0.893664,11.3048,-0.239589,4.47254,0.0388101,0.000460586,-0.0402213,0.000130333,0.523959,-0.000585571,0.040794,-0.0552668,-0.00226179,-0.132173,0.40211,0.0077097,0.1,13.7807,0.295077,7.03987,0.0601154,-4.49939,0.013318,-0.107873,17.9544,1.02268,-3.66209,0.472337,-4.53355,-0.0295132,-0.0180152,-1.28909,0.257938,0.878174,-0.0113938,0.640516,-0.0145243,23.5074,23.3371,23.2094,23.3229,23.3513,23.2946,23.1811,
102,0.0218069,1.45402,3.14784,4.56545,0.10495,1.60414,1.57042,-5.29898e-06,0.262805,0.011074,0.0459166,0.000887357,-0.0124119,0,0.66251,-16.5137,-2.82573,29.9539,0.279217,-42.0086,-1.74445,0.0769673,-20,-0.892805,11.3186,-0.238314,4.45668,0.0386769,0.000467366,-0.0404676,0.000130492,0.523959,-0.000585571,0.040794,-0.0552668,-0.00226179,-0.132173,0.404501,0.0077941,0.1,13.793,0.301676,6.96518,0.0613248,-4.50567,0.0133452,-0.107873,17.9544,1.02268,-3.66209,0.472337,-4.53355,-0.0295132,-0.0180152,-1.28909,0.257938,0.878174,-0.0113938,0.640516,-0.0145243,23.5074,23.3371,23.2094,23.3229,23.3513,23.2946,23.1811,
103,0.0218069,1.45402,3.14784,4.56545,0.10495,1.60414,1.57042,-5.29898e-06,0.262805,0.011074,0.0459166,0.000887357,-0.0124119,0,0.66251,-16.5137,-2.82573,29.9539,0.279217,-42.0086,-1.74445,0.0769673,-20,-0.892805,11.3186,-0.238314,4.45668,0.0386769,0.000467366,-0.0404676,0.000130492,0.523959,-0.000585571,0.040794,-0.0552668,-0.00226179,-0.132173,0.404501,0.0077941,0.1,13.793,0.301676,6.96518,0.0613248,-4.50567,0.0133452,-0.107873,17.9544,1.02268,-3.66209,0.472337,-4.53355,-0.0295132,-0.0180152,-1.28909,0.257938,0.878174,-0.0113938,0.640516,-0.0145243,23.5074,23.3371,23.2094,23.3229,23.3513,23.2946,23.1811,
104,0.0218069,1.45427,3.14785,4.5655,0.104951,1.60413,1.57042,-5.30299e-06,0.259294,0.0113441,0.0513185,0.000865929,-0.00803215,0,0.662047,-16.5199,-2.82515,29.9462,0.279142,-42.007,-1.74475,0.0768877,-20,-0.892867,11.3174,-0.238321,4.45702,0.038677,0.000467366,-0.0404676,0.000130492,0.523959,-0.000585571,0.040794,-0.0526761,-0.00240455,-0.129383,0.404501,0.0077941,0.1,13.793,0.301676,6.96518,0.0613248,-4.50567,0.0133452,-0.0601598,16.9487,0.933981,-3.4037,0.452636,-4.31789,-0.0490803,-0.00805664,-1.3054,0.265869,0.845986,0.00569691,0.62439,-0.0241699,23.4932,23.3371,23.2094,23.3229,23.3655,23.3087,23.1811,
105,0.0218069,1.45427,3.14785,4.5655,0.104951,1.60413,1.57042,-5.30299e-06,0.259294,0.0113441,0.0513185,0.000865929,-0.00803215,0,0.661904,-16.3185,-2.84686,30.067,0.275594,-41.9341,-1.71648,0.0768486,-20,-0.891591,11.3076,-0.236335,4.4375,0.0384331,0.000474719,-0.0406815,0.000130645,0.523959,-0.000585571,0.040794,-0.0526761,-0.00240455,-0.129383,0.406579,0.00788859,0.1,13.7777,0.308794,6.88148,0.0622739,-4.50052,0.0133661,-0.0601598,16.9487,0.933981,-3.4037,0.452636,-4.31789,-0.0490803,-0.00805664,-1.3054,0.265869,0.845986,0.00569691,0.62439,-0.0241699,23.4932,23.3371,23.2094,23.3229,23.3655,23.3087,23.1811,
106,0.0218069,1.45427,3.14785,4.5655,0.104951,1.60413,1.57042,-5.30299e-06,0.259294,0.0113441,0.0513185,0.000865929,-0.00803215,0,0.661904,-16.3185,-2.84686,30.067,0.275594,-41.9341,-1.71648,0.0768486,-20,-0.891591,11.3076,-0.236335,4.4375,0.0384331,0.000474719,-0.0406815,0.000130645,0.523959,-0.000585571,0.040794,-0.0526761,-0.00240455,-0.129383,0.406579,0.00788859,0.1,13.7777,0.308794,6.88148,0.0622739,-4.50052,0.0133661,-0.0601598,16.9487,0.933981,-3.4037,0.452636,-4.31789,-0.0490803,-0.00805664,-1.3054,0.265869,0.845986,0.00569691,0.62439,-0.0241699,23.4932,23.3371,23.2094,23.3229,23.3655,23.3087,23.1811,
107,0.0218069,1.45427,3.14785,4.5655,0.104951,1.60413,1.57042,-5.30299e-06,0.259294,0.0113441,0.0513185,0.000865929,-0.00803215,0,0.661904,-16.3185,-2.84686,30.067,0.275594,-41.9341,-1.71648,0.0768486,-20,-0.891591,11.3076,-0.236335,4.4375,0.0384331,0.000474719,-0.0406815,0.000130645,0.523959,-0.000585571,0.040794,-0.0526761,-0.00240455,-0.129383,0.406579,0.00788859,0.1,13.7777,0.308794,6.88148,0.0622739,-4.50052,0.0133661,-0.0601598,16.9487,0.933981,-3.4037,0.452636,-4.31789,-0.0490803,-0.00805664,-1.3054,0.265869,0.845986,0.00569691,0.62439,-0.0241699,23.4932,23.3371,23.2094,23.3229,23.3655,23.3087,23.1811,
108,0.0218069,1.45452,3.14786,4.56556,0.104951,1.60412,1.57042,-5.30299e-06,0.254702,0.0121421,0.0556706,0.000811345,-0.00593612,0,0.661398,-16.3245,-2.84601,30.0583,0.275367,-41.9314,-1.71692,0.0767549,-20,-0.89162,11.3064,-0.236359,4.43784,0.038434,0.000474719,-0.0406815,0.000130645,0.523959,-0.000585571,0.040794,-0.0501278,-0.00272146,-0.126394,0.406579,0.00788859,0.1,13.7777,0.308794,6.88148,0.0622739,-4.50052,0.0133661,0.158257,16.1153,0.931785,-2.99347,0.447586,-4.16266,-0.0815574,-0.0322266,-1.24072,0.22573,0.749311,-0.0090076,0.588135,-0.0166092,23.5215,23.3229,23.2236,23.3229,23.3371,23.3087,23.1952,
109,0.0218069,1.45452,3.14786,4.56556,0.104951,1.60412,1.57042,-5.30299e-06,0.254702,0.0121421,0.0556706,0.000811345,-0.00593612,0,0.662288,-16.1072,-2.88723,30.1815,0.270891,-41.8441,-1.66928,0.0769979,-20,-0.892022,11.2942,-0.233011,4.41727,0.0379667,0.000482937,-0.0408794,0.000131804,0.523959,-0.000585571,0.040794,-0.0501278,-0.00272146,-0.126394,0.408502,0.00800068,0.1,13.7589,0.321664,6.79182,0.0647355,-4.49828,0.0137027,0.158257,16.1153,0.931785,-2.99347,0.447586,-4.16266,-0.0815574,-0.0322266,-1.24072,0.22573,0.749311,-0.0090076,0.588135,-0.0166092,23.5215,23.3229,23.2236,23.3229,23.3371,23.3087,23.1952,
110,0.0218069,1.45452,3.14786,4.56556,0.104951,1.60412,1.57042,-5.30299e-06,0.254702,0.0121421,0.0556706,0.000811345,-0.00593612,0,0.662288,-16.1072,-2.88723,30.1815,0.270891,-41.8441,-1.66928,0.0769979,-20,-0.892022,11.2942,-0.233011,4.41727,0.0379667,0.000482937,-0.0408794,0.000131804,0.523959,-0.000585571,0.040794,-0.0501278,-0.00272146,-0.126394,0.408502,0.00800068,0.1,13.7589,0.321664,6.79182,0.0647355,-4.49828,0.0137027,0.158257,16.1153,0.931785,-2.99347,0.447586,-4.16266,-0.0815574,-0.0322266,-1.24072,0.22573,0.749311,-0.0090076,0.588135,-0.0166092,23.5215,23.3229,23.2236,23.3229,23.3371,23.3087,23.1952,
111,0.0218069,1.45477,3.14787,4.56562,0.104952,1.60412,1.57042,-5.30299e-06,0.24876,0.0115353,0.0604405,0.000780139,-0.00108039,0,0.661833,-16.1127,-2.88698,30.1743,0.27109,-41.8424,-1.6692,0.0769068,-20,-0.892099,11.2937,-0.233012,4.41753,0.0379663,0.000482937,-0.0408794,0.000131804,0.523959,-0.000585571,0.040794,-0.0470824,-0.00259191,-0.12235,0.408502,0.00800068,0.1,13.7589,0.321664,6.79182,0.0647355,-4.49828,0.0137027,0.0197453,14.9493,0.788529,-2.78211,0.435653,-4.01247,-0.0522958,-0.0322266,-1.24075,0.209473,0.708984,0.00569691,0.568007,-0.0241699,23.5074,23.3513,23.2236,23.3229,23.3513,23.3087,23.1811,
112,0.0218069,1.45477,3.14787,4.56562,0.104952,1.60412,1.57042,-5.30299e-06,0.24876,0.0115353,0.0604405,0.000780139,-0.00108039,0,0.659547,-15.822,-2.88004,30.3064,0.268213,-41.6964,-1.66007,0.076283,-20,-0.886404,11.2675,-0.23226,4.38843,0.037938,0.000491155,-0.0410662,0.000132027,0.523959,-0.000585571,0.040794,-0.0470824,-0.00259191,-0.12235,0.410358,0.00811361,0.1,13.7232,0.321166,6.67049,0.0640295,-4.48584,0.0135514,0.0197453,14.9493,0.788529,-2.78211,0.435653,-4.01247,-0.0522958,-0.0322266,-1.24075,0.209473,0.708984,0.00569691,0.568007,-0.0241699,23.5074,23.3513,23.2236,23.3229,23.3513,23.3087,23.1811,
113,0.0218069,1.45477,3.14787,4.56562,0.104952,1.60412,1.57042,-5.30299e-06,0.24876,0.0115353,0.0604405,0.000780139,-0.00108039,0,0.659547,-15.822,-2.88004,30.3064,0.268213,-41.6964,-1.66007,0.076283,-20,-0.886404,11.2675,-0.23226,4.38843,0.037938,0.000491155,-0.0410662,0.000132027,0.523959,-0.000585571,0.040794,-0.0470824,-0.00259191,-0.12235,0.410358,0.00811361,0.1,13.7232,0.321166,6.67049,0.0640295,-4.48584,0.0135514,0.0197453,14.9493,0.788529,-2.78211,0.435653,-4.01247,-0.0522958,-0.0322266,-1.24075,0.209473,0.708984,0.00569691,0.568007,-0.0241699,23.5074,23.3513,23.2236,23.3229,23.3513,23.3087,23.1811,
114,0.0218074,1.45501,3.14789,4.56568,0.104953,1.60412,1.57042,0,0.243088,0.0126946,0.0642832,0.000778383,0.00100307,0,0.659027,-15.8275,-2.87911,30.2981,0.267872,-41.6936,-1.66064,0.0761796,-20,-0.886413,11.2665,-0.232302,4.38872,0.0379405,0.000491155,-0.0410662,0.000132027,0.523959,-0.000585571,0.040794,-0.0444048,-0.00302566,-0.118867,0.410358,0.00811361,0.1,13.7232,0.321166,6.67049,0.0640295,-4.48584,0.0135514,0.152934,14.1948,0.767815,-2.57122,0.421614,-3.73264,-0.0114935,-0.0254773,-1.21666,0.225586,0.66875,0.00402832,0.527725,-0.0293266,23.5074,23.3371,23.2094,23.3371,23.3513,23.2946,23.1811,
115,0.0218074,1.45501,3.14789,4.56568,0.104953,1.60412,1.57042,0,0.243088,0.0126946,0.0642832,0.000778383,0.00100307,0,0.660486,-15.5744,-2.93326,30.4227,0.26235,-41.5766,-1.59772,0.0765778,-20,-0.887488,11.2473,-0.227862,4.36436,0.0372968,0.000499679,-0.0412418,0.000132718,0.523959,-0.000585571,0.040794,-0.0444048,-0.00302566,-0.118867,0.412109,0.00824164,0.1,13.6954,0.338019,6.566,0.0672623,-4.48027,0.0138351,0.152934,14.1948,0.767815,-2.57122,0.421614,-3.73264,-0.0114935,-0.0254773,-1.21666,0.225586,0.66875,0.00402832,0.527725,-0.0293266,23.5074,23.3371,23.2094,23.3371,23.3513,23.2946,23.1811,
116,0.0218074,1.45501,3.14789,4.56568,0.104953,1.60412,1.57042,0,0.243088,0.0126946,0.0642832,0.000778383,0.00100307,0,0.660486,-15.5744,-2.93326,30.4227,0.26235,-41.5766,-1.59772,0.0765778,-20,-0.887488,11.2473,-0.227862,4.36436,0.0372968,0.000499679,-0.0412418,0.000132718,0.523959,-0.000585571,0.040794,-0.0444048,-0.00302566,-0.118867,0.412109,0.00824164,0.1,13.6954,0.338019,6.566,0.0672623,-4.48027,0.0138351,0.152934,14.1948,0.767815,-2.57122,0.421614,-3.73264,-0.0114935,-0.0254773,-1.21666,0.225586,0.66875,0.00402832,0.527725,-0.0293266,23.5074,23.3371,23.2094,23.3371,23.3513,23.2946,23.1811,
117,0.0218074,1.45501,3.14789,4.56568,0.104953,1.60412,1.57042,0,0.243088,0.0126946,0.0642832,0.000778383,0.00100307,0,0.660486,-15.5744,-2.93326,30.4227,0.26235,-41.5766,-1.59772,0.0765778,-20,-0.887488,11.2473,-0.227862,4.36436,0.0372968,0.000499679,-0.0412418,0.000132718,0.523959,-0.000585571,0.040794,-0.0444048,-0.00302566,-0.118867,0.412109,0.00824164,0.1,13.6954,0.338019,6.566,0.0672623,-4.48027,0.0138351,0.152934,14.1948,0.767815,-2.57122,0.421614,-3.73264,-0.0114935,-0.0254773,-1.21666,0.225586,0.66875,0.00402832,0.527725,-0.0293266,23.5074,23.3371,23.2094,23.3371,23.3513,23.2946,23.1811,
118,0.0218074,1.45525,3.1479,4.56575,0.104953,1.60412,1.57042,0,0.231993,0.0124245,0.0669842,0.000747248,0.00182052,0,0.660083,-15.5801,-2.93292,30.4129,0.262578,-41.5725,-1.59745,0.0764838,-20,-0.887538,11.247,-0.227875,4.36461,0.0372971,0.000499679,-0.0412418,0.000132718,0.523959,-0.000585571,0.040794,-0.040638,-0.00302254,-0.112812,0.412109,0.00824164,0.1,13.6954,0.338019,6.566,0.0672623,-4.48027,0.0138351,0.173017,13.0444,0.697979,-2.27366,0.412699,-3.44445,-0.0333374,-0.0180152,-1.11999,0.193527,0.636475,0.00569691,0.515625,-0.0205405,23.4932,23.3371,23.2094,23.3371,23.3513,23.3229,23.1811,
119,0.0218074,1.45525,3.1479,4.56575,0.104953,1.60412,1.57042,0,0.231993,0.0124245,0.0669842,0.000747248,0.00182052,0,0.657498,-15.1422,-2.9366,30.5945,0.257818,-41.3293,-1.56912,0.0757783,-20,-0.880369,11.203,-0.225688,4.32176,0.037058,0.000507716,-0.0414198,0.000133829,0.523959,-0.000585571,0.040794,-0.040638,-0.00302254,-0.112812,0.413901,0.00835981,0.1,13.6362,0.341471,6.38435,0.0680028,-4.46884,0.0139001,0.173017,13.0444,0.697979,-2.27366,0.412699,-3.44445,-0.0333374,-0.0180152,-1.11999,0.193527,0.636475,0.00569691,0.515625,-0.0205405,23.4932,23.3371,23.2094,23.3371,23.3513,23.3229,23.1811,
120,0.0218074,1.45525,3.1479,4.56575,0.104953,1.60412,1.57042,0,0.231993,0.0124245,0.0669842,0.000747248,0.00182052,0,0.657498,-15.1422,-2.9366,30.5945,0.257818,-41.3293,-1.56912,0.0757783,-20,-0.880369,11.203,-0.225688,4.32176,0.037058,0.000507716,-0.0414198,0.000133829,0.523959,-0.000585571,0.040794,-0.040638,-0.00302254,-0.112812,0.413901,0.00835981,0.1,13.6362,0.341471,6.38435,0.0680028,-4.46884,0.0139001,0.173017,13.0444,0.697979,-2.27366,0.412699,-3.44445,-0.0333374,-0.0180152,-1.11999,0.193527,0.636475,0.00569691,0.515625,-0.0205405,23.4932,23.3371,23.2094,23.3371,23.3513,23.3229,23.1811,
121,0.0218074,1.45525,3.1479,4.56575,0.104953,1.60412,1.57042,0,0.231993,0.0124245,0.0669842,0.000747248,0.00182052,0,0.657498,-15.1422,-2.9366,30.5945,0.257818,-41.3293,-1.56912,0.0757783,-20,-0.880369,11.203,-0.225688,4.32176,0.037058,0.000507716,-0.0414198,0.000133829,0.523959,-0.000585571,0.040794,-0.040638,-0.00302254,-0.112812,0.413901,0.00835981,0.1,13.6362,0.341471,6.38435,0.0680028,-4.46884,0.0139001,0.173017,13.0444,0.697979,-2.27366,0.412699,-3.44445,-0.0333374,-0.0180152,-1.11999,0.193527,0.636475,0.00569691,0.515625,-0.0205405,23.4932,23.3371,23.2094,23.3371,23.3513,23.3229,23.1811,
122,0.0218074,1.45547,3.14791,4.56582,0.104953,1.60413,1.57042,0,0.218239,0.0132348,0.068209,0.000725508,0.00219443,0,0.657057,-15.1466,-2.93598,30.5856,0.257782,-41.3248,-1.56916,0.0756625,-20,-0.880362,11.2033,-0.225745,4.32192,0.0370615,0.000507716,-0.0414198,0.000133829,0.523959,-0.000585571,0.040794,-0.0366266,-0.00337351,-0.105605,0.413901,0.00835981,0.1,13.6362,0.341471,6.38435,0.0680028,-4.46884,0.0139001,0.45201,12.0534,0.694021,-1.89268,0.398097,-3.25804,-0.0472951,-0.0290486,-1.01542,0.185478,0.628418,-0.00402832,0.491455,-0.00402832,23.479,23.3371,23.2236,23.3087,23.3371,23.2946,23.1952,
123,0.0218074,1.45547,3.14791,4.56582,0.104953,1.60413,1.57042,0,0.218239,0.0132348,0.068209,0.000725508,0.00219443,0,0.656152,-14.6246,-2.9764,30.7753,0.250547,-41.0147,-1.49955,0.0754156,-20,-0.87541,11.1442,-0.220612,4.27052,0.0363399,0.000517357,-0.04156,0.000135032,0.523959,-0.000585571,0.040794,-0.0366266,-0.00337351,-0.105605,0.415281,0.0084972,0.1,13.5572,0.356121,6.16816,0.0711717,-4.4522,0.014226,0.45201,12.0534,0.694021,-1.89268,0.398097,-3.25804,-0.0472951,-0.0290486,-1.01542,0.185478,0.628418,-0.00402832,0.491455,-0.00402832,23.479,23.3371,23.2236,23.3087,23.3371,23.2946,23.1952,
124,0.0218074,1.45547,3.14791,4.56582,0.104953,1.60413,1.57042,0,0.218239,0.0132348,0.068209,0.000725508,0.00219443,0,0.656152,-14.6246,-2.9764,30.7753,0.250547,-41.0147,-1.49955,0.0754156,-20,-0.87541,11.1442,-0.220612,4.27052,0.0363399,0.000517357,-0.04156,0.000135032,0.523959,-0.000585571,0.040794,-0.0366266,-0.00337351,-0.105605,0.415281,0.0084972,0.1,13.5572,0.356121,6.16816,0.0711717,-4.4522,0.014226,0.45201,12.0534,0.694021,-1.89268,0.398097,-3.25804,-0.0472951,-0.0290486,-1.01542,0.185478,0.628418,-0.00402832,0.491455,-0.00402832,23.479,23.3371,23.2236,23.3087,23.3371,23.2946,23.1952,
125,0.0218074,1.45547,3.14791,4.56582,0.104953,1.60413,1.57042,0,0.218239,0.0132348,0.068209,0.000725508,0.00219443,0,0.656152,-14.6246,-2.9764,30.7753,0.250547,-41.0147,-1.49955,0.0754156,-20,-0.87541,11.1442,-0.220612,4.27052,0.0363399,0.000517357,-0.04156,0.000135032,0.523959,-0.000585571,0.040794,-0.0366266,-0.00337351,-0.105605,0.415281,0.0084972,0.1,13.5572,0.356121,6.16816,0.0711717,-4.4522,0.014226,0.45201,12.0534,0.694021,-1.89268,0.398097,-3.25804,-0.0472951,-0.0290486,-1.01542,0.185478,0.628418,-0.00402832,0.491455,-0.00402832,23.479,23.3371,23.2236,23.3087,23.3371,23.2946,23.1952,
126,0.0218078,1.45567,3.14793,4.56589,0.104954,1.60413,1.57042,5.30299e-06,0.207975,0.0135049,0.0723861,0.000723918,0.00238433,0,0.655677,-14.6288,-2.97585,30.768,0.250535,-41.0116,-1.49969,0.0753,-20,-0.875416,11.1443,-0.220654,4.27068,0.0363425,0.000517357,-0.04156,0.000135032,0.523959,-0.000585571,0.040794,-0.0326099,-0.00354958,-0.0999185,0.415281,0.0084972,0.1,13.5572,0.356121,6.16816,0.0711717,-4.4522,0.014226,0.36101,10.768,0.534846,-1.70934,0.393656,-3.12772,-0.0562136,-0.0254773,-0.846561,0.177246,0.66875,0.012085,0.499577,-0.0293266,23.4932,23.3513,23.1952,23.3229,23.3655,23.3087,23.1811,
127,0.0218078,1.45567,3.14793,4.56589,0.104954,1.60413,1.57042,5.30299e-06,0.207975,0.0135049,0.0723861,0.000723918,0.00238433,0,0.654708,-14.2164,-3.00015,30.8559,0.245484,-40.7072,-1.44563,0.0750355,-20,-0.870709,11.0806,-0.216596,4.22948,0.0357871,0.000527451,-0.0416913,0.000135781,0.523959,-0.000585571,0.040794,-0.0326099,-0.00354958,-0.0999185,0.416568,0.00864544,0.1,13.4753,0.365851,5.99755,0.0733225,-4.43609,0.0143162,0.36101,10.768,0.534846,-1.70934,0.393656,-3.12772,-0.0562136,-0.0254773,-0.846561,0.177246,0.66875,0.012085,0.499577,-0.0293266,23.4932,23.3513,23.1952,23.3229,23.3655,23.3087,23.1811,
128,0.0218078,1.45567,3.14793,4.56589,0.104954,1.60413,1.57042,5.30299e-06,0.207975,0.0135049,0.0723861,0.000723918,0.00220096,0,0.654708,-14.2164,-3.00014,30.8559,0.245482,-40.7072,-1.44563,0.0750355,-20,-0.870708,11.0806,-0.216596,4.22948,0.0357871,0.000527451,-0.0416913,0.000135781,0.523959,-0.000585571,0.040794,-0.0326099,-0.00354963,-0.0999379,0.416568,0.00864544,0.1,13.4753,0.365851,5.99755,0.0733225,-4.43609,0.0143162,0.36101,10.768,0.534846,-1.70934,0.360512,-3.00716,-0.043955,-0.0254773,-0.846561,0.177246,0.66875,0.0127387,0.491472,-0.0127387,23.4932,23.3513,23.1952,23.3229,23.3371,23.2804,23.1811,
129,0.0218078,1.45589,3.14794,4.56597,0.104954,1.60413,1.57042,5.29898e-06,0.199361,0.0137923,0.0782489,0.000723918,0.00220096,0,0.654164,-14.222,-2.99946,30.8478,0.245409,-40.7045,-1.44593,0.0749102,-20,-0.870732,11.0804,-0.216637,4.22981,0.035789,0.000527297,-0.0416895,0.000135773,0.523959,-0.000585571,0.040794,-0.028501,-0.00372982,-0.0949587,0.416568,0.00864542,0.1,13.4753,0.365851,5.99814,0.0733373,-4.43627,0.0143164,0.692391,9.98511,0.515782,-1.52562,0.360512,-3.00716,-0.043955,-0.0161133,-0.733154,0.153076,0.612517,0.0127387,0.491472,-0.0127387,23.4932,23.3371,23.2094,23.3229,23.3371,23.2804,23.1811,
130,0.0218078,1.45589,3.14794,4.56597,0.104954,1.60413,1.57042,5.29898e-06,0.199361,0.0137923,0.0782489,0.000723918,0.00220096,0,0.653726,-13.86,-3.02574,30.884,0.241016,-40.3984,-1.3899,0.0747904,-20,-0.867078,11.0135,-0.21243,4.19341,0.0351971,0.00053895,-0.0418243,0.000137174,0.523959,-0.000585571,0.040794,-0.028501,-0.00372982,-0.0949587,0.417852,0.00880551,0.1,13.3906,0.37606,5.84876,0.0757138,-4.42082,0.0144409,0.692391,9.98511,0.515782,-1.52562,0.360512,-3.00716,-0.043955,-0.0161133,-0.733154,0.153076,0.612517,0.0127387,0.491472,-0.0127387,23.4932,23.3371,23.2094,23.3229,23.3371,23.2804,23.1811,
131,0.0218078,1.45589,3.14794,4.56597,0.104954,1.60413,1.57042,5.29898e-06,0.199361,0.0137923,0.0782489,0.000723918,0.00220096,0,0.653726,-13.86,-3.02574,30.884,0.241016,-40.3984,-1.3899,0.0747904,-20,-0.867078,11.0135,-0.21243,4.19341,0.0351971,0.00053895,-0.0418243,0.000137174,0.523959,-0.000585571,0.040794,-0.028501,-0.00372982,-0.0949587,0.417852,0.00880551,0.1,13.3906,0.37606,5.84876,0.0757138,-4.42082,0.0144409,0.692391,9.98511,0.515782,-1.52562,0.360512,-3.00716,-0.043955,-0.0161133,-0.733154,0.153076,0.612517,0.0127387,0.491472,-0.0127387,23.4932,23.3371,23.2094,23.3229,23.3371,23.2804,23.1811,
132,0.0218083,1.45607,3.14795,4.56605,0.104954,1.60413,1.57042,7.95448e-06,0.190959,0.0134912,0.08319,0.000703639,0.00228712,0,0.653237,-13.8633,-3.02528,30.878,0.241125,-40.3957,-1.38995,0.0746763,-20,-0.867088,11.0135,-0.212456,4.19355,0.0351983,0.00053895,-0.0418243,0.000137174,0.523959,-0.000585571,0.040794,-0.0247311,-0.00371629,-0.0901559,0.417852,0.00880551,0.1,13.3906,0.37606,5.84876,0.0757138,-4.42082,0.0144409,0.699586,8.99656,0.489552,-1.34785,0.347806,-2.87484,-0.0546016,-0.0180152,-0.676806,0.14502,0.539855,-0.00402832,0.50354,-0.0145243,23.4932,23.3229,23.1952,23.3229,23.3513,23.2804,23.1669,
133,0.0218083,1.45607,3.14795,4.56605,0.104954,1.60413,1.57042,7.95448e-06,0.190959,0.0134912,0.08319,0.000703639,0.00228712,0,0.651734,-13.5149,-3.03145,30.906,0.237957,-40.0939,-1.35306,0.074266,-20,-0.861652,10.947,-0.209576,4.15821,0.0348251,0.000549805,-0.0419297,0.000138836,0.523959,-0.000585571,0.040794,-0.0247311,-0.00371629,-0.0901559,0.418827,0.00896449,0.1,13.3067,0.380423,5.70468,0.0767778,-4.4045,0.0145141,0.699586,8.99656,0.489552,-1.34785,0.347806,-2.87484,-0.0546016,-0.0180152,-0.676806,0.14502,0.539855,-0.00402832,0.50354,-0.0145243,23.4932,23.3229,23.1952,23.3229,23.3513,23.2804,23.1669,
134,0.0218083,1.45607,3.14795,4.56605,0.104954,1.60413,1.57042,7.95448e-06,0.190959,0.0134912,0.08319,0.000703639,0.00228712,0,0.651734,-13.5149,-3.03145,30.906,0.237957,-40.0939,-1.35306,0.074266,-20,-0.861652,10.947,-0.209576,4.15821,0.0348251,0.000549805,-0.0419297,0.000138836,0.523959,-0.000585571,0.040794,-0.0247311,-0.00371629,-0.0901559,0.418827,0.00896449,0.1,13.3067,0.380423,5.70468,0.0767778,-4.4045,0.0145141,0.699586,8.99656,0.489552,-1.34785,0.347806,-2.87484,-0.0546016,-0.0180152,-0.676806,0.14502,0.539855,-0.00402832,0.50354,-0.0145243,23.4932,23.3229,23.1952,23.3229,23.3513,23.2804,23.1669,
135,0.0218083,1.45607,3.14795,4.56605,0.104954,1.60413,1.57042,7.95448e-06,0.190959,0.0134912,0.08319,0.000703639,0.00228712,0,0.651734,-13.5149,-3.03145,30.906,0.237957,-40.0939,-1.35306,0.074266,-20,-0.861652,10.947,-0.209576,4.15821,0.0348251,0.000549805,-0.0419297,0.000138836,0.523959,-0.000585571,0.040794,-0.0247311,-0.00371629,-0.0901559,0.418827,0.00896449,0.1,13.3067,0.380423,5.70468,0.0767778,-4.4045,0.0145141,0.699586,8.99656,0.489552,-1.34785,0.347806,-2.87484,-0.0546016,-0.0180152,-0.676806,0.14502,0.539855,-0.00402832,0.50354,-0.0145243,23.4932,23.3229,23.1952,23.3229,23.3513,23.2804,23.1669,
136,0.0218083,1.45625,3.14797,4.56614,0.104954,1.60413,1.57042,7.95448e-06,0.181052,0.0124245,0.0842582,0.000703639,0.00204414,0,0.651314,-13.5175,-3.03123,30.8996,0.238388,-40.0901,-1.35273,0.0741657,-20,-0.861677,10.947,-0.209583,4.15835,0.0348252,0.000549805,-0.0419297,0.000138836,0.523959,-0.000585571,0.040794,-0.0217708,-0.00343581,-0.084969,0.418827,0.00896449,0.1,13.3067,0.380423,5.70468,0.0767778,-4.4045,0.0145141,0.953306,8.0813,0.542958,-1.14106,0.346334,-2.79562,-0.0473969,0.0113938,-0.676806,0.14502,0.499512,0.00402832,0.507584,-0.0166092,23.479,23.3371,23.2094,23.3087,23.3513,23.2946,23.1669,
137,0.0218083,1.45625,3.14797,4.56614,0.104954,1.60413,1.57042,7.95448e-06,0.181052,0.0124245,0.0842582,0.000703639,0.00204414,0,0.647765,-13.1427,-3.00859,31.0092,0.235822,-39.8366,-1.34815,0.0731969,-20,-0.852935,10.8965,-0.208999,4.12106,0.0348152,0.000560001,-0.0420183,0.000139857,0.523959,-0.000585571,0.040794,-0.0217708,-0.00343581,-0.084969,0.419606,0.0091044,0.1,13.2413,0.376206,5.54907,0.0761992,-4.39184,0.0143537,0.953306,8.0813,0.542958,-1.14106,0.346334,-2.79562,-0.0473969,0.0113938,-0.676806,0.14502,0.499512,0.00402832,0.507584,-0.0166092,23.479,23.3371,23.2094,23.3087,23.3513,23.2946,23.1669,
138,0.0218083,1.45625,3.14797,4.56614,0.104954,1.60413,1.57042,7.95448e-06,0.181052,0.0124245,0.0842582,0.000703639,0.00204414,0,0.647765,-13.1427,-3.00859,31.0092,0.235822,-39.8366,-1.34815,0.0731969,-20,-0.852935,10.8965,-0.208999,4.12106,0.0348152,0.000560001,-0.0420183,0.000139857,0.523959,-0.000585571,0.040794,-0.0217708,-0.00343581,-0.084969,0.419606,0.0091044,0.1,13.2413,0.376206,5.54907,0.0761992,-4.39184,0.0143537,0.953306,8.0813,0.542958,-1.14106,0.346334,-2.79562,-0.0473969,0.0113938,-0.676806,0.14502,0.499512,0.00402832,0.507584,-0.0166092,23.479,23.3371,23.2094,23.3087,23.3513,23.2946,23.1669,
139,0.0218088,1.45642,3.14798,4.56622,0.104955,1.60413,1.57042,1.32575e-05,0.171242,0.01304,0.0853508,0.000706545,0.00177751,0,0.647244,-13.1452,-3.00791,31.0032,0.235738,-39.833,-1.34841,0.0730724,-20,-0.852914,10.8965,-0.209043,4.1212,0.0348181,0.000560001,-0.0420183,0.000139857,0.523959,-0.000585571,0.040794,-0.0188339,-0.0037007,-0.0798695,0.419606,0.0091044,0.1,13.2413,0.376206,5.54907,0.0761992,-4.39184,0.0143537,0.943067,6.83307,0.356782,-1.09662,0.356649,-2.74752,-0.0497269,0.0113938,-0.629244,0.161334,0.555967,0.0127387,0.523682,-0.0245033,23.4932,23.3229,23.2094,23.3229,23.3371,23.2946,23.1669,
140,0.0218088,1.45642,3.14798,4.56622,0.104955,1.60413,1.57042,1.32575e-05,0.171242,0.01304,0.0853508,0.000706545,0.00177751,0,0.647195,-12.775,-3.04488,31.1068,0.230335,-39.5843,-1.28838,0.0730591,-20,-0.85022,10.8463,-0.204624,4.08458,0.0341747,0.000571853,-0.0421024,0.000140638,0.523959,-0.000585571,0.040794,-0.0188339,-0.0037007,-0.0798695,0.42035,0.00927126,0.1,13.1755,0.389159,5.39609,0.0791281,-4.37902,0.0145586,0.943067,6.83307,0.356782,-1.09662,0.356649,-2.74752,-0.0497269,0.0113938,-0.629244,0.161334,0.555967,0.0127387,0.523682,-0.0245033,23.4932,23.3229,23.2094,23.3229,23.3371,23.2946,23.1669,
141,0.0218092,1.45658,3.14799,4.56631,0.104955,1.60414,1.57042,1.85464e-05,0.159358,0.011074,0.0902126,0.00068361,0.0014042,0,0.64686,-12.777,-3.04497,31.102,0.230965,-39.5815,-1.28784,0.0729728,-20,-0.850259,10.8469,-0.204627,4.08464,0.0341743,0.000571853,-0.0421024,0.000140638,0.523959,-0.000585571,0.040794,-0.0141472,-0.00317112,-0.0733014,0.42035,0.00927126,0.1,13.1755,0.389159,5.39609,0.0791281,-4.37902,0.0145586,1.24086,6.08247,0.306121,-1.10682,0.362946,-2.74118,-0.0200458,-0.0113938,-0.564195,0.1372,0.58819,0.00805664,0.523682,-0.0254773,23.479,23.3229,23.1952,23.3087,23.3371,23.2946,23.1811,
142,0.0218092,1.45658,3.14799,4.56631,0.104955,1.60414,1.57042,1.85464e-05,0.159358,0.011074,0.0902126,0.00068361,0.0014042,0,0.641324,-12.3025,-2.99128,31.1105,0.229841,-39.1386,-1.29246,0.0714614,-20,-0.836622,10.7472,-0.204449,4.03567,0.0342722,0.000581181,-0.0421698,0.00014195,0.523959,-0.000585571,0.040794,-0.0141472,-0.00317112,-0.0733014,0.420907,0.00940824,0.1,13.0516,0.377381,5.19904,0.0769561,-4.35293,0.0142329,1.24086,6.08247,0.306121,-1.10682,0.362946,-2.74118,-0.0200458,-0.0113938,-0.564195,0.1372,0.58819,0.00805664,0.523682,-0.0254773,23.479,23.3229,23.1952,23.3087,23.3371,23.2946,23.1811,
143,0.0218092,1.45658,3.14799,4.56631,0.104955,1.60414,1.57042,1.85464e-05,0.159358,0.011074,0.0902126,0.00068361,0.0014042,0,0.641324,-12.3025,-2.99128,31.1105,0.229841,-39.1386,-1.29246,0.0714614,-20,-0.836622,10.7472,-0.204449,4.03567,0.0342722,0.000581181,-0.0421698,0.00014195,0.523959,-0.000585571,0.040794,-0.0141472,-0.00317112,-0.0733014,0.420907,0.00940824,0.1,13.0516,0.377381,5.19904,0.0769561,-4.35293,0.0142329,1.24086,6.08247,0.306121,-1.10682,0.362946,-2.74118,-0.0200458,-0.0113938,-0.564195,0.1372,0.58819,0.00805664,0.523682,-0.0254773,23.479,23.3229,23.1952,23.3087,23.3371,23.2946,23.1811,
144,0.0218092,1.45658,3.14799,4.56631,0.104955,1.60414,1.57042,1.85464e-05,0.159358,0.011074,0.0902126,0.00068361,0.0014042,0,0.641324,-12.3025,-2.99128,31.1105,0.229841,-39.1386,-1.29246,0.0714614,-20,-0.836622,10.7472,-0.204449,4.03567,0.0342722,0.000581181,-0.0421698,0.00014195,0.523959,-0.000585571,0.040794,-0.0141472,-0.00317112,-0.0733014,0.420907,0.00940824,0.1,13.0516,0.377381,5.19904,0.0769561,-4.35293,0.0142329,1.24086,6.08247,0.306121,-1.10682,0.362946,-2.74118,-0.0200458,-0.0113938,-0.564195,0.1372,0.58819,0.00805664,0.523682,-0.0254773,23.479,23.3229,23.1952,23.3087,23.3371,23.2946,23.1811,
145,0.0218097,1.45674,3.148,4.5664,0.104956,1.60414,1.57042,2.38635e-05,0.149458,0.0108039,0.0918331,0.000684984,0.00109722,0,0.640949,-12.3044,-2.99094,31.1053,0.230047,-39.1353,-1.29239,0.0713754,-20,-0.836628,10.7473,-0.20447,4.03579,0.0342736,0.000581181,-0.0421698,0.00014195,0.523959,-0.000585571,0.040794,-0.0110127,-0.00315422,-0.0680916,0.420907,0.00940824,0.1,13.0516,0.377381,5.19904,0.0769561,-4.35293,0.0142329,1.25832,5.16621,0.296261,-1.07132,0.386793,-2.69752,-0.0391998,0.0241699,-0.459299,0.177429,0.564022,0.012085,0.539855,-0.012085,23.4932,23.3087,23.1811,23.3087,23.3229,23.2662,23.1669,
146,0.0218097,1.45674,3.148,4.5664,0.104956,1.60414,1.57042,2.38635e-05,0.149458,0.0108039,0.0918331,0.000684984,0.00109722,0,0.638991,-11.927,-2.99389,31.1789,0.22641,-38.8491,-1.26027,0.0708409,-20,-0.830388,10.6868,-0.201937,3.99788,0.0339488,0.000590231,-0.0422374,0.000142266,0.523959,-0.000585571,0.040794,-0.0110127,-0.00315422,-0.0680916,0.421463,0.00953779,0.1,12.9743,0.38076,5.04275,0.0778801,-4.33726,0.0141869,1.25832,5.16621,0.296261,-1.07132,0.386793,-2.69752,-0.0391998,0.0241699,-0.459299,0.177429,0.564022,0.012085,0.539855,-0.012085,23.4932,23.3087,23.1811,23.3087,23.3229,23.2662,23.1669,
147,0.0218097,1.45674,3.148,4.5664,0.104956,1.60414,1.57042,2.38635e-05,0.149458,0.0108039,0.0918331,0.000684984,0.00109722,0,0.638991,-11.927,-2.99389,31.1789,0.22641,-38.8491,-1.26027,0.0708409,-20,-0.830388,10.6868,-0.201937,3.99788,0.0339488,0.000590231,-0.0422374,0.000142266,0.523959,-0.000585571,0.040794,-0.0110127,-0.00315422,-0.0680916,0.421463,0.00953779,0.1,12.9743,0.38076,5.04275,0.0778801,-4.33726,0.0141869,1.25832,5.16621,0.296261,-1.07132,0.386793,-2.69752,-0.0391998,0.0241699,-0.459299,0.177429,0.564022,0.012085,0.539855,-0.012085,23.4932,23.3087,23.1811,23.3087,23.3229,23.2662,23.1669,
148,0.0218101,1.45688,3.14801,4.5665,0.104957,1.60414,1.57042,2.65149e-05,0.13937,0.00972351,0.0922828,0.000695179,0.00128848,0,0.63867,-11.928,-2.99376,31.1748,0.226839,-38.8459,-1.25999,0.0707648,-20,-0.8304,10.6872,-0.20195,3.99794,0.0339498,0.000590231,-0.0422374,0.000142266,0.523959,-0.000585571,0.040794,-0.00818937,-0.00286676,-0.0628269,0.421463,0.00953779,0.1,12.9743,0.38076,5.04275,0.0778801,-4.33726,0.0141869,1.49748,4.32469,0.389275,-1.14124,0.377468,-2.65619,-0.0453249,0.0322266,-0.435133,0.169381,0.596409,0.0161133,0.539795,-0.0245033,23.5074,23.2946,23.1811,23.2946,23.3371,23.2946,23.1669,
149,0.0218101,1.45688,3.14801,4.5665,0.104957,1.60414,1.57042,2.65149e-05,0.13937,0.00972351,0.0922828,0.000695179,0.00128848,0,0.635027,-11.548,-2.9678,31.2499,0.22455,-38.5579,-1.25468,0.0697704,-20,-0.821218,10.6261,-0.201265,3.95937,0.0339224,0.000598698,-0.0422739,0.000142394,0.523959,-0.000585571,0.040794,-0.00818937,-0.00286676,-0.0628269,0.421697,0.00966044,0.1,12.8966,0.375816,4.88481,0.077009,-4.31941,0.0139277,1.49748,4.32469,0.389275,-1.14124,0.377468,-2.65619,-0.0453249,0.0322266,-0.435133,0.169381,0.596409,0.0161133,0.539795,-0.0245033,23.5074,23.2946,23.1811,23.2946,23.3371,23.2946,23.1669,
150,0.0218111,1.457,3.14802,4.56659,0.104958,1.60414,1.57042,3.71209e-05,0.129917,0.0087769,0.0917401,0.000707564,0.00175509,0,0.634708,-11.5489,-2.96765,31.246,0.224901,-38.5549,-1.25446,0.0696967,-20,-0.82123,10.6263,-0.201276,3.95944,0.033923,0.000598698,-0.0422739,0.000142394,0.523959,-0.000585571,0.040794,-0.00584544,-0.00261622,-0.0579561,0.421697,0.00966044,0.1,12.8966,0.375816,4.88481,0.077009,-4.31941,0.0139277,1.53004,3.29825,0.198988,-1.2923,0.368179,-2.58639,-0.0500244,0.0483398,-0.427078,0.177429,0.644531,0.0201416,0.539855,-0.0161133,23.479,23.3087,23.1811,23.3087,23.3371,23.2804,23.1527,
151,0.0218111,1.457,3.14802,4.56659,0.104958,1.60414,1.57042,3.71209e-05,0.129917,0.0087769,0.0917401,0.000707564,0.00175509,0,0.631481,-11.1977,-2.94738,31.3422,0.222485,-38.3146,-1.24864,0.0688155,-20,-0.813128,10.5772,-0.200615,3.924,0.033898,0.000606781,-0.0423071,0.000142992,0.523959,-0.000585571,0.040794,-0.00584544,-0.00261622,-0.0579561,0.421926,0.00978927,0.1,12.8331,0.372165,4.73868,0.0762472,-4.30394,0.013769,1.53004,3.29825,0.198988,-1.2923,0.368179,-2.58639,-0.0500244,0.0483398,-0.427078,0.177429,0.644531,0.0201416,0.539855,-0.0161133,23.479,23.3087,23.1811,23.3087,23.3371,23.2804,23.1527,
152,0.0218111,1.457,3.14802,4.56659,0.104958,1.60414,1.57042,3.71209e-05,0.129917,0.0087769,0.0917401,0.000707564,0.00175509,0,0.631481,-11.1977,-2.94738,31.3422,0.222485,-38.3146,-1.24864,0.0688155,-20,-0.813128,10.5772,-0.200615,3.924,0.033898,0.000606781,-0.0423071,0.000142992,0.523959,-0.000585571,0.040794,-0.00584544,-0.00261622,-0.0579561,0.421926,0.00978927,0.1,12.8331,0.372165,4.73868,0.0762472,-4.30394,0.013769,1.53004,3.29825,0.198988,-1.2923,0.368179,-2.58639,-0.0500244,0.0483398,-0.427078,0.177429,0.644531,0.0201416,0.539855,-0.0161133,23.479,23.3087,23.1811,23.3087,23.3371,23.2804,23.1527,
153,0.021812,1.45712,3.14803,4.56668,0.104958,1.60415,1.57042,4.50413e-05,0.120193,0.00782489,0.0929135,0.000706076,0.00250737,0,0.631226,-11.1982,-2.9473,31.3391,0.22284,-38.3121,-1.2484,0.0687571,-20,-0.813141,10.5776,-0.200627,3.92403,0.0338988,0.000606781,-0.0423071,0.000142992,0.523959,-0.000585571,0.040794,-0.00288902,-0.00237666,-0.0527531,0.421926,0.00978927,0.1,12.8331,0.372165,4.73868,0.0762472,-4.30394,0.013769,1.67209,2.78834,0.14922,-1.4428,0.3922,-2.48355,-0.0349361,0.0569691,-0.396089,0.209628,0.701668,0.0145243,0.547866,-0.0161133,23.4932,23.3087,23.1811,23.2946,23.3229,23.2804,23.1385,
154,0.021812,1.45712,3.14803,4.56668,0.104958,1.60415,1.57042,4.50413e-05,0.120193,0.00782489,0.0929135,0.000706076,0.00250737,0,0.627892,-10.823,-2.92462,31.3863,0.220678,-38.0048,-1.23766,0.0678469,-20,-0.804355,10.51,-0.199541,3.88539,0.0338156,0.000613273,-0.0423266,0.000143362,0.523959,-0.000585571,0.040794,-0.00288902,-0.00237666,-0.0527531,0.42204,0.00989995,0.1,12.7479,0.368298,4.58259,0.0753586,-4.28256,0.0135861,1.67209,2.78834,0.14922,-1.4428,0.3922,-2.48355,-0.0349361,0.0569691,-0.396089,0.209628,0.701668,0.0145243,0.547866,-0.0161133,23.4932,23.3087,23.1811,23.2946,23.3229,23.2804,23.1385,
155,0.021812,1.45712,3.14803,4.56668,0.104958,1.60415,1.57042,4.50413e-05,0.120193,0.00782489,0.0929135,0.000706076,0.00250737,0,0.627892,-10.823,-2.92462,31.3863,0.220678,-38.0048,-1.23766,0.0678469,-20,-0.804355,10.51,-0.199541,3.88539,0.0338156,0.000613273,-0.0423266,0.000143362,0.523959,-0.000585571,0.040794,-0.00288902,-0.00237666,-0.0527531,0.42204,0.00989995,0.1,12.7479,0.368298,4.58259,0.0753586,-4.28256,0.0135861,1.67209,2.78834,0.14922,-1.4428,0.3922,-2.48355,-0.0349361,0.0569691,-0.396089,0.209628,0.701668,0.0145243,0.547866,-0.0161133,23.4932,23.3087,23.1811,23.2946,23.3229,23.2804,23.1385,
156,0.0218134,1.45724,3.14803,4.56678,0.104959,1.60416,1.57042,5.83323e-05,0.108583,0.00648234,0.0966949,0.000732472,0.00327438,0,0.627699,-10.8233,-2.92468,31.3834,0.22113,-38.0024,-1.23731,0.0678031,-20,-0.804379,10.5106,-0.199548,3.88542,0.0338159,0.000613273,-0.0423266,0.000143362,0.523959,-0.000585571,0.040794,0.00139174,-0.00203868,-0.0463229,0.42204,0.00989995,0.1,12.7479,0.368298,4.58259,0.0753586,-4.28256,0.0135861,1.64867,2.2384,0.117947,-1.4936,0.434955,-2.35094,-0.0556967,0.0809682,-0.379433,0.209473,0.685004,0.0245033,0.551895,-0.0201416,23.479,23.3087,23.1669,23.3229,23.3229,23.2662,23.1385,
157,0.0218134,1.45724,3.14803,4.56678,0.104959,1.60416,1.57042,5.83323e-05,0.108583,0.00648234,0.0966949,0.000732472,0.00327438,0,0.623262,-10.3593,-2.88752,31.372,0.219321,-37.557,-1.22561,0.0665916,-20,-0.792568,10.4079,-0.198234,3.83678,0.0337299,0.000618425,-0.0423371,0.000143983,0.523959,-0.000585571,0.040794,0.00139174,-0.00203868,-0.0463229,0.422073,0.0100045,0.1,12.6204,0.361296,4.38969,0.0737557,-4.25125,0.0132621,1.64867,2.2384,0.117947,-1.4936,0.434955,-2.35094,-0.0556967,0.0809682,-0.379433,0.209473,0.685004,0.0245033,0.551895,-0.0201416,23.479,23.3087,23.1669,23.3229,23.3229,23.2662,23.1385,
158,0.0218134,1.45724,3.14803,4.56678,0.104959,1.60416,1.57042,5.83323e-05,0.108583,0.00648234,0.0966949,0.000732472,0.00327438,0,0.623262,-10.3593,-2.88752,31.372,0.219321,-37.557,-1.22561,0.0665916,-20,-0.792568,10.4079,-0.198234,3.83678,0.0337299,0.000618425,-0.0423371,0.000143983,0.523959,-0.000585571,0.040794,0.00139174,-0.00203868,-0.0463229,0.422073,0.0100045,0.1,12.6204,0.361296,4.38969,0.0737557,-4.25125,0.0132621,1.64867,2.2384,0.117947,-1.4936,0.434955,-2.35094,-0.0556967,0.0809682,-0.379433,0.209473,0.685004,0.0245033,0.551895,-0.0201416,23.479,23.3087,23.1669,23.3229,23.3229,23.2662,23.1385,
159,0.0218147,1.45733,3.14804,4.56688,0.10496,1.60417,1.57042,7.42418e-05,0.0976762,0.00621224,0.0983012,0.000737019,0.00398916,0,0.623061,-10.3589,-2.88742,31.3699,0.219564,-37.5544,-1.22545,0.0665443,-20,-0.79256,10.4086,-0.198257,3.83675,0.0337314,0.000618425,-0.0423371,0.000143983,0.523959,-0.000585571,0.040794,0.0047992,-0.00203259,-0.0404903,0.422073,0.0100045,0.1,12.6204,0.361296,4.38969,0.0737557,-4.25125,0.0132621,1.93564,1.79688,0.181706,-1.58957,0.42222,-2.23175,-0.0617415,0.0970148,-0.298205,0.242236,0.660694,0.0166092,0.543838,-0.0180152,23.479,23.3229,23.1811,23.2946,23.3371,23.2662,23.1527,
160,0.0218147,1.45733,3.14804,4.56688,0.10496,1.60417,1.57042,7.42418e-05,0.0976762,0.00621224,0.0983012,0.000737019,0.00398916,0,0.620898,-9.93741,-2.88663,31.3751,0.216312,-37.1685,-1.18582,0.0659537,-20,-0.785141,10.32,-0.195071,3.79278,0.0333185,0.000623851,-0.0423188,0.000144518,0.523959,-0.000585571,0.040794,0.0047992,-0.00203259,-0.0404903,0.421791,0.0101123,0.1,12.5098,0.364348,4.21471,0.0741922,-4.22296,0.0132501,1.93564,1.79688,0.181706,-1.58957,0.42222,-2.23175,-0.0617415,0.0970148,-0.298205,0.242236,0.660694,0.0166092,0.543838,-0.0180152,23.479,23.3229,23.1811,23.2946,23.3371,23.2662,23.1527,
161,0.0218147,1.45733,3.14804,4.56688,0.10496,1.60417,1.57042,7.42418e-05,0.0976762,0.00621224,0.0983012,0.000737019,0.00398916,0,0.620898,-9.93741,-2.88663,31.3751,0.216312,-37.1685,-1.18582,0.0659537,-20,-0.785141,10.32,-0.195071,3.79278,0.0333185,0.000623851,-0.0423188,0.000144518,0.523959,-0.000585571,0.040794,0.0047992,-0.00203259,-0.0404903,0.421791,0.0101123,0.1,12.5098,0.364348,4.21471,0.0741922,-4.22296,0.0132501,1.93564,1.79688,0.181706,-1.58957,0.42222,-2.23175,-0.0617415,0.0970148,-0.298205,0.242236,0.660694,0.0166092,0.543838,-0.0180152,23.479,23.3229,23.1811,23.2946,23.3371,23.2662,23.1527,
