LWingKi/MAS_RnD/log/us2/contactless/21/grasp_log_12_08_2023_15_09_49.csv
Index,joint_angle_0,joint_angle_1,joint_angle_2,joint_angle_3,joint_angle_4,joint_angle_5,joint_angle_6,joint_velocity_0,joint_velocity_1,joint_velocity_2,joint_velocity_3,joint_velocity_4,joint_velocity_5,joint_velocity_6,joint_accel_0,joint_accel_1,joint_accel_2,joint_accel_3,joint_accel_4,joint_accel_5,joint_accel_6,constraint_tau_0,constraint_tau_1,constraint_tau_2,constraint_tau_3,constraint_tau_4,constraint_tau_5,constraint_tau_6,current_pos_x,current_pos_y,current_pos_z,target_pos_x,target_pos_y,target_pos_z,current_vel_x,current_vel_y,current_vel_z,target_vel_x,target_vel_y,target_vel_z,control_signal_linear_x,control_signal_linear_y,control_signal_linear_z,control_signal_angular_x,control_signal_angular_y,control_signal_angular_z,joint_torque_0,joint_torque_1,joint_torque_2,joint_torque_3,joint_torque_4,joint_torque_5,joint_torque_6,actuar_current_0,actuar_current_1,actuar_current_2,actuar_current_3,actuar_current_4,actuar_current_5,actuar_current_6,actuar_voltage_0,actuar_voltage_1,actuar_voltage_2,actuar_voltage_3,actuar_voltage_4,actuar_voltage_5,actuar_voltage_6
0,6.27268,1.38537,3.15336,4.11614,6.27421,1.97505,1.55575,0.00134067,0.0280861,-2.46789e-05,0.109818,6.34917e-05,0.0071545,1.05821e-05,0.376016,-6.73795,-0.335702,1.29941,0.773651,-24.7928,0.9831,0.00143182,-20,-0.426386,0.496525,-0.040092,0.456574,0.023095,-9.83349e-05,0.00621014,1.51685e-05,0.493962,0.00131634,0.0733619,0.0257936,-0.000326012,-0.0124604,1.97819,-0.000769115,0.005,1.78037,-0.000692203,0.0045,-0.265504,16.7674,0.0409549,1.72999,-0.20157,-0.31691,5.27862,0.249325,5.7793,0.264103,0.209628,0.386803,0.177246,-0.201577,0.128906,-0.4955,-0.116821,23.4648,23.3655,23.1811,23.3229,23.2378,23.2946,23.1527,
1,6.27268,1.38537,3.15336,4.11614,6.27421,1.97505,1.55575,0.00134067,0.0280861,-2.46789e-05,0.109818,6.34917e-05,0.0071545,1.05821e-05,0.333081,-2.81986,-0.33218,4.1184,0.395886,-9.5961,0.567197,-0.00998649,-18.9346,-0.374126,0.984816,-0.0407287,1.95781,-0.00189461,-0,0,0,0.493962,0.00131634,0.0733619,0.0257936,-0.000326012,-0.0124604,2,0,0.005,1.77679,0.000293411,0.0157144,-0.019832,2.66625,-0.00300313,1.72999,-0.20157,-0.31691,5.27862,0.249325,5.7793,0.264103,0.209628,0.386803,0.177246,-0.201577,0.128906,-0.4955,-0.116821,23.4648,23.3655,23.1811,23.3229,23.2378,23.2946,23.1527,
2,6.27268,1.3854,3.15336,4.11625,6.27421,1.97506,1.55575,0.00151038,0.0259294,-2.46355e-05,0.106689,6.34917e-05,0.0115905,1.059e-05,0.333087,-2.81945,-0.332223,4.1181,0.395928,-9.59539,0.567204,-0.00998796,-18.9353,-0.374143,0.985555,-0.0407268,1.9577,-0.00189439,-0,0,0,0.493962,0.00131634,0.0733619,0.0253483,-0.000387879,-0.0110777,2,0,0.005,1.77679,0.000293411,0.0157144,-0.019832,2.66625,-0.00300313,1.73652,-0.110419,-0.35377,5.206,0.297961,5.84927,0.298176,0.209473,0.394775,0.177429,-0.193359,0.14502,-0.483398,-0.116821,23.479,23.3655,23.1811,23.3087,23.2378,23.3087,23.1669,
3,6.27268,1.38542,3.15336,4.11636,6.27421,1.97509,1.55575,0.00169474,0.0259031,-3.70183e-05,0.105574,6.34917e-05,0.016941,1.059e-05,0.334112,-2.91719,-0.330653,4.04713,0.411203,-9.984,0.573654,-0.00971767,-18.995,-0.375348,0.974091,-0.0406558,1.91883,-0.00173209,-6.09464e-07,9.55963e-05,6.70404e-07,0.493962,0.00131634,0.0733619,0.025035,-0.000450898,-0.0104768,1.9995,1.28153e-05,0.005,1.77674,0.000360625,0.01447,-0.0213823,3.02824,0.00296928,1.71253,-0.0270951,-0.35544,5.07604,0.284768,5.92407,0.280832,0.217678,0.419255,0.161133,-0.129158,0.136963,-0.4955,-0.129471,23.479,23.3371,23.1952,23.3229,23.2378,23.3087,23.1669,
4,6.27268,1.38545,3.15336,4.11647,6.27421,1.97511,1.55575,0.00184777,0.0264696,-3.61916e-05,0.105608,6.34917e-05,0.0231466,1.05821e-05,0.335338,-3.03312,-0.329794,3.96266,0.426157,-10.4358,0.58252,-0.00939346,-19.0656,-0.376845,0.960141,-0.0405945,1.87392,-0.0013909,-1.80066e-06,0.000203969,1.07394e-06,0.493962,0.00131634,0.0733619,0.0249289,-0.000502719,-0.0100417,1.99896,2.21544e-05,0.005,1.77653,0.000425747,0.0139291,-0.0247055,3.44868,0.00747934,1.72595,0.0797181,-0.342402,5.00742,0.273033,5.98041,0.286973,0.233781,0.402913,0.153076,-0.104736,0.140991,-0.523697,-0.124878,23.4932,23.3655,23.1669,23.3087,23.2236,23.3087,23.1669,
5,6.27269,1.38548,3.15336,4.11657,6.27421,1.97514,1.55575,0.00206515,0.0263307,-2.41283e-05,0.103988,6.34924e-05,0.0269824,1.05821e-05,0.336687,-3.15707,-0.329521,3.8715,0.440315,-10.9179,0.589775,-0.00903695,-19.1409,-0.37849,0.944969,-0.0405409,1.82593,-0.00124025,-2.39632e-06,0.000307421,1.61355e-06,0.493962,0.00131634,0.0733619,0.0244922,-0.000588922,-0.0095475,1.99847,3.47394e-05,0.005,1.77619,0.000483712,0.0135375,-0.0261343,3.8982,0.0107009,1.71396,0.16288,-0.350433,4.96835,0.257556,6.00638,0.254265,0.233781,0.387054,0.153076,-0.0809682,0.141049,-0.559937,-0.121118,23.4932,23.3655,23.1669,23.3087,23.252,23.3087,23.1527,
6,6.27269,1.38548,3.15336,4.11657,6.27421,1.97514,1.55575,0.00206515,0.0263307,-2.41283e-05,0.103988,6.34924e-05,0.0269824,1.05821e-05,0.337585,-3.25204,-0.326938,3.80265,0.457815,-11.2877,0.595413,-0.00879811,-19.198,-0.379568,0.933025,-0.0404571,1.7893,-0.00115307,-2.96031e-06,0.000408609,2.68811e-06,0.493962,0.00131634,0.0733619,0.0244922,-0.000588922,-0.0095475,1.998,5.16361e-05,0.005,1.77615,0.000576502,0.0130928,-0.0269445,4.24202,0.0190104,1.71396,0.16288,-0.350433,4.96835,0.257556,6.00638,0.254265,0.233781,0.387054,0.153076,-0.0809682,0.141049,-0.559937,-0.121118,23.4932,23.3655,23.1669,23.3087,23.252,23.3087,23.1527,
7,6.27269,1.3855,3.15336,4.11667,6.27421,1.97517,1.55575,0.00211967,0.0264696,-3.01079e-05,0.101557,6.35397e-05,0.0280901,1.05901e-05,0.337589,-3.25146,-0.326959,3.80255,0.457857,-11.287,0.595421,-0.00879633,-19.1985,-0.379583,0.933793,-0.0404534,1.78914,-0.00115306,-2.96031e-06,0.000408609,2.68811e-06,0.493962,0.00131634,0.0733619,0.0237606,-0.00061263,-0.00943584,1.998,5.16361e-05,0.005,1.77615,0.000576502,0.0130928,-0.0269445,4.24202,0.0190104,1.71275,0.243001,-0.331959,4.94006,0.260027,6.04329,0.27964,0.233643,0.22573,0.14502,-0.0402832,0.137022,-0.56805,-0.112865,23.4932,23.3655,23.1811,23.2946,23.2378,23.2946,23.1669,
8,6.27269,1.38553,3.15336,4.11678,6.27421,1.97519,1.55575,0.00218591,0.0232284,-4.12318e-05,0.103971,7.40737e-05,0.0275845,1.05901e-05,0.338259,-3.31508,-0.326142,3.75628,0.46705,-11.5347,0.600229,-0.0086198,-19.238,-0.380403,0.926701,-0.0404158,1.76455,-0.000974184,-3.78424e-06,0.000510194,3.19264e-06,0.493962,0.00131634,0.0733619,0.0251426,-0.000623027,-0.0082571,1.99753,6.28367e-05,0.005,1.77639,0.00060792,0.0129923,-0.028692,4.47244,0.0223147,1.66891,0.283576,-0.325513,4.92885,0.236591,6.09467,0.252732,0.233781,-0.0180152,0.145912,-0.00805664,0.141221,-0.547852,-0.112793,23.479,23.3655,23.1811,23.3087,23.2378,23.2946,23.1811,
9,6.27269,1.38554,3.15336,4.11688,6.27421,1.97522,1.55575,0.00218942,0.0153956,-4.03518e-05,0.106689,7.40737e-05,0.0299808,1.0582e-05,0.339775,-3.4409,-0.327543,3.65755,0.477027,-12.0321,0.612444,-0.00822293,-19.3151,-0.382203,0.909737,-0.0403867,1.71426,-0.000314817,-5.41664e-06,0.000627206,2.52541e-06,0.493962,0.00131634,0.0733619,0.0275851,-0.000597618,-0.00496691,1.99699,6.98139e-05,0.005,1.77466,0.000623557,0.0119314,-0.0351711,4.94285,0.0215455,1.64935,0.354309,-0.333368,4.90024,0.20398,6.16087,0.272145,0.233781,-0.22573,0.12085,0.00805664,0.136963,-0.515641,-0.120917,23.4648,23.3655,23.1811,23.3087,23.2378,23.3087,23.1527,
10,6.27269,1.38554,3.15336,4.11688,6.27421,1.97522,1.55575,0.00218942,0.0153956,-4.03518e-05,0.106689,7.40737e-05,0.0299808,1.0582e-05,0.342019,-3.62877,-0.329196,3.5123,0.492616,-12.7858,0.626035,-0.00762626,-19.4281,-0.384805,0.883649,-0.0403452,1.63795,0.000206837,-6.13678e-06,0.000746769,2.99244e-06,0.493962,0.00131634,0.0733619,0.0275851,-0.000597618,-0.00496691,1.99644,8.17409e-05,0.005,1.77197,0.000611423,0.00897022,-0.0402349,5.65404,0.0208893,1.64935,0.354309,-0.333368,4.90024,0.20398,6.16087,0.272145,0.233781,-0.22573,0.12085,0.00805664,0.136963,-0.515641,-0.120917,23.4648,23.3655,23.1811,23.3087,23.2378,23.3087,23.1527,
11,6.2727,1.38555,3.15336,4.11699,6.27421,1.97526,1.55575,0.00226491,0.00501065,-5.18809e-05,0.108039,6.87827e-05,0.0337622,1.0582e-05,0.342068,-3.62774,-0.32932,3.51076,0.492688,-12.7832,0.626072,-0.00762383,-19.4291,-0.384835,0.884092,-0.0403421,1.63795,0.000206652,-6.13678e-06,0.000746769,2.99244e-06,0.493962,0.00131634,0.0733619,0.0301733,-0.000592756,-0.000496524,1.99644,8.17409e-05,0.005,1.77197,0.000611423,0.00897022,-0.0402349,5.65404,0.0208893,1.59148,0.457071,-0.335168,4.94778,0.203438,6.22964,0.27104,0.249756,-0.331891,0.136963,-0.0241699,0.132996,-0.515625,-0.124943,23.4932,23.3797,23.1952,23.3087,23.252,23.2946,23.1669,
12,6.2727,1.38554,3.15336,4.1171,6.27421,1.9753,1.55575,0.00226491,-0.00648234,-6.19851e-05,0.10993,6.88347e-05,0.0386183,1.059e-05,0.344657,-3.84425,-0.330088,3.3415,0.514534,-13.6584,0.643759,-0.00694661,-19.561,-0.387791,0.854457,-0.0402663,1.549,0.000980231,-7.49345e-06,0.000881105,3.82253e-06,0.493962,0.00131634,0.0733619,0.0331522,-0.000552666,0.00451516,1.99585,9.42727e-05,0.005,1.76911,0.000618325,0.00494687,-0.0477812,6.48222,0.0232984,1.58768,0.643277,-0.312888,4.9735,0.1919,6.26398,0.280521,0.265991,-0.330715,0.11308,-0.0483398,0.141221,-0.515641,-0.112865,23.4932,23.3655,23.1952,23.3087,23.2378,23.2946,23.1669,
13,6.2727,1.38553,3.15336,4.11722,6.27421,1.97534,1.55575,0.00244222,-0.0105338,-6.62368e-05,0.112846,6.87827e-05,0.0424053,1.05901e-05,0.347788,-4.09813,-0.333111,3.14494,0.533991,-14.6829,0.663749,-0.00612828,-19.7152,-0.391394,0.820359,-0.0402183,1.44502,0.001846,-8.99067e-06,0.00103675,3.98378e-06,0.493962,0.00131634,0.0733619,0.0348528,-0.000600134,0.0064616,1.99519,0.000101758,0.005,1.76584,0.000588981,0.00043636,-0.0562145,7.4496,0.0208232,1.56086,0.753351,-0.263479,4.99898,0.166713,6.28903,0.249396,0.273926,-0.33042,0.105046,-0.0805664,0.145075,-0.536009,-0.112865,23.479,23.3797,23.2094,23.3229,23.2378,23.2946,23.1669,
14,6.2727,1.38553,3.15336,4.11722,6.27421,1.97534,1.55575,0.00244222,-0.0105338,-6.62368e-05,0.112846,6.87827e-05,0.0424053,1.05901e-05,0.350168,-4.31385,-0.332464,2.98101,0.558829,-15.532,0.679765,-0.00549533,-19.8449,-0.394208,0.791208,-0.0401277,1.35983,0.00245624,-1.0403e-05,0.00121263,5.11296e-06,0.493962,0.00131634,0.0733619,0.0348528,-0.000600134,0.0064616,1.99444,0.000118262,0.005,1.76363,0.000646556,-0.00131544,-0.0621489,8.24708,0.0264427,1.56086,0.753351,-0.263479,4.99898,0.166713,6.28903,0.249396,0.273926,-0.33042,0.105046,-0.0805664,0.145075,-0.536009,-0.112865,23.479,23.3797,23.2094,23.3229,23.2378,23.2946,23.1669,
15,6.2727,1.38551,3.15336,4.11733,6.27421,1.97538,1.55575,0.00251854,-0.019447,-7.57287e-05,0.11209,6.87834e-05,0.0453764,1.0582e-05,0.350221,-4.31257,-0.332602,2.97939,0.558908,-15.5291,0.679813,-0.00549499,-19.8457,-0.394233,0.79178,-0.0401231,1.35975,0.00245641,-1.0403e-05,0.00121263,5.11296e-06,0.493962,0.00131634,0.0733619,0.03652,-0.000604893,0.0103098,1.99444,0.000118262,0.005,1.76363,0.000646556,-0.00131544,-0.0621489,8.24708,0.0264427,1.58965,0.978166,-0.255624,5.0652,0.17178,6.26657,0.251279,0.249886,-0.459299,0.113938,-0.104736,0.145075,-0.535767,-0.108839,23.479,23.3655,23.1952,23.3229,23.2378,23.3229,23.1669,
16,6.2727,1.38551,3.15336,4.11733,6.27421,1.97538,1.55575,0.00251854,-0.019447,-7.57287e-05,0.11209,6.87834e-05,0.0453764,1.0582e-05,0.352647,-4.52595,-0.332429,2.81734,0.582292,-16.3853,0.697108,-0.00484968,-19.974,-0.397046,0.762979,-0.0400426,1.27337,0.00320927,-1.20523e-05,0.00138717,6.25678e-06,0.493962,0.00131634,0.0733619,0.03652,-0.000604893,0.0103098,1.99372,0.000133364,0.005,1.76148,0.000664431,-0.00477879,-0.0694863,9.0522,0.0306881,1.58965,0.978166,-0.255624,5.0652,0.17178,6.26657,0.251279,0.249886,-0.459299,0.113938,-0.104736,0.145075,-0.535767,-0.108839,23.479,23.3655,23.1952,23.3229,23.2378,23.3229,23.1669,
17,6.27271,1.38548,3.15336,4.11744,6.27421,1.97543,1.55575,0.00280795,-0.0240738,-9.01508e-05,0.111437,6.87827e-05,0.0472192,1.05821e-05,0.352726,-4.52481,-0.332618,2.81641,0.582387,-16.3832,0.697204,-0.00484783,-19.9746,-0.397066,0.763931,-0.0400392,1.27321,0.00321004,-1.20523e-05,0.00138717,6.25678e-06,0.493962,0.00131634,0.0733619,0.0373096,-0.000703401,0.0123471,1.99372,0.000133364,0.005,1.76148,0.000664431,-0.00477879,-0.0694863,9.0522,0.0306881,1.53547,1.23849,-0.252697,5.19253,0.151326,6.22004,0.225911,0.257938,-0.483398,0.0966797,-0.0569691,0.149102,-0.543838,-0.108839,23.4648,23.3797,23.1952,23.3229,23.2378,23.3087,23.1527,
18,6.27271,1.38545,3.15336,4.11755,6.27421,1.97548,1.55575,0.00319953,-0.0283602,-9.86702e-05,0.11074,6.89382e-05,0.0502381,1.0582e-05,0.35463,-4.70369,-0.329217,2.6802,0.611998,-17.0922,0.713232,-0.00436525,-20,-0.399215,0.740987,-0.0399047,1.20178,0.00392976,-1.4025e-05,0.00156944,7.86251e-06,0.493962,0.00131634,0.0733619,0.038015,-0.000842858,0.014376,1.99298,0.000150858,0.005,1.7601,0.000768833,-0.00661243,-0.0765123,9.7188,0.0430231,1.51898,1.59396,-0.192919,5.23342,0.114213,6.19061,0.237852,0.257812,-0.564022,0.0966797,-0.0490066,0.153076,-0.535782,-0.104736,23.4932,23.3655,23.1952,23.3087,23.2378,23.3087,23.1527,
19,6.27271,1.38545,3.15336,4.11755,6.27421,1.97548,1.55575,0.00319953,-0.0283602,-9.86702e-05,0.11074,6.89382e-05,0.0502381,1.0582e-05,0.356471,-4.89356,-0.324074,2.53792,0.646975,-17.8413,0.728919,-0.00387568,-20,-0.40137,0.715921,-0.0397386,1.12677,0.00455212,-1.57521e-05,0.00175597,1.00168e-05,0.493962,0.00131634,0.0733619,0.038015,-0.000842858,0.014376,1.99223,0.000173896,0.005,1.75879,0.000915078,-0.00843844,-0.0825828,10.4207,0.0594131,1.51898,1.59396,-0.192919,5.23342,0.114213,6.19061,0.237852,0.257812,-0.564022,0.0966797,-0.0490066,0.153076,-0.535782,-0.104736,23.4932,23.3655,23.1952,23.3087,23.2378,23.3087,23.1527,
20,6.27272,1.38542,3.15336,4.11767,6.27421,1.97554,1.55575,0.00372321,-0.0329185,-0.000106999,0.110589,6.89389e-05,0.0521598,1.059e-05,0.356574,-4.89231,-0.32434,2.53687,0.647091,-17.839,0.729039,-0.00387761,-20,-0.401389,0.716957,-0.0397389,1.1266,0.00455301,-1.57521e-05,0.00175597,1.00168e-05,0.493962,0.00131634,0.0733619,0.0389348,-0.0010345,0.0163862,1.99223,0.000173896,0.005,1.75879,0.000915078,-0.00843844,-0.0825828,10.4207,0.0594131,1.40305,1.80666,-0.136643,5.30478,0.120356,6.12773,0.24135,0.241833,-0.644733,0.0889885,-0.00805664,0.153129,-0.543838,-0.104814,23.479,23.3513,23.1811,23.3371,23.2378,23.2804,23.1669,
21,6.27272,1.38538,3.15336,4.11777,6.27421,1.97559,1.55575,0.00437127,-0.0386239,-0.00011502,0.11101,6.88867e-05,0.0529391,1.059e-05,0.35859,-5.09236,-0.318159,2.38406,0.687483,-18.63,0.74621,-0.0033763,-20,-0.403618,0.691092,-0.0395404,1.04696,0.00523045,-1.75964e-05,0.00196128,1.19873e-05,0.493962,0.00131634,0.0733619,0.0402618,-0.00127344,0.0187172,1.99141,0.000196187,0.005,1.75723,0.00110762,-0.0102476,-0.0891791,11.1648,0.0795843,1.43412,2.06356,-0.106469,5.39827,0.127125,6.03089,0.24135,0.241833,-0.725142,0.0805664,0.0161133,0.145075,-0.543838,-0.104814,23.479,23.3513,23.1669,23.3087,23.2378,23.2946,23.1669,
22,6.27272,1.38538,3.15336,4.11777,6.27421,1.97559,1.55575,0.00437127,-0.0386239,-0.00011502,0.11101,6.88867e-05,0.0529391,1.059e-05,0.360329,-5.29341,-0.308713,2.23144,0.736165,-19.4247,0.764123,-0.00291385,-20,-0.405616,0.664064,-0.0392838,0.96713,0.0059509,-1.9429e-05,0.00216112,1.51598e-05,0.493962,0.00131634,0.0733619,0.0402618,-0.00127344,0.0187172,1.99062,0.000227088,0.005,1.75532,0.00135047,-0.0123454,-0.0962263,11.9116,0.107056,1.43412,2.06356,-0.106469,5.39827,0.127125,6.03089,0.24135,0.241833,-0.725142,0.0805664,0.0161133,0.145075,-0.543838,-0.104814,23.479,23.3513,23.1669,23.3087,23.2378,23.2946,23.1669,
23,6.27273,1.38533,3.15336,4.11789,6.27421,1.97564,1.55575,0.00491552,-0.0458906,-0.000117839,0.112631,6.88867e-05,0.0550999,1.0582e-05,0.36045,-5.292,-0.309051,2.22979,0.736285,-19.4217,0.764262,-0.00291966,-20,-0.405638,0.664783,-0.0392863,0.967044,0.00595241,-1.9429e-05,0.00216112,1.51598e-05,0.493962,0.00131634,0.0733619,0.0422653,-0.0014647,0.0217883,1.99062,0.000227088,0.005,1.75532,0.00135047,-0.0123454,-0.0962263,11.9116,0.107056,1.33795,2.32238,-0.118785,5.4734,0.11178,5.95756,0.235994,0.233643,-0.749268,0.0805664,0.0180152,0.157104,-0.531754,-0.104814,23.479,23.3797,23.1811,23.3229,23.2378,23.2946,23.1669,
24,6.27273,1.38528,3.15336,4.118,6.27421,1.9757,1.55575,0.00544219,-0.0521288,-0.000115576,0.115062,6.89389e-05,0.0550999,1.05821e-05,0.362895,-5.5342,-0.301875,2.04239,0.784085,-20.3851,0.784249,-0.00230661,-20,-0.408361,0.632632,-0.0390543,0.869683,0.00670429,-2.11236e-05,0.00237508,1.83348e-05,0.493962,0.00131634,0.0733619,0.044284,-0.0016545,0.0242104,1.98977,0.000258892,0.005,1.75275,0.00155123,-0.0151095,-0.103536,12.8207,0.130405,1.3467,2.65752,-0.0287493,5.47675,0.0999414,5.89627,0.239238,0.218125,-0.741211,0.072956,-0.0161133,0.153076,-0.547866,-0.108765,23.479,23.3513,23.1811,23.3087,23.2236,23.3087,23.1385,
25,6.27273,1.38528,3.15336,4.118,6.27421,1.9757,1.55575,0.00544219,-0.0521288,-0.000115576,0.115062,6.89389e-05,0.0550999,1.05821e-05,0.365013,-5.76342,-0.293536,1.86685,0.832406,-21.2897,0.802598,-0.00174335,-20,-0.410811,0.601401,-0.0388132,0.778691,0.00736564,-2.26023e-05,0.00259411,2.20637e-05,0.493962,0.00131634,0.0733619,0.044284,-0.0016545,0.0242104,1.98889,0.00029618,0.005,1.75015,0.00175562,-0.0172893,-0.109981,13.6721,0.155446,1.3467,2.65752,-0.0287493,5.47675,0.0999414,5.89627,0.239238,0.218125,-0.741211,0.072956,-0.0161133,0.153076,-0.547866,-0.108765,23.479,23.3513,23.1811,23.3087,23.2236,23.3087,23.1385,
26,6.27274,1.38523,3.15336,4.11812,6.27421,1.97576,1.55575,0.0057933,-0.0561803,-0.000115733,0.117109,5.83329e-05,0.0556182,1.05821e-05,0.365121,-5.76182,-0.293836,1.86568,0.832517,-21.2869,0.802755,-0.00174709,-20,-0.410836,0.60263,-0.0388101,0.778521,0.00736725,-2.26023e-05,0.00259411,2.20637e-05,0.493962,0.00131634,0.0733619,0.0457293,-0.00178034,0.0258334,1.98889,0.00029618,0.005,1.75015,0.00175562,-0.0172893,-0.109981,13.6721,0.155446,1.23109,2.84283,0.0065659,5.49786,0.105316,5.81631,0.23271,0.201416,-0.765423,0.072956,-0.00805664,0.149265,-0.523682,-0.10103,23.479,23.3655,23.1811,23.3229,23.2236,23.2804,23.1527,
27,6.27274,1.38523,3.15336,4.11812,6.27421,1.97576,1.55575,0.0057933,-0.0561803,-0.000115733,0.117109,5.83329e-05,0.0556182,1.05821e-05,0.367309,-5.99114,-0.287158,1.69154,0.875605,-22.1851,0.821598,-0.00116546,-20,-0.413408,0.571786,-0.0386116,0.688541,0.00812242,-2.47367e-05,0.00283297,2.60291e-05,0.493962,0.00131634,0.0733619,0.0457293,-0.00178034,0.0258334,1.98794,0.000333882,0.005,1.74799,0.0019028,-0.0187501,-0.117354,14.5155,0.176039,1.23109,2.84283,0.0065659,5.49786,0.105316,5.81631,0.23271,0.201416,-0.765423,0.072956,-0.00805664,0.149265,-0.523682,-0.10103,23.479,23.3655,23.1811,23.3229,23.2236,23.2804,23.1527,
28,6.27275,1.38516,3.15336,4.11824,6.27421,1.97581,1.55575,0.00648234,-0.0589733,-0.000113703,0.119532,5.82013e-05,0.0550999,1.059e-05,0.367442,-5.98948,-0.287554,1.69068,0.875726,-22.1826,0.821793,-0.00117639,-20,-0.413425,0.573222,-0.0386146,0.688347,0.00812538,-2.47367e-05,0.00283297,2.60291e-05,0.493962,0.00131634,0.0733619,0.0470167,-0.00204283,0.0268437,1.98794,0.000333882,0.005,1.74799,0.0019028,-0.0187501,-0.117354,14.5155,0.176039,1.21382,3.04808,0.0429615,5.46248,0.114162,5.75037,0.232614,0.209628,-0.805664,0.0563965,-0.041081,0.149048,-0.523697,-0.104814,23.479,23.3513,23.1952,23.3229,23.2378,23.2946,23.1527,
29,6.27275,1.38516,3.15336,4.11824,6.27421,1.97581,1.55575,0.00648234,-0.0589733,-0.000113703,0.119532,5.82013e-05,0.0550999,1.059e-05,0.369187,-6.20471,-0.275962,1.52711,0.931601,-23.0207,0.839341,-0.000712505,-20,-0.415464,0.544279,-0.0383212,0.604518,0.00872696,-2.64127e-05,0.00307223,3.07713e-05,0.493962,0.00131634,0.0733619,0.0470167,-0.00204283,0.0268437,1.98697,0.000378709,0.005,1.74596,0.00217938,-0.0196594,-0.12324,15.3025,0.208928,1.21382,3.04808,0.0429615,5.46248,0.114162,5.75037,0.232614,0.209628,-0.805664,0.0563965,-0.041081,0.149048,-0.523697,-0.104814,23.479,23.3513,23.1952,23.3229,23.2378,23.2946,23.1527,
30,6.27275,1.3851,3.15336,4.11836,6.27421,1.97586,1.55575,0.00675863,-0.060686,-0.000113703,0.123435,5.82888e-05,0.0540195,1.0582e-05,0.369263,-6.20302,-0.27623,1.52633,0.931685,-23.0182,0.839486,-0.000722171,-20,-0.41549,0.545803,-0.0383169,0.604338,0.00872909,-2.64127e-05,0.00307223,3.07713e-05,0.493962,0.00131634,0.0733619,0.0485025,-0.00214198,0.0273408,1.98697,0.000378709,0.005,1.74596,0.00217938,-0.0196594,-0.12324,15.3025,0.208928,1.06553,3.20508,0.0673352,5.38719,0.136146,5.65563,0.20856,0.201416,-0.878174,0.0725098,-0.0569691,0.153288,-0.507584,-0.100789,23.4648,23.3513,23.1952,23.3087,23.2236,23.2946,23.1527,
31,6.27276,1.38503,3.15336,4.11849,6.27421,1.97592,1.55575,0.00675863,-0.0632028,-0.000111593,0.124515,5.83329e-05,0.0561803,1.0582e-05,0.371316,-6.41638,-0.269723,1.36135,0.972976,-23.8482,0.856223,-0.000198451,-20,-0.417899,0.518102,-0.0381199,0.520905,0.00934366,-2.80885e-05,0.00331149,3.54847e-05,0.493962,0.00131634,0.0733619,0.0493436,-0.00213187,0.0285522,1.986,0.000423539,0.005,1.74375,0.00230896,-0.0201067,-0.129216,16.0845,0.229082,1.1153,3.44996,0.111234,5.30703,0.115613,5.56678,0.217799,0.193359,-0.958774,0.0569691,-0.105046,0.157156,-0.483415,-0.100789,23.4648,23.3655,23.1811,23.3087,23.2236,23.2804,23.1385,
32,6.27276,1.38503,3.15336,4.11849,6.27421,1.97592,1.55575,0.00675863,-0.0632028,-0.000111593,0.124515,5.83329e-05,0.0561803,1.0582e-05,0.373633,-6.64114,-0.266553,1.19221,1.00495,-24.7255,0.872154,0.000417612,-20,-0.420661,0.488293,-0.0380044,0.433281,0.00990482,-2.9752e-05,0.00355195,4.01556e-05,0.493962,0.00131634,0.0733619,0.0493436,-0.00213187,0.0285522,1.98503,0.000468355,0.005,1.74211,0.00234021,-0.021197,-0.134647,16.9065,0.240353,1.1153,3.44996,0.111234,5.30703,0.115613,5.56678,0.217799,0.193359,-0.958774,0.0569691,-0.105046,0.157156,-0.483415,-0.100789,23.4648,23.3655,23.1811,23.3087,23.2236,23.2804,23.1385,
33,6.27277,1.38497,3.15336,4.11863,6.27421,1.97597,1.55575,0.00702253,-0.0685352,-0.000111595,0.124967,5.82888e-05,0.0550441,1.0582e-05,0.373716,-6.6389,-0.266832,1.19088,1.00503,-24.7219,0.872275,0.000406754,-20,-0.420683,0.489746,-0.038,0.433057,0.00990602,-2.9752e-05,0.00355195,4.01556e-05,0.493962,0.00131634,0.0733619,0.0505969,-0.00222587,0.0305395,1.98503,0.000468355,0.005,1.74211,0.00234021,-0.021197,-0.134647,16.9065,0.240353,1.01917,3.57746,0.159464,5.23593,0.139089,5.46662,0.205262,0.193359,-1.01514,0.0586532,-0.136963,0.157311,-0.495549,-0.100789,23.4648,23.3513,23.1669,23.3087,23.2236,23.2804,23.1527,
34,6.27277,1.38489,3.15336,4.11876,6.27421,1.97603,1.55575,0.00729263,-0.0740067,-0.000109704,0.126387,6.88867e-05,0.0546675,1.059e-05,0.376022,-6.86754,-0.260506,1.01404,1.0481,-25.6252,0.890652,0.000984702,-20,-0.423303,0.460019,-0.0378028,0.341912,0.0106024,-3.16278e-05,0.00381585,4.46182e-05,0.493962,0.00131634,0.0733619,0.0521588,-0.00231827,0.0326444,1.98392,0.000512153,0.005,1.73999,0.00246422,-0.0229855,-0.141432,17.7585,0.260684,0.992067,3.73598,0.210062,5.15017,0.154792,5.33705,0.233508,0.177246,-0.991,0.0649547,-0.136963,0.161183,-0.467303,-0.088623,23.4648,23.3513,23.1527,23.3087,23.2236,23.2946,23.1669,
35,6.27278,1.38481,3.15336,4.11888,6.27421,1.97608,1.55575,0.00728208,-0.0799951,-0.000109704,0.123705,6.88867e-05,0.0550999,0,0.378522,-7.11229,-0.25499,0.824811,1.09035,-26.5919,0.911151,0.00162393,-20,-0.426194,0.4281,-0.0376043,0.244319,0.0114493,-3.39156e-05,0.00408106,4.86705e-05,0.493962,0.00131634,0.0733619,0.052644,-0.00230685,0.0351163,1.98283,0.000558081,0.005,1.73761,0.00258872,-0.0248799,-0.149679,18.67,0.279132,0.922094,3.88267,0.223536,5.04139,0.167071,5.20495,0.225639,0.177246,-0.974987,0.072956,-0.1372,0.149102,-0.467285,-0.0967636,23.4932,23.3513,23.1952,23.3087,23.2378,23.2946,23.1527,
36,6.27278,1.38481,3.15336,4.11888,6.27421,1.97608,1.55575,0.00728208,-0.0799951,-0.000109704,0.123705,6.88867e-05,0.0550999,0,0.380744,-7.33294,-0.250417,0.659311,1.12593,-27.4638,0.92824,0.00221472,-20,-0.4288,0.39902,-0.0374658,0.156968,0.0121231,-3.58001e-05,0.00434216,5.39001e-05,0.493962,0.00131634,0.0733619,0.052644,-0.00230685,0.0351163,1.98177,0.000606226,0.005,1.73621,0.00262177,-0.0271047,-0.156227,19.4871,0.293675,0.922094,3.88267,0.223536,5.04139,0.167071,5.20495,0.225639,0.177246,-0.974987,0.072956,-0.1372,0.149102,-0.467285,-0.0967636,23.4932,23.3513,23.1952,23.3087,23.2378,23.2946,23.1527,
37,6.27279,1.38472,3.15336,4.11901,6.27421,1.97614,1.55575,0.00675863,-0.0853508,-0.00010774,0.123435,6.8886e-05,0.0550999,1.05821e-05,0.380715,-7.33089,-0.250413,0.657904,1.12595,-27.4603,0.928253,0.00220538,-20,-0.428832,0.400334,-0.0374453,0.156749,0.012123,-3.58001e-05,0.00434216,5.39001e-05,0.493962,0.00131634,0.0733619,0.0536913,-0.00209025,0.037248,1.98177,0.000606226,0.005,1.73621,0.00262177,-0.0271047,-0.156227,19.4871,0.293675,0.947791,4.11222,0.266213,4.93366,0.144893,5.09336,0.22933,0.185478,-0.950718,0.0563965,-0.072956,0.153076,-0.471313,-0.0926514,23.4932,23.3513,23.1669,23.2946,23.2236,23.2946,23.1243,
38,6.27279,1.38463,3.15336,4.11913,6.27421,1.97619,1.55575,0.00620909,-0.0902126,-0.00010788,0.123849,6.89389e-05,0.0550999,1.0582e-05,0.383426,-7.5599,-0.253286,0.481698,1.14079,-28.3673,0.941654,0.00292643,-20,-0.43214,0.370821,-0.0374353,0.0652582,0.0125169,-3.6741e-05,0.00460206,5.80636e-05,0.493962,0.00131634,0.0733619,0.0548315,-0.00186228,0.0391727,1.98071,0.000646026,0.005,1.73432,0.00246265,-0.0290232,-0.15994,20.3414,0.289322,0.869315,4.28766,0.268847,4.81795,0.163763,4.97952,0.203838,0.193527,-0.926514,0.0569691,-0.0586532,0.161334,-0.463257,-0.0846906,23.4932,23.3655,23.1811,23.2946,23.2378,23.3087,23.1527,
39,6.2728,1.38454,3.15336,4.11926,6.27421,1.97625,1.55575,0.00567205,-0.0972351,-0.000106114,0.123243,7.94847e-05,0.0556706,1.059e-05,0.386261,-7.79482,-0.257223,0.300161,1.15326,-29.2957,0.958189,0.00367889,-20,-0.435605,0.340262,-0.0374437,-0.0284051,0.0132177,-3.86705e-05,0.00486756,6.16926e-05,0.493962,0.00131634,0.0733619,0.0561323,-0.00163528,0.0420318,1.97963,0.000681387,0.005,1.73232,0.0022893,-0.0307555,-0.166718,21.2165,0.282493,0.899017,4.52099,0.263697,4.74156,0.187906,4.84826,0.230356,0.201416,-0.918492,0.0742786,-0.0402832,0.161183,-0.455218,-0.0927389,23.479,23.3513,23.1669,23.2946,23.2378,23.2946,23.1527,
40,6.2728,1.38443,3.15336,4.11938,6.27421,1.9763,1.55575,0.00520149,-0.10131,-0.000106114,0.125198,7.94847e-05,0.0529391,1.059e-05,0.389525,-8.0565,-0.26323,0.0989505,1.16315,-30.3371,0.977935,0.00454515,-20,-0.439573,0.306601,-0.0374709,-0.133554,0.0141296,-4.11664e-05,0.00515327,6.36412e-05,0.493962,0.00131634,0.0733619,0.0575496,-0.00144125,0.0433305,1.97847,0.000709654,0.005,1.7301,0.00211044,-0.0333286,-0.175519,22.1975,0.27132,0.821823,4.73409,0.258285,4.64134,0.200579,4.68933,0.21015,0.193359,-0.854042,0.072956,-0.0433863,0.161133,-0.463257,-0.0845947,23.479,23.3513,23.1669,23.3087,23.2378,23.2804,23.1527,
41,6.2728,1.38443,3.15336,4.11938,6.27421,1.9763,1.55575,0.00520149,-0.10131,-0.000106114,0.125198,7.94847e-05,0.0529391,1.059e-05,0.392328,-8.29168,-0.266541,-0.0805062,1.17728,-31.2567,0.995228,0.00529031,-20,-0.442934,0.274773,-0.0374851,-0.225698,0.0149026,-4.3296e-05,0.00543661,6.67509e-05,0.493962,0.00131634,0.0733619,0.0575496,-0.00144125,0.0433305,1.9773,0.00074003,0.005,1.72778,0.00196315,-0.0344975,-0.18297,23.0615,0.266165,0.821823,4.73409,0.258285,4.64134,0.200579,4.68933,0.21015,0.193359,-0.854042,0.072956,-0.0433863,0.161133,-0.463257,-0.0845947,23.479,23.3513,23.1669,23.3087,23.2378,23.2804,23.1527,
42,6.27281,1.38433,3.15336,4.11951,6.27421,1.97636,1.55575,0.00468134,-0.100914,-0.000104274,0.126136,8.47837e-05,0.0512665,1.05821e-05,0.392277,-8.2896,-0.266464,-0.0808671,1.17728,-31.2543,0.995177,0.00527851,-20,-0.442963,0.277089,-0.0374625,-0.226052,0.0148981,-4.3296e-05,0.00543661,6.67509e-05,0.493962,0.00131634,0.0733619,0.05773,-0.00123778,0.0429934,1.9773,0.00074003,0.005,1.72778,0.00196315,-0.0344975,-0.18297,23.0615,0.266165,0.859585,5.08026,0.225784,4.49913,0.220837,4.54089,0.228561,0.209473,-0.870453,0.0725098,-0.0649547,0.153076,-0.427002,-0.0765381,23.479,23.3513,23.1669,23.2804,23.2378,23.2804,23.1385,
43,6.27281,1.38423,3.15336,4.11964,6.27421,1.9764,1.55575,0.00377945,-0.101557,-0.000104274,0.125886,8.48478e-05,0.0481262,2.11639e-05,0.394604,-8.48366,-0.271671,-0.228466,1.18104,-32.0077,1.00896,0.00591797,-20,-0.446,0.253621,-0.0375004,-0.30156,0.0155373,-4.55636e-05,0.00571102,6.83257e-05,0.493962,0.00131634,0.0733619,0.0577862,-0.000885951,0.0429339,1.97616,0.000761332,0.005,1.72659,0.0017992,-0.0341941,-0.189167,23.7684,0.255113,0.754465,5.31741,0.227118,4.36789,0.241299,4.38804,0.209783,0.233781,-0.96683,0.072956,-0.072956,0.153129,-0.410889,-0.0725098,23.4648,23.3513,23.1669,23.2804,23.2378,23.2662,23.1243,
44,6.27281,1.38423,3.15336,4.11964,6.27421,1.9764,1.55575,0.00377945,-0.101557,-0.000104274,0.125886,8.48478e-05,0.0481262,2.11639e-05,0.397214,-8.67115,-0.281684,-0.369014,1.17045,-32.7319,1.01814,0.00661164,-20,-0.449205,0.228896,-0.0376687,-0.373586,0.0158351,-4.66382e-05,0.00599236,6.92569e-05,0.493962,0.00131634,0.0733619,0.0577862,-0.000885951,0.0429339,1.97497,0.000774928,0.005,1.72546,0.00149479,-0.0341405,-0.191861,24.4456,0.232082,0.754465,5.31741,0.227118,4.36789,0.241299,4.38804,0.209783,0.233781,-0.96683,0.072956,-0.072956,0.153129,-0.410889,-0.0725098,23.4648,23.3513,23.1669,23.2804,23.2378,23.2662,23.1243,
45,6.27282,1.38413,3.15336,4.11976,6.27421,1.97645,1.55575,0.00350949,-0.103177,-0.000102623,0.123435,9.54538e-05,0.0445948,2.11797e-05,0.397199,-8.66875,-0.281686,-0.369106,1.17045,-32.7295,1.01809,0.00659854,-20,-0.449219,0.231238,-0.0376529,-0.374016,0.01583,-4.66382e-05,0.00599236,6.92569e-05,0.493962,0.00131634,0.0733619,0.0574136,-0.000786506,0.0432589,1.97497,0.000774928,0.005,1.72546,0.00149479,-0.0341405,-0.191861,24.4456,0.232082,0.781174,5.62686,0.215616,4.29986,0.286985,4.19488,0.233217,0.249756,-1.03138,0.0725098,-0.0490066,0.165161,-0.378662,-0.0846906,23.4648,23.3513,23.1669,23.2804,23.2236,23.2804,23.1527,
46,6.27282,1.38402,3.15336,4.11988,6.27421,1.97649,1.55575,0.00338097,-0.103818,-0.000102623,0.121421,9.53816e-05,0.0405146,2.11639e-05,0.399182,-8.83231,-0.284413,-0.492382,1.1796,-33.3707,1.0317,0.00710695,-20,-0.451626,0.21222,-0.0376533,-0.438432,0.0165115,-4.91178e-05,0.00626343,6.98859e-05,0.493962,0.00131634,0.0733619,0.0569609,-0.000745566,0.0431308,1.97383,0.00079111,0.005,1.72478,0.00141985,-0.034433,-0.198502,25.0467,0.227851,0.717094,5.87376,0.168295,4.22669,0.284091,3.99539,0.222623,0.241699,-1.0636,0.072956,-0.00805664,0.165358,-0.342431,-0.080667,23.4648,23.3513,23.1811,23.3087,23.2094,23.2804,23.1385,
47,6.27282,1.38402,3.15336,4.11988,6.27421,1.97649,1.55575,0.00338097,-0.103818,-0.000102623,0.121421,9.53816e-05,0.0405146,2.11639e-05,0.400903,-8.98955,-0.284535,-0.609351,1.19501,-33.9763,1.04402,0.00756445,-20,-0.453729,0.191791,-0.037622,-0.49852,0.0170696,-5.12459e-05,0.00653345,7.1096e-05,0.493962,0.00131634,0.0733619,0.0569609,-0.000745566,0.0431308,1.97268,0.00080512,0.005,1.72414,0.00139562,-0.0343177,-0.203925,25.6122,0.229813,0.717094,5.87376,0.168295,4.22669,0.284091,3.99539,0.222623,0.241699,-1.0636,0.072956,-0.00805664,0.165358,-0.342431,-0.080667,23.4648,23.3513,23.1811,23.3087,23.2094,23.2804,23.1385,
48,6.27282,1.38392,3.15336,4.12,6.27421,1.97653,1.55575,0.00312089,-0.103717,-0.000100903,0.118843,0.00010598,0.0378136,2.11639e-05,0.400897,-8.98746,-0.284541,-0.60921,1.19501,-33.9744,1.04397,0.00755071,-20,-0.453741,0.194301,-0.0376066,-0.498964,0.0170642,-5.12459e-05,0.00653345,7.1096e-05,0.493962,0.00131634,0.0733619,0.0561894,-0.000652657,0.0428649,1.97268,0.00080512,0.005,1.72414,0.00139562,-0.0343177,-0.203925,25.6122,0.229813,0.772935,6.14852,0.165552,4.05308,0.276562,3.81036,0.201601,0.242236,-1.1199,0.072956,0.0332184,0.165161,-0.298123,-0.0726216,23.4932,23.3371,23.1527,23.2804,23.2094,23.2662,23.1385,
49,6.27283,1.38381,3.15336,4.12012,6.27421,1.97656,1.55575,0.00300922,-0.108039,-0.000109311,0.117109,0.00010606,0.0356529,2.11639e-05,0.402704,-9.13345,-0.287571,-0.719347,1.20153,-34.5419,1.05608,0.00801298,-20,-0.455943,0.177178,-0.037619,-0.555759,0.0176789,-5.36926e-05,0.00679014,7.14017e-05,0.493962,0.00131634,0.0733619,0.0565937,-0.000604268,0.0443902,1.97157,0.000817612,0.005,1.72384,0.00132324,-0.0340784,-0.209915,26.1439,0.224672,0.686361,6.38664,0.164581,3.91931,0.283785,3.64262,0.170078,0.241833,-1.19241,0.0644531,0.0980133,0.157311,-0.273955,-0.0685998,23.479,23.3513,23.1669,23.2804,23.2236,23.2804,23.1385,
50,6.27283,1.3837,3.15336,4.12024,6.27421,1.9766,1.55575,0.00266316,-0.113056,-0.000107634,0.118303,0.00010606,0.0341045,2.91004e-05,0.40493,-9.32949,-0.28831,-0.870474,1.21988,-35.3177,1.07312,0.00859813,-20,-0.458663,0.152335,-0.0375654,-0.633999,0.0185258,-5.63406e-05,0.00705616,7.25349e-05,0.493962,0.00131634,0.0733619,0.0579894,-0.000457183,0.0462029,1.9704,0.000828769,0.005,1.72243,0.00128973,-0.0354512,-0.218203,26.8749,0.225918,0.730316,6.61582,0.156535,3.79975,0.309254,3.44647,0.181192,0.249756,-1.15213,0.0563965,0.129909,0.169237,-0.237705,-0.0685998,23.4506,23.3371,23.1669,23.2804,23.2236,23.2804,23.1385,
51,6.27283,1.3837,3.15336,4.12024,6.27421,1.9766,1.55575,0.00266316,-0.113056,-0.000107634,0.118303,0.00010606,0.0341045,2.91004e-05,0.407772,-9.56049,-0.29294,-1.04711,1.23047,-36.2258,1.08759,0.00935347,-20,-0.462063,0.121034,-0.0375901,-0.725172,0.019027,-5.75226e-05,0.00732059,7.33034e-05,0.493962,0.00131634,0.0733619,0.0579894,-0.000457183,0.0462029,1.96926,0.000838788,0.005,1.72014,0.00116637,-0.0370826,-0.222933,27.7288,0.217912,0.730316,6.61582,0.156535,3.79975,0.309254,3.44647,0.181192,0.249756,-1.15213,0.0563965,0.129909,0.169237,-0.237705,-0.0685998,23.4506,23.3371,23.1669,23.2804,23.2236,23.2804,23.1385,
52,6.27283,1.38358,3.15336,4.12036,6.27421,1.97663,1.55575,0.00234067,-0.115602,-0.000116051,0.117763,0.000116579,0.0318392,2.91007e-05,0.40775,-9.55814,-0.292928,-1.04762,1.23045,-36.2229,1.08746,0.00933849,-20,-0.462082,0.123109,-0.0375761,-0.725492,0.0190189,-5.75226e-05,0.00732059,7.33034e-05,0.493962,0.00131634,0.0733619,0.0583633,-0.000325768,0.046994,1.96926,0.000838788,0.005,1.72014,0.00116637,-0.0370826,-0.222933,27.7288,0.217912,0.641247,6.84457,0.127077,3.70063,0.284081,3.24001,0.18751,0.249886,-1.08791,0.0725098,0.0966797,0.173218,-0.221558,-0.0644531,23.4506,23.3371,23.1669,23.2946,23.2236,23.2804,23.1385,
53,6.27283,1.38346,3.15336,4.12047,6.27421,1.97666,1.55575,0.00216078,-0.118864,-0.000122319,0.117763,0.000116665,0.0289004,2.91007e-05,0.410189,-9.74649,-0.298455,-1.19236,1.23452,-36.9644,1.10314,0.00996915,-20,-0.465028,0.0998139,-0.0376152,-0.800176,0.0198335,-6.00799e-05,0.00758195,7.26432e-05,0.493962,0.00131634,0.0733619,0.0590439,-0.000250712,0.0479886,1.96811,0.000842603,0.005,1.71877,0.00105153,-0.0377946,-0.230851,28.4266,0.207333,0.714941,7.17539,0.106551,3.5908,0.276635,3.05997,0.177469,0.265869,-1.07962,0.072956,0.113938,0.173218,-0.181274,-0.076644,23.479,23.3229,23.1669,23.2804,23.2094,23.2662,23.1101,
54,6.27283,1.38346,3.15336,4.12047,6.27421,1.97666,1.55575,0.00216078,-0.118864,-0.000122319,0.117763,0.000116665,0.0289004,2.91007e-05,0.412578,-9.94863,-0.301086,-1.34597,1.24781,-37.7537,1.12056,0.0106042,-20,-0.467904,0.0727046,-0.0376097,-0.879164,0.0207295,-6.28655e-05,0.00785276,7.29079e-05,0.493962,0.00131634,0.0733619,0.0590439,-0.000250712,0.0479886,1.9669,0.000845063,0.005,1.71707,0.000986197,-0.0386898,-0.239553,29.1675,0.203949,0.714941,7.17539,0.106551,3.5908,0.276635,3.05997,0.177469,0.265869,-1.07962,0.072956,0.113938,0.173218,-0.181274,-0.076644,23.479,23.3229,23.1669,23.2804,23.2094,23.2662,23.1101,
55,6.27283,1.38334,3.15335,4.12047,6.27421,1.97669,1.55575,0.00162058,-0.120734,-0.000124516,0.117763,0.000116666,0.0280901,2.91007e-05,0.412534,-9.94775,-0.300968,-1.34595,1.24778,-37.7529,1.12052,0.0105965,-20,-0.467913,0.073623,-0.0375927,-0.879318,0.0207275,-6.28655e-05,0.00785276,7.29079e-05,0.493962,0.00131634,0.0733619,0.0594304,-3.37809e-05,0.0486494,1.9669,0.000845063,0.005,1.71707,0.000986197,-0.0386898,-0.239553,29.1675,0.203949,0.605427,7.45688,0.0736432,3.5908,0.252972,2.87349,0.177234,0.257938,-1.07165,0.0649547,0.113938,0.169381,-0.153076,-0.0645789,23.4506,23.3371,23.1669,23.2804,23.2094,23.2662,23.1527,
56,6.27283,1.38334,3.15335,4.12047,6.27421,1.97669,1.55575,0.00162058,-0.120734,-0.000124516,0.117763,0.000116666,0.0280901,2.91007e-05,0.414172,-10.0643,-0.307152,-1.43385,1.24144,-38.2092,1.12929,0.0110318,-20,-0.469902,0.0581441,-0.0376949,-0.924937,0.0212179,-6.43603e-05,0.00799936,7.35105e-05,0.493962,0.00131634,0.0733619,0.0594304,-3.37809e-05,0.0486494,1.9664,0.000845938,0.005,1.71627,0.000791747,-0.0392845,-0.244221,29.5951,0.189728,0.605427,7.45688,0.0736432,3.5908,0.252972,2.87349,0.177234,0.257938,-1.07165,0.0649547,0.113938,0.169381,-0.153076,-0.0645789,23.4506,23.3371,23.1669,23.2804,23.2094,23.2662,23.1527,
57,6.27283,1.38322,3.15335,4.12059,6.27421,1.97671,1.55575,0.00107984,-0.120463,-0.000130607,0.120611,0.000121969,0.0268322,3.70369e-05,0.414143,-10.062,-0.30708,-1.43455,1.24143,-38.2062,1.12914,0.0110225,-20,-0.469936,0.0604297,-0.0376749,-0.925215,0.021208,-6.43603e-05,0.00799936,7.35105e-05,0.493962,0.00131634,0.0733619,0.0601895,0.000185782,0.0483742,1.9664,0.000845938,0.005,1.71627,0.000791747,-0.0392845,-0.244221,29.5951,0.189728,0.655995,7.72556,0.0445323,3.47524,0.285821,2.65997,0.183161,0.249886,-1.08839,0.0569691,0.123243,0.181319,-0.141049,-0.0685998,23.479,23.3371,23.1527,23.2946,23.2094,23.2662,23.1385,
58,6.27284,1.38322,3.15335,4.12072,6.27421,1.97674,1.55575,0.00129974,-0.120463,-0.000136522,0.120118,0.000121877,0.0251191,3.70648e-05,0.417027,-10.2702,-0.316676,-1.59471,1.23576,-39.0132,1.14317,0.0117738,-20,-0.473417,0.0336725,-0.0378019,-1.00612,0.0218447,-6.63765e-05,0.00826577,7.21852e-05,0.493962,0.00131634,0.0733619,0.0600471,9.65296e-05,0.0482104,1.96521,0.000839132,0.005,1.71452,0.000588015,-0.0390368,-0.25027,30.3541,0.169334,0.575889,7.72556,0.0084544,3.39806,0.257151,2.47115,0.171633,0.282097,-1.08839,0.0644531,0.0433863,0.177292,-0.12085,-0.0645789,23.4648,23.3371,23.1527,23.3087,23.2094,23.2662,23.1385,
59,6.27284,1.3831,3.15335,4.12084,6.27422,1.97676,1.55575,0.00105298,-0.120341,-0.000138272,0.120193,0.000132575,0.0242841,3.70369e-05,0.417983,-10.364,-0.31486,-1.66723,1.25129,-39.3794,1.15204,0.0120101,-20,-0.474584,0.0234753,-0.0377182,-1.04311,0.0222663,-6.79459e-05,0.00841809,7.18391e-05,0.493962,0.00131634,0.0733619,0.0600368,0.000194168,0.0480877,1.96448,0.000842504,0.005,1.71399,0.000671377,-0.0388893,-0.254551,30.6991,0.175915,0.626006,8.05942,0.0113012,3.34503,0.270781,2.28332,0.158134,0.273926,-1.14407,0.0490066,0.0433863,0.181319,-0.0967636,-0.0644531,23.4648,23.3371,23.1527,23.2946,23.2236,23.2804,23.1527,
60,6.27284,1.3831,3.15335,4.12084,6.27422,1.97676,1.55575,0.00105298,-0.120341,-0.000138272,0.120193,0.000132575,0.0242841,3.70369e-05,0.420408,-10.5521,-0.321525,-1.80842,1.25176,-40.1052,1.1676,0.0126545,-20,-0.477563,-0.00128322,-0.0377865,-1.11528,0.0230928,-7.08405e-05,0.0086793,6.96198e-05,0.493962,0.00131634,0.0733619,0.0600368,0.000194168,0.0480877,1.96329,0.000832116,0.005,1.71293,0.000574153,-0.0387789,-0.262517,31.378,0.16257,0.626006,8.05942,0.0113012,3.34503,0.270781,2.28332,0.158134,0.273926,-1.14407,0.0490066,0.0433863,0.181319,-0.0967636,-0.0644531,23.4648,23.3371,23.1527,23.2946,23.2236,23.2804,23.1527,
61,6.27284,1.38298,3.15335,4.12096,6.27422,1.97679,1.55575,0.00122888,-0.120463,-0.000151479,0.119653,0.000132575,0.0221705,4.76193e-05,0.420525,-10.5498,-0.321772,-1.80862,1.25182,-40.1027,1.16765,0.0126479,-20,-0.477573,0.00122205,-0.0377815,-1.11566,0.0230877,-7.08405e-05,0.0086793,6.96198e-05,0.493962,0.00131634,0.0733619,0.0599011,0.000123805,0.047937,1.96329,0.000832116,0.005,1.71293,0.000574153,-0.0387789,-0.262517,31.378,0.16257,0.536671,8.42393,-0.00406016,3.21018,0.275143,2.11111,0.143892,0.273926,-1.2085,0.0563965,0.0322266,0.181677,-0.093001,-0.0565402,23.479,23.3513,23.1527,23.2804,23.2094,23.2946,23.1243,
62,6.27284,1.38285,3.15335,4.12108,6.27422,1.97681,1.55575,0.00119246,-0.121873,-0.000160589,0.118864,0.000132576,0.0195415,4.76188e-05,0.422422,-10.72,-0.320933,-1.9386,1.27266,-40.7652,1.18183,0.0131237,-20,-0.479819,-0.0189183,-0.0376994,-1.18218,0.0237151,-7.31562e-05,0.008938,6.93323e-05,0.493962,0.00131634,0.0733619,0.0599639,0.000137796,0.0482472,1.96211,0.00082784,0.005,1.71199,0.000633632,-0.0386433,-0.268733,32.0005,0.168146,0.612449,8.74388,-0.0280161,3.08842,0.31556,1.87032,0.150858,0.265991,-1.24138,0.0563965,0.0241699,0.177292,-0.0605589,-0.0483398,23.4648,23.3513,23.1669,23.2804,23.2378,23.2804,23.1243,
63,6.27284,1.38285,3.15335,4.12108,6.27422,1.97681,1.55575,0.00119246,-0.121873,-0.000160589,0.118864,0.000132576,0.0195415,4.76188e-05,0.424616,-10.9091,-0.323019,-2.08115,1.28632,-41.498,1.19915,0.0137066,-20,-0.482486,-0.0439309,-0.0376821,-1.25523,0.0246433,-7.63212e-05,0.00921454,6.84818e-05,0.493962,0.00131634,0.0733619,0.0599639,0.000137796,0.0482472,1.96084,0.000820061,0.005,1.71079,0.000614039,-0.0389225,-0.277783,32.6869,0.166173,0.612449,8.74388,-0.0280161,3.08842,0.31556,1.87032,0.150858,0.265991,-1.24138,0.0563965,0.0241699,0.177292,-0.0605589,-0.0483398,23.4648,23.3513,23.1669,23.2804,23.2378,23.2804,23.1243,
64,6.27284,1.38273,3.15335,4.1212,6.27422,1.97683,1.55575,0.000945341,-0.120193,-0.000173133,0.118033,0.000143071,0.019447,5.82453e-05,0.424673,-10.9072,-0.323101,-2.08143,1.28633,-41.4959,1.19906,0.0137012,-20,-0.482505,-0.0412991,-0.0376681,-1.25563,0.0246312,-7.63212e-05,0.00921454,6.84818e-05,0.493962,0.00131634,0.0733619,0.059364,0.000234491,0.0476016,1.96084,0.000820061,0.005,1.71079,0.000614039,-0.0389225,-0.277783,32.6869,0.166173,0.598025,9.08728,-0.0659785,3.03214,0.27932,1.65295,0.138004,0.257938,-1.22464,0.0490066,0.0322266,0.181274,-0.0362549,-0.0605589,23.4648,23.3371,23.1385,23.2946,23.2094,23.2662,23.1243,
65,6.27284,1.38262,3.15335,4.12132,6.27422,1.97684,1.55575,0.00105996,-0.118843,-0.000181518,0.118992,0.00015367,0.0164759,5.82008e-05,0.426974,-11.0748,-0.329902,-2.20764,1.28495,-42.1446,1.21254,0.0142776,-20,-0.485253,-0.0606018,-0.0377393,-1.32044,0.0253296,-7.90459e-05,0.00946842,6.62124e-05,0.493962,0.00131634,0.0733619,0.0593526,0.000186752,0.0467506,1.95967,0.000805458,0.005,1.71027,0.000513871,-0.0383415,-0.28458,33.2942,0.15261,0.625979,9.49327,-0.0312631,2.99229,0.27239,1.48115,0.138518,0.257812,-1.3052,0.0569691,0.0483398,0.189502,-0.0281982,-0.0529843,23.479,23.3371,23.1811,23.2662,23.2236,23.2804,23.1385,
66,6.27284,1.38262,3.15335,4.12132,6.27422,1.97684,1.55575,0.00105996,-0.118843,-0.000181518,0.118992,0.00015367,0.0164759,5.82008e-05,0.428797,-11.2361,-0.331287,-2.32939,1.29792,-42.7605,1.22905,0.0147619,-20,-0.487504,-0.0819615,-0.0377098,-1.38155,0.0262808,-8.24326e-05,0.00971925,6.45559e-05,0.493962,0.00131634,0.0733619,0.0593526,0.000186752,0.0467506,1.9585,0.000796671,0.005,1.70923,0.000548927,-0.0375755,-0.293907,33.8706,0.15225,0.625979,9.49327,-0.0312631,2.99229,0.27239,1.48115,0.138518,0.257812,-1.3052,0.0569691,0.0483398,0.189502,-0.0281982,-0.0529843,23.479,23.3371,23.1811,23.2662,23.2236,23.2804,23.1385,
67,6.27284,1.38249,3.15335,4.12143,6.27422,1.97686,1.55575,0.00106378,-0.11736,-0.00019344,0.120193,0.000153787,0.0145853,6.61372e-05,0.428891,-11.2339,-0.331472,-2.32963,1.29796,-42.7579,1.22906,0.0147548,-20,-0.487521,-0.0792815,-0.0377009,-1.38191,0.0262743,-8.24326e-05,0.00971925,6.45559e-05,0.493962,0.00131634,0.0733619,0.0593825,0.000184821,0.0459578,1.9585,0.000796671,0.005,1.70923,0.000548927,-0.0375755,-0.293907,33.8706,0.15225,0.58306,9.96578,-0.0543032,2.86146,0.302167,1.31623,0.120105,0.249886,-1.37001,0.0332184,0.0322266,0.193401,-0.00402832,-0.0565402,23.4506,23.3371,23.1527,23.2804,23.2236,23.2804,23.1385,
68,6.27284,1.38249,3.15335,4.12143,6.27422,1.97686,1.55575,0.00106378,-0.11736,-0.00019344,0.120193,0.000153787,0.0145853,6.61372e-05,0.4309,-11.4099,-0.333261,-2.46244,1.31096,-43.4311,1.24308,0.0152883,-20,-0.489997,-0.102569,-0.0376836,-1.44874,0.0269297,-8.48136e-05,0.00997675,6.38453e-05,0.493962,0.00131634,0.0733619,0.0593825,0.000184821,0.0459578,1.95729,0.000788153,0.005,1.70811,0.000542999,-0.036862,-0.300275,34.5006,0.15082,0.58306,9.96578,-0.0543032,2.86146,0.302167,1.31623,0.120105,0.249886,-1.37001,0.0332184,0.0322266,0.193401,-0.00402832,-0.0565402,23.4506,23.3371,23.1527,23.2804,23.2236,23.2804,23.1385,
69,6.27284,1.38238,3.15335,4.12156,6.27422,1.97687,1.55575,0.00106651,-0.114521,-0.000201514,0.117109,0.000164393,0.0124245,6.61372e-05,0.43099,-11.4079,-0.333429,-2.46207,1.31098,-43.4295,1.24305,0.0152786,-20,-0.490001,-0.0994694,-0.0376747,-1.44925,0.0269201,-8.48136e-05,0.00997675,6.38453e-05,0.493962,0.00131634,0.0733619,0.0578906,0.000170663,0.0446728,1.95729,0.000788153,0.005,1.70811,0.000542999,-0.036862,-0.300275,34.5006,0.15082,0.648444,10.3239,-0.112135,2.71114,0.34982,1.11305,0.138536,0.257812,-1.4341,0.0509547,-0.00805664,0.197429,0.0201416,-0.0483398,23.4648,23.3371,23.1527,23.2946,23.2094,23.2804,23.1385,
70,6.27284,1.38238,3.15335,4.12156,6.27422,1.97687,1.55575,0.00106651,-0.114521,-0.000201514,0.117109,0.000164393,0.0124245,6.61372e-05,0.432408,-11.5315,-0.335416,-2.55165,1.31794,-43.8953,1.25622,0.0156555,-20,-0.491794,-0.114835,-0.0376772,-1.49489,0.0277265,-8.82133e-05,0.0102265,6.21671e-05,0.493962,0.00131634,0.0733619,0.0578906,0.000170663,0.0446728,1.95609,0.000779375,0.005,1.70838,0.000547841,-0.0357055,-0.308175,34.9325,0.14808,0.648444,10.3239,-0.112135,2.71114,0.34982,1.11305,0.138536,0.257812,-1.4341,0.0509547,-0.00805664,0.197429,0.0201416,-0.0483398,23.4648,23.3371,23.1527,23.2946,23.2094,23.2804,23.1385,
71,6.27284,1.38227,3.15335,4.12167,6.27422,1.97688,1.55575,0.00106651,-0.113326,-0.000212866,0.116952,0.000180165,0.0125266,6.61872e-05,0.4325,-11.5296,-0.335591,-2.55215,1.31794,-43.8929,1.25611,0.0156497,-20,-0.49181,-0.112412,-0.0376701,-1.49523,0.0277114,-8.82133e-05,0.0102265,6.21671e-05,0.493962,0.00131634,0.0733619,0.0575891,0.000172556,0.044227,1.95609,0.000779375,0.005,1.70838,0.000547841,-0.0357055,-0.308175,34.9325,0.14808,0.648444,10.7209,-0.130167,2.62016,0.343153,0.926156,0.120158,0.257812,-1.5389,0.0322266,0.0402832,0.181319,0.0402832,-0.0525229,23.4648,23.3371,23.1527,23.2946,23.2236,23.2804,23.1243,
72,6.27284,1.38216,3.15335,4.12179,6.27422,1.97689,1.55575,0.000992151,-0.113981,-0.000220269,0.115062,0.000190763,0.0111777,7.40737e-05,0.434691,-11.6981,-0.34072,-2.67995,1.32173,-44.5456,1.27355,0.016207,-20,-0.494453,-0.132316,-0.0376933,-1.56058,0.0287622,-9.2005e-05,0.0104671,5.89765e-05,0.493962,0.00131634,0.0733619,0.0571761,0.000200235,0.04439,1.95496,0.000760033,0.005,1.70763,0.000528729,-0.0353043,-0.318516,35.5445,0.138979,0.61365,11.128,-0.103043,2.52158,0.363442,0.767021,0.117445,0.257938,-1.55502,0.0241699,0.0332184,0.193527,0.0563965,-0.0565402,23.4506,23.3229,23.1669,23.2804,23.2094,23.2662,23.1243,
73,6.27284,1.38204,3.15335,4.1219,6.27422,1.9769,1.55575,0.000905965,-0.113171,-0.000227693,0.110088,0.000201516,0.00864312,7.40737e-05,0.436663,-11.8504,-0.344698,-2.7947,1.32687,-45.1411,1.28627,0.0167034,-20,-0.496784,-0.149646,-0.0377057,-1.62043,0.029401,-9.43787e-05,0.0107025,5.69348e-05,0.493962,0.00131634,0.0733619,0.0555655,0.000220888,0.0438986,1.95383,0.000747624,0.005,1.70699,0.00049265,-0.035451,-0.324767,36.1025,0.13217,0.657501,11.5683,-0.109855,2.39017,0.390293,0.637157,0.0859396,0.249886,-1.54706,0.0254773,0.041081,0.189502,0.0604248,-0.0485074,23.4648,23.3371,23.1527,23.2946,23.2094,23.2662,23.1243,
74,6.27285,1.38192,3.15334,4.12201,6.27422,1.9769,1.55575,0.000830468,-0.111843,-0.000240546,0.108183,0.00021212,0.00650186,7.40737e-05,0.437954,-11.9517,-0.347061,-2.8688,1.33096,-45.5338,1.29814,0.0170174,-20,-0.498333,-0.159532,-0.0377134,-1.6596,0.030173,-9.7632e-05,0.0109302,5.55103e-05,0.493962,0.00131634,0.0733619,0.0547322,0.000244969,0.0431917,1.95273,0.000739744,0.005,1.70745,0.000466971,-0.0350087,-0.332425,36.468,0.128267,0.610217,11.9149,-0.104645,2.20995,0.409029,0.463477,0.123248,0.249886,-1.57107,0.0254773,0.153922,0.197429,0.0887145,-0.0404841,23.4506,23.3229,23.1527,23.2804,23.2094,23.2804,23.1243,
75,6.27285,1.38192,3.15334,4.12201,6.27422,1.9769,1.55575,0.000830468,-0.111843,-0.000240546,0.108183,0.00021212,0.00650186,7.40737e-05,0.439616,-12.088,-0.350544,-2.96975,1.33508,-46.0542,1.31187,0.0174589,-20,-0.500401,-0.177045,-0.0377383,-1.71104,0.0309989,-0.000100752,0.0111696,5.35592e-05,0.493962,0.00131634,0.0733619,0.0547322,0.000244969,0.0431917,1.95157,0.000728617,0.005,1.70715,0.000435283,-0.0343725,-0.340472,36.9531,0.121996,0.610217,11.9149,-0.104645,2.20995,0.409029,0.463477,0.123248,0.249886,-1.57107,0.0254773,0.153922,0.197429,0.0887145,-0.0404841,23.4506,23.3229,23.1527,23.2804,23.2094,23.2804,23.1243,
76,6.27285,1.38181,3.15334,4.12212,6.27422,1.97691,1.55576,0.000905837,-0.112361,-0.000268913,0.106311,0.000217258,0.00364104,8.47196e-05,0.439686,-12.0859,-0.350701,-2.96969,1.33509,-46.0522,1.31183,0.0174469,-20,-0.500406,-0.174669,-0.0377332,-1.71139,0.0309936,-0.000100752,0.0111696,5.35592e-05,0.493962,0.00131634,0.0733619,0.054297,0.000215973,0.0431385,1.95157,0.000728617,0.005,1.70715,0.000435283,-0.0343725,-0.340472,36.9531,0.121996,0.661183,12.2654,-0.105564,2.14031,0.429009,0.288875,0.103711,0.258943,-1.61135,0.0161133,0.185303,0.189374,0.112865,-0.0443115,23.4506,23.3229,23.1527,23.2662,23.1952,23.2662,23.1101,
77,6.27285,1.38171,3.15334,4.12222,6.27423,1.97691,1.55576,0.000787432,-0.10793,-0.000310488,0.103177,0.000238635,0.000945341,8.46557e-05,0.441152,-12.212,-0.350958,-3.06465,1.34787,-46.5438,1.32224,0.0178081,-20,-0.502123,-0.188349,-0.0376885,-1.76082,0.0314691,-0.000102426,0.011387,5.28007e-05,0.493962,0.00131634,0.0733619,0.0524586,0.000255971,0.0411613,1.9505,0.000723656,0.005,1.70658,0.000456915,-0.0343246,-0.345269,37.4137,0.123849,0.609171,12.6229,-0.0430375,2.06672,0.431858,0.142648,0.0971013,0.257938,-1.60329,0.0180152,0.209473,0.197429,0.141221,-0.045038,23.4506,23.3229,23.1527,23.2662,23.1952,23.2662,23.1101,
78,6.27285,1.38171,3.15334,4.12222,6.27423,1.97691,1.55576,0.000787432,-0.10793,-0.000310488,0.103177,0.000238635,0.000945341,8.46557e-05,0.442194,-12.2882,-0.355838,-3.11796,1.34155,-46.8211,1.33323,0.0180849,-20,-0.503493,-0.197312,-0.0377609,-1.78746,0.0323174,-0.000105734,0.0115953,4.95755e-05,0.493962,0.00131634,0.0733619,0.0524586,0.000255971,0.0411613,1.94946,0.000707517,0.005,1.7073,0.000406392,-0.0325452,-0.353542,37.6681,0.113064,0.609171,12.6229,-0.0430375,2.06672,0.431858,0.142648,0.0971013,0.257938,-1.60329,0.0180152,0.209473,0.197429,0.141221,-0.045038,23.4506,23.3229,23.1527,23.2662,23.1952,23.2662,23.1101,
79,6.27285,1.3816,3.15334,4.12232,6.27423,1.97691,1.55576,0.000794776,-0.106418,-0.000350117,0.102097,0.000254543,0,9.52376e-05,0.44225,-12.2865,-0.355966,-3.11807,1.34155,-46.8193,1.33314,0.0180709,-20,-0.503502,-0.194951,-0.0377546,-1.7878,0.032309,-0.000105734,0.0115953,4.95755e-05,0.493962,0.00131634,0.0733619,0.0518258,0.000258523,0.040492,1.94946,0.000707517,0.005,1.7073,0.000406392,-0.0325452,-0.353542,37.6681,0.113064,0.633848,13.0348,-0.0251009,1.99928,0.456238,-0.00521028,0.0874982,0.249756,-1.70803,0.0180152,0.257938,0.201456,0.165161,-0.0490066,23.4648,23.3229,23.1385,23.2662,23.1952,23.2662,23.1101,
80,6.27285,1.3816,3.15334,4.12242,6.27423,1.9769,1.55576,0.000794776,-0.106418,-0.000362416,0.102097,0.000275755,-0.000614238,9.52376e-05,0.443747,-12.4111,-0.358523,-3.21244,1.34738,-47.298,1.34364,0.0184649,-20,-0.505381,-0.210146,-0.037761,-1.83548,0.0328464,-0.000107604,0.0118007,4.79648e-05,0.493962,0.00131634,0.0733619,0.0518265,0.000263079,0.0404331,1.94844,0.000702479,0.005,1.70695,0.00039956,-0.0319428,-0.358886,38.1166,0.109074,0.633848,13.0348,0.00183855,1.92361,0.488191,-0.199393,0.110529,0.249756,-1.70803,0.00805664,0.265991,0.201456,0.185478,-0.0483398,23.4648,23.3229,23.1385,23.252,23.1952,23.2378,23.1101,
81,6.27285,1.38149,3.15334,4.12242,6.27423,1.9769,1.55576,0.000766971,-0.103818,-0.000362416,0.102097,0.000275755,-0.000614238,9.52376e-05,0.444777,-12.4793,-0.362805,-3.26392,1.34316,-47.563,1.35161,0.018712,-20,-0.506588,-0.217909,-0.0377978,-1.86207,0.0333763,-0.000109274,0.0118994,4.48749e-05,0.493962,0.00131634,0.0733619,0.0512764,0.000268385,0.0394076,1.94786,0.000694049,0.005,1.70643,0.000387873,-0.0318898,-0.364009,38.3648,0.100353,0.558578,13.3422,0.00183855,1.92361,0.488191,-0.199393,0.110529,0.257812,-1.74831,0.00805664,0.265991,0.201456,0.185478,-0.0483398,23.4648,23.3229,23.1385,23.252,23.1952,23.2378,23.1101,
82,6.27285,1.38139,3.15334,4.12253,6.27423,1.9769,1.55576,0.000708052,-0.102637,-0.000358783,0.100558,0.000296743,-0.000662313,9.53105e-05,0.445483,-12.5412,-0.363016,-3.31059,1.34899,-47.7975,1.35641,0.0188733,-20,-0.507457,-0.223555,-0.0377832,-1.88551,0.0335944,-0.000110412,0.0120096,4.54095e-05,0.493962,0.00131634,0.0733619,0.0505805,0.000286759,0.0389711,1.9474,0.000693505,0.005,1.70651,0.000382608,-0.0309668,-0.366266,38.5841,0.100961,0.553624,13.5832,0.0155274,1.89943,0.490351,-0.366804,0.085349,0.257938,-1.7967,0,0.249756,0.205444,0.181319,-0.0525229,23.4364,23.3087,23.1385,23.2662,23.1811,23.2378,23.1101,
83,6.27285,1.38139,3.15334,4.12253,6.27423,1.9769,1.55576,0.000708052,-0.102637,-0.000358783,0.100558,0.000296743,-0.000662313,9.53105e-05,0.447179,-12.6741,-0.367651,-3.4092,1.34984,-48.3073,1.36877,0.0193236,-20,-0.509562,-0.240662,-0.0378217,-1.93598,0.0343021,-0.000113176,0.0122164,4.27692e-05,0.493962,0.00131634,0.0733619,0.0505805,0.000286759,0.0389711,1.94636,0.000684631,0.005,1.7062,0.000358084,-0.030574,-0.373116,39.0597,0.0920583,0.553624,13.5832,0.0155274,1.89943,0.490351,-0.366804,0.085349,0.257938,-1.7967,0,0.249756,0.205444,0.181319,-0.0525229,23.4364,23.3087,23.1385,23.2662,23.1811,23.2378,23.1101,
84,6.27285,1.38129,3.15334,4.12262,6.27423,1.9769,1.55576,0.000643629,-0.100476,-0.000347743,0.0988557,0.000323238,-0.000957398,0.00010582,0.447217,-12.6727,-0.367748,-3.40931,1.34982,-48.3057,1.36861,0.0193072,-20,-0.509571,-0.238328,-0.0378152,-1.93632,0.0342884,-0.000113176,0.0122164,4.27692e-05,0.493962,0.00131634,0.0733619,0.0496321,0.000302914,0.0381215,1.94636,0.000684631,0.005,1.7062,0.000358084,-0.030574,-0.373116,39.0597,0.0920583,0.483515,13.8846,0.115947,1.84717,0.45488,-0.513439,0.0976021,0.249886,-1.78081,0.0180152,0.266357,0.20206,0.197388,-0.0402832,23.4364,23.3087,23.1243,23.2804,23.1952,23.252,23.1101,
85,6.27285,1.38129,3.15334,4.12262,6.27423,1.9769,1.55576,0.000643629,-0.100476,-0.000347743,0.0988557,0.000323238,-0.000957398,0.00010582,0.448706,-12.7861,-0.372719,-3.49267,1.34769,-48.737,1.37703,0.0197027,-20,-0.511442,-0.252713,-0.0378653,-1.9788,0.0346915,-0.000115123,0.0124112,3.97608e-05,0.493962,0.00131634,0.0733619,0.0496321,0.000302914,0.0381215,1.94538,0.000675233,0.005,1.70617,0.000335087,-0.0298093,-0.376947,39.4608,0.082056,0.483515,13.8846,0.115947,1.84717,0.45488,-0.513439,0.0976021,0.249886,-1.78081,0.0180152,0.266357,0.20206,0.197388,-0.0402832,23.4364,23.3087,23.1243,23.2804,23.1952,23.252,23.1101,
86,6.27285,1.38119,3.15334,4.12272,6.27424,1.9769,1.55576,0.000643629,-0.0991258,-0.000336711,0.100374,0.000344694,-0.00124426,0.00010582,0.448731,-12.7844,-0.372818,-3.49318,1.34768,-48.7347,1.37687,0.0196833,-20,-0.511456,-0.250641,-0.0378605,-1.97905,0.0346798,-0.000115123,0.0124112,3.97608e-05,0.493962,0.00131634,0.0733619,0.0497846,0.000301745,0.0375407,1.94538,0.000675233,0.005,1.70617,0.000335087,-0.0298093,-0.376947,39.4608,0.082056,0.482246,14.2251,0.175957,1.79392,0.482288,-0.655963,0.0613201,0.249756,-1.81276,0,0.290486,0.217567,0.185303,-0.0443115,23.4506,23.3087,23.1385,23.2662,23.1811,23.2378,23.1101,
87,6.27285,1.38119,3.15334,4.12272,6.27424,1.9769,1.55576,0.000643629,-0.0991258,-0.000336711,0.100374,0.000344694,-0.00124426,0.00010582,0.45054,-12.9291,-0.37707,-3.60298,1.35102,-49.2894,1.38937,0.0201636,-20,-0.513691,-0.269909,-0.0378836,-2.03421,0.0353372,-0.000117526,0.012605,3.7288e-05,0.493962,0.00131634,0.0733619,0.0497846,0.000301745,0.0375407,1.9444,0.000668397,0.005,1.70515,0.000329987,-0.0292866,-0.383305,39.9806,0.0744509,0.482246,14.2251,0.175957,1.79392,0.482288,-0.655963,0.0613201,0.249756,-1.81276,0,0.290486,0.217567,0.185303,-0.0443115,23.4506,23.3087,23.1385,23.2662,23.1811,23.2378,23.1101,
88,6.27285,1.3811,3.15334,4.12282,6.27424,1.97689,1.55576,0.000580669,-0.100374,-0.000325664,0.101016,0.000371209,-0.00173643,0.00010582,0.450558,-12.9272,-0.377147,-3.60362,1.35097,-49.2869,1.38913,0.0201473,-20,-0.513707,-0.268059,-0.037879,-2.03442,0.0353212,-0.000117526,0.012605,3.7288e-05,0.493962,0.00131634,0.0733619,0.0502289,0.000329479,0.037984,1.9444,0.000668397,0.005,1.70515,0.000329987,-0.0292866,-0.383305,39.9806,0.0744509,0.394367,14.4671,0.217173,1.78889,0.500514,-0.833636,0.0715765,0.249886,-1.82893,0,0.242236,0.209473,0.189374,-0.045038,23.479,23.3229,23.1527,23.2662,23.1811,23.252,23.1101,
89,6.27285,1.3811,3.15334,4.12282,6.27424,1.97689,1.55576,0.000580669,-0.100374,-0.000325664,0.101016,0.000371209,-0.00173643,0.00010582,0.45261,-13.082,-0.383299,-3.72178,1.35023,-49.8896,1.40394,0.0206922,-20,-0.51621,-0.288865,-0.037929,-2.09471,0.0361853,-0.000120424,0.0127991,3.37645e-05,0.493962,0.00131634,0.0733619,0.0502289,0.000329479,0.037984,1.9434,0.000654772,0.005,1.70386,0.000292763,-0.0296856,-0.391654,40.5466,0.062378,0.394367,14.4671,0.217173,1.78889,0.500514,-0.833636,0.0715765,0.249886,-1.82893,0,0.242236,0.209473,0.189374,-0.045038,23.479,23.3229,23.1527,23.2662,23.1811,23.252,23.1101,
90,6.27285,1.38099,3.15334,4.12293,6.27424,1.97689,1.55576,0.000478699,-0.098552,-0.000309111,0.0990535,0.000411682,-0.00225214,0.000105901,0.452642,-13.0804,-0.383385,-3.72192,1.3502,-49.8878,1.40373,0.0206744,-20,-0.516219,-0.286409,-0.0379221,-2.09507,0.0361692,-0.000120424,0.0127991,3.37645e-05,0.493962,0.00131634,0.0733619,0.0492765,0.000360211,0.0372495,1.9434,0.000654772,0.005,1.70386,0.000292763,-0.0296856,-0.391654,40.5466,0.062378,0.378775,14.6889,0.242409,1.83216,0.502129,-1.00961,0.0640877,0.257938,-1.78054,0,0.225586,0.213539,0.185347,-0.041081,23.4648,23.3087,23.0959,23.2662,23.1952,23.252,23.0959,
91,6.27285,1.38099,3.15334,4.12293,6.27424,1.97689,1.55576,0.000478699,-0.098552,-0.000309111,0.0990535,0.000411682,-0.00225214,0.000105901,0.454259,-13.1993,-0.389535,-3.8095,1.34535,-50.3411,1.41548,0.0211038,-20,-0.518247,-0.301539,-0.0379909,-2.13979,0.0368988,-0.000123423,0.0130032,3.01925e-05,0.493962,0.00131634,0.0733619,0.0492765,0.000360211,0.0372495,1.94236,0.000640703,0.005,1.70377,0.000252444,-0.0290246,-0.398687,40.9685,0.0495595,0.378775,14.6889,0.242409,1.83216,0.502129,-1.00961,0.0640877,0.257938,-1.78054,0,0.225586,0.213539,0.185347,-0.041081,23.4648,23.3087,23.0959,23.2662,23.1952,23.252,23.0959,
92,6.27285,1.38089,3.15334,4.12302,6.27425,1.97688,1.55576,0.000475093,-0.0972351,-0.000298066,0.096965,0.000504667,-0.00294989,0.000113757,0.454294,-13.1978,-0.389648,-3.80957,1.34526,-50.3396,1.41519,0.0210877,-20,-0.518256,-0.299307,-0.0379864,-2.14011,0.0368778,-0.000123423,0.0130032,3.01925e-05,0.493962,0.00131634,0.0733619,0.0483946,0.000359077,0.036697,1.94236,0.000640703,0.005,1.70377,0.000252444,-0.0290246,-0.398687,40.9685,0.0495595,0.294523,14.9333,0.314434,1.85476,0.452125,-1.1775,0.05591,0.257938,-1.81276,0,0.233781,0.221558,0.189331,-0.0444942,23.4506,23.3087,23.1527,23.2662,23.1811,23.252,23.1243,
93,6.27285,1.38089,3.15334,4.12302,6.27425,1.97688,1.55576,0.000475093,-0.0972351,-0.000298066,0.096965,0.000504667,-0.00294989,0.000113757,0.4558,-13.302,-0.396612,-3.88628,1.33709,-50.7378,1.42633,0.0214875,-20,-0.520145,-0.312562,-0.0380614,-2.17942,0.0376035,-0.00012616,0.0131861,2.53504e-05,0.493962,0.00131634,0.0733619,0.0483946,0.000359077,0.036697,1.9414,0.000627598,0.005,1.70371,0.000241669,-0.0285273,-0.405675,41.3392,0.0349074,0.294523,14.9333,0.314434,1.85476,0.452125,-1.1775,0.05591,0.257938,-1.81276,0,0.233781,0.221558,0.189331,-0.0444942,23.4506,23.3087,23.1527,23.2662,23.1811,23.252,23.1243,
94,6.27285,1.3808,3.15334,4.12312,6.27425,1.97687,1.55576,0.000369554,-0.0964248,-0.000287026,0.096965,0.000683679,-0.0037764,0.000113757,0.455808,-13.3003,-0.396687,-3.88655,1.33697,-50.7358,1.42596,0.021472,-20,-0.520161,-0.310492,-0.0380549,-2.17968,0.0375802,-0.00012616,0.0131861,2.53504e-05,0.493962,0.00131634,0.0733619,0.0482223,0.000412205,0.0362975,1.9414,0.000627598,0.005,1.70371,0.000241669,-0.0285273,-0.405675,41.3392,0.0349074,0.319928,15.2362,0.376777,1.85153,0.485065,-1.33881,0.0572106,0.257938,-1.84504,0.00805664,0.249756,0.217529,0.189374,-0.0284845,23.4364,23.3229,23.1385,23.2804,23.1811,23.2378,23.0959,
95,6.27285,1.3808,3.15334,4.12312,6.27425,1.97687,1.55576,0.000369554,-0.0964248,-0.000287026,0.096965,0.000683679,-0.0037764,0.000113757,0.457681,-13.4212,-0.406772,-3.97773,1.32179,-51.2006,1.44192,0.0219694,-20,-0.522495,-0.326465,-0.0381793,-2.22587,0.0387598,-0.000129821,0.0133654,2.00155e-05,0.493962,0.00131634,0.0733619,0.0482223,0.000412205,0.0362975,1.94045,0.00061039,0.005,1.70301,0.000178366,-0.0281677,-0.417068,41.7741,0.0128223,0.319928,15.2362,0.376777,1.85153,0.485065,-1.33881,0.0572106,0.257938,-1.84504,0.00805664,0.249756,0.217529,0.189374,-0.0284845,23.4364,23.3229,23.1385,23.2804,23.1811,23.2378,23.0959,
96,6.27285,1.3808,3.15334,4.12312,6.27425,1.97687,1.55576,0.000369554,-0.0964248,-0.000287026,0.096965,0.000683679,-0.0037764,0.000113757,0.457681,-13.4212,-0.406772,-3.97773,1.32179,-51.2006,1.44192,0.0219694,-20,-0.522495,-0.326465,-0.0381793,-2.22587,0.0387598,-0.000129821,0.0133654,2.00155e-05,0.493962,0.00131634,0.0733619,0.0482223,0.000412205,0.0362975,1.94045,0.00061039,0.005,1.70301,0.000178366,-0.0281677,-0.417068,41.7741,0.0128223,0.319928,15.2362,0.376777,1.85153,0.485065,-1.33881,0.0572106,0.257938,-1.84504,0.00805664,0.249756,0.217529,0.189374,-0.0284845,23.4364,23.3229,23.1385,23.2804,23.1811,23.2378,23.0959,
97,6.27285,1.38071,3.15334,4.12322,6.27426,1.97686,1.55576,0.000372321,-0.0934537,-0.000275987,0.0980454,0.00094656,-0.00557529,0.000113756,0.457703,-13.4195,-0.40689,-3.97781,1.32166,-51.1988,1.44155,0.0219539,-20,-0.52251,-0.324174,-0.0381733,-2.22615,0.0387367,-0.000129821,0.0133654,2.00155e-05,0.493962,0.00131634,0.0733619,0.0479105,0.00042663,0.0349194,1.94045,0.00061039,0.005,1.70301,0.000178366,-0.0281677,-0.417068,41.7741,0.0128223,0.285462,15.4785,0.409108,1.87725,0.494172,-1.53996,0.0671116,0.233643,-1.85318,0,0.233781,0.217567,0.193359,-0.0324774,23.4506,23.3229,23.1385,23.252,23.1952,23.2378,23.0959,
98,6.27285,1.38071,3.15334,4.12322,6.27426,1.97686,1.55576,0.000372321,-0.0934537,-0.000275987,0.0980454,0.00094656,-0.00557529,0.000113756,0.459343,-13.5236,-0.416534,-4.0562,1.30606,-51.5905,1.45735,0.0223895,-20,-0.524591,-0.337897,-0.038291,-2.26479,0.0399652,-0.000133462,0.0135419,1.46838e-05,0.493962,0.00131634,0.0733619,0.0479105,0.00042663,0.0349194,1.93951,0.00059329,0.005,1.70244,0.000149994,-0.0269275,-0.428976,42.1398,-0.00826052,0.285462,15.4785,0.409108,1.87725,0.494172,-1.53996,0.0671116,0.233643,-1.85318,0,0.233781,0.217567,0.193359,-0.0324774,23.4506,23.3229,23.1385,23.252,23.1952,23.2378,23.0959,
99,6.27285,1.38061,3.15334,4.12332,6.27426,1.97684,1.55576,0.000387369,-0.0895243,-0.000259427,0.0965459,0.00151609,-0.00974167,0.000121784,0.459329,-13.5218,-0.416652,-4.05569,1.30581,-51.5892,1.45674,0.0223677,-20,-0.524604,-0.335178,-0.0382837,-2.26518,0.0399306,-0.000133462,0.0135419,1.46838e-05,0.493962,0.00131634,0.0733619,0.0466546,0.000453042,0.0329516,1.93951,0.00059329,0.005,1.70244,0.000149994,-0.0269275,-0.428976,42.1398,-0.00826052,0.284797,15.6359,0.432859,1.90548,0.477121,-1.69754,0.0517113,0.22573,-1.89358,0.0113938,0.209473,0.221594,0.205444,-0.036478,23.4364,23.3087,23.1527,23.2662,23.1952,23.252,23.1243,
100,6.27285,1.38061,3.15334,4.12332,6.27426,1.97684,1.55576,0.000387369,-0.0895243,-0.000259427,0.0965459,0.00151609,-0.00974167,0.000121784,0.460777,-13.5824,-0.431815,-4.09919,1.27076,-51.8079,1.47271,0.0227522,-20,-0.526498,-0.342648,-0.0384958,-2.28622,0.0414218,-0.00013719,0.0137231,6.54695e-06,0.493962,0.00131634,0.0733619,0.0466546,0.000453042,0.0329516,1.93851,0.000575903,0.005,1.70267,0.000110575,-0.0251564,-0.443363,42.3411,-0.0430391,0.284797,15.6359,0.432859,1.90548,0.477121,-1.69754,0.0517113,0.22573,-1.89358,0.0113938,0.209473,0.221594,0.205444,-0.036478,23.4364,23.3087,23.1527,23.2662,23.1952,23.252,23.1243,
101,6.27285,1.38061,3.15334,4.12332,6.27426,1.97684,1.55576,0.000387369,-0.0895243,-0.000259427,0.0965459,0.00151609,-0.00974167,0.000121784,0.460777,-13.5824,-0.431815,-4.09919,1.27076,-51.8079,1.47271,0.0227522,-20,-0.526498,-0.342648,-0.0384958,-2.28622,0.0414218,-0.00013719,0.0137231,6.54695e-06,0.493962,0.00131634,0.0733619,0.0466546,0.000453042,0.0329516,1.93851,0.000575903,0.005,1.70267,0.000110575,-0.0251564,-0.443363,42.3411,-0.0430391,0.284797,15.6359,0.432859,1.90548,0.477121,-1.69754,0.0517113,0.22573,-1.89358,0.0113938,0.209473,0.221594,0.205444,-0.036478,23.4364,23.3087,23.1527,23.2662,23.1952,23.252,23.1243,
102,6.27285,1.38053,3.15334,4.12341,6.27427,1.97682,1.55576,0.000353234,-0.0864312,-0.000259427,0.0944383,0.0025552,-0.0152133,0.000121693,0.460743,-13.5806,-0.431951,-4.09848,1.27038,-51.8068,1.47193,0.0227394,-20,-0.526517,-0.34014,-0.038484,-2.28659,0.0413809,-0.00013719,0.0137231,6.54695e-06,0.493962,0.00131634,0.0733619,0.0453997,0.000547787,0.0311855,1.93851,0.000575903,0.005,1.70267,0.000110575,-0.0251564,-0.443363,42.3411,-0.0430391,0.217186,15.8351,0.511997,1.90367,0.415564,-1.83836,0.0393634,0.233643,-1.95778,0.0113938,0.226161,0.213653,0.233781,-0.036478,23.4506,23.3229,23.1527,23.252,23.1952,23.2378,23.1101,
103,6.27285,1.38053,3.15334,4.12341,6.27427,1.97682,1.55576,0.000353234,-0.0864312,-0.000259427,0.0944383,0.0025552,-0.0152133,0.000121693,0.462301,-13.6145,-0.454241,-4.12198,1.21301,-51.9251,1.49701,0.0231529,-20,-0.528561,-0.344177,-0.0388178,-2.29771,0.043991,-0.000142619,0.0138815,-3.03579e-06,0.493962,0.00131634,0.0733619,0.0453997,0.000547787,0.0311855,1.93762,0.000550164,0.005,1.703,2.13914e-06,-0.0235669,-0.468654,42.4483,-0.095479,0.217186,15.8351,0.511997,1.90367,0.415564,-1.83836,0.0393634,0.233643,-1.95778,0.0113938,0.226161,0.213653,0.233781,-0.036478,23.4506,23.3229,23.1527,23.252,23.1952,23.2378,23.1101,
104,6.27285,1.38053,3.15334,4.12341,6.27427,1.97682,1.55576,0.000353234,-0.0864312,-0.000259427,0.0944383,0.0025552,-0.0152133,0.000121693,0.462301,-13.6145,-0.454241,-4.12198,1.21301,-51.9251,1.49701,0.0231529,-20,-0.528561,-0.344177,-0.0388178,-2.29771,0.043991,-0.000142619,0.0138815,-3.03579e-06,0.493962,0.00131634,0.0733619,0.0453997,0.000547787,0.0311855,1.93762,0.000550164,0.005,1.703,2.13914e-06,-0.0235669,-0.468654,42.4483,-0.095479,0.217186,15.8351,0.511997,1.90367,0.415564,-1.83836,0.0393634,0.233643,-1.95778,0.0113938,0.226161,0.213653,0.233781,-0.036478,23.4506,23.3229,23.1527,23.252,23.1952,23.2378,23.1101,
105,6.27285,1.38044,3.15334,4.12351,6.27429,1.9768,1.55576,0.000264947,-0.0847247,-0.000243409,0.0985856,0.00473523,-0.0187718,0.000121693,0.46214,-13.6123,-0.454417,-4.1222,1.21233,-51.9227,1.49574,0.0231383,-20,-0.528614,-0.342172,-0.0387928,-2.2979,0.0439351,-0.000142619,0.0138815,-3.03579e-06,0.493962,0.00131634,0.0733619,0.0462408,0.000790117,0.0300701,1.93762,0.000550164,0.005,1.703,2.13914e-06,-0.0235669,-0.468654,42.4483,-0.095479,0.196111,16.0785,0.567117,1.87134,0.419575,-1.9951,0.0395959,0.225586,-1.99811,0.0254773,0.257938,0.209628,0.273926,-0.0324774,23.4364,23.3087,23.1385,23.2804,23.1811,23.252,23.0959,
106,6.27285,1.38044,3.15334,4.12351,6.27429,1.9768,1.55576,0.000264947,-0.0847247,-0.000243409,0.0985856,0.00473523,-0.0187718,0.000121693,0.465687,-13.7256,-0.496285,-4.21044,1.11,-52.356,1.54026,0.0240799,-20,-0.533109,-0.358077,-0.0394017,-2.34115,0.04835,-0.000149008,0.0140451,-1.60383e-05,0.493962,0.00131634,0.0733619,0.0462408,0.000790117,0.0300701,1.93671,0.000519968,0.005,1.70142,-0.000243134,-0.0225631,-0.511274,42.8556,-0.19326,0.196111,16.0785,0.567117,1.87134,0.419575,-1.9951,0.0395959,0.225586,-1.99811,0.0254773,0.257938,0.209628,0.273926,-0.0324774,23.4364,23.3087,23.1385,23.2804,23.1811,23.252,23.0959,
107,6.27285,1.38036,3.15334,4.12361,6.27431,1.97678,1.55576,0.000220789,-0.0861611,-0.000232595,0.0990535,0.00946359,-0.0194273,0.000132274,0.465361,-13.7236,-0.496656,-4.21101,1.10871,-52.3536,1.53812,0.0240779,-20,-0.533202,-0.356258,-0.0393491,-2.34134,0.0482657,-0.000149008,0.0140451,-1.60383e-05,0.493962,0.00131634,0.0733619,0.0466741,0.00126784,0.0305669,1.93671,0.000519968,0.005,1.70142,-0.000243134,-0.0225631,-0.511274,42.8556,-0.19326,0.15405,16.2802,0.622866,1.86559,0.413327,-2.16699,0.0340401,0.226161,-1.99819,0.00805664,0.145243,0.177246,0.306152,-0.0322266,23.4364,23.3229,23.1385,23.252,23.1811,23.252,23.1101,
108,6.27285,1.38036,3.15334,4.12361,6.27431,1.97678,1.55576,0.000220789,-0.0861611,-0.000232595,0.0990535,0.00946359,-0.0194273,0.000132274,0.471198,-13.8575,-0.575129,-4.31292,0.909204,-52.8843,1.61702,0.0256273,-20,-0.540576,-0.374585,-0.040509,-2.39456,0.0564148,-0.000157795,0.0142159,-3.5563e-05,0.493962,0.00131634,0.0733619,0.0466741,0.00126784,0.0305669,1.93574,0.000472965,0.005,1.70016,-0.000715384,-0.0230102,-0.589894,43.3523,-0.377857,0.15405,16.2802,0.622866,1.86559,0.413327,-2.16699,0.0340401,0.226161,-1.99819,0.00805664,0.145243,0.177246,0.306152,-0.0322266,23.4364,23.3229,23.1385,23.252,23.1811,23.252,23.1101,
109,6.27285,1.38036,3.15334,4.12361,6.27431,1.97678,1.55576,0.000220789,-0.0861611,-0.000232595,0.0990535,0.00946359,-0.0194273,0.000132274,0.471198,-13.8575,-0.575129,-4.31292,0.909204,-52.8843,1.61702,0.0256273,-20,-0.540576,-0.374585,-0.040509,-2.39456,0.0564148,-0.000157795,0.0142159,-3.5563e-05,0.493962,0.00131634,0.0733619,0.0466741,0.00126784,0.0305669,1.93574,0.000472965,0.005,1.70016,-0.000715384,-0.0230102,-0.589894,43.3523,-0.377857,0.15405,16.2802,0.622866,1.86559,0.413327,-2.16699,0.0340401,0.226161,-1.99819,0.00805664,0.145243,0.177246,0.306152,-0.0322266,23.4364,23.3229,23.1385,23.252,23.1811,23.252,23.1101,
110,6.27285,1.38027,3.15334,4.12371,6.27434,1.97676,1.55576,0.000176631,-0.0860136,-0.000232595,0.100206,0.0207086,-0.0197596,0.000132374,0.470407,-13.8558,-0.575946,-4.31332,0.906545,-52.8822,1.61313,0.0256413,-20,-0.540764,-0.372666,-0.0403789,-2.39477,0.0562927,-0.000157795,0.0142159,-3.5563e-05,0.493962,0.00131634,0.0733619,0.046971,0.00238133,0.0304494,1.93574,0.000472965,0.005,1.70016,-0.000715384,-0.0230102,-0.589894,43.3523,-0.377857,0.139546,16.3942,0.647163,1.88303,0.378599,-2.29167,0.0290608,0.217529,-1.92569,0.0113938,0.121118,0.141049,0.306179,-0.0324774,23.4364,23.3087,23.1385,23.252,23.1952,23.2378,23.1101,
111,6.27285,1.38027,3.15334,4.12371,6.27434,1.97676,1.55576,0.000176631,-0.0860136,-0.000232595,0.100206,0.0207086,-0.0197596,0.000132374,0.480828,-13.9802,-0.739144,-4.40679,0.474732,-53.381,1.77337,0.0284075,-20,-0.554047,-0.389906,-0.0428591,-2.44465,0.0735793,-0.000171094,0.0143818,-6.32645e-05,0.493962,0.00131634,0.0733619,0.046971,0.00238133,0.0304494,1.93479,0.000408491,0.005,1.69904,-0.00177555,-0.0229045,-0.756722,43.8158,-0.765198,0.139546,16.3942,0.647163,1.88303,0.378599,-2.29167,0.0290608,0.217529,-1.92569,0.0113938,0.121118,0.141049,0.306179,-0.0324774,23.4364,23.3087,23.1385,23.252,23.1952,23.2378,23.1101,
112,6.27285,1.38027,3.15334,4.12371,6.27434,1.97676,1.55576,0.000176631,-0.0860136,-0.000232595,0.100206,0.0207086,-0.0197596,0.000132374,0.480828,-13.9802,-0.739144,-4.40679,0.474732,-53.381,1.77337,0.0284075,-20,-0.554047,-0.389906,-0.0428591,-2.44465,0.0735793,-0.000171094,0.0143818,-6.32645e-05,0.493962,0.00131634,0.0733619,0.046971,0.00238133,0.0304494,1.93479,0.000408491,0.005,1.69904,-0.00177555,-0.0229045,-0.756722,43.8158,-0.765198,0.139546,16.3942,0.647163,1.88303,0.378599,-2.29167,0.0290608,0.217529,-1.92569,0.0113938,0.121118,0.141049,0.306179,-0.0324774,23.4364,23.3087,23.1385,23.252,23.1952,23.2378,23.1101,
113,6.27285,1.38018,3.15335,4.12381,6.27437,1.97674,1.55576,0.000132474,-0.085891,-0.000217094,0.101016,0.0345725,-0.0202573,0.000142964,0.479824,-13.9784,-0.740106,-4.40723,0.47154,-53.3789,1.76873,0.0284231,-20,-0.554273,-0.388063,-0.0426988,-2.44488,0.0734415,-0.000171094,0.0143818,-6.32645e-05,0.493962,0.00131634,0.0733619,0.0471737,0.00374439,0.0303261,1.93479,0.000408491,0.005,1.69904,-0.00177555,-0.0229045,-0.756722,43.8158,-0.765198,0.0775182,16.624,0.69198,1.86123,0.317897,-2.40203,0.0161361,0.217529,-1.92555,0.0254773,0.0889885,0.0324774,0.298123,-0.0284845,23.4364,23.3229,23.1385,23.2804,23.1811,23.2378,23.1101,
114,6.27285,1.38018,3.15335,4.12381,6.27437,1.97674,1.55576,0.000132474,-0.085891,-0.000217094,0.101016,0.0345725,-0.0202573,0.000142964,0.492123,-14.0963,-0.93845,-4.49508,-0.05673,-53.8562,1.9566,0.0316876,-20,-0.569972,-0.404469,-0.0457232,-2.49261,0.093906,-0.000184757,0.0145455,-9.53432e-05,0.493962,0.00131634,0.0733619,0.0471737,0.00374439,0.0303261,1.93386,0.000337814,0.005,1.69802,-0.00306592,-0.0227935,-0.95401,44.2578,-1.23654,0.0775182,16.624,0.69198,1.86123,0.317897,-2.40203,0.0161361,0.217529,-1.92555,0.0254773,0.0889885,0.0324774,0.298123,-0.0284845,23.4364,23.3229,23.1385,23.2804,23.1811,23.2378,23.1101,
115,6.27285,1.38018,3.15335,4.12381,6.27437,1.97674,1.55576,0.000132474,-0.085891,-0.000217094,0.101016,0.0345725,-0.0202573,0.000142964,0.492123,-14.0963,-0.93845,-4.49508,-0.05673,-53.8562,1.9566,0.0316876,-20,-0.569972,-0.404469,-0.0457232,-2.49261,0.093906,-0.000184757,0.0145455,-9.53432e-05,0.493962,0.00131634,0.0733619,0.0471737,0.00374439,0.0303261,1.93386,0.000337814,0.005,1.69802,-0.00306592,-0.0227935,-0.95401,44.2578,-1.23654,0.0775182,16.624,0.69198,1.86123,0.317897,-2.40203,0.0161361,0.217529,-1.92555,0.0254773,0.0889885,0.0324774,0.298123,-0.0284845,23.4364,23.3229,23.1385,23.2804,23.1811,23.2378,23.1101,
116,6.27285,1.3801,3.15335,4.12391,6.2744,1.97672,1.55576,8.83157e-05,-0.0853508,-0.000211799,0.102907,0.0318715,-0.0215458,0.000142856,0.492331,-14.0944,-0.938332,-4.49553,-0.0568531,-53.8539,1.95539,0.0316659,-20,-0.56998,-0.402514,-0.0457653,-2.4928,0.093794,-0.000184757,0.0145455,-9.53432e-05,0.493962,0.00131634,0.0733619,0.0476071,0.00349856,0.029958,1.93386,0.000337814,0.005,1.69802,-0.00306592,-0.0227935,-0.95401,44.2578,-1.23654,0.103587,16.8474,0.737741,1.81416,0.288378,-2.49989,0.0616203,0.225586,-1.90944,0.00805664,0.0649547,-0.0845947,0.294095,-0.0281982,23.4364,23.2946,23.1243,23.252,23.1952,23.252,23.1243,
117,6.27285,1.3801,3.15335,4.12391,6.2744,1.97672,1.55576,8.83157e-05,-0.0853508,-0.000211799,0.102907,0.0318715,-0.0215458,0.000142856,0.493907,-14.2165,-0.942785,-4.58956,-0.0546048,-54.323,1.96698,0.0320844,-20,-0.571929,-0.419111,-0.0457514,-2.53964,0.0943898,-0.000198568,0.0147078,-0.000125006,0.493962,0.00131634,0.0733619,0.0476071,0.00349856,0.029958,1.93292,0.000270853,0.005,1.69678,-0.00290494,-0.0224622,-0.959863,44.6989,-1.24339,0.103587,16.8474,0.737741,1.81416,0.288378,-2.49989,0.0616203,0.225586,-1.90944,0.00805664,0.0649547,-0.0845947,0.294095,-0.0281982,23.4364,23.2946,23.1243,23.252,23.1952,23.252,23.1243,
118,6.27285,1.3801,3.15335,4.12391,6.2744,1.97672,1.55576,8.83157e-05,-0.0853508,-0.000211799,0.102907,0.0318715,-0.0215458,0.000142856,0.493907,-14.2165,-0.942785,-4.58956,-0.0546048,-54.323,1.96698,0.0320844,-20,-0.571929,-0.419111,-0.0457514,-2.53964,0.0943898,-0.000198568,0.0147078,-0.000125006,0.493962,0.00131634,0.0733619,0.0476071,0.00349856,0.029958,1.93292,0.000270853,0.005,1.69678,-0.00290494,-0.0224622,-0.959863,44.6989,-1.24339,0.103587,16.8474,0.737741,1.81416,0.288378,-2.49989,0.0616203,0.225586,-1.90944,0.00805664,0.0649547,-0.0845947,0.294095,-0.0281982,23.4364,23.2946,23.1243,23.252,23.1952,23.252,23.1243,
119,6.27285,1.38002,3.15335,4.12401,6.27442,1.97669,1.55576,8.83231e-05,-0.0848106,-0.000201518,0.102637,0.0210676,-0.0251191,0.000142964,0.494735,-14.2145,-0.942062,-4.58956,-0.052939,-54.3211,1.96799,0.0320362,-20,-0.571802,-0.416932,-0.0458982,-2.53988,0.0943261,-0.000198568,0.0147078,-0.000125006,0.493962,0.00131634,0.0733619,0.0474212,0.00243696,0.0293928,1.93292,0.000270853,0.005,1.69678,-0.00290494,-0.0224622,-0.959863,44.6989,-1.24339,0.068024,17.0421,0.774392,1.74294,0.252118,-2.59485,0.0441698,0.217529,-1.90949,0.0322266,0.0241699,-0.0726216,0.302151,-0.0322266,23.4364,23.3087,23.1243,23.2662,23.1952,23.252,23.1101,
120,6.27285,1.38002,3.15335,4.12401,6.27442,1.97669,1.55576,8.83231e-05,-0.0848106,-0.000201518,0.102637,0.0210676,-0.0251191,0.000142964,0.490016,-14.3017,-0.840133,-4.65734,0.2361,-54.6416,1.87917,0.0307835,-20,-0.565709,-0.428308,-0.0442399,-2.57169,0.0838344,-0.000207907,0.0148675,-0.000144799,0.493962,0.00131634,0.0733619,0.0474212,0.00243696,0.0293928,1.93199,0.000226218,0.005,1.69611,-0.00198967,-0.0219535,-0.858895,45.0028,-0.99634,0.068024,17.0421,0.774392,1.74294,0.252118,-2.59485,0.0441698,0.217529,-1.90949,0.0322266,0.0241699,-0.0726216,0.302151,-0.0322266,23.4364,23.3087,23.1243,23.2662,23.1952,23.252,23.1101,
121,6.27285,1.38002,3.15335,4.12401,6.27442,1.97669,1.55576,8.83231e-05,-0.0848106,-0.000201518,0.102637,0.0210676,-0.0251191,0.000142964,0.490016,-14.3017,-0.840133,-4.65734,0.2361,-54.6416,1.87917,0.0307835,-20,-0.565709,-0.428308,-0.0442399,-2.57169,0.0838344,-0.000207907,0.0148675,-0.000144799,0.493962,0.00131634,0.0733619,0.0474212,0.00243696,0.0293928,1.93199,0.000226218,0.005,1.69611,-0.00198967,-0.0219535,-0.858895,45.0028,-0.99634,0.068024,17.0421,0.774392,1.74294,0.252118,-2.59485,0.0441698,0.217529,-1.90949,0.0322266,0.0241699,-0.0726216,0.302151,-0.0322266,23.4364,23.3087,23.1243,23.2662,23.1952,23.252,23.1101,
122,6.27285,1.37993,3.15335,4.12412,6.27444,1.97667,1.55576,8.16482e-05,-0.0797444,-0.000190908,0.0979582,0.0120369,-0.0270097,0.000153556,0.490743,-14.3006,-0.839508,-4.65696,0.237728,-54.6408,1.88045,0.0307366,-20,-0.565585,-0.425586,-0.0443626,-2.57209,0.0837995,-0.000207907,0.0148675,-0.000144799,0.493962,0.00131634,0.0733619,0.0450124,0.00153382,0.0272743,1.93199,0.000226218,0.005,1.69611,-0.00198967,-0.0219535,-0.858895,45.0028,-0.99634,0.0876223,17.2504,0.78705,1.72969,0.219175,-2.6855,0.0713631,0.201416,-1.88532,0.0241699,0.0161133,0.0113938,0.326393,-0.0241699,23.4506,23.3229,23.1527,23.252,23.1952,23.252,23.1101,
123,6.27285,1.37993,3.15335,4.12412,6.27444,1.97667,1.55576,8.16482e-05,-0.0797444,-0.000190908,0.0979582,0.0120369,-0.0270097,0.000153556,0.486011,-14.3345,-0.748925,-4.67841,0.489257,-54.7424,1.79464,0.0294807,-20,-0.559592,-0.428386,-0.04292,-2.58104,0.0740064,-0.000213064,0.0150293,-0.000157256,0.493962,0.00131634,0.0733619,0.0450124,0.00153382,0.0272743,1.93103,0.000197017,0.005,1.69741,-0.00120312,-0.0200469,-0.764533,45.0946,-0.777907,0.0876223,17.2504,0.78705,1.72969,0.219175,-2.6855,0.0713631,0.201416,-1.88532,0.0241699,0.0161133,0.0113938,0.326393,-0.0241699,23.4506,23.3229,23.1527,23.252,23.1952,23.252,23.1101,
124,6.27285,1.37993,3.15335,4.12412,6.27444,1.97667,1.55576,8.16482e-05,-0.0797444,-0.000190908,0.0979582,0.0120369,-0.0270097,0.000153556,0.486011,-14.3345,-0.748925,-4.67841,0.489257,-54.7424,1.79464,0.0294807,-20,-0.559592,-0.428386,-0.04292,-2.58104,0.0740064,-0.000213064,0.0150293,-0.000157256,0.493962,0.00131634,0.0733619,0.0450124,0.00153382,0.0272743,1.93103,0.000197017,0.005,1.69741,-0.00120312,-0.0200469,-0.764533,45.0946,-0.777907,0.0876223,17.2504,0.78705,1.72969,0.219175,-2.6855,0.0713631,0.201416,-1.88532,0.0241699,0.0161133,0.0113938,0.326393,-0.0241699,23.4506,23.3229,23.1527,23.252,23.1952,23.252,23.1101,
125,6.27285,1.37993,3.15335,4.12412,6.27444,1.97667,1.55576,8.16482e-05,-0.0797444,-0.000190908,0.0979582,0.0120369,-0.0270097,0.000153556,0.486011,-14.3345,-0.748925,-4.67841,0.489257,-54.7424,1.79464,0.0294807,-20,-0.559592,-0.428386,-0.04292,-2.58104,0.0740064,-0.000213064,0.0150293,-0.000157256,0.493962,0.00131634,0.0733619,0.0450124,0.00153382,0.0272743,1.93103,0.000197017,0.005,1.69741,-0.00120312,-0.0200469,-0.764533,45.0946,-0.777907,0.0876223,17.2504,0.78705,1.72969,0.219175,-2.6855,0.0713631,0.201416,-1.88532,0.0241699,0.0161133,0.0113938,0.326393,-0.0241699,23.4506,23.3229,23.1527,23.252,23.1952,23.252,23.1101,
126,6.27285,1.37986,3.15335,4.12421,6.27444,1.97664,1.55576,8.11692e-05,-0.0739317,-0.000185324,0.0953444,0.00486175,-0.0289004,0.000153554,0.486537,-14.3334,-0.748478,-4.67809,0.490533,-54.7417,1.79584,0.0294448,-20,-0.559501,-0.425954,-0.0430046,-2.58138,0.0739984,-0.000213064,0.0150293,-0.000157256,0.493962,0.00131634,0.0733619,0.043044,0.000813033,0.0248224,1.93103,0.000197017,0.005,1.69741,-0.00120312,-0.0200469,-0.764533,45.0946,-0.777907,0.0581486,17.498,0.828166,1.68459,0.190433,-2.76161,0.0470111,0.201416,-1.99006,0.041081,0.0970148,0.0765381,0.338475,-0.0284845,23.4506,23.3229,23.1385,23.2662,23.1811,23.252,23.1385,
127,6.27285,1.37986,3.15335,4.12421,6.27444,1.97664,1.55576,8.11692e-05,-0.0739317,-0.000185324,0.0953444,0.00486175,-0.0289004,0.000153554,0.482451,-14.3606,-0.670891,-4.69553,0.705277,-54.8165,1.7254,0.0283604,-20,-0.554345,-0.428227,-0.0417814,-2.58771,0.0659483,-0.0002162,0.0151677,-0.000162275,0.493962,0.00131634,0.0733619,0.043044,0.000813033,0.0248224,1.93018,0.000182867,0.005,1.69842,-0.000567149,-0.0178402,-0.68708,45.1618,-0.591238,0.0581486,17.498,0.828166,1.68459,0.190433,-2.76161,0.0470111,0.201416,-1.99006,0.041081,0.0970148,0.0765381,0.338475,-0.0284845,23.4506,23.3229,23.1385,23.2662,23.1811,23.252,23.1385,
128,6.27285,1.37986,3.15335,4.12421,6.27444,1.97664,1.55576,8.11692e-05,-0.0739317,-0.000185324,0.0953444,0.00486175,-0.0289004,0.000153554,0.482451,-14.3606,-0.670891,-4.69553,0.705277,-54.8165,1.7254,0.0283604,-20,-0.554345,-0.428227,-0.0417814,-2.58771,0.0659483,-0.0002162,0.0151677,-0.000162275,0.493962,0.00131634,0.0733619,0.043044,0.000813033,0.0248224,1.93018,0.000182867,0.005,1.69842,-0.000567149,-0.0178402,-0.68708,45.1618,-0.591238,0.0581486,17.498,0.828166,1.68459,0.190433,-2.76161,0.0470111,0.201416,-1.99006,0.041081,0.0970148,0.0765381,0.338475,-0.0284845,23.4506,23.3229,23.1385,23.2662,23.1811,23.252,23.1385,
129,6.27285,1.37979,3.15335,4.1243,6.27444,1.97661,1.55576,4.0821e-05,-0.0696851,-0.000174734,0.0931836,0.00162058,-0.0318715,0.000153438,0.482663,-14.3594,-0.670689,-4.6952,0.705856,-54.8155,1.72592,0.0283317,-20,-0.554305,-0.426001,-0.0418149,-2.58801,0.0659488,-0.0002162,0.0151677,-0.000162275,0.493962,0.00131634,0.0733619,0.0415343,0.000492166,0.0228652,1.93018,0.000182867,0.005,1.69842,-0.000567149,-0.0178402,-0.68708,45.1618,-0.591238,0.0563538,17.7053,0.831548,1.62187,0.186563,-2.79975,0.0680992,0.193527,-2.07081,0.041081,0.153922,0.145075,0.342407,-0.0234889,23.4648,23.3229,23.1243,23.252,23.1952,23.2662,23.1101,
130,6.27285,1.37979,3.15335,4.1243,6.27444,1.97661,1.55576,4.0821e-05,-0.0696851,-0.000174734,0.0931836,0.00162058,-0.0318715,0.000153438,0.480916,-14.3846,-0.635282,-4.71203,0.804865,-54.892,1.69398,0.0278679,-20,-0.552126,-0.428504,-0.0412593,-2.59481,0.0622506,-0.000217754,0.015297,-0.00016424,0.493962,0.00131634,0.0733619,0.0415343,0.000492166,0.0228652,1.92936,0.000176796,0.005,1.69904,-0.000283833,-0.0160787,-0.651506,45.2308,-0.505965,0.0563538,17.7053,0.831548,1.62187,0.186563,-2.79975,0.0680992,0.193527,-2.07081,0.041081,0.153922,0.145075,0.342407,-0.0234889,23.4648,23.3229,23.1243,23.252,23.1952,23.2662,23.1101,
131,6.27285,1.37972,3.15335,4.1244,6.27445,1.97657,1.55576,0,-0.0680646,-0.000174999,0.0923733,0.00378136,-0.0329519,0.000161375,0.480825,-14.3833,-0.63548,-4.7121,0.804483,-54.8906,1.69338,0.0278585,-20,-0.552161,-0.426645,-0.041235,-2.59502,0.0622352,-0.000217754,0.015297,-0.00016424,0.493962,0.00131634,0.0733619,0.0409609,0.000711848,0.0221234,1.92936,0.000176796,0.005,1.69904,-0.000283833,-0.0160787,-0.651506,45.2308,-0.505965,0.00682223,17.8984,0.815248,1.49291,0.180805,-2.87655,0.0446734,0.201577,-2.13515,0.041081,0.20206,0.161183,0.374655,-0.0180152,23.4506,23.2946,23.1385,23.2662,23.1952,23.252,23.1101,
132,6.27285,1.37972,3.15335,4.1244,6.27445,1.97657,1.55576,0,-0.0680646,-0.000174999,0.0923733,0.00378136,-0.0329519,0.000161375,0.48323,-14.449,-0.666209,-4.76086,0.727138,-55.1417,1.72335,0.0284968,-20,-0.555232,-0.435234,-0.0416985,-2.6198,0.0652944,-0.000219718,0.0154228,-0.000168768,0.493962,0.00131634,0.0733619,0.0409609,0.000711848,0.0221234,1.92855,0.000159489,0.005,1.69883,-0.000497123,-0.0154111,-0.68092,45.4642,-0.578438,0.00682223,17.8984,0.815248,1.49291,0.180805,-2.87655,0.0446734,0.201577,-2.13515,0.041081,0.20206,0.161183,0.374655,-0.0180152,23.4506,23.2946,23.1385,23.2662,23.1952,23.252,23.1101,
133,6.27285,1.37972,3.15335,4.1244,6.27445,1.97657,1.55576,0,-0.0680646,-0.000174999,0.0923733,0.00378136,-0.0329519,0.000161375,0.48323,-14.449,-0.666209,-4.76086,0.727138,-55.1417,1.72335,0.0284968,-20,-0.555232,-0.435234,-0.0416985,-2.6198,0.0652944,-0.000219718,0.0154228,-0.000168768,0.493962,0.00131634,0.0733619,0.0409609,0.000711848,0.0221234,1.92855,0.000159489,0.005,1.69883,-0.000497123,-0.0154111,-0.68092,45.4642,-0.578438,0.00682223,17.8984,0.815248,1.49291,0.180805,-2.87655,0.0446734,0.201577,-2.13515,0.041081,0.20206,0.161183,0.374655,-0.0180152,23.4506,23.2946,23.1385,23.2662,23.1952,23.252,23.1101,
134,6.27285,1.37972,3.15335,4.1244,6.27445,1.97657,1.55576,0,-0.0680646,-0.000174999,0.0923733,0.00378136,-0.0329519,0.000161375,0.48323,-14.449,-0.666209,-4.76086,0.727138,-55.1417,1.72335,0.0284968,-20,-0.555232,-0.435234,-0.0416985,-2.6198,0.0652944,-0.000219718,0.0154228,-0.000168768,0.493962,0.00131634,0.0733619,0.0409609,0.000711848,0.0221234,1.92855,0.000159489,0.005,1.69883,-0.000497123,-0.0154111,-0.68092,45.4642,-0.578438,0.00682223,17.8984,0.815248,1.49291,0.180805,-2.87655,0.0446734,0.201577,-2.13515,0.041081,0.20206,0.161183,0.374655,-0.0180152,23.4506,23.2946,23.1385,23.2662,23.1952,23.252,23.1101,
135,6.27285,1.37965,3.15335,4.12449,6.27445,1.97654,1.55576,0,-0.0669552,-0.000161227,0.0880197,0.00415916,-0.0350746,0.000161497,0.48323,-14.4478,-0.666262,-4.76063,0.727047,-55.1407,1.72303,0.0284755,-20,-0.555238,-0.433187,-0.041696,-2.62007,0.0652796,-0.000219718,0.0154228,-0.000168768,0.493962,0.00131634,0.0733619,0.0394722,0.000729613,0.0215319,1.92855,0.000159489,0.005,1.69883,-0.000497123,-0.0154111,-0.68092,45.4642,-0.578438,0.0376924,18.0091,0.814302,1.43733,0.182097,-2.93124,0.0448011,0.185303,-2.11891,0.0490066,0.201416,0.153076,0.370605,-0.0324774,23.4506,23.3087,23.1243,23.252,23.1811,23.2662,23.1101,
136,6.27285,1.37965,3.15335,4.12449,6.27445,1.97654,1.55576,0,-0.0669552,-0.000161227,0.0880197,0.00415916,-0.0350746,0.000161497,0.484084,-14.4819,-0.675367,-4.78363,0.705803,-55.2682,1.73415,0.0287021,-20,-0.556346,-0.43698,-0.0418243,-2.63233,0.0663371,-0.000222565,0.0155501,-0.000173604,0.493962,0.00131634,0.0733619,0.0394722,0.000729613,0.0215319,1.92771,0.00014721,0.005,1.69942,-0.000524163,-0.0148787,-0.691147,45.5804,-0.599423,0.0376924,18.0091,0.814302,1.43733,0.182097,-2.93124,0.0448011,0.185303,-2.11891,0.0490066,0.201416,0.153076,0.370605,-0.0324774,23.4506,23.3087,23.1243,23.252,23.1811,23.2662,23.1101,
137,6.27285,1.37959,3.15335,4.12457,6.27446,1.9765,1.55576,0,-0.0661739,-0.000150825,0.0871531,0.00438742,-0.0345725,0.000169439,0.484075,-14.4808,-0.675407,-4.78385,0.705719,-55.2669,1.73384,0.0286825,-20,-0.556359,-0.435311,-0.0418221,-2.6325,0.066322,-0.000222565,0.0155501,-0.000173604,0.493962,0.00131634,0.0733619,0.0390574,0.000746167,0.0212939,1.92771,0.00014721,0.005,1.69942,-0.000524163,-0.0148787,-0.691147,45.5804,-0.599423,0.0639967,18.1974,0.812963,1.3812,0.179313,-2.94631,0.0460251,0.177246,-2.13515,0.0483398,0.290486,0.14502,0.382712,-0.0161133,23.4364,23.3087,23.1527,23.2378,23.1952,23.252,23.0959,
138,6.27285,1.37959,3.15335,4.12457,6.27446,1.9765,1.55576,0,-0.0661739,-0.000150825,0.0871531,0.00438742,-0.0345725,0.000169439,0.485404,-14.559,-0.684073,-4.84248,0.690328,-55.568,1.74319,0.0290351,-20,-0.558024,-0.445524,-0.0419284,-2.66239,0.0669978,-0.000224359,0.0156671,-0.000178395,0.493962,0.00131634,0.0733619,0.0390574,0.000746167,0.0212939,1.92694,0.000135413,0.005,1.6991,-0.000549679,-0.0146645,-0.697614,45.8617,-0.618551,0.0639967,18.1974,0.812963,1.3812,0.179313,-2.94631,0.0460251,0.177246,-2.13515,0.0483398,0.290486,0.14502,0.382712,-0.0161133,23.4364,23.3087,23.1527,23.2378,23.1952,23.252,23.0959,
139,6.27285,1.37959,3.15335,4.12457,6.27446,1.9765,1.55576,0,-0.0661739,-0.000150825,0.0871531,0.00438742,-0.0345725,0.000169311,0.485404,-14.559,-0.684073,-4.84248,0.690328,-55.568,1.74319,0.0290351,-20,-0.558024,-0.445524,-0.0419284,-2.66239,0.0669978,-0.000224359,0.0156671,-0.000178395,0.493962,0.00131634,0.0733619,0.0390574,0.000746167,0.0212939,1.92694,0.000135413,0.005,1.6991,-0.000549679,-0.0146645,-0.697614,45.8617,-0.618551,0.0639967,18.1974,0.812963,1.3812,0.179313,-2.94631,0.0390814,0.177246,-2.13515,0.0483398,0.290486,0.14502,0.382712,-0.0201416,23.4364,23.3087,23.1527,23.2378,23.1952,23.252,23.1243,
140,6.27285,1.37952,3.15335,4.12466,6.27446,1.97647,1.55576,0,-0.0653636,-0.000145406,0.0883219,0.00450373,-0.0356529,0.000169311,0.485408,-14.5575,-0.684119,-4.84266,0.690234,-55.5664,1.74288,0.0290188,-20,-0.558039,-0.443858,-0.0419265,-2.66255,0.0669827,-0.000224359,0.0156671,-0.000178395,0.493962,0.00131634,0.0733619,0.0392264,0.000755075,0.0208453,1.92694,0.000135413,0.005,1.6991,-0.000549679,-0.0146645,-0.697618,45.8617,-0.618551,0.0821584,18.3647,0.825698,1.34061,0.180569,-2.96443,0.0390814,0.169189,-2.1109,0.0644531,0.265869,0.14502,0.370605,-0.0201416,23.4364,23.3229,23.1385,23.252,23.1811,23.2378,23.1243,
141,6.27285,1.37952,3.15335,4.12466,6.27446,1.97647,1.55576,0,-0.0653636,-0.000145406,0.0883219,0.00450373,-0.0356529,0.000169311,0.486701,-14.6386,-0.691557,-4.90526,0.678478,-55.877,1.75522,0.0293621,-20,-0.559655,-0.454922,-0.0420127,-2.69353,0.0679356,-0.000227344,0.0157833,-0.000183236,0.493962,0.00131634,0.0733619,0.0392264,0.000755075,0.0208453,1.92617,0.000122144,0.005,1.69825,-0.000569639,-0.0142608,-0.706874,46.1537,-0.63474,0.0821584,18.3647,0.825698,1.34061,0.180569,-2.96443,0.0390814,0.169189,-2.1109,0.0644531,0.265869,0.14502,0.370605,-0.0201416,23.4364,23.3229,23.1385,23.252,23.1811,23.2378,23.1243,
142,6.27285,1.37946,3.15335,4.12475,6.27447,1.97643,1.55576,0,-0.0642181,-0.000145406,0.0880518,0.00450584,-0.0367333,0.000180029,0.486729,-14.6373,-0.691608,-4.90534,0.678406,-55.8756,1.75495,0.0293487,-20,-0.559667,-0.453197,-0.0420122,-2.69371,0.0679202,-0.000227344,0.0157833,-0.000183236,0.493962,0.00131634,0.0733619,0.0389095,0.000750558,0.0202859,1.92617,0.000122144,0.005,1.69825,-0.000569639,-0.0142608,-0.706874,46.1537,-0.63474,0.0677341,18.5243,0.807426,1.27123,0.193319,-2.97632,0.0725098,0.161334,-2.08669,0.0569691,0.22573,0.141049,0.378684,-0.0254773,23.4506,23.2662,23.1385,23.252,23.1952,23.252,23.1101,
143,6.27285,1.37946,3.15335,4.12475,6.27447,1.97643,1.55576,0,-0.0642181,-0.000145406,0.0880518,0.00450584,-0.0367333,0.000180029,0.487755,-14.7027,-0.697447,-4.95486,0.669333,-56.1242,1.76292,0.029621,-20,-0.560959,-0.461858,-0.0420795,-2.71835,0.0684873,-0.000229647,0.0158972,-0.000188105,0.493962,0.00131634,0.0733619,0.0389095,0.000750558,0.0202859,1.9254,0.000107462,0.005,1.69784,-0.000578786,-0.0137573,-0.712348,46.3864,-0.647376,0.0677341,18.5243,0.807426,1.27123,0.193319,-2.97632,0.0725098,0.161334,-2.08669,0.0569691,0.22573,0.141049,0.378684,-0.0254773,23.4506,23.2662,23.1385,23.252,23.1952,23.252,23.1101,
144,6.27285,1.37946,3.15335,4.12475,6.27447,1.97643,1.55576,0,-0.0642181,-0.000145406,0.0880518,0.00450584,-0.0367333,0.000180029,0.487755,-14.7027,-0.697447,-4.95486,0.669333,-56.1242,1.76292,0.029621,-20,-0.560959,-0.461858,-0.0420795,-2.71835,0.0684873,-0.000229647,0.0158972,-0.000188105,0.493962,0.00131634,0.0733619,0.0389095,0.000750558,0.0202859,1.9254,0.000107462,0.005,1.69784,-0.000578786,-0.0137573,-0.712348,46.3864,-0.647376,0.0677341,18.5243,0.807426,1.27123,0.193319,-2.97632,0.0725098,0.161334,-2.08669,0.0569691,0.22573,0.141049,0.378684,-0.0254773,23.4506,23.2662,23.1385,23.252,23.1952,23.252,23.1101,
145,6.27285,1.37946,3.15335,4.12475,6.27447,1.97643,1.55576,0,-0.0642181,-0.000145406,0.0880518,0.00450584,-0.0367333,0.000180029,0.487755,-14.7027,-0.697447,-4.95486,0.669333,-56.1242,1.76292,0.029621,-20,-0.560959,-0.461858,-0.0420795,-2.71835,0.0684873,-0.000229647,0.0158972,-0.000188105,0.493962,0.00131634,0.0733619,0.0389095,0.000750558,0.0202859,1.9254,0.000107462,0.005,1.69784,-0.000578786,-0.0137573,-0.712348,46.3864,-0.647376,0.0677341,18.5243,0.807426,1.27123,0.193319,-2.97632,0.0725098,0.161334,-2.08669,0.0569691,0.22573,0.141049,0.378684,-0.0254773,23.4506,23.2662,23.1385,23.252,23.1952,23.252,23.1101,
146,6.27285,1.37939,3.15335,4.12484,6.27447,1.97639,1.55576,0,-0.0644475,-0.000142249,0.087769,0.00421261,-0.0375799,0.000180027,0.48779,-14.7012,-0.697473,-4.95503,0.669345,-56.1226,1.76282,0.0296057,-20,-0.560969,-0.460111,-0.0420804,-2.71852,0.0684815,-0.000229647,0.0158972,-0.000188105,0.493962,0.00131634,0.0733619,0.0388764,0.000719716,0.0202989,1.9254,0.000107462,0.005,1.69784,-0.000578786,-0.0137573,-0.712348,46.3864,-0.647376,0.115014,18.6692,0.804261,1.20667,0.226563,-2.99994,0.0584722,0.169955,-2.07863,0.0742786,0.233781,0.145075,0.386803,-0.0245033,23.4364,23.3087,23.1385,23.2662,23.1811,23.252,23.1101,
147,6.27285,1.37939,3.15335,4.12484,6.27447,1.97639,1.55576,0,-0.0644475,-0.000142249,0.087769,0.00421261,-0.0375799,0.000180027,0.48872,-14.7842,-0.697831,-5.01865,0.677074,-56.4435,1.76971,0.0298525,-20,-0.562104,-0.471269,-0.0420578,-2.75059,0.0688052,-0.000232147,0.0160189,-0.000191034,0.493962,0.00131634,0.0733619,0.0388764,0.000719716,0.0202989,1.92458,9.65504e-05,0.005,1.69713,-0.000560849,-0.013769,-0.715588,46.688,-0.646687,0.115014,18.6692,0.804261,1.20667,0.226563,-2.99994,0.0584722,0.169955,-2.07863,0.0742786,0.233781,0.145075,0.386803,-0.0245033,23.4364,23.3087,23.1385,23.2662,23.1811,23.252,23.1101,
148,6.27285,1.37933,3.15335,4.12493,6.27447,1.97635,1.55577,0,-0.0648234,-0.000142873,0.0872415,0.00412417,-0.0367333,0.000190477,0.488741,-14.783,-0.697868,-5.01897,0.677049,-56.442,1.76955,0.0298389,-20,-0.562117,-0.469712,-0.0420571,-2.75073,0.0687966,-0.000232147,0.0160189,-0.000191034,0.493962,0.00131634,0.0733619,0.0388014,0.000712321,0.0205526,1.92458,9.65504e-05,0.005,1.69713,-0.000560849,-0.013769,-0.715588,46.688,-0.646687,0.145384,18.8533,0.795883,1.15808,0.259009,-3.01549,0.0686267,0.177429,-2.04645,0.0644531,0.226161,0.145075,0.378684,-0.0166092,23.4506,23.3371,23.1527,23.2804,23.1952,23.252,23.1243,
149,6.27285,1.37933,3.15335,4.12493,6.27447,1.97635,1.55577,0,-0.0648234,-0.000142873,0.0872415,0.00412417,-0.0367333,0.000190477,0.489929,-14.8727,-0.701471,-5.0872,0.676658,-56.7912,1.77645,0.0301541,-20,-0.563573,-0.481645,-0.0420824,-2.78565,0.0691228,-0.000233818,0.0161325,-0.000194427,0.493962,0.00131634,0.0733619,0.0388014,0.000712321,0.0205526,1.92381,8.49915e-05,0.005,1.69651,-0.000564597,-0.0139973,-0.71875,47.0158,-0.653606,0.145384,18.8533,0.795883,1.15808,0.259009,-3.01549,0.0686267,0.177429,-2.04645,0.0644531,0.226161,0.145075,0.378684,-0.0166092,23.4506,23.3371,23.1527,23.2804,23.1952,23.252,23.1243,
150,6.27285,1.37933,3.15335,4.12493,6.27447,1.97635,1.55577,0,-0.0648234,-0.000142873,0.0872415,0.00412417,-0.0367333,0.000190477,0.489929,-14.8727,-0.701471,-5.0872,0.676658,-56.7912,1.77645,0.0301541,-20,-0.563573,-0.481645,-0.0420824,-2.78565,0.0691228,-0.000233818,0.0161325,-0.000194427,0.493962,0.00131634,0.0733619,0.0388014,0.000712321,0.0205526,1.92381,8.49915e-05,0.005,1.69651,-0.000564597,-0.0139973,-0.71875,47.0158,-0.653606,0.145384,18.8533,0.795883,1.15808,0.259009,-3.01549,0.0686267,0.177429,-2.04645,0.0644531,0.226161,0.145075,0.378684,-0.0166092,23.4506,23.3371,23.1527,23.2804,23.1952,23.252,23.1243,
151,6.27285,1.37933,3.15335,4.12493,6.27447,1.97635,1.55577,0,-0.0648234,-0.000142873,0.0872415,0.00412417,-0.0367333,0.000190477,0.489929,-14.8727,-0.701471,-5.0872,0.676658,-56.7912,1.77645,0.0301541,-20,-0.563573,-0.481645,-0.0420824,-2.78565,0.0691228,-0.000233818,0.0161325,-0.000194427,0.493962,0.00131634,0.0733619,0.0388014,0.000712321,0.0205526,1.92381,8.49915e-05,0.005,1.69651,-0.000564597,-0.0139973,-0.71875,47.0158,-0.653606,0.145384,18.8533,0.795883,1.15808,0.259009,-3.01549,0.0686267,0.177429,-2.04645,0.0644531,0.226161,0.145075,0.378684,-0.0166092,23.4506,23.3371,23.1527,23.2804,23.1952,23.252,23.1243,
152,6.27285,1.37926,3.15335,4.12501,6.27448,1.97632,1.55577,0,-0.0626626,-0.000139626,0.0875116,0.00399941,-0.0378136,0.000190475,0.489966,-14.8714,-0.701516,-5.08728,0.67663,-56.7899,1.77627,0.0301404,-20,-0.563583,-0.479885,-0.0420823,-2.78583,0.0691117,-0.000233818,0.0161325,-0.000194427,0.493962,0.00131634,0.0733619,0.0384287,0.000693523,0.0195808,1.92381,8.49915e-05,0.005,1.69651,-0.000564597,-0.0139973,-0.71875,47.0158,-0.653606,0.180779,18.9708,0.762207,1.1015,0.278377,-3.01265,0.0487352,0.177429,-2.01422,0.0644531,0.210091,0.140991,0.358543,-0.0161133,23.4506,23.3371,23.1243,23.2662,23.1952,23.252,23.1101,
153,6.27285,1.37926,3.15335,4.12501,6.27448,1.97632,1.55577,0,-0.0626626,-0.000139626,0.0875116,0.00399941,-0.0378136,0.000190475,0.490782,-14.9318,-0.704764,-5.13291,0.673979,-57.0153,1.78406,0.030357,-20,-0.564625,-0.487842,-0.0421133,-2.80803,0.0696611,-0.000236613,0.0162435,-0.000198299,0.493962,0.00131634,0.0733619,0.0384287,0.000693523,0.0195808,1.92305,7.24976e-05,0.005,1.69616,-0.000558923,-0.0131227,-0.72413,47.2264,-0.660208,0.180779,18.9708,0.762207,1.1015,0.278377,-3.01265,0.0487352,0.177429,-2.01422,0.0644531,0.210091,0.140991,0.358543,-0.0161133,23.4506,23.3371,23.1243,23.2662,23.1952,23.252,23.1101,
154,6.27285,1.37921,3.15335,4.1251,6.27448,1.97628,1.55577,0,-0.0591513,-0.000129652,0.0874229,0.0036439,-0.0386239,0.000190475,0.49081,-14.9307,-0.704768,-5.13295,0.674034,-57.0141,1.78398,0.0303363,-20,-0.564629,-0.48603,-0.0421157,-2.80822,0.0696551,-0.000236613,0.0162435,-0.000198299,0.493962,0.00131634,0.0733619,0.03767,0.00064711,0.0181058,1.92305,7.24976e-05,0.005,1.69616,-0.000558923,-0.0131227,-0.72413,47.2264,-0.660208,0.177156,19.1173,0.734279,0.958263,0.312774,-3.00827,0.0584492,0.169189,-2.0464,0.090076,0.210091,0.14502,0.362549,-0.0205405,23.4506,23.3229,23.1243,23.2662,23.1952,23.2662,23.1101,
155,6.27285,1.37921,3.15335,4.1251,6.27448,1.97628,1.55577,0,-0.0591513,-0.000129652,0.0874229,0.0036439,-0.0386239,0.000190475,0.491238,-14.9774,-0.704,-5.16729,0.68081,-57.1818,1.7854,0.0304499,-20,-0.565203,-0.491906,-0.0420905,-2.82444,0.0695853,-0.000238428,0.01635,-0.00020108,0.493962,0.00131634,0.0733619,0.03767,0.00064711,0.0181058,1.92231,6.52538e-05,0.005,1.69618,-0.000523671,-0.0117952,-0.723496,47.3818,-0.657438,0.177156,19.1173,0.734279,0.958263,0.312774,-3.00827,0.0584492,0.169189,-2.0464,0.090076,0.210091,0.14502,0.362549,-0.0205405,23.4506,23.3229,23.1243,23.2662,23.1952,23.2662,23.1101,
156,6.27285,1.37921,3.15335,4.1251,6.27448,1.97628,1.55577,0,-0.0591513,-0.000129652,0.0874229,0.0036439,-0.0386239,0.000190475,0.491238,-14.9774,-0.704,-5.16729,0.68081,-57.1818,1.7854,0.0304499,-20,-0.565203,-0.491906,-0.0420905,-2.82444,0.0695853,-0.000238428,0.01635,-0.00020108,0.493962,0.00131634,0.0733619,0.03767,0.00064711,0.0181058,1.92231,6.52538e-05,0.005,1.69618,-0.000523671,-0.0117952,-0.723496,47.3818,-0.657438,0.177156,19.1173,0.734279,0.958263,0.312774,-3.00827,0.0584492,0.169189,-2.0464,0.090076,0.210091,0.14502,0.362549,-0.0205405,23.4506,23.3229,23.1243,23.2662,23.1952,23.2662,23.1101,
157,6.27285,1.37915,3.15335,4.12518,6.27448,1.97624,1.55577,0,-0.0540195,-0.000129652,0.084356,0.00342275,-0.0386183,0.000190619,0.491297,-14.9767,-0.704043,-5.16717,0.680823,-57.1812,1.78529,0.0304363,-20,-0.565205,-0.490028,-0.0420923,-2.82467,0.0695737,-0.000238428,0.01635,-0.00020108,0.493962,0.00131634,0.0733619,0.035711,0.000607922,0.016117,1.92231,6.52538e-05,0.005,1.69618,-0.000523671,-0.0117952,-0.723496,47.3818,-0.657438,0.225293,19.2122,0.716644,0.881559,0.336239,-3.00594,0.0498046,0.153288,-2.08669,0.0649547,0.185478,0.149048,0.358611,-0.0245033,23.4506,23.3087,23.1385,23.2804,23.1952,23.252,23.1101,
