LWingKi/MAS_RnD/main/log/us2/contactless/19/grasp_log_12_08_2023_15_09_04.csv
Index,joint_angle_0,joint_angle_1,joint_angle_2,joint_angle_3,joint_angle_4,joint_angle_5,joint_angle_6,joint_velocity_0,joint_velocity_1,joint_velocity_2,joint_velocity_3,joint_velocity_4,joint_velocity_5,joint_velocity_6,joint_accel_0,joint_accel_1,joint_accel_2,joint_accel_3,joint_accel_4,joint_accel_5,joint_accel_6,constraint_tau_0,constraint_tau_1,constraint_tau_2,constraint_tau_3,constraint_tau_4,constraint_tau_5,constraint_tau_6,current_pos_x,current_pos_y,current_pos_z,target_pos_x,target_pos_y,target_pos_z,current_vel_x,current_vel_y,current_vel_z,target_vel_x,target_vel_y,target_vel_z,control_signal_linear_x,control_signal_linear_y,control_signal_linear_z,control_signal_angular_x,control_signal_angular_y,control_signal_angular_z,joint_torque_0,joint_torque_1,joint_torque_2,joint_torque_3,joint_torque_4,joint_torque_5,joint_torque_6,actuar_current_0,actuar_current_1,actuar_current_2,actuar_current_3,actuar_current_4,actuar_current_5,actuar_current_6,actuar_voltage_0,actuar_voltage_1,actuar_voltage_2,actuar_voltage_3,actuar_voltage_4,actuar_voltage_5,actuar_voltage_6
0,6.273,1.38968,3.15338,4.12646,6.27392,1.97928,1.55552,0.00218911,0.0113441,-8.46548e-05,0.0772367,0.000132374,0.0385848,1.0606e-05,0.316556,0.682141,-0.750687,6.81679,-1.103,3.67552,0.246209,-0.0139308,-16.9091,-0.359595,1.52394,-0.0477695,3.2677,-0.0141286,3.85529e-05,-0.00363582,-0.000393028,0.496026,0.00117866,0.0719145,0.0198587,-0.000628661,-0.001786,2.01866,-0.0033228,0.005,1.8168,-0.00299052,0.0045,0.104093,-9.81672,-1.06118,1.27981,2.37847,-0.257162,4.4951,0.315569,5.21013,0.202794,0.588135,0.0889885,0.128906,-0.041081,-0.129158,-0.551895,-0.169189,23.479,23.3513,23.1952,23.3229,23.252,23.2946,23.1669,
1,6.273,1.38969,3.15338,4.12653,6.27392,1.97937,1.55552,0.00221326,0.0116142,-8.47196e-05,0.0777881,0.000148147,0.0421291,1.0606e-05,0.332409,-2.88204,-0.325727,4.0427,0.43453,-10.0497,0.576145,-0.00970854,-19.0678,-0.37694,1.03921,-0.0399896,1.89258,-0.00193927,0,0,0,0.496026,0.00117866,0.0719145,0.0199577,-0.000630447,-0.00152621,2,0,0.005,1.78213,0.000565795,0.0061074,-0.0184694,3.13389,0.0171047,1.24826,2.47438,-0.250198,4.48127,0.320625,5.16716,0.218785,0.580134,0.0970148,0.129158,-0.0113938,-0.124943,-0.535827,-0.189374,23.4932,23.3513,23.1669,23.3229,23.2378,23.3087,23.1527,
2,6.273,1.38972,3.15337,4.12669,6.27392,1.97941,1.55552,0.00226491,0.0120256,-9.00146e-05,0.0761675,0.000158729,0.044296,1.06061e-05,0.334195,-3.02402,-0.32923,3.93505,0.440326,-10.6035,0.585792,-0.00923437,-19.1551,-0.379126,1.0219,-0.0399879,1.83706,-0.00159031,-1.09399e-06,0.000149897,-1.51602e-06,0.496026,0.00117866,0.0719145,0.0194006,-0.000649375,-0.00142829,1.99961,8.27616e-06,0.005,1.78168,0.000574851,0.00587358,-0.0216101,3.65336,0.0114913,1.21202,2.61399,-0.246161,4.43783,0.312496,5.15515,0.219448,0.596246,0.121118,0.11308,0,-0.128906,-0.52771,-0.185347,23.4932,23.3371,23.1811,23.3087,23.2378,23.2946,23.1527,
3,6.27301,1.38973,3.15337,4.12676,6.27392,1.97946,1.55552,0.00218942,0.0124371,-9.52376e-05,0.0744714,0.000169439,0.0472671,0,0.335585,-3.15288,-0.328461,3.83827,0.45623,-11.1031,0.596894,-0.00886299,-19.2338,-0.380815,1.00588,-0.0399278,1.78717,-0.00107946,-2.99875e-06,0.000321632,-2.32743e-07,0.496026,0.00117866,0.0719145,0.0188213,-0.00061673,-0.00124527,1.99883,3.43625e-05,0.005,1.78149,0.000615364,0.00578546,-0.026473,4.12109,0.015762,1.21684,2.69552,-0.240072,4.45666,0.311943,5.15286,0.212526,0.596246,0.128906,0.12085,0.0360304,-0.116891,-0.527725,-0.193401,23.479,23.3513,23.1952,23.3229,23.252,23.2946,23.1527,
4,6.27301,1.38974,3.15337,4.12684,6.27392,1.97951,1.55552,0.00228958,0.0126817,-9.54538e-05,0.0744782,0.000180031,0.0482985,0,0.336691,-3.23994,-0.331029,3.77383,0.458319,-11.4424,0.607009,-0.00856972,-19.2872,-0.382185,0.99559,-0.0399434,1.75333,-0.000424872,-5.31992e-06,0.000429325,-7.41761e-07,0.496026,0.00117866,0.0719145,0.01877,-0.00065425,-0.00123188,1.99846,4.20928e-05,0.005,1.78167,0.000592941,0.00562074,-0.0327575,4.43775,0.0110329,1.21114,2.78883,-0.235296,4.44315,0.315773,5.13907,0.205642,0.588355,0.136963,0.11308,0.0809682,-0.116891,-0.527771,-0.197388,23.4932,23.3371,23.1952,23.3229,23.2378,23.3087,23.1669,
5,6.27301,1.38976,3.15337,4.12691,6.27393,1.97955,1.55552,0.00226459,0.0124245,-0.000100757,0.0753572,0.000190477,0.0481262,0,0.337705,-3.33116,-0.330874,3.70442,0.46883,-11.7963,0.613983,-0.00829896,-19.3432,-0.383417,0.984234,-0.0399001,1.71788,-0.000159255,-6.22798e-06,0.000543547,-6.99592e-07,0.496026,0.00117866,0.0719145,0.0190775,-0.000639778,-0.00116273,1.99806,5.67689e-05,0.005,1.78136,0.000639917,0.00560869,-0.0352462,4.76995,0.0133861,1.21663,2.8531,-0.229737,4.43643,0.327769,5.12525,0.207546,0.555967,0.0483398,0.105969,0.0970148,-0.116891,-0.507584,-0.185478,23.479,23.3655,23.1811,23.2804,23.2378,23.3087,23.1669,
6,6.27301,1.38977,3.15337,4.12699,6.27393,1.97961,1.55552,0.00226491,0.0100307,-0.000103408,0.0777881,0.000195768,0.0501065,0,0.338806,-3.4198,-0.332693,3.63567,0.473386,-12.1405,0.622359,-0.00800812,-19.3978,-0.384756,0.972843,-0.0398978,1.68328,0.000297027,-7.62259e-06,0.000652971,-1.22823e-06,0.496026,0.00117866,0.0719145,0.0202866,-0.000625199,-4.66287e-05,1.99768,6.44384e-05,0.005,1.78074,0.000633795,0.00554645,-0.0395794,5.0943,0.010669,1.17499,2.94149,-0.250957,4.40731,0.32899,5.06035,0.207208,0.572078,-0.153922,0.11308,0.104736,-0.112865,-0.463257,-0.189374,23.4932,23.3513,23.1952,23.3229,23.2378,23.2946,23.1811,
7,6.27301,1.38977,3.15337,4.12699,6.27393,1.97961,1.55552,0.00226491,0.0100307,-0.000103408,0.0777881,0.000195768,0.0501065,0,0.340513,-3.56141,-0.334649,3.52527,0.483163,-12.6982,0.632946,-0.0075533,-19.4836,-0.386789,0.953419,-0.0398803,1.62706,0.000732297,-8.58103e-06,0.00077239,-1.33428e-06,0.496026,0.00117866,0.0719145,0.0202866,-0.000625199,-4.66287e-05,1.99728,7.42729e-05,0.005,1.7793,0.000629525,0.00454197,-0.0435927,5.62086,0.00848621,1.17499,2.94149,-0.250957,4.40731,0.32899,5.06035,0.207208,0.572078,-0.153922,0.11308,0.104736,-0.112865,-0.463257,-0.189374,23.4932,23.3513,23.1952,23.3229,23.2378,23.2946,23.1811,
8,6.27301,1.38977,3.15337,4.12707,6.27393,1.97966,1.55552,0.00211392,0.00432156,-0.000108711,0.0777881,0.000195914,0.0521288,0,0.340539,-3.56077,-0.334696,3.52441,0.483232,-12.6967,0.632972,-0.00754934,-19.4842,-0.386808,0.953866,-0.0398762,1.62697,0.000731571,-8.58103e-06,0.00077239,-1.33428e-06,0.496026,0.00117866,0.0719145,0.0214998,-0.00054833,0.00243085,1.99728,7.42729e-05,0.005,1.7793,0.000629525,0.00454197,-0.0435927,5.62086,0.00848621,1.189,3.00601,-0.252326,4.40478,0.313083,5.01725,0.213469,0.588135,-0.354858,0.0970148,0.088623,-0.105969,-0.443188,-0.189331,23.479,23.3371,23.1811,23.3087,23.2378,23.2946,23.1669,
9,6.27301,1.38977,3.15337,4.12715,6.27393,1.97971,1.55552,0.00206062,-0.00459166,-0.000114014,0.0794936,0.000206504,0.0559102,0,0.342521,-3.70951,-0.338813,3.40668,0.488064,-13.2943,0.644455,-0.0070289,-19.5755,-0.389115,0.933731,-0.039893,1.56616,0.00125058,-9.65782e-06,0.000896341,-2.03534e-06,0.496026,0.00117866,0.0719145,0.0238863,-0.000495798,0.00633449,1.99686,7.49922e-05,0.005,1.77782,0.00056099,0.00231223,-0.0483689,6.18746,0.00111215,1.11943,3.12918,-0.231299,4.41109,0.311757,4.97019,0.230572,0.596191,-0.459511,0.11308,0.112793,-0.100789,-0.427002,-0.181274,23.479,23.3513,23.1952,23.3229,23.2378,23.2946,23.1811,
10,6.27302,1.38975,3.15337,4.12723,6.27393,1.97977,1.55552,0.00188743,-0.00864312,-0.000116666,0.0823797,0.00021693,0.0588813,1.0606e-05,0.345291,-3.9242,-0.343643,3.2366,0.498363,-14.1597,0.662214,-0.00629463,-19.7066,-0.392355,0.904399,-0.0398862,1.47798,0.00208831,-1.13022e-05,0.00104038,-3.3289e-06,0.496026,0.00117866,0.0719145,0.0255783,-0.000405838,0.00820573,1.99635,7.70403e-05,0.005,1.77522,0.000515555,-0.00120104,-0.0561647,7.00834,-0.00661211,1.13129,3.23293,-0.231889,4.37886,0.30241,4.94514,0.227469,0.580134,-0.499512,0.0805664,0.105046,-0.100708,-0.435133,-0.177246,23.5074,23.3655,23.1952,23.3229,23.252,23.3087,23.1527,
11,6.27302,1.38974,3.15337,4.12732,6.27393,1.97984,1.55552,0.00188716,-0.014817,-0.000127272,0.0860738,0.00021693,0.0626921,1.0606e-05,0.347826,-4.11273,-0.349682,3.08763,0.502099,-14.9062,0.67373,-0.00562803,-19.8221,-0.395336,0.878827,-0.0399202,1.40235,0.00245252,-1.18063e-05,0.00119215,-4.57798e-06,0.496026,0.00117866,0.0719145,0.0279546,-0.000375547,0.0109934,1.99583,8.02809e-05,0.005,1.77323,0.000437507,-0.00288516,-0.0592949,7.71534,-0.017835,1.07904,3.40387,-0.230131,4.29939,0.328255,4.88806,0.217309,0.588355,-0.628418,0.0889885,0.0569691,-0.100789,-0.43103,-0.181274,23.479,23.3513,23.1952,23.3087,23.2378,23.2946,23.1527,
12,6.27302,1.38972,3.15337,4.1274,6.27393,1.9799,1.55552,0.0016607,-0.0216078,-0.000132575,0.0872415,0.000222223,0.0648234,1.0598e-05,0.350717,-4.34254,-0.353878,2.90526,0.515653,-15.8211,0.693674,-0.00486067,-19.9626,-0.39874,0.847362,-0.0398979,1.30943,0.00343581,-1.41082e-05,0.00136148,-5.61454e-06,0.496026,0.00117866,0.0719145,0.0297336,-0.000263301,0.0138927,1.99527,8.25958e-05,0.005,1.77058,0.000412329,-0.00539404,-0.0685367,8.58287,-0.0237125,1.11004,3.61184,-0.212823,4.26153,0.318687,4.84764,0.216122,0.588135,-0.684814,0.0725098,0.0322266,-0.0967636,-0.435077,-0.173639,23.479,23.3371,23.1952,23.2946,23.2236,23.3229,23.1527,
13,6.27302,1.38969,3.15337,4.12749,6.27393,1.97997,1.55552,0.00175534,-0.0232284,-0.000143181,0.0860136,0.000222391,0.0685352,1.0606e-05,0.353462,-4.54416,-0.360464,2.74657,0.519302,-16.6282,0.710277,-0.00414096,-20,-0.401924,0.820461,-0.0399368,1.22735,0.00425728,-1.59824e-05,0.00153243,-7.14857e-06,0.496026,0.00117866,0.0719145,0.0297202,-0.000291057,0.0149534,1.99468,7.89015e-05,0.005,1.76845,0.000307982,-0.00800347,-0.0761339,9.34708,-0.0361931,1.06725,3.87687,-0.195116,4.22049,0.314711,4.80536,0.207683,0.612358,-0.725142,0.0644531,0.00805664,-0.0967636,-0.439087,-0.173265,23.4932,23.3513,23.1811,23.3229,23.2378,23.2946,23.2378,
14,6.27302,1.38969,3.15337,4.12749,6.27393,1.97997,1.55552,0.00175534,-0.0232284,-0.000143181,0.0860136,0.000222391,0.0685352,1.0606e-05,0.355337,-4.71103,-0.360669,2.62025,0.536584,-17.2824,0.72405,-0.00364147,-20,-0.404172,0.798631,-0.0398828,1.16189,0.00487237,-1.79663e-05,0.00171416,-6.76108e-06,0.496026,0.00117866,0.0719145,0.0297202,-0.000291057,0.0149534,1.99406,8.69933e-05,0.005,1.7679,0.000340245,-0.00895803,-0.0819352,9.96088,-0.0336298,1.06725,3.87687,-0.195116,4.22049,0.314711,4.80536,0.207683,0.612358,-0.725142,0.0644531,0.00805664,-0.0967636,-0.439087,-0.173265,23.4932,23.3513,23.1811,23.3229,23.2378,23.2946,23.2378,
15,6.27302,1.38967,3.15337,4.12758,6.27393,1.98004,1.55552,0.00185471,-0.0250768,-0.000151134,0.0861611,0.000232803,0.0702253,1.0606e-05,0.355394,-4.71024,-0.360786,2.61967,0.53668,-17.281,0.724122,-0.00363757,-20,-0.404192,0.799548,-0.0398776,1.16169,0.00487227,-1.79663e-05,0.00171416,-6.76108e-06,0.496026,0.00117866,0.0719145,0.030153,-0.000320298,0.0158659,1.99406,8.69933e-05,0.005,1.7679,0.000340245,-0.00895803,-0.0819352,9.96088,-0.0336298,1.06929,4.04415,-0.180658,4.18888,0.309929,4.78651,0.21641,0.612358,-0.870155,0.0725098,0.0332184,-0.088623,-0.439087,-0.16521,23.5074,23.3513,23.1952,23.2946,23.2378,23.2946,23.1669,
16,6.27303,1.38964,3.15337,4.12766,6.27393,1.98011,1.55552,0.00188814,-0.0275499,-0.000161741,0.0867013,0.000243385,0.0699644,1.06061e-05,0.35733,-4.87192,-0.361969,2.49449,0.551333,-17.9164,0.73857,-0.00313033,-20,-0.406467,0.778808,-0.0398299,1.09762,0.00557393,-2.00924e-05,0.00189508,-7.25918e-06,0.496026,0.00117866,0.0719145,0.030833,-0.000323602,0.0168127,1.99345,9.45628e-05,0.005,1.76697,0.000373375,-0.00977934,-0.088594,10.5599,-0.0331392,0.988898,4.32475,-0.210505,4.07278,0.300376,4.73001,0.218465,0.58819,-0.974854,0.0644531,0.041081,-0.0926514,-0.435133,-0.173218,23.479,23.3513,23.1811,23.3087,23.2236,23.2946,23.1527,
17,6.27303,1.38964,3.15337,4.12766,6.27393,1.98011,1.55552,0.00188814,-0.0275499,-0.000161741,0.0867013,0.000243385,0.0699644,1.06061e-05,0.359239,-5.03095,-0.364213,2.37186,0.562161,-18.5399,0.75373,-0.00262195,-20,-0.408756,0.757397,-0.0398112,1.03499,0.00639228,-2.24879e-05,0.00208199,-8.41859e-06,0.496026,0.00117866,0.0719145,0.030833,-0.000323602,0.0168127,1.99285,9.62136e-05,0.005,1.76581,0.000377834,-0.0106315,-0.0963755,11.1472,-0.0356759,0.988898,4.32475,-0.210505,4.07278,0.300376,4.73001,0.218465,0.58819,-0.974854,0.0644531,0.041081,-0.0926514,-0.435133,-0.173218,23.479,23.3513,23.1811,23.3087,23.2236,23.2946,23.1527,
18,6.27303,1.38964,3.15337,4.12766,6.27393,1.98011,1.55552,0.00188814,-0.0275499,-0.000161741,0.0867013,0.000243385,0.0699644,1.06061e-05,0.359239,-5.03095,-0.364213,2.37186,0.562161,-18.5399,0.75373,-0.00262195,-20,-0.408756,0.757397,-0.0398112,1.03499,0.00639228,-2.24879e-05,0.00208199,-8.41859e-06,0.496026,0.00117866,0.0719145,0.030833,-0.000323602,0.0168127,1.99285,9.62136e-05,0.005,1.76581,0.000377834,-0.0106315,-0.0963755,11.1472,-0.0356759,0.988898,4.32475,-0.210505,4.07278,0.300376,4.73001,0.218465,0.58819,-0.974854,0.0644531,0.041081,-0.0926514,-0.435133,-0.173218,23.479,23.3513,23.1811,23.3087,23.2236,23.2946,23.1527,
19,6.27303,1.38961,3.15337,4.12775,6.27393,1.98018,1.55552,0.00194714,-0.0307911,-0.000169696,0.0883219,0.000243385,0.0702253,1.0598e-05,0.359292,-5.02998,-0.36433,2.37101,0.562261,-18.5381,0.753816,-0.00261831,-20,-0.408778,0.758231,-0.0398055,1.03483,0.00639321,-2.24879e-05,0.00208199,-8.41859e-06,0.496026,0.00117866,0.0719145,0.0319877,-0.000334052,0.0181007,1.99285,9.62136e-05,0.005,1.76581,0.000377834,-0.0106315,-0.0963755,11.1472,-0.0356759,1.01825,4.56273,-0.183411,4.00835,0.301846,4.66015,0.237503,0.580134,-1.06348,0.0644531,0.041081,-0.0849775,-0.414995,-0.169189,23.479,23.3371,23.1952,23.3087,23.2236,23.2946,23.1527,
20,6.27303,1.38961,3.15337,4.12775,6.27393,1.98018,1.55552,0.00194714,-0.0307911,-0.000169696,0.0883219,0.000243385,0.0702253,1.0598e-05,0.361311,-5.20723,-0.364704,2.23317,0.580223,-19.235,0.768596,-0.0020805,-20,-0.411177,0.734073,-0.03975,0.964648,0.00706558,-2.42473e-05,0.00226865,-7.96178e-06,0.496026,0.00117866,0.0719145,0.0319877,-0.000334052,0.0181007,1.99222,0.000105614,0.005,1.76421,0.000395699,-0.0117906,-0.102718,11.8048,-0.0333902,1.01825,4.56273,-0.183411,4.00835,0.301846,4.66015,0.237503,0.580134,-1.06348,0.0644531,0.041081,-0.0849775,-0.414995,-0.169189,23.479,23.3371,23.1952,23.3087,23.2236,23.2946,23.1527,
21,6.27303,1.38957,3.15337,4.12784,6.27393,1.98025,1.55552,0.00225214,-0.0345374,-0.000180438,0.0859327,0.000253967,0.0704954,1.0598e-05,0.361402,-5.206,-0.364888,2.2324,0.580332,-19.233,0.768694,-0.00207523,-20,-0.41119,0.735055,-0.0397465,0.964405,0.00706608,-2.42473e-05,0.00226865,-7.96178e-06,0.496026,0.00117866,0.0719145,0.0320932,-0.000447635,0.0196605,1.99222,0.000105614,0.005,1.76421,0.000395699,-0.0117906,-0.102718,11.8048,-0.0333902,0.968144,4.87823,-0.171986,3.95602,0.29835,4.62047,0.234646,0.588135,-1.13601,0.0664368,0.0332184,-0.0894432,-0.394796,-0.16521,23.479,23.3371,23.1811,23.3087,23.2236,23.2946,23.1527,
22,6.27303,1.38957,3.15337,4.12784,6.27393,1.98025,1.55552,0.00225214,-0.0345374,-0.000180438,0.0859327,0.000253967,0.0704954,1.0598e-05,0.363011,-5.3607,-0.362453,2.11446,0.604338,-19.8442,0.784395,-0.00164677,-20,-0.413086,0.714629,-0.039636,0.903012,0.00786891,-2.67588e-05,0.00246342,-8.05034e-06,0.496026,0.00117866,0.0719145,0.0320932,-0.000447635,0.0196605,1.99155,0.00011533,0.005,1.76351,0.000506669,-0.0131944,-0.110483,12.3795,-0.024114,0.968144,4.87823,-0.171986,3.95602,0.29835,4.62047,0.234646,0.588135,-1.13601,0.0664368,0.0332184,-0.0894432,-0.394796,-0.16521,23.479,23.3371,23.1811,23.3087,23.2236,23.2946,23.1527,
23,6.27304,1.38954,3.15336,4.12793,6.27393,1.98032,1.55552,0.00249141,-0.038894,-0.000190583,0.085891,0.000264552,0.0702253,1.0606e-05,0.363087,-5.35952,-0.362624,2.11352,0.604438,-19.8421,0.78448,-0.00164395,-20,-0.413103,0.71546,-0.0396327,0.902826,0.00786928,-2.67588e-05,0.00246342,-8.05034e-06,0.496026,0.00117866,0.0719145,0.0330058,-0.000529932,0.0213641,1.99155,0.00011533,0.005,1.76351,0.000506669,-0.0131944,-0.110483,12.3795,-0.024114,0.987725,5.06704,-0.161741,3.8781,0.292626,4.5695,0.223014,0.588135,-1.19241,0.0586532,0.0889885,-0.080667,-0.382712,-0.173218,23.479,23.3371,23.1669,23.3087,23.2236,23.3087,23.1527,
24,6.27304,1.38954,3.15336,4.12793,6.27393,1.98032,1.55552,0.00249141,-0.038894,-0.000190583,0.085891,0.000264552,0.0702253,1.0606e-05,0.364951,-5.53124,-0.361168,1.98039,0.627454,-20.5208,0.800842,-0.00114761,-20,-0.415296,0.692189,-0.0395351,0.834406,0.00867852,-2.89972e-05,0.00265566,-8.01193e-06,0.496026,0.00117866,0.0719145,0.0330058,-0.000529932,0.0213641,1.9909,0.000126648,0.005,1.7621,0.000590922,-0.0147277,-0.118251,13.0199,-0.0170337,0.987725,5.06704,-0.161741,3.8781,0.292626,4.5695,0.223014,0.588135,-1.19241,0.0586532,0.0889885,-0.080667,-0.382712,-0.173218,23.479,23.3371,23.1669,23.3087,23.2236,23.3087,23.1527,
25,6.27304,1.38954,3.15336,4.12793,6.27393,1.98032,1.55552,0.00249141,-0.038894,-0.000190583,0.085891,0.000264552,0.0702253,1.0606e-05,0.364951,-5.53124,-0.361168,1.98039,0.627454,-20.5208,0.800842,-0.00114761,-20,-0.415296,0.692189,-0.0395351,0.834406,0.00867852,-2.89972e-05,0.00265566,-8.01193e-06,0.496026,0.00117866,0.0719145,0.0330058,-0.000529932,0.0213641,1.9909,0.000126648,0.005,1.7621,0.000590922,-0.0147277,-0.118251,13.0199,-0.0170337,0.987725,5.06704,-0.161741,3.8781,0.292626,4.5695,0.223014,0.588135,-1.19241,0.0586532,0.0889885,-0.080667,-0.382712,-0.173218,23.479,23.3371,23.1669,23.3087,23.2236,23.3087,23.1527,
26,6.27304,1.38949,3.15336,4.12801,6.27393,1.9804,1.55552,0.00279339,-0.0446368,-0.00020976,0.0880518,0.000264549,0.0707167,1.06061e-05,0.365043,-5.53006,-0.361383,1.97902,0.627581,-20.5183,0.80096,-0.00114582,-20,-0.415317,0.692866,-0.039533,0.834275,0.00867988,-2.89972e-05,0.00265566,-8.01193e-06,0.496026,0.00117866,0.0719145,0.0348476,-0.000626752,0.0236605,1.9909,0.000126648,0.005,1.7621,0.000590922,-0.0147277,-0.118251,13.0199,-0.0170337,0.877467,5.35757,-0.177565,3.72118,0.289065,4.49762,0.201766,0.572021,-1.2085,0.0569691,0.0966797,-0.0809682,-0.366599,-0.16521,23.4648,23.3513,23.1527,23.3087,23.2236,23.2946,23.1527,
27,6.27304,1.38949,3.15336,4.12801,6.27393,1.9804,1.55552,0.00279339,-0.0446368,-0.00020976,0.0880518,0.000264549,0.0707167,1.06061e-05,0.367385,-5.74817,-0.358902,1.80813,0.658515,-21.3817,0.819908,-0.000521969,-20,-0.418056,0.662832,-0.0394002,0.747,0.0095185,-3.09221e-05,0.00286482,-7.1058e-06,0.496026,0.00117866,0.0719145,0.0348476,-0.000626752,0.0236605,1.99019,0.000139376,0.005,1.75981,0.000689516,-0.0167944,-0.126253,13.8364,-0.00659721,0.877467,5.35757,-0.177565,3.72118,0.289065,4.49762,0.201766,0.572021,-1.2085,0.0569691,0.0966797,-0.0809682,-0.366599,-0.16521,23.4648,23.3513,23.1527,23.3087,23.2236,23.2946,23.1527,
28,6.27304,1.38944,3.15336,4.1281,6.27393,1.98047,1.55552,0.00275515,-0.0488876,-0.00022999,0.0883219,0.00026984,0.0723128,1.85464e-05,0.367429,-5.74707,-0.359004,1.80699,0.658614,-21.3795,0.819959,-0.000522416,-20,-0.418077,0.663664,-0.0393942,0.74682,0.00951774,-3.09221e-05,0.00286482,-7.1058e-06,0.496026,0.00117866,0.0719145,0.0358252,-0.000593274,0.0255157,1.99019,0.000139376,0.005,1.75981,0.000689516,-0.0167944,-0.126253,13.8364,-0.00659721,0.89968,5.63688,-0.139054,3.6348,0.298464,4.41129,0.193934,0.564022,-1.18444,0.0490066,0.0649547,-0.0846906,-0.354492,-0.173265,23.4648,23.3371,23.1811,23.2946,23.2378,23.2662,23.1243,
29,6.27304,1.38944,3.15336,4.1281,6.27393,1.98047,1.55552,0.00275515,-0.0488876,-0.00022999,0.0883219,0.00026984,0.0723128,1.85464e-05,0.369845,-5.94615,-0.361941,1.65302,0.671691,-22.1659,0.833455,0.000120974,-20,-0.420951,0.636768,-0.0393778,0.667613,0.00999752,-3.18766e-05,0.00307145,-7.64813e-06,0.496026,0.00117866,0.0719145,0.0358252,-0.000593274,0.0255157,1.98949,0.000144189,0.005,1.7583,0.000663716,-0.0184641,-0.13057,14.5778,-0.0102773,0.89968,5.63688,-0.139054,3.6348,0.298464,4.41129,0.193934,0.564022,-1.18444,0.0490066,0.0649547,-0.0846906,-0.354492,-0.173265,23.4648,23.3371,23.1811,23.2946,23.2378,23.2662,23.1243,
30,6.27304,1.38939,3.15336,4.1282,6.27394,1.98054,1.55552,0.00284402,-0.0550999,-0.000251011,0.0895243,0.000280422,0.0742768,1.85464e-05,0.369908,-5.94491,-0.3621,1.65139,0.671796,-22.163,0.833508,0.000119567,-20,-0.420974,0.637443,-0.0393738,0.667474,0.00999652,-3.18766e-05,0.00307145,-7.64813e-06,0.496026,0.00117866,0.0719145,0.0374882,-0.000602723,0.0281724,1.98949,0.000144189,0.005,1.7583,0.000663716,-0.0184641,-0.13057,14.5778,-0.0102773,0.846048,5.98536,-0.11656,3.52648,0.309084,4.33801,0.193934,0.572021,-1.20852,0.0490066,0.0644531,-0.080667,-0.366577,-0.161133,23.4648,23.3513,23.1811,23.2946,23.2378,23.2804,23.1385,
31,6.27304,1.38939,3.15336,4.1282,6.27394,1.98054,1.55552,0.00284402,-0.0550999,-0.000251011,0.0895243,0.000280422,0.0742768,1.85464e-05,0.372704,-6.18025,-0.364213,1.46789,0.69151,-23.0967,0.853546,0.000864273,-20,-0.424273,0.605263,-0.0393203,0.573156,0.0109388,-3.40954e-05,0.00329392,-8.27292e-06,0.496026,0.00117866,0.0719145,0.0374882,-0.000602723,0.0281724,1.98871,0.000151538,0.005,1.7561,0.000678835,-0.0208552,-0.139437,15.4598,-0.0110081,0.846048,5.98536,-0.11656,3.52648,0.309084,4.33801,0.193934,0.572021,-1.20852,0.0490066,0.0644531,-0.080667,-0.366577,-0.161133,23.4648,23.3513,23.1811,23.2946,23.2378,23.2804,23.1385,
32,6.27304,1.38939,3.15336,4.1282,6.27394,1.98054,1.55552,0.00284402,-0.0550999,-0.000251011,0.0895243,0.000280422,0.0742768,1.85464e-05,0.372704,-6.18025,-0.364213,1.46789,0.69151,-23.0967,0.853546,0.000864273,-20,-0.424273,0.605263,-0.0393203,0.573156,0.0109388,-3.40954e-05,0.00329392,-8.27292e-06,0.496026,0.00117866,0.0719145,0.0374882,-0.000602723,0.0281724,1.98871,0.000151538,0.005,1.7561,0.000678835,-0.0208552,-0.139437,15.4598,-0.0110081,0.846048,5.98536,-0.11656,3.52648,0.309084,4.33801,0.193934,0.572021,-1.20852,0.0490066,0.0644531,-0.080667,-0.366577,-0.161133,23.4648,23.3513,23.1811,23.2946,23.2378,23.2804,23.1385,
33,6.27305,1.38933,3.15336,4.12829,6.27394,1.98061,1.55552,0.00273979,-0.0582819,-0.000265022,0.0904827,0.000291004,0.0734665,1.85464e-05,0.372737,-6.17889,-0.364295,1.46701,0.691587,-23.0944,0.853587,0.000863204,-20,-0.424294,0.606352,-0.0393124,0.572942,0.0109379,-3.40954e-05,0.00329392,-8.27292e-06,0.496026,0.00117866,0.0719145,0.0384379,-0.000549068,0.0293381,1.98871,0.000151538,0.005,1.7561,0.000678835,-0.0208552,-0.139437,15.4598,-0.0110081,0.855402,6.19461,-0.0934714,3.42052,0.303779,4.27752,0.187075,0.580134,-1.16027,0.0402832,0.0433863,-0.080667,-0.366599,-0.157156,23.4932,23.3371,23.1669,23.2946,23.2378,23.2804,23.1385,
34,6.27305,1.38933,3.15336,4.12829,6.27394,1.98061,1.55552,0.00273979,-0.0582819,-0.000265022,0.0904827,0.000291004,0.0734665,1.85464e-05,0.37502,-6.36553,-0.367586,1.32218,0.702125,-23.827,0.869719,0.0014713,-20,-0.427029,0.581018,-0.0393107,0.499245,0.0117551,-3.62991e-05,0.00351279,-8.81557e-06,0.496026,0.00117866,0.0719145,0.0384379,-0.000549068,0.0293381,1.98795,0.000159032,0.005,1.75456,0.00063729,-0.0219043,-0.147115,16.1506,-0.0159243,0.855402,6.19461,-0.0934714,3.42052,0.303779,4.27752,0.187075,0.580134,-1.16027,0.0402832,0.0433863,-0.080667,-0.366599,-0.157156,23.4932,23.3371,23.1669,23.2946,23.2378,23.2804,23.1385,
35,6.27305,1.38927,3.15336,4.12838,6.27394,1.98069,1.55552,0.00265417,-0.0601844,-0.000273182,0.0914703,0.000301589,0.0727229,1.85605e-05,0.375048,-6.36416,-0.367664,1.32147,0.70221,-23.8249,0.869761,0.00146691,-20,-0.427049,0.582311,-0.0393028,0.498994,0.0117542,-3.62991e-05,0.00351279,-8.81557e-06,0.496026,0.00117866,0.0719145,0.0391236,-0.000507026,0.0300034,1.98795,0.000159032,0.005,1.75456,0.00063729,-0.0219043,-0.147115,16.1506,-0.0159243,0.743486,6.53478,-0.10241,3.27861,0.335672,4.18885,0.188936,0.563965,-1.2086,0.041081,0.0241699,-0.0726216,-0.354515,-0.161334,23.479,23.3371,23.1669,23.2946,23.2236,23.2804,23.1527,
36,6.27305,1.38927,3.15336,4.12838,6.27394,1.98069,1.55552,0.00265417,-0.0601844,-0.000273182,0.0914703,0.000301589,0.0727229,1.85605e-05,0.377315,-6.55154,-0.370797,1.17679,0.713213,-24.5559,0.884853,0.00207084,-20,-0.429784,0.557075,-0.0392986,0.425659,0.0124622,-3.83111e-05,0.00374391,-9.39565e-06,0.496026,0.00117866,0.0719145,0.0391236,-0.000507026,0.0300034,1.98716,0.000167551,0.005,1.75323,0.000607119,-0.022503,-0.153717,16.8391,-0.0203938,0.743486,6.53478,-0.10241,3.27861,0.335672,4.18885,0.188936,0.563965,-1.2086,0.041081,0.0241699,-0.0726216,-0.354515,-0.161334,23.479,23.3371,23.1669,23.2946,23.2236,23.2804,23.1527,
37,6.27305,1.38927,3.15336,4.12838,6.27394,1.98069,1.55552,0.00265417,-0.0601844,-0.000273182,0.0914703,0.000301589,0.0727229,1.85605e-05,0.377315,-6.55154,-0.370797,1.17679,0.713213,-24.5559,0.884853,0.00207084,-20,-0.429784,0.557075,-0.0392986,0.425659,0.0124622,-3.83111e-05,0.00374391,-9.39565e-06,0.496026,0.00117866,0.0719145,0.0391236,-0.000507026,0.0300034,1.98716,0.000167551,0.005,1.75323,0.000607119,-0.022503,-0.153717,16.8391,-0.0203938,0.743486,6.53478,-0.10241,3.27861,0.335672,4.18885,0.188936,0.563965,-1.2086,0.041081,0.0241699,-0.0726216,-0.354515,-0.161334,23.479,23.3371,23.1669,23.2946,23.2236,23.2804,23.1527,
38,6.27305,1.3892,3.15336,4.12847,6.27394,1.98076,1.55552,0.00248852,-0.0623925,-0.000282025,0.0925336,0.000301589,0.0733921,1.85464e-05,0.377344,-6.55022,-0.370859,1.17585,0.71331,-24.5537,0.884898,0.00206875,-20,-0.429806,0.558313,-0.0392898,0.425428,0.012461,-3.83111e-05,0.00374391,-9.39565e-06,0.496026,0.00117866,0.0719145,0.0398948,-0.000430934,0.0309387,1.98716,0.000167551,0.005,1.75323,0.000607119,-0.022503,-0.153717,16.8391,-0.0203938,0.76717,6.78677,-0.0782022,3.22871,0.339403,4.08487,0.178154,0.563965,-1.24072,0.0433863,0.0113938,-0.076644,-0.342407,-0.157156,23.4648,23.3371,23.1669,23.3087,23.2236,23.2804,23.1385,
39,6.27305,1.3892,3.15336,4.12847,6.27394,1.98076,1.55552,0.00248852,-0.0623925,-0.000282025,0.0925336,0.000301589,0.0733921,1.85464e-05,0.379857,-6.75239,-0.375329,1.01968,0.721978,-25.3444,0.900167,0.00273811,-20,-0.432834,0.53107,-0.0393085,0.34604,0.0131451,-4.02109e-05,0.00397598,-1.01287e-05,0.496026,0.00117866,0.0719145,0.0398948,-0.000430934,0.0309387,1.98633,0.000168111,0.005,1.7518,0.00053914,-0.0233448,-0.160009,17.5839,-0.0280583,0.76717,6.78677,-0.0782022,3.22871,0.339403,4.08487,0.178154,0.563965,-1.24072,0.0433863,0.0113938,-0.076644,-0.342407,-0.157156,23.4648,23.3371,23.1669,23.3087,23.2236,23.2804,23.1385,
40,6.27305,1.38914,3.15336,4.12856,6.27394,1.98083,1.55552,0.00234067,-0.0661739,-0.000291465,0.0923733,0.000317462,0.0723861,2.91444e-05,0.379884,-6.75084,-0.375397,1.01873,0.722044,-25.3419,0.900187,0.00273648,-20,-0.432855,0.532215,-0.0392996,0.345801,0.0131437,-4.02109e-05,0.00397598,-1.01287e-05,0.496026,0.00117866,0.0719145,0.0406487,-0.000362132,0.0323418,1.98633,0.000168111,0.005,1.7518,0.00053914,-0.0233448,-0.160009,17.5839,-0.0280583,0.708692,7.14832,-0.0720725,3.14195,0.324369,3.9797,0.186695,0.580134,-1.26492,0.0322266,-0.00805664,-0.0725098,-0.338403,-0.161183,23.4648,23.3513,23.1669,23.2946,23.2094,23.2662,23.1101,
41,6.27305,1.38914,3.15336,4.12856,6.27394,1.98083,1.55552,0.00234067,-0.0661739,-0.000291465,0.0923733,0.000317462,0.0723861,2.91444e-05,0.382225,-6.93763,-0.379619,0.87414,0.730015,-26.0771,0.913699,0.00336002,-20,-0.435659,0.506969,-0.0393141,0.271813,0.0137085,-4.16515e-05,0.00420363,-1.11616e-05,0.496026,0.00117866,0.0719145,0.0406487,-0.000362132,0.0323418,1.98553,0.000174196,0.005,1.7504,0.000482695,-0.0246076,-0.16515,18.277,-0.0352479,0.708692,7.14832,-0.0720725,3.14195,0.324369,3.9797,0.186695,0.580134,-1.26492,0.0322266,-0.00805664,-0.0725098,-0.338403,-0.161183,23.4648,23.3513,23.1669,23.2946,23.2094,23.2662,23.1101,
42,6.27306,1.38907,3.15336,4.12865,6.27394,1.98091,1.55552,0.00236959,-0.0696851,-0.000296286,0.0896724,0.000328041,0.0689613,2.91444e-05,0.382253,-6.93581,-0.379698,0.873684,0.730088,-26.0748,0.913718,0.00335194,-20,-0.435665,0.508389,-0.0393093,0.271482,0.0137076,-4.16515e-05,0.00420363,-1.11616e-05,0.496026,0.00117866,0.0719145,0.0406143,-0.000375095,0.0334253,1.98553,0.000174196,0.005,1.7504,0.000482695,-0.0246076,-0.16515,18.277,-0.0352479,0.723418,7.36019,-0.00889519,3.07743,0.329546,3.86667,0.179304,0.563965,-1.25686,0.0322266,0,-0.072956,-0.326319,-0.149102,23.479,23.3371,23.1669,23.2946,23.2094,23.2662,23.1527,
43,6.27306,1.38907,3.15336,4.12865,6.27394,1.98091,1.55552,0.00236959,-0.0696851,-0.000296286,0.0896724,0.000328041,0.0689613,2.91444e-05,0.383958,-7.0829,-0.380648,0.761191,0.743249,-26.6531,0.92622,0.00380595,-20,-0.437703,0.488896,-0.0392736,0.21345,0.0142945,-4.34383e-05,0.00443409,-1.2146e-05,0.496026,0.00117866,0.0719145,0.0406143,-0.000375095,0.0334253,1.98473,0.000179981,0.005,1.7497,0.000499569,-0.0255827,-0.170691,18.8208,-0.0348545,0.723418,7.36019,-0.00889519,3.07743,0.329546,3.86667,0.179304,0.563965,-1.25686,0.0322266,0,-0.072956,-0.326319,-0.149102,23.479,23.3371,23.1669,23.2946,23.2094,23.2662,23.1527,
44,6.27306,1.38899,3.15336,4.12874,6.27394,1.98097,1.55552,0.00234041,-0.0742275,-0.000301687,0.0894023,0.000338623,0.0648234,2.91667e-05,0.383997,-7.08097,-0.380745,0.760543,0.743306,-26.6505,0.926244,0.00380231,-20,-0.437717,0.490214,-0.0392676,0.21319,0.0142934,-4.34383e-05,0.00443409,-1.2146e-05,0.496026,0.00117866,0.0719145,0.0415006,-0.000358645,0.0348014,1.98473,0.000179981,0.005,1.7497,0.000499569,-0.0255827,-0.170691,18.8208,-0.0348545,0.610256,7.64736,-0.0233494,2.97555,0.338926,3.71958,0.19182,0.572021,-1.26492,0.0402832,0.0483398,-0.0604248,-0.286039,-0.153129,23.4648,23.3371,23.1527,23.3087,23.2094,23.2804,23.1243,
45,6.27306,1.38899,3.15336,4.12874,6.27394,1.98097,1.55552,0.00234041,-0.0742275,-0.000301687,0.0894023,0.000338623,0.0648234,2.91667e-05,0.38601,-7.24948,-0.382662,0.628987,0.755994,-27.3147,0.942238,0.00433843,-20,-0.44011,0.46716,-0.039243,0.146205,0.0151519,-4.58532e-05,0.00466495,-1.30784e-05,0.496026,0.00117866,0.0719145,0.0415006,-0.000358645,0.0348014,1.98389,0.000182661,0.005,1.74815,0.000487176,-0.0268212,-0.178852,19.4481,-0.0365836,0.610256,7.64736,-0.0233494,2.97555,0.338926,3.71958,0.19182,0.572021,-1.26492,0.0402832,0.0483398,-0.0604248,-0.286039,-0.153129,23.4648,23.3371,23.1527,23.3087,23.2094,23.2804,23.1243,
46,6.27306,1.38892,3.15336,4.12883,6.27394,1.98103,1.55552,0.00226491,-0.07663,-0.000306885,0.0891322,0.000349205,0.0588813,2.91444e-05,0.38602,-7.24748,-0.382707,0.628913,0.756035,-27.3126,0.942239,0.00432957,-20,-0.440121,0.4688,-0.0392367,0.145899,0.0151512,-4.58532e-05,0.00466495,-1.30784e-05,0.496026,0.00117866,0.0719145,0.041934,-0.000331365,0.0351374,1.98389,0.000182661,0.005,1.74815,0.000487176,-0.0268212,-0.178852,19.4481,-0.0365836,0.623179,7.8939,0.00837591,2.93239,0.322087,3.56251,0.16656,0.572021,-1.22464,0.0254773,0.0490066,-0.0565402,-0.241699,-0.157156,23.4648,23.3229,23.1811,23.2804,23.2236,23.2662,23.1385,
47,6.27306,1.38892,3.15336,4.12883,6.27394,1.98103,1.55552,0.00226491,-0.07663,-0.000306885,0.0891322,0.000349205,0.0588813,2.91444e-05,0.387582,-7.37922,-0.384336,0.526336,0.765326,-27.8256,0.954276,0.00474567,-20,-0.442003,0.450854,-0.0392249,0.0943794,0.0157873,-4.77115e-05,0.00488649,-1.38235e-05,0.496026,0.00117866,0.0719145,0.041934,-0.000331365,0.0351374,1.98306,0.000188672,0.005,1.74701,0.000468033,-0.0271236,-0.184883,19.932,-0.0383778,0.623179,7.8939,0.00837591,2.93239,0.322087,3.56251,0.16656,0.572021,-1.22464,0.0254773,0.0490066,-0.0565402,-0.241699,-0.157156,23.4648,23.3229,23.1811,23.2804,23.2236,23.2662,23.1385,
48,6.27306,1.38884,3.15336,4.12892,6.27394,1.98108,1.55552,0.00234055,-0.0783283,-0.000307946,0.0866843,0.000368974,0.0561803,2.91444e-05,0.38763,-7.37752,-0.38445,0.526209,0.76539,-27.8238,0.954315,0.00473859,-20,-0.44201,0.452574,-0.0392192,0.0940334,0.0157867,-4.77115e-05,0.00488649,-1.38235e-05,0.496026,0.00117866,0.0719145,0.041587,-0.000365262,0.0355744,1.98306,0.000188672,0.005,1.74701,0.000468033,-0.0271236,-0.184883,19.932,-0.0383778,0.537392,8.22486,0.00276123,2.8936,0.321097,3.43343,0.184104,0.555967,-1.2329,0.0180152,0.0644531,-0.0604248,-0.177429,-0.153129,23.4506,23.3371,23.1669,23.2946,23.2094,23.2804,23.1385,
49,6.27306,1.38876,3.15336,4.12901,6.27395,1.98114,1.55552,0.00226254,-0.0783283,-0.000302799,0.085891,0.000399443,0.0540195,2.91664e-05,0.389197,-7.51355,-0.38486,0.421539,0.779239,-28.3579,0.967533,0.00514141,-20,-0.44389,0.436253,-0.0391678,0.0401676,0.0164782,-5.00894e-05,0.00511108,-1.4582e-05,0.496026,0.00117866,0.0719145,0.041356,-0.000338127,0.0353661,1.9822,0.000196229,0.005,1.74655,0.000505342,-0.027517,-0.191513,20.4349,-0.0366245,0.560764,8.41891,0.00907151,2.79517,0.345014,3.28796,0.180393,0.564022,-1.24075,0.0290486,0.104736,-0.0604248,-0.153076,-0.145075,23.4648,23.3087,23.1385,23.2804,23.2094,23.2804,23.1101,
50,6.27306,1.38876,3.15336,4.12901,6.27395,1.98114,1.55552,0.00226254,-0.0783283,-0.000302799,0.085891,0.000399443,0.0540195,2.91664e-05,0.390827,-7.64944,-0.387273,0.31794,0.786663,-28.882,0.978634,0.00557563,-20,-0.445887,0.418339,-0.0391701,-0.0120915,0.0170144,-5.19362e-05,0.0053261,-1.52191e-05,0.496026,0.00117866,0.0719145,0.041356,-0.000338127,0.0353661,1.98139,0.000202475,0.005,1.74603,0.000486542,-0.0273295,-0.196528,20.9268,-0.0402377,0.560764,8.41891,0.00907151,2.79517,0.345014,3.28796,0.180393,0.564022,-1.24075,0.0290486,0.104736,-0.0604248,-0.153076,-0.145075,23.4648,23.3087,23.1385,23.2804,23.2094,23.2804,23.1101,
51,6.27307,1.38868,3.15336,4.12909,6.27395,1.98119,1.55552,0.00229137,-0.0799951,-0.000312261,0.0877817,0.000455917,0.0518602,2.91664e-05,0.390877,-7.64778,-0.387404,0.317404,0.786712,-28.8799,0.978654,0.0055712,-20,-0.445906,0.41984,-0.0391634,-0.0123321,0.0170126,-5.19362e-05,0.0053261,-1.52191e-05,0.496026,0.00117866,0.0719145,0.0422528,-0.000337567,0.0357749,1.98139,0.000202475,0.005,1.74603,0.000486542,-0.0273295,-0.196528,20.9268,-0.0402377,0.484142,8.67321,-0.000497892,2.69738,0.375286,3.1222,0.170358,0.555967,-1.31323,0.0254773,0.112793,-0.0565402,-0.132996,-0.149102,23.4506,23.3229,23.1669,23.2946,23.2094,23.252,23.1385,
52,6.27307,1.38868,3.15336,4.12909,6.27395,1.98119,1.55552,0.00229137,-0.0799951,-0.000312261,0.0877817,0.000455917,0.0518602,2.91664e-05,0.393025,-7.82575,-0.390284,0.178572,0.79776,-29.5726,0.994019,0.00614312,-20,-0.448499,0.395539,-0.039149,-0.0819253,0.0177749,-5.38849e-05,0.00555268,-1.64418e-05,0.496026,0.00117866,0.0719145,0.0422528,-0.000337567,0.0357749,1.98053,0.00020742,0.005,1.74445,0.000490488,-0.0276974,-0.203701,21.5805,-0.0439523,0.484142,8.67321,-0.000497892,2.69738,0.375286,3.1222,0.170358,0.555967,-1.31323,0.0254773,0.112793,-0.0565402,-0.132996,-0.149102,23.4506,23.3229,23.1669,23.2946,23.2094,23.252,23.1385,
53,6.27307,1.3886,3.15336,4.12918,6.27395,1.98124,1.55552,0.00226491,-0.0810292,-0.000318272,0.088592,0.000529892,0.0513185,2.91441e-05,0.393048,-7.8243,-0.390372,0.178019,0.797826,-29.5706,0.994053,0.00613325,-20,-0.448514,0.39704,-0.0391414,-0.0821766,0.0177754,-5.38849e-05,0.00555268,-1.64418e-05,0.496026,0.00117866,0.0719145,0.0427022,-0.000315337,0.036122,1.98053,0.00020742,0.005,1.74445,0.000490488,-0.0276974,-0.203701,21.5805,-0.0439523,0.489455,8.84835,0.0502161,2.65728,0.371883,2.97779,0.162619,0.555908,-1.31345,0.0332184,0.0649547,-0.0565402,-0.0967636,-0.140991,23.4648,23.3087,23.1527,23.2804,23.2094,23.2662,23.1243,
54,6.27307,1.38851,3.15336,4.12927,6.27395,1.98129,1.55552,0.00221326,-0.0822963,-0.000333871,0.0882705,0.000644221,0.0510484,2.91444e-05,0.395132,-7.99392,-0.39303,0.0451585,0.808811,-30.234,1.00793,0.00667408,-20,-0.451009,0.375592,-0.0391225,-0.149174,0.0184229,-5.55719e-05,0.00577037,-1.65773e-05,0.496026,0.00117866,0.0719145,0.0428742,-0.000277926,0.0366099,1.97969,0.000214568,0.005,1.74328,0.000476914,-0.0280098,-0.209796,22.2073,-0.0472201,0.371246,9.11557,0.0430173,2.56629,0.34555,2.82127,0.174671,0.539855,-1.3374,0.0490066,0.0490066,-0.0523682,-0.0927389,-0.145075,23.4648,23.3087,23.1669,23.2804,23.2094,23.2804,23.1385,
55,6.27307,1.38851,3.15336,4.12927,6.27395,1.98129,1.55552,0.00221326,-0.0822963,-0.000333871,0.0882705,0.000644221,0.0510484,2.91444e-05,0.397358,-8.16533,-0.398709,-0.0866038,0.811253,-30.9021,1.02543,0.00726669,-20,-0.453716,0.352705,-0.0391609,-0.216096,0.0194727,-5.84762e-05,0.00599562,-1.88816e-05,0.496026,0.00117866,0.0719145,0.0428742,-0.000277926,0.0366099,1.9788,0.000211073,0.005,1.74233,0.000440099,-0.0284489,-0.219733,22.8357,-0.0579942,0.371246,9.11557,0.0430173,2.56629,0.34555,2.82127,0.174671,0.539855,-1.3374,0.0490066,0.0490066,-0.0523682,-0.0927389,-0.145075,23.4648,23.3087,23.1669,23.2804,23.2094,23.2804,23.1385,
56,6.27307,1.38843,3.15336,4.12936,6.27395,1.98135,1.55552,0.00209139,-0.0854375,-0.000336283,0.0856209,0.000755062,0.0502773,3.71209e-05,0.397363,-8.16374,-0.398756,-0.0871981,0.811307,-30.8999,1.02541,0.00725697,-20,-0.453725,0.354137,-0.0391522,-0.216409,0.019471,-5.84762e-05,0.00599562,-1.88816e-05,0.496026,0.00117866,0.0719145,0.0427725,-0.000218373,0.0378275,1.9788,0.000211073,0.005,1.74233,0.000440099,-0.0284489,-0.219733,22.8357,-0.0579942,0.424917,9.29095,0.0600643,2.47781,0.360306,2.6731,0.157339,0.539795,-1.3616,0.0254773,0.0569691,-0.0525229,-0.080667,-0.140991,23.4648,23.2946,23.1527,23.2662,23.2236,23.252,23.1385,
57,6.27307,1.38843,3.15336,4.12936,6.27395,1.98135,1.55552,0.00209139,-0.0854375,-0.000336283,0.0856209,0.000755062,0.0502773,3.71209e-05,0.399487,-8.32902,-0.403563,-0.213452,0.815416,-31.5502,1.03683,0.00782253,-20,-0.456286,0.332291,-0.0391823,-0.281656,0.0199281,-5.94551e-05,0.00622515,-2.01589e-05,0.496026,0.00117866,0.0719145,0.0427725,-0.000218373,0.0378275,1.97796,0.000212566,0.005,1.74167,0.000387845,-0.0295447,-0.223817,23.447,-0.0668988,0.424917,9.29095,0.0600643,2.47781,0.360306,2.6731,0.157339,0.539795,-1.3616,0.0254773,0.0569691,-0.0525229,-0.080667,-0.140991,23.4648,23.2946,23.1527,23.2662,23.2236,23.252,23.1385,
58,6.27307,1.38834,3.15336,4.12944,6.27395,1.9814,1.55552,0.00206934,-0.0871853,-0.000343258,0.0852643,0.000840241,0.0491079,3.71209e-05,0.399511,-8.32742,-0.403654,-0.213914,0.815462,-31.5481,1.03682,0.00781129,-20,-0.456298,0.333886,-0.0391749,-0.281938,0.019927,-5.94551e-05,0.00622515,-2.01589e-05,0.496026,0.00117866,0.0719145,0.0430369,-0.000198481,0.0384118,1.97796,0.000212566,0.005,1.74167,0.000387845,-0.0295447,-0.223817,23.447,-0.0668988,0.34658,9.5136,0.0628759,2.36812,0.380414,2.4912,0.153475,0.547852,-1.32944,0.0290486,0.0970148,-0.0444942,-0.076644,-0.141049,23.4506,23.3087,23.1527,23.2662,23.2094,23.2662,23.1385,
59,6.27307,1.38834,3.15336,4.12944,6.27395,1.9814,1.55552,0.00206934,-0.0871853,-0.000343258,0.0852643,0.000840241,0.0491079,3.71209e-05,0.401567,-8.49479,-0.407026,-0.343013,0.823901,-32.2011,1.05204,0.00835871,-20,-0.458784,0.311443,-0.0391759,-0.347431,0.0207332,-6.16628e-05,0.00645041,-2.12062e-05,0.496026,0.00117866,0.0719145,0.0430369,-0.000198481,0.0384118,1.97708,0.000217307,0.005,1.74064,0.000374209,-0.0300706,-0.231422,24.0618,-0.0721214,0.34658,9.5136,0.0628759,2.36812,0.380414,2.4912,0.153475,0.547852,-1.32944,0.0290486,0.0970148,-0.0444942,-0.076644,-0.141049,23.4506,23.3087,23.1527,23.2662,23.2094,23.2662,23.1385,
60,6.27308,1.38825,3.15336,4.12953,6.27395,1.98144,1.55552,0.00184762,-0.0899425,-0.0003553,0.0850807,0.000905133,0.0491759,3.70929e-05,0.401572,-8.49329,-0.407057,-0.343766,0.823933,-32.1989,1.052,0.00835077,-20,-0.4588,0.312795,-0.0391662,-0.347661,0.0207306,-6.16628e-05,0.00645041,-2.12062e-05,0.496026,0.00117866,0.0719145,0.0435639,-9.52644e-05,0.0395252,1.97708,0.000217307,0.005,1.74064,0.000374209,-0.0300706,-0.231422,24.0618,-0.0721214,0.36711,9.68486,0.0845632,2.32499,0.377931,2.31629,0.138406,0.539855,-1.3375,0.0241699,0.121919,-0.0525229,-0.0604248,-0.128969,23.4506,23.3087,23.1669,23.2804,23.1952,23.252,23.1243,
61,6.27308,1.38825,3.15336,4.12953,6.27395,1.98144,1.55552,0.00184762,-0.0899425,-0.0003553,0.0850807,0.000905133,0.0491759,3.70929e-05,0.403916,-8.67032,-0.413382,-0.480886,0.824824,-32.8942,1.06752,0.00897475,-20,-0.461627,0.288891,-0.0392239,-0.417593,0.0215805,-6.38873e-05,0.00666383,-2.27581e-05,0.496026,0.00117866,0.0719145,0.0435639,-9.52644e-05,0.0395252,1.97622,0.000213555,0.005,1.73939,0.000277937,-0.0310727,-0.239319,24.7173,-0.0847855,0.36711,9.68486,0.0845632,2.32499,0.377931,2.31629,0.138406,0.539855,-1.3375,0.0241699,0.121919,-0.0525229,-0.0604248,-0.128969,23.4506,23.3087,23.1669,23.2804,23.1952,23.252,23.1243,
62,6.27308,1.38816,3.15336,4.12961,6.27395,1.98149,1.55552,0.00169981,-0.0926434,-0.000362983,0.084356,0.000921268,0.0472192,4.76908e-05,0.403944,-8.66861,-0.41344,-0.481363,0.824871,-32.8921,1.06751,0.00896935,-20,-0.46164,0.290403,-0.039216,-0.417867,0.0215781,-6.38873e-05,0.00666383,-2.27581e-05,0.496026,0.00117866,0.0719145,0.0439248,-3.18663e-05,0.0404111,1.97622,0.000213555,0.005,1.73939,0.000277937,-0.0310727,-0.239319,24.7173,-0.0847855,0.305266,9.99116,0.0850587,2.25214,0.37028,2.15588,0.146776,0.531982,-1.31333,0.0180152,0.105046,-0.0443115,-0.0523682,-0.137022,23.4648,23.3087,23.1527,23.2804,23.2094,23.252,23.1101,
63,6.27308,1.38816,3.15336,4.12961,6.27395,1.98149,1.55552,0.00169981,-0.0926434,-0.000362983,0.084356,0.000921268,0.0472192,4.76908e-05,0.406008,-8.83028,-0.417915,-0.606513,0.829378,-33.5258,1.07964,0.0095189,-20,-0.464129,0.268606,-0.0392447,-0.481562,0.0221265,-6.5459e-05,0.00688483,-2.44284e-05,0.496026,0.00117866,0.0719145,0.0439248,-3.18663e-05,0.0404111,1.97536,0.000208046,0.005,1.73829,0.000215921,-0.03187,-0.244321,25.3146,-0.0930689,0.305266,9.99116,0.0850587,2.25214,0.37028,2.15588,0.146776,0.531982,-1.31333,0.0180152,0.105046,-0.0443115,-0.0523682,-0.137022,23.4648,23.3087,23.1527,23.2804,23.2094,23.252,23.1101,
64,6.27308,1.38807,3.15336,4.1297,6.27396,1.98154,1.55552,0.00152639,-0.0931836,-0.00038087,0.0816736,0.000945704,0.0447885,4.76908e-05,0.40604,-8.82859,-0.417959,-0.606527,0.82944,-33.5241,1.07964,0.00951311,-20,-0.464136,0.270554,-0.0392354,-0.481947,0.0221238,-6.5459e-05,0.00688483,-2.44284e-05,0.496026,0.00117866,0.0719145,0.0432631,3.58736e-05,0.0404211,1.97536,0.000208046,0.005,1.73829,0.000215921,-0.03187,-0.244321,25.3146,-0.0930689,0.338004,10.2107,0.10779,2.15776,0.37415,1.99681,0.141401,0.539855,-1.2653,0.0254773,0.121118,-0.045038,-0.036478,-0.132996,23.4648,23.3229,23.1527,23.2946,23.2094,23.252,23.1243,
65,6.27308,1.38807,3.15336,4.1297,6.27396,1.98154,1.55552,0.00152639,-0.0931836,-0.00038087,0.0816736,0.000945704,0.0447885,4.76908e-05,0.407785,-8.96418,-0.422438,-0.708979,0.830868,-34.0491,1.09263,0.00997761,-20,-0.466278,0.252948,-0.0392788,-0.53425,0.0228892,-6.79937e-05,0.00711782,-2.62657e-05,0.496026,0.00117866,0.0719145,0.0432631,3.58736e-05,0.0404211,1.97447,0.000202111,0.005,1.73808,0.000149614,-0.031879,-0.251523,25.8064,-0.101967,0.338004,10.2107,0.10779,2.15776,0.37415,1.99681,0.141401,0.539855,-1.2653,0.0254773,0.121118,-0.045038,-0.036478,-0.132996,23.4648,23.3229,23.1527,23.2946,23.2094,23.252,23.1243,
66,6.27308,1.38797,3.15336,4.12977,6.27396,1.98159,1.55552,0.00135876,-0.0947905,-0.000406419,0.0791386,0.000942035,0.041595,5.83329e-05,0.407819,-8.96246,-0.422484,-0.708886,0.830921,-34.0475,1.09266,0.00997082,-20,-0.466283,0.254808,-0.0392703,-0.534598,0.0228888,-6.79937e-05,0.00711782,-2.62657e-05,0.496026,0.00117866,0.0719145,0.042871,0.000102114,0.0407714,1.97447,0.000202111,0.005,1.73808,0.000149614,-0.031879,-0.251523,25.8064,-0.101967,0.272744,10.5415,0.0997396,2.05121,0.411464,1.77715,0.140884,0.523682,-1.29722,0.0113938,0.186002,-0.0443115,-0.00569691,-0.124878,23.4648,23.3087,23.1669,23.2804,23.2094,23.2662,23.1385,
67,6.27308,1.38797,3.15336,4.12977,6.27396,1.98159,1.55552,0.00135876,-0.0947905,-0.000406419,0.0791386,0.000942035,0.041595,5.83329e-05,0.409412,-9.09064,-0.425502,-0.806616,0.835614,-34.5467,1.10236,0.0103949,-20,-0.46822,0.237938,-0.0392926,-0.584512,0.0233387,-6.94103e-05,0.00733723,-2.73002e-05,0.496026,0.00117866,0.0719145,0.042871,0.000102114,0.0407714,1.97359,0.000197646,0.005,1.73765,8.59787e-05,-0.0321943,-0.255654,26.2752,-0.10749,0.272744,10.5415,0.0997396,2.05121,0.411464,1.77715,0.140884,0.523682,-1.29722,0.0113938,0.186002,-0.0443115,-0.00569691,-0.124878,23.4648,23.3087,23.1669,23.2804,23.2094,23.2662,23.1385,
68,6.27308,1.38787,3.15336,4.12985,6.27396,1.98162,1.55552,0.00118248,-0.0958846,-0.000429349,0.0791386,0.000942035,0.038315,5.83329e-05,0.40942,-9.08891,-0.42552,-0.806702,0.835651,-34.5449,1.10232,0.0103831,-20,-0.468229,0.239675,-0.0392858,-0.584799,0.0233357,-6.94103e-05,0.00733723,-2.73002e-05,0.496026,0.00117866,0.0719145,0.0431017,0.000175567,0.040867,1.97359,0.000197646,0.005,1.73765,8.59787e-05,-0.0321943,-0.255654,26.2752,-0.10749,0.310346,10.8122,0.131435,2.01915,0.381617,1.57228,0.127468,0.531738,-1.29722,0.0332184,0.217529,-0.036478,0.0201416,-0.128969,23.479,23.3229,23.1669,23.2946,23.1811,23.252,23.1385,
69,6.27308,1.38787,3.15336,4.12985,6.27396,1.98162,1.55552,0.00118248,-0.0958846,-0.000429349,0.0791386,0.000942035,0.038315,5.83329e-05,0.411204,-9.22643,-0.430113,-0.913316,0.837049,-35.0785,1.11459,0.0108582,-20,-0.470404,0.221098,-0.0393285,-0.638285,0.0240199,-7.13864e-05,0.00754772,-2.92246e-05,0.496026,0.00117866,0.0719145,0.0431017,0.000175567,0.040867,1.97274,0.000191256,0.005,1.73667,1.41201e-05,-0.0322803,-0.262038,26.778,-0.116608,0.310346,10.8122,0.131435,2.01915,0.381617,1.57228,0.127468,0.531738,-1.29722,0.0332184,0.217529,-0.036478,0.0201416,-0.128969,23.479,23.3229,23.1669,23.2946,23.1811,23.252,23.1385,
70,6.27308,1.38787,3.15336,4.12985,6.27396,1.98162,1.55552,0.00118248,-0.0958846,-0.000429349,0.0791386,0.000942035,0.038315,5.83329e-05,0.411204,-9.22643,-0.430113,-0.913316,0.837049,-35.0785,1.11459,0.0108582,-20,-0.470404,0.221098,-0.0393285,-0.638285,0.0240199,-7.13864e-05,0.00754772,-2.92246e-05,0.496026,0.00117866,0.0719145,0.0431017,0.000175567,0.040867,1.97274,0.000191256,0.005,1.73667,1.41201e-05,-0.0322803,-0.262038,26.778,-0.116608,0.310346,10.8122,0.131435,2.01915,0.381617,1.57228,0.127468,0.531738,-1.29722,0.0332184,0.217529,-0.036478,0.0201416,-0.128969,23.479,23.3229,23.1669,23.2946,23.1811,23.252,23.1385,
71,6.27308,1.38778,3.15336,4.12993,6.27396,1.98166,1.55552,0.00118248,-0.0960573,-0.000457907,0.0791386,0.000945704,0.0356529,6.62372e-05,0.41125,-9.22479,-0.430198,-0.913361,0.837106,-35.0769,1.11457,0.0108485,-20,-0.470411,0.222915,-0.0393248,-0.638581,0.0240157,-7.13864e-05,0.00754772,-2.92246e-05,0.496026,0.00117866,0.0719145,0.0431367,0.000179959,0.0406619,1.97274,0.000191256,0.005,1.73667,1.41201e-05,-0.0322803,-0.262038,26.778,-0.116608,0.310346,11.2314,0.153921,2.01204,0.352131,1.3457,0.17898,0.531738,-1.28916,0.0180152,0.201577,-0.0322266,0.0689537,-0.132996,23.479,23.3229,23.1527,23.2804,23.2094,23.2804,23.1243,
72,6.27308,1.38778,3.15336,4.12993,6.27396,1.98166,1.55552,0.00118248,-0.0960573,-0.000457907,0.0791386,0.000945704,0.0356529,6.62372e-05,0.412915,-9.35884,-0.433515,-1.01677,0.842028,-35.5943,1.12482,0.0112916,-20,-0.472449,0.204955,-0.0393377,-0.690303,0.0244801,-7.26968e-05,0.00775568,-3.16815e-05,0.496026,0.00117866,0.0719145,0.0431367,0.000179959,0.0406619,1.97189,0.000179219,0.005,1.73588,-6.66756e-07,-0.0320957,-0.266311,27.2648,-0.122286,0.310346,11.2314,0.153921,2.01204,0.352131,1.3457,0.17898,0.531738,-1.28916,0.0180152,0.201577,-0.0322266,0.0689537,-0.132996,23.479,23.3229,23.1527,23.2804,23.2094,23.2804,23.1243,
73,6.27308,1.38778,3.15336,4.12993,6.27396,1.98166,1.55552,0.00118248,-0.0960573,-0.000457907,0.0791386,0.000945704,0.0356529,6.62372e-05,0.412915,-9.35884,-0.433515,-1.01677,0.842028,-35.5943,1.12482,0.0112916,-20,-0.472449,0.204955,-0.0393377,-0.690303,0.0244801,-7.26968e-05,0.00775568,-3.16815e-05,0.496026,0.00117866,0.0719145,0.0431367,0.000179959,0.0406619,1.97189,0.000179219,0.005,1.73588,-6.66756e-07,-0.0320957,-0.266311,27.2648,-0.122286,0.310346,11.2314,0.153921,2.01204,0.352131,1.3457,0.17898,0.531738,-1.28916,0.0180152,0.201577,-0.0322266,0.0689537,-0.132996,23.479,23.3229,23.1527,23.2804,23.2094,23.2804,23.1243,
74,6.27308,1.38769,3.15336,4.13001,6.27396,1.98169,1.55552,0.00113246,-0.0913856,-0.000468546,0.0787413,0.000944017,0.0320984,6.62372e-05,0.41298,-9.3573,-0.43361,-1.01617,0.842099,-35.5933,1.12487,0.0112849,-20,-0.472455,0.207422,-0.03933,-0.690704,0.0244785,-7.26968e-05,0.00775568,-3.16815e-05,0.496026,0.00117866,0.0719145,0.042032,0.00018602,0.0384433,1.97189,0.000179219,0.005,1.73588,-6.66756e-07,-0.0320957,-0.266311,27.2648,-0.122286,0.260494,11.4633,0.127975,1.95486,0.374838,1.09928,0.134753,0.531799,-1.3374,0.0241699,0.193527,-0.0420569,0.0887145,-0.124878,23.4648,23.3229,23.1527,23.2804,23.2094,23.252,23.1101,
75,6.27308,1.38769,3.15336,4.13001,6.27396,1.98169,1.55552,0.00113246,-0.0913856,-0.000468546,0.0787413,0.000944017,0.0320984,6.62372e-05,0.41402,-9.44619,-0.435727,-1.0821,0.844978,-35.9183,1.13419,0.0115616,-20,-0.473807,0.196227,-0.0393486,-0.722368,0.0250602,-7.51936e-05,0.00796337,-3.31761e-05,0.496026,0.00117866,0.0719145,0.042032,0.00018602,0.0384433,1.97103,0.000174158,0.005,1.7361,-1.06765e-05,-0.030099,-0.271878,27.5669,-0.126081,0.260494,11.4633,0.127975,1.95486,0.374838,1.09928,0.134753,0.531799,-1.3374,0.0241699,0.193527,-0.0420569,0.0887145,-0.124878,23.4648,23.3229,23.1527,23.2804,23.2094,23.252,23.1101,
76,6.27308,1.38769,3.15336,4.13001,6.27396,1.98169,1.55552,0.00113246,-0.0913856,-0.000468546,0.0787413,0.000944017,0.0320984,6.62372e-05,0.41402,-9.44619,-0.435727,-1.0821,0.844978,-35.9183,1.13419,0.0115616,-20,-0.473807,0.196227,-0.0393486,-0.722368,0.0250602,-7.51936e-05,0.00796337,-3.31761e-05,0.496026,0.00117866,0.0719145,0.042032,0.00018602,0.0384433,1.97103,0.000174158,0.005,1.7361,-1.06765e-05,-0.030099,-0.271878,27.5669,-0.126081,0.260494,11.4633,0.127975,1.95486,0.374838,1.09928,0.134753,0.531799,-1.3374,0.0241699,0.193527,-0.0420569,0.0887145,-0.124878,23.4648,23.3229,23.1527,23.2804,23.2094,23.252,23.1101,
77,6.27308,1.38759,3.15336,4.13009,6.27396,1.98172,1.55552,0.000981463,-0.0886885,-0.000465688,0.0758205,0.000956727,0.0270097,7.42418e-05,0.414046,-9.44462,-0.435762,-1.08122,0.84502,-35.9176,1.1342,0.0115489,-20,-0.473805,0.198604,-0.0393407,-0.722784,0.0250596,-7.51936e-05,0.00796337,-3.31761e-05,0.496026,0.00117866,0.0719145,0.0406203,0.000226271,0.0368872,1.97103,0.000174158,0.005,1.7361,-1.06765e-05,-0.030099,-0.271878,27.5669,-0.126081,0.278699,11.7759,0.101393,1.93487,0.423512,0.764048,0.0927218,0.523744,-1.46633,0.0113938,0.185303,-0.0284845,0.124943,-0.124878,23.4648,23.3087,23.1527,23.2804,23.2236,23.2378,23.1101,
78,6.27308,1.38759,3.15336,4.13009,6.27396,1.98172,1.55552,0.000981463,-0.0886885,-0.000465688,0.0758205,0.000956727,0.0270097,7.42418e-05,0.414802,-9.50598,-0.438002,-1.12544,0.844565,-36.1417,1.13774,0.0117501,-20,-0.474795,0.191222,-0.0393739,-0.744462,0.0251904,-7.62103e-05,0.00815895,-3.43516e-05,0.496026,0.00117866,0.0719145,0.0406203,0.000226271,0.0368872,1.9702,0.000172522,0.005,1.73662,-4.83741e-05,-0.0286985,-0.272998,27.7737,-0.130794,0.278699,11.7759,0.101393,1.93487,0.423512,0.764048,0.0927218,0.523744,-1.46633,0.0113938,0.185303,-0.0284845,0.124943,-0.124878,23.4648,23.3087,23.1527,23.2804,23.2236,23.2378,23.1101,
79,6.27308,1.38759,3.15336,4.13009,6.27396,1.98172,1.55552,0.000981463,-0.0886885,-0.000465688,0.0758205,0.000956727,0.0270097,7.42418e-05,0.414802,-9.50598,-0.438002,-1.12544,0.844565,-36.1417,1.13774,0.0117501,-20,-0.474795,0.191222,-0.0393739,-0.744462,0.0251904,-7.62103e-05,0.00815895,-3.43516e-05,0.496026,0.00117866,0.0719145,0.0406203,0.000226271,0.0368872,1.9702,0.000172522,0.005,1.73662,-4.83741e-05,-0.0286985,-0.272998,27.7737,-0.130794,0.278699,11.7759,0.101393,1.93487,0.423512,0.764048,0.0927218,0.523744,-1.46633,0.0113938,0.185303,-0.0284845,0.124943,-0.124878,23.4648,23.3087,23.1527,23.2804,23.2236,23.2378,23.1101,
80,6.27308,1.3875,3.15336,4.13016,6.27396,1.98175,1.55552,0.000905965,-0.0891322,-0.00047284,0.0756273,0.000971473,0.0259294,7.42418e-05,0.414847,-9.50457,-0.438084,-1.12567,0.844611,-36.1401,1.13775,0.011744,-20,-0.474804,0.19283,-0.0393673,-0.744716,0.0251891,-7.62103e-05,0.00815895,-3.43516e-05,0.496026,0.00117866,0.0719145,0.0406561,0.000258453,0.0369594,1.9702,0.000172522,0.005,1.73662,-4.83741e-05,-0.0286985,-0.272998,27.7737,-0.130794,0.216114,11.9983,0.132496,2.01137,0.375724,0.509147,0.0961769,0.515688,-1.53882,0.0254773,0.250923,-0.0306788,0.185347,-0.125138,23.4506,23.3229,23.1527,23.2662,23.1811,23.2662,23.1243,
81,6.27308,1.3875,3.15336,4.13016,6.27396,1.98175,1.55552,0.000905965,-0.0891322,-0.00047284,0.0756273,0.000971473,0.0259294,7.42418e-05,0.416493,-9.63684,-0.441296,-1.22767,0.849476,-36.653,1.15002,0.0121822,-20,-0.476811,0.175129,-0.0393838,-0.796054,0.0258698,-7.84098e-05,0.00834694,-3.56548e-05,0.496026,0.00117866,0.0719145,0.0406561,0.000258453,0.0369594,1.9694,0.000165011,0.005,1.73587,-8.40975e-05,-0.0287635,-0.279415,28.2564,-0.136466,0.216114,11.9983,0.132496,2.01137,0.375724,0.509147,0.0961769,0.515688,-1.53882,0.0254773,0.250923,-0.0306788,0.185347,-0.125138,23.4506,23.3229,23.1527,23.2662,23.1811,23.2662,23.1243,
82,6.27308,1.3875,3.15336,4.13016,6.27396,1.98175,1.55552,0.000905965,-0.0891322,-0.00047284,0.0756273,0.000971473,0.0259294,7.42418e-05,0.416493,-9.63684,-0.441296,-1.22767,0.849476,-36.653,1.15002,0.0121822,-20,-0.476811,0.175129,-0.0393838,-0.796054,0.0258698,-7.84098e-05,0.00834694,-3.56548e-05,0.496026,0.00117866,0.0719145,0.0406561,0.000258453,0.0369594,1.9694,0.000165011,0.005,1.73587,-8.40975e-05,-0.0287635,-0.279415,28.2564,-0.136466,0.216114,11.9983,0.132496,2.01137,0.375724,0.509147,0.0961769,0.515688,-1.53882,0.0254773,0.250923,-0.0306788,0.185347,-0.125138,23.4506,23.3229,23.1527,23.2662,23.1811,23.2662,23.1243,
83,6.27308,1.38742,3.15336,4.13024,6.27396,1.98177,1.55552,0.000830468,-0.088592,-0.000457258,0.0761675,0.000970518,0.0243088,7.4185e-05,0.41652,-9.6354,-0.441358,-1.2278,0.849519,-36.6514,1.15,0.0121703,-20,-0.476819,0.17684,-0.0393782,-0.796311,0.0258675,-7.84098e-05,0.00834694,-3.56548e-05,0.496026,0.00117866,0.0719145,0.0406958,0.000281315,0.0365713,1.9694,0.000165011,0.005,1.73587,-8.40975e-05,-0.0287635,-0.279415,28.2564,-0.136466,0.236537,12.3488,0.126932,2.08535,0.356816,0.351749,0.12941,0.507568,-1.54696,0.0254773,0.22573,-0.0371393,0.193359,-0.12085,23.4648,23.3229,23.1527,23.2804,23.1811,23.252,23.1243,
84,6.27308,1.38742,3.15336,4.13024,6.27396,1.98177,1.55552,0.000830468,-0.088592,-0.000457258,0.0761675,0.000970518,0.0243088,7.4185e-05,0.41809,-9.7608,-0.444758,-1.32466,0.853172,-37.1338,1.16012,0.0125881,-20,-0.478749,0.16002,-0.0393982,-0.844503,0.026364,-8.02936e-05,0.00853307,-3.73309e-05,0.496026,0.00117866,0.0719145,0.0406958,0.000281315,0.0365713,1.96859,0.000159518,0.005,1.73511,-0.000109617,-0.0284141,-0.284013,28.7104,-0.142597,0.236537,12.3488,0.126932,2.08535,0.356816,0.351749,0.12941,0.507568,-1.54696,0.0254773,0.22573,-0.0371393,0.193359,-0.12085,23.4648,23.3229,23.1527,23.2804,23.1811,23.252,23.1243,
85,6.27308,1.38733,3.15336,4.13032,6.27396,1.9818,1.55552,0.00074682,-0.085891,-0.000449883,0.0784905,0.00100085,0.0250533,7.41304e-05,0.41812,-9.75951,-0.444831,-1.32511,0.853216,-37.1321,1.16007,0.0125764,-20,-0.478764,0.161812,-0.0393917,-0.844749,0.0263584,-8.02936e-05,0.00853307,-3.73309e-05,0.496026,0.00117866,0.0719145,0.0407892,0.00031571,0.035546,1.96859,0.000159518,0.005,1.73511,-0.000109617,-0.0284141,-0.284013,28.7104,-0.142597,0.192456,12.5714,0.0782405,2.07643,0.389417,0.208706,0.123132,0.515625,-1.55595,0.0290486,0.217678,-0.0322266,0.209473,-0.12085,23.479,23.3087,23.1669,23.2804,23.1952,23.2662,23.1101,
86,6.27308,1.38733,3.15336,4.13032,6.27396,1.9818,1.55552,0.00074682,-0.085891,-0.000449883,0.0784905,0.00100085,0.0250533,7.41304e-05,0.420086,-9.90897,-0.450846,-1.44029,0.852125,-37.7025,1.17262,0.0130996,-20,-0.481206,0.141825,-0.0394469,-0.901559,0.0270266,-8.26324e-05,0.00872757,-4.01248e-05,0.496026,0.00117866,0.0719145,0.0407892,0.00031571,0.035546,1.96776,0.000151633,0.005,1.73427,-0.000147669,-0.0274914,-0.29018,29.2465,-0.154593,0.192456,12.5714,0.0782405,2.07643,0.389417,0.208706,0.123132,0.515625,-1.55595,0.0290486,0.217678,-0.0322266,0.209473,-0.12085,23.479,23.3087,23.1669,23.2804,23.1952,23.2662,23.1101,
87,6.27308,1.38733,3.15336,4.13032,6.27396,1.9818,1.55552,0.00074682,-0.085891,-0.000449883,0.0784905,0.00100085,0.0250533,7.41304e-05,0.420086,-9.90897,-0.450846,-1.44029,0.852125,-37.7025,1.17262,0.0130996,-20,-0.481206,0.141825,-0.0394469,-0.901559,0.0270266,-8.26324e-05,0.00872757,-4.01248e-05,0.496026,0.00117866,0.0719145,0.0407892,0.00031571,0.035546,1.96776,0.000151633,0.005,1.73427,-0.000147669,-0.0274914,-0.29018,29.2465,-0.154593,0.192456,12.5714,0.0782405,2.07643,0.389417,0.208706,0.123132,0.515625,-1.55595,0.0290486,0.217678,-0.0322266,0.209473,-0.12085,23.479,23.3087,23.1669,23.2804,23.1952,23.2662,23.1101,
88,6.27308,1.38733,3.15336,4.13032,6.27396,1.9818,1.55552,0.00074682,-0.085891,-0.000449883,0.0784905,0.00100085,0.0250533,7.41304e-05,0.420086,-9.90897,-0.450846,-1.44029,0.852125,-37.7025,1.17262,0.0130996,-20,-0.481206,0.141825,-0.0394469,-0.901559,0.0270266,-8.26324e-05,0.00872757,-4.01248e-05,0.496026,0.00117866,0.0719145,0.0407892,0.00031571,0.035546,1.96776,0.000151633,0.005,1.73427,-0.000147669,-0.0274914,-0.29018,29.2465,-0.154593,0.192456,12.5714,0.0782405,2.07643,0.389417,0.208706,0.123132,0.515625,-1.55595,0.0290486,0.217678,-0.0322266,0.209473,-0.12085,23.479,23.3087,23.1669,23.2804,23.1952,23.2662,23.1101,
89,6.27308,1.38724,3.15336,4.1304,6.27397,1.9818,1.55552,0.000754971,-0.0842582,-0.000434219,0.0780582,0.00104303,0.0250533,7.41304e-05,0.420147,-9.90779,-0.45097,-1.44026,0.85215,-37.7014,1.17266,0.0130921,-20,-0.481214,0.143683,-0.0394402,-0.901815,0.0270264,-8.26324e-05,0.00872757,-4.01248e-05,0.496026,0.00117866,0.0719145,0.0403157,0.000307686,0.0349108,1.96776,0.000151633,0.005,1.73427,-0.000147669,-0.0274914,-0.29018,29.2465,-0.154593,0.196176,12.843,0.0664864,2.10705,0.411805,0.208706,0.163244,0.507568,-1.61135,0.00805664,0.161133,-0.0241699,0.209473,-0.116891,23.4506,23.3087,23.1527,23.2662,23.1952,23.2662,23.1243,
90,6.27308,1.38724,3.15336,4.1304,6.27397,1.9818,1.55552,0.000754971,-0.0842582,-0.000434219,0.0780582,0.00104303,0.0250533,7.41304e-05,0.42144,-10.0159,-0.453041,-1.5226,0.857733,-38.1144,1.18356,0.0134363,-20,-0.482817,0.129504,-0.0394412,-0.942869,0.0276597,-8.50866e-05,0.00889398,-4.1023e-05,0.496026,0.00117866,0.0719145,0.0403157,0.000307686,0.0349108,1.96693,0.000147977,0.005,1.73396,-0.000143738,-0.0269197,-0.296223,29.6338,-0.157704,0.196176,12.843,0.0664864,2.10705,0.411805,0.208706,0.163244,0.507568,-1.61135,0.00805664,0.161133,-0.0241699,0.209473,-0.116891,23.4506,23.3087,23.1527,23.2662,23.1952,23.2662,23.1243,
91,6.27308,1.38724,3.15336,4.1304,6.27397,1.9818,1.55552,0.000754971,-0.0842582,-0.000434219,0.0780582,0.00104303,0.0250533,7.41304e-05,0.42144,-10.0159,-0.453041,-1.5226,0.857733,-38.1144,1.18356,0.0134363,-20,-0.482817,0.129504,-0.0394412,-0.942869,0.0276597,-8.50866e-05,0.00889398,-4.1023e-05,0.496026,0.00117866,0.0719145,0.0403157,0.000307686,0.0349108,1.96693,0.000147977,0.005,1.73396,-0.000143738,-0.0269197,-0.296223,29.6338,-0.157704,0.196176,12.843,0.0664864,2.10705,0.411805,0.208706,0.163244,0.507568,-1.61135,0.00805664,0.161133,-0.0241699,0.209473,-0.116891,23.4506,23.3087,23.1527,23.2662,23.1952,23.2662,23.1243,
92,6.27309,1.38716,3.15336,4.13047,6.27397,1.98182,1.55552,0.000728635,-0.084185,-0.00041214,0.0763601,0.00106041,0.0259294,7.40737e-05,0.421474,-10.0147,-0.45312,-1.52295,0.857783,-38.1129,1.18354,0.0134245,-20,-0.482823,0.131098,-0.0394364,-0.943141,0.027656,-8.50866e-05,0.00889398,-4.1023e-05,0.496026,0.00117866,0.0719145,0.0398059,0.000311248,0.0350083,1.96693,0.000147977,0.005,1.73396,-0.000143738,-0.0269197,-0.296223,29.6338,-0.157704,0.154824,13.1248,0.0716363,2.14621,0.415194,0.121313,0.110822,0.507632,-1.65163,0.0241699,0.161133,-0.0166092,0.205602,-0.112865,23.4648,23.3087,23.1385,23.2662,23.2094,23.2662,23.1243,
93,6.27309,1.38716,3.15336,4.13047,6.27397,1.98182,1.55552,0.000728635,-0.084185,-0.00041214,0.0763601,0.00106041,0.0259294,7.40737e-05,0.423114,-10.1439,-0.456938,-1.62096,0.860934,-38.614,1.19395,0.0138609,-20,-0.484833,0.114255,-0.0394567,-0.993124,0.0281586,-8.71376e-05,0.00907797,-4.32186e-05,0.496026,0.00117866,0.0719145,0.0398059,0.000311248,0.0350083,1.96615,0.000141563,0.005,1.73371,-0.000152717,-0.0270074,-0.300862,30.1038,-0.164591,0.154824,13.1248,0.0716363,2.14621,0.415194,0.121313,0.110822,0.507632,-1.65163,0.0241699,0.161133,-0.0166092,0.205602,-0.112865,23.4648,23.3087,23.1385,23.2662,23.2094,23.2662,23.1243,
94,6.27309,1.38716,3.15336,4.13047,6.27397,1.98182,1.55552,0.000728635,-0.084185,-0.00041214,0.0763601,0.00106041,0.0259294,7.40737e-05,0.423114,-10.1439,-0.456938,-1.62096,0.860934,-38.614,1.19395,0.0138609,-20,-0.484833,0.114255,-0.0394567,-0.993124,0.0281586,-8.71376e-05,0.00907797,-4.32186e-05,0.496026,0.00117866,0.0719145,0.0398059,0.000311248,0.0350083,1.96615,0.000141563,0.005,1.73371,-0.000152717,-0.0270074,-0.300862,30.1038,-0.164591,0.154824,13.1248,0.0716363,2.14621,0.415194,0.121313,0.110822,0.507632,-1.65163,0.0241699,0.161133,-0.0166092,0.205602,-0.112865,23.4648,23.3087,23.1385,23.2662,23.2094,23.2662,23.1243,
95,6.27309,1.38708,3.15335,4.13055,6.27397,1.98185,1.55553,0.000728635,-0.0848106,-0.000390882,0.0758974,0.00112604,0.0259294,8.46557e-05,0.423153,-10.1426,-0.457035,-1.62139,0.86096,-38.6122,1.1939,0.0138524,-20,-0.484843,0.11576,-0.0394519,-0.993366,0.0281533,-8.71376e-05,0.00907797,-4.32186e-05,0.496026,0.00117866,0.0719145,0.0398015,0.000311944,0.035271,1.96615,0.000141563,0.005,1.73371,-0.000152717,-0.0270074,-0.300862,30.1038,-0.164591,0.162318,13.4892,0.0932719,2.1453,0.416121,0.0601779,0.108275,0.499577,-1.6678,0.0241699,0.193527,-0.0180152,0.201577,-0.117099,23.4648,23.3087,23.1527,23.2804,23.2094,23.252,23.1101,
96,6.27309,1.38708,3.15335,4.13055,6.27397,1.98185,1.55553,0.000728635,-0.0848106,-0.000390882,0.0758974,0.00112604,0.0259294,8.46557e-05,0.424942,-10.2797,-0.461787,-1.72696,0.86255,-39.1458,1.20384,0.0143284,-20,-0.487026,0.0974687,-0.0394805,-1.0468,0.0285787,-8.85948e-05,0.00926208,-4.59384e-05,0.496026,0.00117866,0.0719145,0.0398015,0.000311944,0.035271,1.96536,0.000132616,0.005,1.733,-0.000161395,-0.0272439,-0.304684,30.6057,-0.173468,0.162318,13.4892,0.0932719,2.1453,0.416121,0.0601779,0.108275,0.499577,-1.6678,0.0241699,0.193527,-0.0180152,0.201577,-0.117099,23.4648,23.3087,23.1527,23.2804,23.2094,23.252,23.1101,
97,6.27309,1.38699,3.15335,4.13063,6.27397,1.98187,1.55553,0.000649048,-0.0829199,-0.000383518,0.0774875,0.00120265,0.0259294,8.46557e-05,0.424986,-10.2784,-0.461876,-1.72738,0.862584,-39.144,1.2038,0.0143228,-20,-0.487041,0.0992034,-0.0394736,-1.04705,0.0285727,-8.85948e-05,0.00926208,-4.59384e-05,0.496026,0.00117866,0.0719145,0.0398565,0.000348256,0.0345005,1.96536,0.000132616,0.005,1.733,-0.000161395,-0.0272439,-0.304684,30.6057,-0.173468,0.0646183,13.6993,0.0535541,2.1226,0.439256,-0.0503132,0.0970117,0.491521,-1.65169,0.00805664,0.201416,-0.0127387,0.201456,-0.112865,23.4506,23.3229,23.1669,23.2804,23.1952,23.252,23.1243,
98,6.27309,1.38699,3.15335,4.13063,6.27397,1.98187,1.55553,0.000649048,-0.0829199,-0.000383518,0.0774875,0.00120265,0.0259294,8.46557e-05,0.426866,-10.4181,-0.468162,-1.83518,0.859752,-39.6791,1.21727,0.0148231,-20,-0.489373,0.0804991,-0.039536,-1.1004,0.0293801,-9.12135e-05,0.00945179,-4.88436e-05,0.496026,0.00117866,0.0719145,0.0398565,0.000348256,0.0345005,1.96454,0.000118736,0.005,1.73222,-0.000206568,-0.0265504,-0.312228,31.1089,-0.186328,0.0646183,13.6993,0.0535541,2.1226,0.439256,-0.0503132,0.0970117,0.491521,-1.65169,0.00805664,0.201416,-0.0127387,0.201456,-0.112865,23.4506,23.3229,23.1669,23.2804,23.1952,23.252,23.1243,
99,6.27309,1.38699,3.15335,4.13063,6.27397,1.98187,1.55553,0.000649048,-0.0829199,-0.000383518,0.0774875,0.00120265,0.0259294,8.46557e-05,0.426866,-10.4181,-0.468162,-1.83518,0.859752,-39.6791,1.21727,0.0148231,-20,-0.489373,0.0804991,-0.039536,-1.1004,0.0293801,-9.12135e-05,0.00945179,-4.88436e-05,0.496026,0.00117866,0.0719145,0.0398565,0.000348256,0.0345005,1.96454,0.000118736,0.005,1.73222,-0.000206568,-0.0265504,-0.312228,31.1089,-0.186328,0.0646183,13.6993,0.0535541,2.1226,0.439256,-0.0503132,0.0970117,0.491521,-1.65169,0.00805664,0.201416,-0.0127387,0.201456,-0.112865,23.4506,23.3229,23.1669,23.2804,23.1952,23.252,23.1243,
100,6.27309,1.38699,3.15335,4.13071,6.27397,1.9819,1.55553,0.000649048,-0.0829199,-0.000353263,0.0777881,0.00124331,0.0240738,9.53096e-05,0.426865,-10.417,-0.468176,-1.83572,0.859764,-39.6775,1.21714,0.0148215,-20,-0.489386,0.081319,-0.0395352,-1.10055,0.0293719,-9.12135e-05,0.00945179,-4.88436e-05,0.496026,0.00117866,0.0719145,0.0399454,0.000341371,0.0343024,1.96454,0.000118736,0.005,1.73222,-0.000206568,-0.0265504,-0.312228,31.1089,-0.186328,0.0646183,13.6993,0.0375075,2.09696,0.469928,-0.168816,0.106053,0.491521,-1.65169,0.0180152,0.153288,-0.0166092,0.197388,-0.117099,23.4506,23.3229,23.1527,23.2662,23.2094,23.2662,23.1101,
101,6.27309,1.38691,3.15335,4.13071,6.27397,1.9819,1.55553,0.000585053,-0.0807474,-0.000353263,0.0777881,0.00124331,0.0240738,9.53096e-05,0.427834,-10.48,-0.472518,-1.88444,0.854928,-39.9215,1.22065,0.0150603,-20,-0.49054,0.0738066,-0.0395723,-1.1251,0.0294741,-9.1716e-05,0.00955415,-5.20722e-05,0.496026,0.00117866,0.0719145,0.0394827,0.000362135,0.0334416,1.9641,0.000110536,0.005,1.73174,-0.000207751,-0.0263722,-0.312945,31.3386,-0.195262,0.116913,13.91,0.0375075,2.09696,0.469928,-0.168816,0.106053,0.499512,-1.70003,0.0180152,0.153288,-0.0166092,0.197388,-0.117099,23.4506,23.2946,23.1527,23.2662,23.2094,23.2662,23.1101,
102,6.27309,1.38691,3.15335,4.13071,6.27397,1.9819,1.55553,0.000585053,-0.0807474,-0.000353263,0.0777881,0.00124331,0.0240738,9.53096e-05,0.428366,-10.5281,-0.472954,-1.92034,0.858338,-40.1004,1.22435,0.015202,-20,-0.49122,0.0677098,-0.0395745,-1.14264,0.0296505,-9.25786e-05,0.00964003,-5.15385e-05,0.496026,0.00117866,0.0719145,0.0394827,0.000362135,0.0334416,1.96374,0.000111111,0.005,1.73183,-0.000225922,-0.0255974,-0.314607,31.5053,-0.195742,0.116913,13.91,0.0375075,2.09696,0.469928,-0.168816,0.106053,0.499512,-1.70003,0.0180152,0.153288,-0.0166092,0.197388,-0.117099,23.4506,23.2946,23.1527,23.2662,23.2094,23.2662,23.1101,
103,6.27309,1.38683,3.15335,4.13078,6.27397,1.98192,1.55553,0.000471982,-0.0791386,-0.000345903,0.0753572,0.0013058,0.0202368,9.52386e-05,0.428409,-10.5267,-0.473017,-1.91996,0.858355,-40.0993,1.22431,0.0151966,-20,-0.491223,0.0696597,-0.0395686,-1.14298,0.0296452,-9.25786e-05,0.00964003,-5.15385e-05,0.496026,0.00117866,0.0719145,0.0384437,0.000396381,0.0324398,1.96374,0.000111111,0.005,1.73183,-0.000225922,-0.0255974,-0.314607,31.5053,-0.195742,0.0879736,14.0941,0.0477877,2.13574,0.452481,-0.345172,0.088001,0.491455,-1.75637,0.00805664,0.1372,-0.0113938,0.217567,-0.108765,23.4506,23.3087,23.1385,23.2804,23.1952,23.252,23.1243,
104,6.27309,1.38683,3.15335,4.13078,6.27397,1.98192,1.55553,0.000471982,-0.0791386,-0.000345903,0.0753572,0.0013058,0.0202368,9.52386e-05,0.429354,-10.5924,-0.477471,-1.96847,0.852579,-40.3454,1.23316,0.0154479,-20,-0.49243,0.0614471,-0.039629,-1.16711,0.0303088,-9.5098e-05,0.0098123,-5.42644e-05,0.496026,0.00117866,0.0719145,0.0384437,0.000396381,0.0324398,1.96298,9.79119e-05,0.005,1.73208,-0.000268622,-0.0246959,-0.320907,31.7341,-0.205599,0.0879736,14.0941,0.0477877,2.13574,0.452481,-0.345172,0.088001,0.491455,-1.75637,0.00805664,0.1372,-0.0113938,0.217567,-0.108765,23.4506,23.3087,23.1385,23.2804,23.1952,23.252,23.1243,
105,6.27309,1.38683,3.15335,4.13078,6.27397,1.98192,1.55553,0.000471982,-0.0791386,-0.000345903,0.0753572,0.0013058,0.0202368,9.52386e-05,0.429354,-10.5924,-0.477471,-1.96847,0.852579,-40.3454,1.23316,0.0154479,-20,-0.49243,0.0614471,-0.039629,-1.16711,0.0303088,-9.5098e-05,0.0098123,-5.42644e-05,0.496026,0.00117866,0.0719145,0.0384437,0.000396381,0.0324398,1.96298,9.79119e-05,0.005,1.73208,-0.000268622,-0.0246959,-0.320907,31.7341,-0.205599,0.0879736,14.0941,0.0477877,2.13574,0.452481,-0.345172,0.088001,0.491455,-1.75637,0.00805664,0.1372,-0.0113938,0.217567,-0.108765,23.4506,23.3087,23.1385,23.2804,23.1952,23.252,23.1243,
106,6.27309,1.38683,3.15335,4.13078,6.27397,1.98192,1.55553,0.000471982,-0.0791386,-0.000345903,0.0753572,0.0013058,0.0202368,9.52386e-05,0.429354,-10.5924,-0.477471,-1.96847,0.852579,-40.3454,1.23316,0.0154479,-20,-0.49243,0.0614471,-0.039629,-1.16711,0.0303088,-9.5098e-05,0.0098123,-5.42644e-05,0.496026,0.00117866,0.0719145,0.0384437,0.000396381,0.0324398,1.96298,9.79119e-05,0.005,1.73208,-0.000268622,-0.0246959,-0.320907,31.7341,-0.205599,0.0879736,14.0941,0.0477877,2.13574,0.452481,-0.345172,0.088001,0.491455,-1.75637,0.00805664,0.1372,-0.0113938,0.217567,-0.108765,23.4506,23.3087,23.1385,23.2804,23.1952,23.252,23.1243,
107,6.27309,1.38675,3.15335,4.13085,6.27398,1.98194,1.55553,0.000412985,-0.0782489,-0.000323824,0.0734665,0.00134709,0.0183666,0.00010582,0.429392,-10.5911,-0.477541,-1.96843,0.852599,-40.3442,1.2331,0.0154396,-20,-0.492435,0.0631733,-0.0396247,-1.1674,0.0303024,-9.5098e-05,0.0098123,-5.42644e-05,0.496026,0.00117866,0.0719145,0.0377102,0.000408755,0.0319235,1.96298,9.79119e-05,0.005,1.73208,-0.000268622,-0.0246959,-0.320907,31.7341,-0.205599,0.0969657,14.4051,0.0723379,2.1357,0.426821,-0.522226,0.117947,0.491521,-1.77246,0,0.193527,-0.0090076,0.253784,-0.116891,23.4648,23.2946,23.1385,23.2662,23.2094,23.2662,23.1243,
108,6.27309,1.38675,3.15335,4.13085,6.27398,1.98194,1.55553,0.000412985,-0.0782489,-0.000323824,0.0734665,0.00134709,0.0183666,0.00010582,0.430602,-10.6786,-0.482197,-2.03429,0.848898,-40.6789,1.23967,0.0157617,-20,-0.493947,0.0519069,-0.0396741,-1.20058,0.0306261,-9.66082e-05,0.0099799,-5.73749e-05,0.496026,0.00117866,0.0719145,0.0377102,0.000408755,0.0319235,1.96224,8.53524e-05,0.005,1.73207,-0.000291062,-0.0242312,-0.323798,32.0471,-0.215281,0.0969657,14.4051,0.0723379,2.1357,0.426821,-0.522226,0.117947,0.491521,-1.77246,0,0.193527,-0.0090076,0.253784,-0.116891,23.4648,23.2946,23.1385,23.2662,23.2094,23.2662,23.1243,
109,6.27309,1.38675,3.15335,4.13085,6.27398,1.98194,1.55553,0.000412985,-0.0782489,-0.000323824,0.0734665,0.00134709,0.0183666,0.00010582,0.430602,-10.6786,-0.482197,-2.03429,0.848898,-40.6789,1.23967,0.0157617,-20,-0.493947,0.0519069,-0.0396741,-1.20058,0.0306261,-9.66082e-05,0.0099799,-5.73749e-05,0.496026,0.00117866,0.0719145,0.0377102,0.000408755,0.0319235,1.96224,8.53524e-05,0.005,1.73207,-0.000291062,-0.0242312,-0.323798,32.0471,-0.215281,0.0969657,14.4051,0.0723379,2.1357,0.426821,-0.522226,0.117947,0.491521,-1.77246,0,0.193527,-0.0090076,0.253784,-0.116891,23.4648,23.2946,23.1385,23.2662,23.2094,23.2662,23.1243,
110,6.27309,1.38668,3.15335,4.13093,6.27398,1.98195,1.55553,0.000353987,-0.0777881,-0.000317131,0.073406,0.00137878,0.0142938,0.00010582,0.430647,-10.677,-0.482272,-2.03421,0.848899,-40.6773,1.23959,0.0157563,-20,-0.493956,0.0536662,-0.0396698,-1.20085,0.0306193,-9.66082e-05,0.0099799,-5.73749e-05,0.496026,0.00117866,0.0719145,0.0375986,0.000425774,0.0313159,1.96224,8.53524e-05,0.005,1.73207,-0.000291062,-0.0242312,-0.323798,32.0471,-0.215281,0.0580305,14.5769,0.0855384,2.06904,0.446712,-0.676543,0.0899025,0.467355,-1.79663,0.0180152,0.226161,-0.00805664,0.2659,-0.112865,23.4506,23.3087,23.1527,23.2662,23.1952,23.252,23.1243,
111,6.27309,1.38668,3.15335,4.13093,6.27398,1.98195,1.55553,0.000353987,-0.0777881,-0.000317131,0.073406,0.00137878,0.0142938,0.00010582,0.431872,-10.7662,-0.486758,-2.10341,0.845828,-41.0182,1.25084,0.0160823,-20,-0.495479,0.0416311,-0.039716,-1.23485,0.0314063,-9.93543e-05,0.0101498,-6.05613e-05,0.496026,0.00117866,0.0719145,0.0375986,0.000425774,0.0313159,1.96146,7.11723e-05,0.005,1.73148,-0.000319142,-0.0236844,-0.331287,32.3679,-0.224626,0.0580305,14.5769,0.0855384,2.06904,0.446712,-0.676543,0.0899025,0.467355,-1.79663,0.0180152,0.226161,-0.00805664,0.2659,-0.112865,23.4506,23.3087,23.1527,23.2662,23.1952,23.252,23.1243,
112,6.27309,1.38668,3.15335,4.13093,6.27398,1.98195,1.55553,0.000353987,-0.0777881,-0.000317131,0.073406,0.00137878,0.0142938,0.00010582,0.431872,-10.7662,-0.486758,-2.10341,0.845828,-41.0182,1.25084,0.0160823,-20,-0.495479,0.0416311,-0.039716,-1.23485,0.0314063,-9.93543e-05,0.0101498,-6.05613e-05,0.496026,0.00117866,0.0719145,0.0375986,0.000425774,0.0313159,1.96146,7.11723e-05,0.005,1.73148,-0.000319142,-0.0236844,-0.331287,32.3679,-0.224626,0.0580305,14.5769,0.0855384,2.06904,0.446712,-0.676543,0.0899025,0.467355,-1.79663,0.0180152,0.226161,-0.00805664,0.2659,-0.112865,23.4506,23.3087,23.1527,23.2662,23.1952,23.252,23.1243,
113,6.27309,1.3866,3.15335,4.131,6.27398,1.98196,1.55553,0.000354026,-0.0732244,-0.000309114,0.0731964,0.00139999,0.0116142,0.0001059,0.43194,-10.765,-0.486869,-2.10307,0.845864,-41.0173,1.25085,0.0160764,-20,-0.495484,0.0436651,-0.0397109,-1.23516,0.0314033,-9.93543e-05,0.0101498,-6.05613e-05,0.496026,0.00117866,0.0719145,0.0365746,0.000411068,0.0292251,1.96146,7.11723e-05,0.005,1.73148,-0.000319142,-0.0236844,-0.331287,32.3679,-0.224626,0.0907762,14.8082,0.0861846,2.04824,0.476616,-0.854001,0.0621414,0.483398,-1.78923,0.0113938,0.233643,-0.00402832,0.310181,-0.104814,23.4506,23.2946,23.1527,23.2662,23.1952,23.252,23.1243,
114,6.27309,1.3866,3.15335,4.131,6.27398,1.98196,1.55553,0.000354026,-0.0732244,-0.000309114,0.0731964,0.00139999,0.0116142,0.0001059,0.432721,-10.8286,-0.489287,-2.14998,0.845519,-41.2457,1.25884,0.0162841,-20,-0.496518,0.0357416,-0.0397356,-1.25724,0.0319607,-0.000101853,0.010311,-6.26008e-05,0.496026,0.00117866,0.0719145,0.0365746,0.000411068,0.0292251,1.96072,6.25935e-05,0.005,1.73173,-0.000313627,-0.0218026,-0.336642,32.5796,-0.229388,0.0907762,14.8082,0.0861846,2.04824,0.476616,-0.854001,0.0621414,0.483398,-1.78923,0.0113938,0.233643,-0.00402832,0.310181,-0.104814,23.4506,23.2946,23.1527,23.2662,23.1952,23.252,23.1243,
115,6.27309,1.3866,3.15335,4.131,6.27398,1.98196,1.55553,0.000354026,-0.0732244,-0.000309114,0.0731964,0.00139999,0.0116142,0.0001059,0.432721,-10.8286,-0.489287,-2.14998,0.845519,-41.2457,1.25884,0.0162841,-20,-0.496518,0.0357416,-0.0397356,-1.25724,0.0319607,-0.000101853,0.010311,-6.26008e-05,0.496026,0.00117866,0.0719145,0.0365746,0.000411068,0.0292251,1.96072,6.25935e-05,0.005,1.73173,-0.000313627,-0.0218026,-0.336642,32.5796,-0.229388,0.0907762,14.8082,0.0861846,2.04824,0.476616,-0.854001,0.0621414,0.483398,-1.78923,0.0113938,0.233643,-0.00402832,0.310181,-0.104814,23.4506,23.2946,23.1527,23.2662,23.1952,23.252,23.1243,
116,6.27309,1.38653,3.15335,4.13108,6.27398,1.98197,1.55553,0.000319164,-0.0688749,-0.000294394,0.0731964,0.00139103,0.0108039,0.000113756,0.432761,-10.8275,-0.489355,-2.14991,0.845576,-41.2447,1.25884,0.0162733,-20,-0.496523,0.0375502,-0.0397316,-1.25751,0.0319578,-0.000101853,0.010311,-6.26008e-05,0.496026,0.00117866,0.0719145,0.0356542,0.000409361,0.0274136,1.96072,6.25935e-05,0.005,1.73173,-0.000313627,-0.0218026,-0.336642,32.5796,-0.229388,0.0635952,14.9634,0.130048,2.06066,0.472131,-1.06786,0.0566452,0.475342,-1.89333,-0.0161133,0.234198,0,0.326319,-0.108765,23.4506,23.2946,23.1385,23.2662,23.2094,23.252,23.0818,
117,6.27309,1.38653,3.15335,4.13108,6.27398,1.98197,1.55553,0.000319164,-0.0688749,-0.000294394,0.0731964,0.00139103,0.0108039,0.000113756,0.433688,-10.9015,-0.492226,-2.20481,0.845051,-41.5156,1.26183,0.0165199,-20,-0.497728,0.0282414,-0.0397616,-1.28391,0.0319705,-0.000102592,0.0104615,-6.45656e-05,0.496026,0.00117866,0.0719145,0.0356542,0.000409361,0.0274136,1.96001,5.42447e-05,0.005,1.73192,-0.000319604,-0.0201722,-0.336552,32.8314,-0.235042,0.0635952,14.9634,0.130048,2.06066,0.472131,-1.06786,0.0566452,0.475342,-1.89333,-0.0161133,0.234198,0,0.326319,-0.108765,23.4506,23.2946,23.1385,23.2662,23.2094,23.252,23.0818,
118,6.27309,1.38653,3.15335,4.13108,6.27398,1.98197,1.55553,0.000319164,-0.0688749,-0.000294394,0.0731964,0.00139103,0.0108039,0.000113756,0.433688,-10.9015,-0.492226,-2.20481,0.845051,-41.5156,1.26183,0.0165199,-20,-0.497728,0.0282414,-0.0397616,-1.28391,0.0319705,-0.000102592,0.0104615,-6.45656e-05,0.496026,0.00117866,0.0719145,0.0356542,0.000409361,0.0274136,1.96001,5.42447e-05,0.005,1.73192,-0.000319604,-0.0201722,-0.336552,32.8314,-0.235042,0.0635952,14.9634,0.130048,2.06066,0.472131,-1.06786,0.0566452,0.475342,-1.89333,-0.0161133,0.234198,0,0.326319,-0.108765,23.4506,23.2946,23.1385,23.2662,23.2094,23.252,23.0818,
119,6.27309,1.38646,3.15335,4.13115,6.27398,1.98198,1.55553,0.000212755,-0.0675244,-0.000294378,0.072116,0.00136895,0.00972351,0.000113756,0.433734,-10.9003,-0.492289,-2.20489,0.845073,-41.5143,1.26179,0.0165155,-20,-0.497736,0.0298065,-0.039757,-1.28415,0.0319655,-0.000102592,0.0104615,-6.45656e-05,0.496026,0.00117866,0.0719145,0.0350567,0.000442669,0.0267837,1.96001,5.42447e-05,0.005,1.73192,-0.000319604,-0.0201722,-0.336552,32.8314,-0.235042,0.0741258,15.2461,0.143229,2.02354,0.447983,-1.23159,0.0779839,0.467285,-1.96589,0.0113938,0.226161,-0.00402832,0.338379,-0.108839,23.4506,23.2946,23.1527,23.252,23.1952,23.2662,23.0959,
120,6.27309,1.38646,3.15335,4.13115,6.27398,1.98198,1.55553,0.000212755,-0.0675244,-0.000294378,0.072116,0.00136895,0.00972351,0.000113756,0.434847,-10.9822,-0.496325,-2.26679,0.842232,-41.8262,1.27068,0.0168115,-20,-0.499128,0.0191979,-0.0398043,-1.31506,0.0325516,-0.000104975,0.0106086,-6.70953e-05,0.496026,0.00117866,0.0719145,0.0350567,0.000442669,0.0267837,1.95932,4.20067e-05,0.005,1.73184,-0.000360596,-0.0196054,-0.342072,33.1233,-0.24359,0.0741258,15.2461,0.143229,2.02354,0.447983,-1.23159,0.0779839,0.467285,-1.96589,0.0113938,0.226161,-0.00402832,0.338379,-0.108839,23.4506,23.2946,23.1527,23.252,23.1952,23.2662,23.0959,
121,6.27309,1.38646,3.15335,4.13115,6.27398,1.98198,1.55553,0.000212755,-0.0675244,-0.000294378,0.072116,0.00136895,0.00972351,0.000113756,0.434847,-10.9822,-0.496325,-2.26679,0.842232,-41.8262,1.27068,0.0168115,-20,-0.499128,0.0191979,-0.0398043,-1.31506,0.0325516,-0.000104975,0.0106086,-6.70953e-05,0.496026,0.00117866,0.0719145,0.0350567,0.000442669,0.0267837,1.95932,4.20067e-05,0.005,1.73184,-0.000360596,-0.0196054,-0.342072,33.1233,-0.24359,0.0741258,15.2461,0.143229,2.02354,0.447983,-1.23159,0.0779839,0.467285,-1.96589,0.0113938,0.226161,-0.00402832,0.338379,-0.108839,23.4506,23.2946,23.1527,23.252,23.1952,23.2662,23.0959,
122,6.27309,1.3864,3.15335,4.13122,6.27399,1.98199,1.55553,0.000159582,-0.0686048,-0.000280255,0.0704659,0.00141752,0.00902766,0.000113757,0.434864,-10.9809,-0.496375,-2.2671,0.842236,-41.8246,1.27058,0.016801,-20,-0.499136,0.0206061,-0.039801,-1.31528,0.0325453,-0.000104975,0.0106086,-6.70953e-05,0.496026,0.00117866,0.0719145,0.0348084,0.00046228,0.027171,1.95932,4.20067e-05,0.005,1.73184,-0.000360596,-0.0196054,-0.342072,33.1233,-0.24359,0.0343688,15.4345,0.137851,1.98586,0.472788,-1.36599,0.0768798,0.459299,-1.97388,0.0113938,0.233643,0,0.342407,-0.108765,23.4506,23.3087,23.1527,23.2662,23.1952,23.2378,23.1101,
123,6.27309,1.3864,3.15335,4.13122,6.27399,1.98199,1.55553,0.000159582,-0.0686048,-0.000280255,0.0704659,0.00141752,0.00902766,0.000113757,0.436265,-11.082,-0.50126,-2.34473,0.83956,-42.2199,1.28073,0.0171735,-20,-0.500846,0.00719011,-0.039846,-1.3549,0.0331632,-0.00010708,0.0107604,-7.00634e-05,0.496026,0.00117866,0.0719145,0.0348084,0.00046228,0.027171,1.95861,3.15279e-05,0.005,1.73142,-0.000387677,-0.0199539,-0.347841,33.495,-0.253579,0.0343688,15.4345,0.137851,1.98586,0.472788,-1.36599,0.0768798,0.459299,-1.97388,0.0113938,0.233643,0,0.342407,-0.108765,23.4506,23.3087,23.1527,23.2662,23.1952,23.2378,23.1101,
124,6.27309,1.3864,3.15335,4.13122,6.27399,1.98199,1.55553,0.000159582,-0.0686048,-0.000280255,0.0704659,0.00141752,0.00902766,0.000113757,0.436265,-11.082,-0.50126,-2.34473,0.83956,-42.2199,1.28073,0.0171735,-20,-0.500846,0.00719011,-0.039846,-1.3549,0.0331632,-0.00010708,0.0107604,-7.00634e-05,0.496026,0.00117866,0.0719145,0.0348084,0.00046228,0.027171,1.95861,3.15279e-05,0.005,1.73142,-0.000387677,-0.0199539,-0.347841,33.495,-0.253579,0.0343688,15.4345,0.137851,1.98586,0.472788,-1.36599,0.0768798,0.459299,-1.97388,0.0113938,0.233643,0,0.342407,-0.108765,23.4506,23.3087,23.1527,23.2662,23.1952,23.2378,23.1101,
125,6.27309,1.38632,3.15335,4.13129,6.27399,1.982,1.55553,0.000105576,-0.0686459,-0.000279667,0.0707655,0.00143513,0.00782489,0.000113843,0.436297,-11.0807,-0.501325,-2.34497,0.839562,-42.2184,1.28064,0.0171656,-20,-0.500855,0.00864145,-0.0398423,-1.3551,0.0331569,-0.00010708,0.0107604,-7.00634e-05,0.496026,0.00117866,0.0719145,0.0349033,0.000484113,0.0270607,1.95861,3.15279e-05,0.005,1.73142,-0.000387677,-0.0199539,-0.347841,33.495,-0.253579,0.0671302,15.6742,0.155621,1.9234,0.497368,-1.44912,0.0972349,0.459229,-1.93366,-0.00805664,0.274399,0.00402832,0.350464,-0.104814,23.4506,23.2804,23.1385,23.2804,23.1811,23.2378,23.0959,
126,6.27309,1.38632,3.15335,4.13129,6.27399,1.982,1.55553,0.000105576,-0.0686459,-0.000279667,0.0707655,0.00143513,0.00782489,0.000113843,0.437716,-11.1852,-0.506031,-2.42613,0.83759,-42.6223,1.29185,0.0175429,-20,-0.502597,-0.00547519,-0.0398858,-1.39556,0.0338699,-0.000109464,0.010911,-7.29941e-05,0.496026,0.00117866,0.0719145,0.0349033,0.000484113,0.0270607,1.9579,1.95848e-05,0.005,1.73069,-0.000418076,-0.0198546,-0.354558,33.8757,-0.263156,0.0671302,15.6742,0.155621,1.9234,0.497368,-1.44912,0.0972349,0.459229,-1.93366,-0.00805664,0.274399,0.00402832,0.350464,-0.104814,23.4506,23.2804,23.1385,23.2804,23.1811,23.2378,23.0959,
127,6.27309,1.38632,3.15335,4.13129,6.27399,1.982,1.55553,0.000105576,-0.0686459,-0.000279667,0.0707655,0.00143513,0.00782489,0.000113843,0.437716,-11.1852,-0.506031,-2.42613,0.83759,-42.6223,1.29185,0.0175429,-20,-0.502597,-0.00547519,-0.0398858,-1.39556,0.0338699,-0.000109464,0.010911,-7.29941e-05,0.496026,0.00117866,0.0719145,0.0349033,0.000484113,0.0270607,1.9579,1.95848e-05,0.005,1.73069,-0.000418076,-0.0198546,-0.354558,33.8757,-0.263156,0.0671302,15.6742,0.155621,1.9234,0.497368,-1.44912,0.0972349,0.459229,-1.93366,-0.00805664,0.274399,0.00402832,0.350464,-0.104814,23.4506,23.2804,23.1385,23.2804,23.1811,23.2378,23.0959,
128,6.27309,1.38626,3.15335,4.13136,6.27399,1.98201,1.55553,0.000105576,-0.0669842,-0.000264947,0.0726562,0.00141305,0.00675244,0.000113843,0.437746,-11.1839,-0.506097,-2.42639,0.837635,-42.6208,1.29185,0.0175324,-20,-0.502606,-0.00399315,-0.0398825,-1.39575,0.0338688,-0.000109464,0.010911,-7.29941e-05,0.496026,0.00117866,0.0719145,0.0350974,0.000476574,0.0262613,1.9579,1.95848e-05,0.005,1.73069,-0.000418076,-0.0198546,-0.354558,33.8757,-0.263156,0.0274656,15.921,0.201709,1.89173,0.501948,-1.54636,0.0972349,0.459299,-1.94172,-0.00805664,0.249886,0.0090076,0.358543,-0.104814,23.4364,23.2946,23.1243,23.2662,23.1952,23.2378,23.0959,
129,6.27309,1.38626,3.15335,4.13136,6.27399,1.98201,1.55553,0.000105576,-0.0669842,-0.000264947,0.0726562,0.00141305,0.00675244,0.000113843,0.438973,-11.2854,-0.50822,-2.50563,0.842402,-43.0074,1.29954,0.0178587,-20,-0.504125,-0.0177903,-0.0398856,-1.43434,0.03421,-0.000110905,0.0110553,-7.44127e-05,0.496026,0.00117866,0.0719145,0.0350974,0.000476574,0.0262613,1.9572,1.2496e-05,0.005,1.7299,-0.00041767,-0.0191351,-0.357716,34.2401,-0.266466,0.0274656,15.921,0.201709,1.89173,0.501948,-1.54636,0.0972349,0.459299,-1.94172,-0.00805664,0.249886,0.0090076,0.358543,-0.104814,23.4364,23.2946,23.1243,23.2662,23.1952,23.2378,23.0959,
130,6.27309,1.38619,3.15335,4.13144,6.27399,1.98201,1.55553,9.61777e-05,-0.0642832,-0.000250228,0.0737366,0.00145721,0.00626921,0.000121693,0.439003,-11.2843,-0.508289,-2.50583,0.842418,-43.0061,1.29946,0.0178486,-20,-0.504135,-0.0162332,-0.0398823,-1.43455,0.0342038,-0.000110905,0.0110553,-7.44127e-05,0.496026,0.00117866,0.0719145,0.0348374,0.000476227,0.0251229,1.9572,1.2496e-05,0.005,1.7299,-0.00041767,-0.0191351,-0.357716,34.2401,-0.266466,0.0624412,16.2202,0.222774,1.85654,0.495951,-1.62733,0.087179,0.451172,-1.96584,0,0.193527,0.0090076,0.366599,-0.112865,23.4506,23.2804,23.1243,23.2662,23.1811,23.252,23.0959,
131,6.27309,1.38619,3.15335,4.13144,6.27399,1.98201,1.55553,9.61777e-05,-0.0642832,-0.000250228,0.0737366,0.00145721,0.00626921,0.000121693,0.440239,-11.3754,-0.512894,-2.57573,0.839262,-43.3495,1.30561,0.0181775,-20,-0.505694,-0.0283035,-0.0399275,-1.46859,0.0344673,-0.00011202,0.011198,-7.73052e-05,0.496026,0.00117866,0.0719145,0.0348374,0.000476227,0.0251229,1.95652,2.37268e-06,0.005,1.72951,-0.000426469,-0.0181106,-0.360009,34.5622,-0.275853,0.0624412,16.2202,0.222774,1.85654,0.495951,-1.62733,0.087179,0.451172,-1.96584,0,0.193527,0.0090076,0.366599,-0.112865,23.4506,23.2804,23.1243,23.2662,23.1811,23.252,23.0959,
132,6.27309,1.38619,3.15335,4.13144,6.27399,1.98201,1.55553,9.61777e-05,-0.0642832,-0.000250228,0.0737366,0.00145721,0.00626921,0.000121693,0.440239,-11.3754,-0.512894,-2.57573,0.839262,-43.3495,1.30561,0.0181775,-20,-0.505694,-0.0283035,-0.0399275,-1.46859,0.0344673,-0.00011202,0.011198,-7.73052e-05,0.496026,0.00117866,0.0719145,0.0348374,0.000476227,0.0251229,1.95652,2.37268e-06,0.005,1.72951,-0.000426469,-0.0181106,-0.360009,34.5622,-0.275853,0.0624412,16.2202,0.222774,1.85654,0.495951,-1.62733,0.087179,0.451172,-1.96584,0,0.193527,0.0090076,0.366599,-0.112865,23.4506,23.2804,23.1243,23.2662,23.1811,23.252,23.0959,
133,6.27309,1.38613,3.15335,4.13152,6.27399,1.98202,1.55553,4.84255e-05,-0.0632028,-0.000250762,0.0736566,0.00154748,0.00486175,0.000121693,0.440258,-11.3741,-0.512947,-2.57593,0.839261,-43.348,1.3055,0.0181673,-20,-0.505703,-0.0267556,-0.0399238,-1.46881,0.0344609,-0.00011202,0.011198,-7.73052e-05,0.496026,0.00117866,0.0719145,0.0345867,0.000499437,0.02455,1.95652,2.37268e-06,0.005,1.72951,-0.000426469,-0.0181106,-0.360009,34.5622,-0.275853,0.0743914,16.4075,0.248772,1.75213,0.508949,-1.70902,0.0753271,0.443188,-2.00612,0.0113938,0.177429,0.0113938,0.366599,-0.104814,23.4506,23.2946,23.1385,23.2662,23.1811,23.252,23.1101,
134,6.27309,1.38613,3.15335,4.13152,6.27399,1.98202,1.55553,4.84255e-05,-0.0632028,-0.000250762,0.0736566,0.00154748,0.00486175,0.000121693,0.441509,-11.4619,-0.518212,-2.64352,0.833938,-43.6837,1.31551,0.0185003,-20,-0.507264,-0.0384487,-0.0399821,-1.50224,0.0351374,-0.000114104,0.0113434,-8.0241e-05,0.496026,0.00117866,0.0719145,0.0345867,0.000499437,0.02455,1.9558,-7.88346e-06,0.005,1.72909,-0.000456588,-0.017595,-0.366364,34.8777,-0.28705,0.0743914,16.4075,0.248772,1.75213,0.508949,-1.70902,0.0753271,0.443188,-2.00612,0.0113938,0.177429,0.0113938,0.366599,-0.104814,23.4506,23.2946,23.1385,23.2662,23.1811,23.252,23.1101,
135,6.27309,1.38613,3.15335,4.13152,6.27399,1.98202,1.55553,4.84255e-05,-0.0632028,-0.000250762,0.0736566,0.00154748,0.00486175,0.000121693,0.441509,-11.4619,-0.518212,-2.64352,0.833938,-43.6837,1.31551,0.0185003,-20,-0.507264,-0.0384487,-0.0399821,-1.50224,0.0351374,-0.000114104,0.0113434,-8.0241e-05,0.496026,0.00117866,0.0719145,0.0345867,0.000499437,0.02455,1.9558,-7.88346e-06,0.005,1.72909,-0.000456588,-0.017595,-0.366364,34.8777,-0.28705,0.0743914,16.4075,0.248772,1.75213,0.508949,-1.70902,0.0753271,0.443188,-2.00612,0.0113938,0.177429,0.0113938,0.366599,-0.104814,23.4506,23.2946,23.1385,23.2662,23.1811,23.252,23.1101,
136,6.27309,1.38613,3.15335,4.13152,6.27399,1.98202,1.55553,4.84255e-05,-0.0632028,-0.000250762,0.0736566,0.00154748,0.00486175,0.000121693,0.441509,-11.4619,-0.518212,-2.64352,0.833938,-43.6837,1.31551,0.0185003,-20,-0.507264,-0.0384487,-0.0399821,-1.50224,0.0351374,-0.000114104,0.0113434,-8.0241e-05,0.496026,0.00117866,0.0719145,0.0345867,0.000499437,0.02455,1.9558,-7.88346e-06,0.005,1.72909,-0.000456588,-0.017595,-0.366364,34.8777,-0.28705,0.0743914,16.4075,0.248772,1.75213,0.508949,-1.70902,0.0753271,0.443188,-2.00612,0.0113938,0.177429,0.0113938,0.366599,-0.104814,23.4506,23.2946,23.1385,23.2662,23.1811,23.252,23.1101,
137,6.27309,1.38607,3.15335,4.13159,6.27399,1.98202,1.55553,4.80932e-05,-0.0642832,-0.000243591,0.0737366,0.00158693,0.00297107,0.000121693,0.441527,-11.4605,-0.518267,-2.6438,0.833939,-43.6821,1.31542,0.01849,-20,-0.507272,-0.0371081,-0.0399795,-1.50242,0.035133,-0.000114104,0.0113434,-8.0241e-05,0.496026,0.00117866,0.0719145,0.0348396,0.000500833,0.0247837,1.9558,-7.88346e-06,0.005,1.72909,-0.000456588,-0.017595,-0.366364,34.8777,-0.28705,0.0855359,16.6808,0.260122,1.59054,0.495164,-1.78917,0.071826,0.435357,-2.00617,0.00805664,0.161936,0.0180152,0.37472,-0.100708,23.4648,23.3087,23.1385,23.2662,23.1952,23.252,23.1243,
138,6.27309,1.38607,3.15335,4.13159,6.27399,1.98202,1.55553,4.80932e-05,-0.0642832,-0.000243591,0.0737366,0.00158693,0.00297107,0.000121693,0.442793,-11.5565,-0.521736,-2.71906,0.8347,-44.0561,1.32528,0.0188268,-20,-0.508811,-0.050251,-0.0400008,-1.54005,0.0357248,-0.000115944,0.0114823,-8.25958e-05,0.496026,0.00117866,0.0719145,0.0348396,0.000500833,0.0247837,1.95511,-1.68533e-05,0.005,1.72825,-0.000465918,-0.0178054,-0.371947,35.231,-0.293643,0.0855359,16.6808,0.260122,1.59054,0.495164,-1.78917,0.071826,0.435357,-2.00617,0.00805664,0.161936,0.0180152,0.37472,-0.100708,23.4648,23.3087,23.1385,23.2662,23.1952,23.252,23.1243,
139,6.27309,1.38607,3.15335,4.13159,6.27399,1.98202,1.55553,4.80932e-05,-0.0642832,-0.000243591,0.0737366,0.00158693,0.00297107,0.000121693,0.442793,-11.5565,-0.521736,-2.71906,0.8347,-44.0561,1.32528,0.0188268,-20,-0.508811,-0.050251,-0.0400008,-1.54005,0.0357248,-0.000115944,0.0114823,-8.25958e-05,0.496026,0.00117866,0.0719145,0.0348396,0.000500833,0.0247837,1.95511,-1.68533e-05,0.005,1.72825,-0.000465918,-0.0178054,-0.371947,35.231,-0.293643,0.0855359,16.6808,0.260122,1.59054,0.495164,-1.78917,0.071826,0.435357,-2.00617,0.00805664,0.161936,0.0180152,0.37472,-0.100708,23.4648,23.3087,23.1385,23.2662,23.1952,23.252,23.1243,
140,6.27309,1.386,3.15335,4.13166,6.27399,1.98202,1.55553,4.80889e-05,-0.0644475,-0.000229262,0.0745469,0.00161641,0.00108039,0.000132376,0.442816,-11.5551,-0.521799,-2.71929,0.834715,-44.0545,1.32523,0.0188158,-20,-0.50882,-0.0488005,-0.0399977,-1.54024,0.0357224,-0.000115944,0.0114823,-8.25958e-05,0.496026,0.00117866,0.0719145,0.0351096,0.000498714,0.0246417,1.95511,-1.68533e-05,0.005,1.72825,-0.000465918,-0.0178054,-0.371947,35.231,-0.293643,0.0496141,16.8506,0.301243,1.45244,0.497494,-1.90229,0.0528411,0.427078,-1.96584,0.00805664,0.153076,0.012085,0.386719,-0.0970148,23.4506,23.3229,23.1527,23.2662,23.1952,23.252,23.1101,
141,6.27309,1.386,3.15335,4.13166,6.27399,1.98202,1.55553,4.80889e-05,-0.0644475,-0.000229262,0.0745469,0.00161641,0.00108039,0.000132376,0.444064,-11.6532,-0.524678,-2.79635,0.837229,-44.4338,1.33152,0.019148,-20,-0.510346,-0.0622563,-0.0400106,-1.5783,0.0359412,-0.000116702,0.0116252,-8.44304e-05,0.496026,0.00117866,0.0719145,0.0351096,0.000498714,0.0246417,1.9544,-2.49741e-05,0.005,1.72736,-0.000471319,-0.0176775,-0.373857,35.5892,-0.298756,0.0496141,16.8506,0.301243,1.45244,0.497494,-1.90229,0.0528411,0.427078,-1.96584,0.00805664,0.153076,0.012085,0.386719,-0.0970148,23.4506,23.3229,23.1527,23.2662,23.1952,23.252,23.1101,
142,6.27309,1.386,3.15335,4.13166,6.27399,1.98202,1.55553,4.80889e-05,-0.0644475,-0.000229262,0.0745469,0.00161641,0.00108039,0.000132376,0.444064,-11.6532,-0.524678,-2.79635,0.837229,-44.4338,1.33152,0.019148,-20,-0.510346,-0.0622563,-0.0400106,-1.5783,0.0359412,-0.000116702,0.0116252,-8.44304e-05,0.496026,0.00117866,0.0719145,0.0351096,0.000498714,0.0246417,1.9544,-2.49741e-05,0.005,1.72736,-0.000471319,-0.0176775,-0.373857,35.5892,-0.298756,0.0496141,16.8506,0.301243,1.45244,0.497494,-1.90229,0.0528411,0.427078,-1.96584,0.00805664,0.153076,0.012085,0.386719,-0.0970148,23.4506,23.3229,23.1527,23.2662,23.1952,23.252,23.1101,
143,6.27309,1.38594,3.15335,4.13174,6.274,1.98202,1.55553,4.80889e-05,-0.0615822,-0.000229262,0.0758974,0.00166692,-0.00100307,0.000132276,0.444093,-11.652,-0.524743,-2.7964,0.83724,-44.4324,1.33145,0.0191376,-20,-0.510355,-0.0606392,-0.0400074,-1.57851,0.0359368,-0.000116702,0.0116252,-8.44304e-05,0.496026,0.00117866,0.0719145,0.034896,0.000497048,0.0232641,1.9544,-2.49741e-05,0.005,1.72736,-0.000471319,-0.0176775,-0.373857,35.5892,-0.298756,0.0837804,17.0942,0.314248,1.32596,0.47655,-2.03786,0.0603662,0.443188,-1.9418,0.0113938,0.136963,0.0205405,0.40688,-0.100708,23.4506,23.2804,23.1385,23.252,23.1952,23.2662,23.1243,
144,6.27309,1.38594,3.15335,4.13174,6.274,1.98202,1.55553,4.80889e-05,-0.0615822,-0.000229262,0.0758974,0.00166692,-0.00100307,0.000132276,0.445066,-11.7251,-0.528264,-2.85291,0.835085,-44.7041,1.33953,0.0193964,-20,-0.511594,-0.0704302,-0.0400425,-1.60536,0.0364668,-0.000118533,0.0117597,-8.67513e-05,0.496026,0.00117866,0.0719145,0.034896,0.000497048,0.0232641,1.95371,-3.37916e-05,0.005,1.72694,-0.000477756,-0.0164377,-0.378866,35.8443,-0.305948,0.0837804,17.0942,0.314248,1.32596,0.47655,-2.03786,0.0603662,0.443188,-1.9418,0.0113938,0.136963,0.0205405,0.40688,-0.100708,23.4506,23.2804,23.1385,23.252,23.1952,23.2662,23.1243,
145,6.27309,1.38588,3.15335,4.13182,6.274,1.98202,1.55553,4.41579e-05,-0.0582819,-0.000223338,0.0757321,0.0016427,-0.00181963,0.000132274,0.445102,-11.7239,-0.528328,-2.85301,0.835126,-44.7029,1.3395,0.0193857,-20,-0.511601,-0.0687556,-0.0400397,-1.6056,0.0364642,-0.000118533,0.0117597,-8.67513e-05,0.496026,0.00117866,0.0719145,0.0341517,0.000485928,0.0218706,1.95371,-3.37916e-05,0.005,1.72694,-0.000477756,-0.0164377,-0.378866,35.8443,-0.305948,0.0694731,17.2481,0.336478,1.17182,0.463917,-2.13616,0.0654731,0.427078,-1.99025,0.0180152,0.0970148,0.0180152,0.410908,-0.0887145,23.4506,23.2946,23.1527,23.2804,23.2094,23.252,23.1101,
146,6.27309,1.38588,3.15335,4.13182,6.274,1.98202,1.55553,4.41579e-05,-0.0582819,-0.000223338,0.0757321,0.0016427,-0.00181963,0.000132274,0.44594,-11.7922,-0.530494,-2.90433,0.836112,-44.9556,1.34536,0.0196087,-20,-0.512679,-0.0774975,-0.0400567,-1.63037,0.0367772,-0.000120168,0.0118945,-8.86166e-05,0.496026,0.00117866,0.0719145,0.0341517,0.000485928,0.0218706,1.95301,-4.16116e-05,0.005,1.72697,-0.000474786,-0.0151836,-0.381794,36.08,-0.309975,0.0694731,17.2481,0.336478,1.17182,0.463917,-2.13616,0.0654731,0.427078,-1.99025,0.0180152,0.0970148,0.0180152,0.410908,-0.0887145,23.4506,23.2946,23.1527,23.2804,23.2094,23.252,23.1101,
147,6.27309,1.38588,3.15335,4.13182,6.274,1.98202,1.55553,4.41579e-05,-0.0582819,-0.000223338,0.0757321,0.0016427,-0.00181963,0.000132274,0.44594,-11.7922,-0.530494,-2.90433,0.836112,-44.9556,1.34536,0.0196087,-20,-0.512679,-0.0774975,-0.0400567,-1.63037,0.0367772,-0.000120168,0.0118945,-8.86166e-05,0.496026,0.00117866,0.0719145,0.0341517,0.000485928,0.0218706,1.95301,-4.16116e-05,0.005,1.72697,-0.000474786,-0.0151836,-0.381794,36.08,-0.309975,0.0694731,17.2481,0.336478,1.17182,0.463917,-2.13616,0.0654731,0.427078,-1.99025,0.0180152,0.0970148,0.0180152,0.410908,-0.0887145,23.4506,23.2946,23.1527,23.2804,23.2094,23.252,23.1101,
148,6.27309,1.38583,3.15335,4.13189,6.274,1.98202,1.55553,0,-0.0559102,-0.000215928,0.0733921,0.00170213,-0.00193046,0.000142856,0.445967,-11.7913,-0.530549,-2.9044,0.836123,-44.9546,1.34528,0.0195989,-20,-0.512684,-0.0759629,-0.0400538,-1.63061,0.0367712,-0.000120168,0.0118945,-8.86166e-05,0.496026,0.00117866,0.0719145,0.0329751,0.000497043,0.0209541,1.95301,-4.16116e-05,0.005,1.72697,-0.000474786,-0.0151836,-0.381794,36.08,-0.309975,0.0757471,17.4727,0.34964,0.987992,0.456225,-2.21173,0.0558825,0.435059,-2.03858,-0.00805664,0.105046,0.0254773,0.414937,-0.100708,23.4506,23.3087,23.1243,23.252,23.1952,23.2662,23.1243,
149,6.27309,1.38583,3.15335,4.13189,6.274,1.98202,1.55553,0,-0.0559102,-0.000215928,0.0733921,0.00170213,-0.00193046,0.000142856,0.446801,-11.8476,-0.534911,-2.94513,0.829853,-45.1648,1.3488,0.0198208,-20,-0.513758,-0.0827599,-0.0401095,-1.65112,0.0369294,-0.000121068,0.0120202,-9.13757e-05,0.496026,0.00117866,0.0719145,0.0329751,0.000497043,0.0209541,1.95236,-5.11e-05,0.005,1.72744,-0.000493329,-0.0143587,-0.383092,36.2746,-0.319491,0.0757471,17.4727,0.34964,0.987992,0.456225,-2.21173,0.0558825,0.435059,-2.03858,-0.00805664,0.105046,0.0254773,0.414937,-0.100708,23.4506,23.3087,23.1243,23.252,23.1952,23.2662,23.1243,
150,6.27309,1.38583,3.15335,4.13189,6.274,1.98202,1.55553,0,-0.0559102,-0.000215928,0.0733921,0.00170213,-0.00193046,0.000142856,0.446801,-11.8476,-0.534911,-2.94513,0.829853,-45.1648,1.3488,0.0198208,-20,-0.513758,-0.0827599,-0.0401095,-1.65112,0.0369294,-0.000121068,0.0120202,-9.13757e-05,0.496026,0.00117866,0.0719145,0.0329751,0.000497043,0.0209541,1.95236,-5.11e-05,0.005,1.72744,-0.000493329,-0.0143587,-0.383092,36.2746,-0.319491,0.0757471,17.4727,0.34964,0.987992,0.456225,-2.21173,0.0558825,0.435059,-2.03858,-0.00805664,0.105046,0.0254773,0.414937,-0.100708,23.4506,23.3087,23.1243,23.252,23.1952,23.2662,23.1243,
151,6.27309,1.38577,3.15335,4.13196,6.274,1.98201,1.55553,0,-0.0544168,-0.000216358,0.0694151,0.00166911,-0.0021194,0.000142856,0.446838,-11.8467,-0.534968,-2.94513,0.829894,-45.1639,1.34879,0.0198102,-20,-0.513758,-0.0812571,-0.0401077,-1.65136,0.0369272,-0.000121068,0.0120202,-9.13757e-05,0.496026,0.00117866,0.0719145,0.0315121,0.000482072,0.0204039,1.95236,-5.11e-05,0.005,1.72744,-0.000493329,-0.0143587,-0.383092,36.2746,-0.319491,0.0478041,17.6582,0.388689,0.841806,0.452762,-2.30859,0.035216,0.419023,-2.0625,0.0113938,0.153922,0.0245033,0.410908,-0.0967636,23.4506,23.2946,23.1385,23.2662,23.1811,23.252,23.1101,
152,6.27309,1.38577,3.15335,4.13196,6.274,1.98201,1.55553,0,-0.0544168,-0.000216358,0.0694151,0.00166911,-0.0021194,0.000142856,0.447406,-11.8939,-0.536264,-2.97812,0.831159,-45.3415,1.35326,0.0199614,-20,-0.514488,-0.0866295,-0.0401165,-1.66862,0.0371801,-0.000122612,0.0121436,-9.31045e-05,0.496026,0.00117866,0.0719145,0.0315121,0.000482072,0.0204039,1.95172,-5.84346e-05,0.005,1.72818,-0.000486456,-0.0138635,-0.385487,36.4381,-0.321787,0.0478041,17.6582,0.388689,0.841806,0.452762,-2.30859,0.035216,0.419023,-2.0625,0.0113938,0.153922,0.0245033,0.410908,-0.0967636,23.4506,23.2946,23.1385,23.2662,23.1811,23.252,23.1101,
153,6.27309,1.38577,3.15335,4.13196,6.274,1.98201,1.55553,0,-0.0544168,-0.000216358,0.0694151,0.00166911,-0.0021194,0.000142856,0.447406,-11.8939,-0.536264,-2.97812,0.831159,-45.3415,1.35326,0.0199614,-20,-0.514488,-0.0866295,-0.0401165,-1.66862,0.0371801,-0.000122612,0.0121436,-9.31045e-05,0.496026,0.00117866,0.0719145,0.0315121,0.000482072,0.0204039,1.95172,-5.84346e-05,0.005,1.72818,-0.000486456,-0.0138635,-0.385487,36.4381,-0.321787,0.0478041,17.6582,0.388689,0.841806,0.452762,-2.30859,0.035216,0.419023,-2.0625,0.0113938,0.153922,0.0245033,0.410908,-0.0967636,23.4506,23.2946,23.1385,23.2662,23.1811,23.252,23.1101,
154,6.27309,1.38572,3.15335,4.13202,6.274,1.98201,1.55553,0,-0.0540195,-0.000210903,0.066444,0.00164262,-0.00212755,0.000142856,0.447435,-11.893,-0.536315,-2.97827,0.831179,-45.3405,1.3532,0.0199518,-20,-0.514491,-0.0853194,-0.040115,-1.66882,0.0371759,-0.000122612,0.0121436,-9.31045e-05,0.496026,0.00117866,0.0719145,0.0305704,0.00047083,0.0202937,1.95172,-5.84346e-05,0.005,1.72818,-0.000486456,-0.0138635,-0.385487,36.4381,-0.321787,0.0585898,17.8884,0.395393,0.742468,0.43805,-2.39862,0.0554502,0.418945,-2.05444,0,0.201577,0.0293266,0.402852,-0.100708,23.4506,23.2946,23.1243,23.2804,23.1811,23.252,23.1101,
155,6.27309,1.38566,3.15335,4.13209,6.274,1.98201,1.55553,0,-0.0545597,-0.000197296,0.0662029,0.0016162,-0.00219407,0.000153438,0.448226,-11.9514,-0.538543,-3.02251,0.831521,-45.5686,1.35903,0.0201472,-20,-0.515459,-0.0914789,-0.0401282,-1.6917,0.0375177,-0.000124294,0.0122603,-9.53019e-05,0.496026,0.00117866,0.0719145,0.0306141,0.000464985,0.0205095,1.95111,-6.65124e-05,0.005,1.72849,-0.000483608,-0.0137643,-0.388727,36.652,-0.325925,0.0703661,18.044,0.428888,0.657587,0.428521,-2.48625,0.0354049,0.427078,-2.03027,0.00805664,0.249886,0.0284845,0.398804,-0.100789,23.4506,23.3087,23.1385,23.2662,23.1952,23.2662,23.0959,
