LWingKi/MAS_RnD/main/log/us2/contactless/27/grasp_log_12_08_2023_15_14_10.csv
Index,joint_angle_0,joint_angle_1,joint_angle_2,joint_angle_3,joint_angle_4,joint_angle_5,joint_angle_6,joint_velocity_0,joint_velocity_1,joint_velocity_2,joint_velocity_3,joint_velocity_4,joint_velocity_5,joint_velocity_6,joint_accel_0,joint_accel_1,joint_accel_2,joint_accel_3,joint_accel_4,joint_accel_5,joint_accel_6,constraint_tau_0,constraint_tau_1,constraint_tau_2,constraint_tau_3,constraint_tau_4,constraint_tau_5,constraint_tau_6,current_pos_x,current_pos_y,current_pos_z,target_pos_x,target_pos_y,target_pos_z,current_vel_x,current_vel_y,current_vel_z,target_vel_x,target_vel_y,target_vel_z,control_signal_linear_x,control_signal_linear_y,control_signal_linear_z,control_signal_angular_x,control_signal_angular_y,control_signal_angular_z,joint_torque_0,joint_torque_1,joint_torque_2,joint_torque_3,joint_torque_4,joint_torque_5,joint_torque_6,actuar_current_0,actuar_current_1,actuar_current_2,actuar_current_3,actuar_current_4,actuar_current_5,actuar_current_6,actuar_voltage_0,actuar_voltage_1,actuar_voltage_2,actuar_voltage_3,actuar_voltage_4,actuar_voltage_5,actuar_voltage_6
0,6.2729,1.38419,3.15338,4.12216,6.27424,1.96871,1.55575,0.00319133,0.0251191,4.50077e-05,0.097915,-3.70369e-05,0.010984,1.05821e-05,0.383042,-6.02312,-0.602533,1.81237,-0.0158163,-22.2191,0.882306,0.00267226,-20,-0.436974,0.655665,-0.0439394,0.707369,0.0184085,-8.04349e-05,0.00532874,-0.000220469,0.495948,0.00122872,0.0730451,0.0230571,-0.00110702,-0.0104995,1.98201,-0.00245974,0.005,1.78381,-0.00221377,0.0045,-0.217174,14.3876,-0.595265,1.5225,-0.0467728,-0.338217,5.49374,0.294949,5.80823,0.231983,0.451459,0.225586,0.19403,-0.0161133,-0.0845947,-0.660657,-0.137022,23.4932,23.3513,23.1952,23.3229,23.2378,23.2804,23.1669,
1,6.27291,1.38421,3.15338,4.12226,6.27424,1.96873,1.55575,0.00308495,0.0232284,4.50073e-05,0.0983155,-3.70369e-05,0.0142251,1.0582e-05,0.33125,-2.73223,-0.311091,4.17165,0.459082,-9.4079,0.562703,-0.0110971,-18.9279,-0.372386,1.06056,-0.0398803,1.97257,-0.00244626,0,0,0,0.495948,0.00122872,0.0730451,0.0235749,-0.00105486,-0.00941304,2,0,0.005,1.77925,0.000996315,0.0139495,-0.0139204,2.51313,0.0580229,1.50069,-0.0196328,-0.327593,5.54042,0.301816,5.82389,0.209573,0.443188,0.290486,0.185478,0.0161133,-0.0845947,-0.644531,-0.128906,23.479,23.3371,23.1952,23.3371,23.2236,23.2804,23.1669,
2,6.27291,1.38423,3.15338,4.12235,6.27424,1.96876,1.55575,0.00308433,0.022007,3.96823e-05,0.0983155,-2.64552e-05,0.0200159,1.0582e-05,0.332594,-2.8443,-0.312423,4.08735,0.467103,-9.85033,0.569773,-0.0107431,-18.9964,-0.373995,1.04656,-0.0398673,1.92817,-0.0022153,-5.47189e-07,9.21348e-05,1.26738e-06,0.495948,0.00122872,0.0730451,0.0238364,-0.00104029,-0.00831432,1.99954,1.73508e-05,0.005,1.77836,0.000964986,0.0129717,-0.0160592,2.92785,0.0566478,1.4921,-0.0175799,-0.35011,5.60925,0.288034,5.8326,0.208712,0.467355,0.298096,0.177429,0.0241699,-0.0846906,-0.644544,-0.132935,23.479,23.3371,23.1811,23.3229,23.2378,23.3087,23.1385,
3,6.27291,1.38426,3.15338,4.12245,6.27424,1.96878,1.55575,0.00303882,0.0210596,3.97123e-05,0.100476,-2.64751e-05,0.0259294,1.059e-05,0.334135,-2.97599,-0.313921,3.98967,0.476889,-10.3681,0.580445,-0.0103354,-19.0769,-0.37588,1.03029,-0.0398452,1.87644,-0.00171652,-2.08159e-06,0.000193437,1.91875e-06,0.495948,0.00122872,0.0730451,0.0246657,-0.00100626,-0.00734899,1.99905,3.3497e-05,0.005,1.77769,0.000966409,0.0119829,-0.0208293,3.41171,0.0554477,1.45201,0.0222285,-0.332798,5.68946,0.282554,5.82106,0.214058,0.475342,0.33042,0.193359,0.041081,-0.0765381,-0.668701,-0.153076,23.4932,23.3371,23.1811,23.3087,23.2236,23.2946,23.1527,
4,6.27292,1.38428,3.15338,4.12256,6.27424,1.96881,1.55575,0.00297857,0.0200075,3.97123e-05,0.100809,-2.64552e-05,0.0251191,0,0.335811,-3.12185,-0.315059,3.87943,0.488949,-10.9417,0.589184,-0.00988968,-19.166,-0.377931,1.01189,-0.0398163,1.8189,-0.00147217,-2.6157e-06,0.000292495,3.57957e-06,0.495948,0.00122872,0.0730451,0.0249838,-0.000980813,-0.00702197,1.99859,5.48581e-05,0.005,1.77653,0.000955009,0.0111141,-0.0230533,3.94978,0.0551407,1.46598,0.0935127,-0.302106,5.72122,0.297628,5.81714,0.233456,0.483398,0.314209,0.193527,0.0241699,-0.076644,-0.704968,-0.149048,23.479,23.3371,23.1811,23.3229,23.2236,23.2946,23.1385,
5,6.27292,1.38428,3.15338,4.12256,6.27424,1.96881,1.55575,0.00297857,0.0200075,3.97123e-05,0.100809,-2.64552e-05,0.0251191,0,0.336775,-3.20944,-0.315089,3.8134,0.497774,-11.2827,0.598104,-0.00963346,-19.2188,-0.379101,1.00032,-0.039794,1.78486,-0.000954322,-4.20668e-06,0.000404468,4.63442e-06,0.495948,0.00122872,0.0730451,0.0249838,-0.000980813,-0.00702197,1.99805,7.1436e-05,0.005,1.77576,0.000947024,0.0108198,-0.0280674,4.26935,0.0564343,1.46598,0.0935127,-0.302106,5.72122,0.297628,5.81714,0.233456,0.483398,0.314209,0.193527,0.0241699,-0.076644,-0.704968,-0.149048,23.479,23.3371,23.1811,23.3229,23.2236,23.2946,23.1385,
6,6.27292,1.3843,3.15338,4.12267,6.27424,1.96883,1.55575,0.00287219,0.0194273,3.97127e-05,0.101565,-2.64549e-05,0.024849,0,0.336768,-3.20869,-0.315103,3.81329,0.497807,-11.2819,0.598099,-0.00963485,-19.2195,-0.379122,1.00128,-0.0397889,1.78471,-0.000954732,-4.20668e-06,0.000404468,4.63442e-06,0.495948,0.00122872,0.0730451,0.0253249,-0.000936352,-0.00683173,1.99805,7.1436e-05,0.005,1.77576,0.000947024,0.0108198,-0.0280674,4.26935,0.0564343,1.43247,0.137282,-0.273978,5.81232,0.281117,5.80173,0.231575,0.491521,0.338379,0.177429,0.0180152,-0.0725098,-0.664673,-0.149102,23.479,23.3513,23.1952,23.3087,23.2236,23.2946,23.1669,
7,6.27292,1.3843,3.15338,4.12267,6.27424,1.96883,1.55575,0.00287219,0.0194273,3.97127e-05,0.101565,-2.64549e-05,0.024849,0,0.337899,-3.30744,-0.316013,3.73893,0.505214,-11.6649,0.604706,-0.00933422,-19.2791,-0.380503,0.988255,-0.039781,1.74653,-0.000705152,-4.9411e-06,0.000525496,5.58758e-06,0.495948,0.00122872,0.0730451,0.0253249,-0.000936352,-0.00683173,1.99746,8.76265e-05,0.005,1.77492,0.000921581,0.0106486,-0.0304059,4.62811,0.0556768,1.43247,0.137282,-0.273978,5.81232,0.281117,5.80173,0.231575,0.491521,0.338379,0.177429,0.0180152,-0.0725098,-0.664673,-0.149102,23.479,23.3513,23.1952,23.3087,23.2236,23.2946,23.1669,
8,6.27292,1.38432,3.15338,4.12278,6.27424,1.96886,1.55575,0.00297857,0.0186367,3.70372e-05,0.105338,-2.64552e-05,0.0250768,0,0.337913,-3.3069,-0.316084,3.73881,0.505258,-11.6643,0.604736,-0.00933298,-19.2799,-0.380528,0.98907,-0.0397776,1.74644,-0.000705227,-4.9411e-06,0.000525496,5.58758e-06,0.495948,0.00122872,0.0730451,0.026585,-0.000967704,-0.00655803,1.99746,8.76265e-05,0.005,1.77492,0.000921581,0.0106486,-0.0304059,4.62811,0.0556768,1.40974,0.18267,-0.260917,5.87631,0.262843,5.78013,0.229421,0.467355,0.185303,0.177246,0.0332184,-0.072956,-0.632459,-0.140991,23.4932,23.3371,23.1952,23.3229,23.2236,23.2804,23.1527,
9,6.27293,1.38433,3.15338,4.12289,6.27424,1.96888,1.55575,0.00282981,0.0155476,3.70648e-05,0.106075,-2.64749e-05,0.0269824,0,0.339178,-3.42847,-0.31461,3.64423,0.522338,-12.1379,0.614187,-0.00899882,-19.3545,-0.382075,0.973245,-0.0397039,1.69878,-0.00031773,-5.84986e-06,0.000637733,7.12761e-06,0.495948,0.00122872,0.0730451,0.027453,-0.000897584,-0.00514295,1.99694,0.000106938,0.005,1.77332,0.000967178,0.0104022,-0.0340863,5.07487,0.0615995,1.34616,0.246438,-0.256447,5.93525,0.265019,5.80444,0.219435,0.483398,-0.0490066,0.161334,-0.00805664,-0.076644,-0.600233,-0.141049,23.4932,23.3513,23.1952,23.3229,23.2378,23.2946,23.1527,
10,6.27293,1.38434,3.15338,4.12299,6.27424,1.96891,1.55575,0.00255306,0.00891322,3.17699e-05,0.105501,-2.11641e-05,0.0307911,0,0.340833,-3.56332,-0.316728,3.54053,0.530533,-12.6723,0.623164,-0.0085625,-19.4372,-0.384055,0.95583,-0.0396971,1.64489,1.33982e-05,-6.58702e-06,0.000760491,8.08462e-06,0.495948,0.00122872,0.0730451,0.028693,-0.000766785,-0.00209883,1.99635,0.000123079,0.005,1.77201,0.000918597,0.00912865,-0.037188,5.57826,0.0586044,1.36191,0.357034,-0.24851,5.99683,0.259051,5.81839,0.208311,0.499512,-0.265991,0.161133,0.0113938,-0.072956,-0.584106,-0.145075,23.4932,23.3513,23.1952,23.3229,23.2378,23.3087,23.1527,
11,6.27293,1.38434,3.15338,4.1231,6.27424,1.96895,1.55575,0.00255306,-0.00108039,3.17699e-05,0.107499,-3.17459e-05,0.0337622,0,0.343097,-3.73042,-0.322703,3.41168,0.531675,-13.346,0.636266,-0.00797138,-19.5397,-0.386738,0.933919,-0.0397475,1.5767,0.000652954,-8.06658e-06,0.000886166,7.43051e-06,0.495948,0.00122872,0.0730451,0.0313892,-0.000737253,0.00214358,1.99579,0.000126654,0.005,1.77038,0.000804095,0.00638895,-0.0432819,6.21363,0.0468408,1.32805,0.426215,-0.217807,6.09068,0.267473,5.8253,0.190633,0.515625,-0.394858,0.169381,0.0332184,-0.0685998,-0.592163,-0.141049,23.479,23.3513,23.1952,23.3229,23.2378,23.3087,23.1385,
12,6.27293,1.38433,3.15338,4.12321,6.27424,1.96899,1.55575,0.00248852,-0.00580415,2.11639e-05,0.11101,-3.17459e-05,0.0376153,0,0.34569,-3.94722,-0.324064,3.24294,0.551536,-14.2212,0.652045,-0.00729055,-19.6721,-0.389751,0.904958,-0.0396842,1.48779,0.001263,-8.92734e-06,0.00102637,8.36442e-06,0.495948,0.00122872,0.0730451,0.0334077,-0.000684906,0.00436654,1.99517,0.000142115,0.005,1.7674,0.000791432,0.00257078,-0.049016,7.04102,0.0476204,1.35227,0.543341,-0.229063,6.15969,0.26228,5.81862,0.191053,0.507632,-0.418945,0.153076,0.0254773,-0.0726216,-0.580078,-0.136963,23.479,23.3513,23.1952,23.3229,23.252,23.2946,23.1527,
13,6.27293,1.38431,3.15338,4.12333,6.27424,1.96903,1.55575,0.00236959,-0.0101788,1.58851e-05,0.111843,-3.17459e-05,0.0394342,0,0.348296,-4.15975,-0.32748,3.07898,0.564647,-15.064,0.668137,-0.00660594,-19.8018,-0.39286,0.877238,-0.039666,1.40273,0.00196487,-1.04368e-05,0.00118627,8.52688e-06,0.495948,0.00122872,0.0730451,0.0345751,-0.000622256,0.00628304,1.99449,0.000149583,0.005,1.76497,0.00075104,0.000570113,-0.0556801,7.83536,0.0431062,1.32021,0.71004,-0.23619,6.20872,0.251737,5.81308,0.191457,0.507824,-0.564022,0.14502,-0.0113938,-0.0563965,-0.580092,-0.132996,23.5074,23.3371,23.1669,23.3087,23.252,23.2946,23.1527,
14,6.27294,1.38429,3.15338,4.12344,6.27424,1.96907,1.55575,0.00219407,-0.0256593,1.32376e-05,0.113171,-3.17459e-05,0.041595,0,0.350566,-4.34365,-0.330666,2.9358,0.575337,-15.7935,0.682416,-0.00601155,-19.9149,-0.395586,0.852669,-0.0396589,1.32914,0.00261651,-1.21116e-05,0.00136335,8.59573e-06,0.495948,0.00122872,0.0730451,0.0382378,-0.000512251,0.0126287,1.99372,0.000156302,0.005,1.76323,0.000700702,-0.00115474,-0.0618849,8.52424,0.0385882,1.32704,0.960575,-0.199181,6.22688,0.263452,5.79604,0.194342,0.507568,-0.676806,0.145243,0.0113938,-0.0645789,-0.572036,-0.132935,23.4932,23.3513,23.1811,23.3229,23.2378,23.2946,23.1385,
15,6.27294,1.38425,3.15338,4.12356,6.27424,1.96911,1.55575,0.00213302,-0.0321416,5.29498e-06,0.118843,-2.11641e-05,0.0426754,0,0.353994,-4.61544,-0.335211,2.72271,0.592171,-16.901,0.703579,-0.00510883,-20,-0.399569,0.815815,-0.0396348,1.21628,0.00356072,-1.35272e-05,0.00154109,8.76907e-06,0.495948,0.00122872,0.0730451,0.0412525,-0.000457026,0.015221,1.99296,0.000164512,0.005,1.75925,0.000609087,-0.00686582,-0.0708442,9.5732,0.0323451,1.28768,1.13377,-0.165364,6.20498,0.249954,5.76955,0.209965,0.523682,-0.523929,0.129158,-0.0161133,-0.0565402,-0.555923,-0.132996,23.4932,23.3371,23.1811,23.3229,23.252,23.2946,23.1385,
16,6.27294,1.38422,3.15338,4.12368,6.27424,1.96916,1.55575,0.00222189,-0.0356529,0,0.121421,-2.11641e-05,0.0455969,0,0.357052,-4.85877,-0.340054,2.53257,0.604955,-17.8662,0.724022,-0.00431156,-20,-0.403187,0.783316,-0.0396266,1.11862,0.00456958,-1.57326e-05,0.00173187,7.83281e-06,0.495948,0.00122872,0.0730451,0.0427421,-0.000473126,0.0168849,1.99215,0.000168595,0.005,1.75581,0.000563059,-0.00919891,-0.0805051,10.4853,0.0251983,1.31851,1.40787,-0.171132,6.16497,0.247004,5.72706,0.194008,0.539795,-0.596246,0.145243,-0.0649547,-0.0565402,-0.527725,-0.129158,23.4932,23.3513,23.1952,23.3229,23.2378,23.3087,23.1527,
17,6.27294,1.38418,3.15338,4.1238,6.27424,1.9692,1.55575,0.00226491,-0.0391199,-7.93647e-06,0.124245,-2.11799e-05,0.0472671,-1.059e-05,0.359646,-5.07994,-0.341765,2.36292,0.624067,-18.7375,0.740948,-0.00363701,-20,-0.406295,0.754895,-0.039571,1.03097,0.00528694,-1.75769e-05,0.00193544,7.74725e-06,0.495948,0.00122872,0.0730451,0.0442929,-0.000471916,0.0183954,1.99131,0.000174283,0.005,1.75371,0.000582668,-0.0106964,-0.0873146,11.3052,0.0253937,1.28729,1.67838,-0.174782,6.13621,0.256681,5.67199,0.194011,0.515625,-0.700974,0.12085,-0.0970148,-0.0525229,-0.52771,-0.132996,23.4932,23.3513,23.1811,23.3229,23.2236,23.2804,23.1669,
18,6.27295,1.38413,3.15338,4.12394,6.27424,1.96925,1.55575,0.00234074,-0.0437558,-7.94246e-06,0.13065,-1.059e-05,0.0502381,-1.0582e-05,0.362178,-5.29775,-0.343155,2.19471,0.643641,-19.5941,0.757625,-0.00298048,-20,-0.409348,0.72663,-0.0395158,0.944817,0.00599897,-1.9243e-05,0.00214594,8.24098e-06,0.495948,0.00122872,0.0730451,0.0471287,-0.000472694,0.0204477,1.99042,0.000185376,0.005,1.75152,0.000591563,-0.0120559,-0.0940852,12.1124,0.0262439,1.31204,1.99776,-0.13034,6.06022,0.263244,5.64079,0.197092,0.531799,-0.797648,0.129158,-0.14502,-0.0569691,-0.515641,-0.125138,23.479,23.3513,23.1669,23.3229,23.252,23.3229,23.1527,
19,6.27295,1.38409,3.15338,4.12407,6.27424,1.96931,1.55575,0.00234041,-0.0480286,-1.85326e-05,0.129917,-1.0582e-05,0.0526614,-1.05821e-05,0.365534,-5.57905,-0.346214,1.97634,0.665463,-20.7019,0.778766,-0.00210387,-20,-0.413351,0.689526,-0.0394584,0.833052,0.00688216,-2.12123e-05,0.00237734,8.10451e-06,0.495948,0.00122872,0.0730451,0.0478189,-0.000458212,0.0224198,1.98943,0.000199254,0.005,1.74808,0.000604754,-0.0139029,-0.102461,13.1575,0.0242954,1.2116,2.20975,-0.105587,5.91046,0.279224,5.61898,0.188525,0.523744,-0.862211,0.128906,-0.249886,-0.0525229,-0.519653,-0.124943,23.479,23.3513,23.1952,23.3087,23.2236,23.2946,23.1527,
20,6.27295,1.38409,3.15338,4.12407,6.27424,1.96931,1.55575,0.00234041,-0.0480286,-1.85326e-05,0.129917,-1.0582e-05,0.0526614,-1.05821e-05,0.368076,-5.7968,-0.348468,1.81311,0.681972,-21.5599,0.7954,-0.00142829,-20,-0.416415,0.661114,-0.0394269,0.747204,0.007609,-2.3243e-05,0.00260874,7.80947e-06,0.495948,0.00122872,0.0730451,0.0478189,-0.000458212,0.0224198,1.98849,0.000203839,0.005,1.74661,0.000595846,-0.0156778,-0.109361,13.9612,0.0225958,1.2116,2.20975,-0.105587,5.91046,0.279224,5.61898,0.188525,0.523744,-0.862211,0.128906,-0.249886,-0.0525229,-0.519653,-0.124943,23.479,23.3513,23.1952,23.3087,23.2236,23.2946,23.1527,
21,6.27295,1.38403,3.15338,4.12419,6.27424,1.96937,1.55575,0.00244222,-0.052669,-2.11801e-05,0.128566,-1.0582e-05,0.0569906,-1.0582e-05,0.368125,-5.79558,-0.348614,1.81163,0.682077,-21.5572,0.795449,-0.00143688,-20,-0.416436,0.66222,-0.0394223,0.74701,0.00760878,-2.3243e-05,0.00260874,7.80947e-06,0.495948,0.00122872,0.0730451,0.0484084,-0.000483992,0.0247504,1.98849,0.000203839,0.005,1.74661,0.000595846,-0.0156778,-0.109361,13.9612,0.0225958,1.2678,2.51025,-0.0845448,5.77282,0.286071,5.5832,0.194496,0.523744,-0.926654,0.104736,-0.201577,-0.0485074,-0.511613,-0.133178,23.4648,23.3513,23.1811,23.2946,23.2378,23.2946,23.1527,
22,6.27295,1.38403,3.15338,4.12432,6.27424,1.96942,1.55575,0.00249141,-0.052669,-2.64549e-05,0.125325,0,0.0588813,-1.05901e-05,0.370795,-6.02806,-0.34942,1.63669,0.704822,-22.4773,0.811495,-0.000734621,-20,-0.419617,0.633213,-0.0393477,0.654522,0.00817378,-2.47859e-05,0.00284361,8.15886e-06,0.495948,0.00122872,0.0730451,0.0474682,-0.000505067,0.0250119,1.98754,0.000215502,0.005,1.74522,0.000629544,-0.0177754,-0.114656,14.8239,0.025095,1.2286,2.51025,-0.0778408,5.59155,0.273898,5.50234,0.176212,0.539855,-0.926654,0.121118,-0.139079,-0.0483398,-0.52771,-0.121118,23.479,23.3513,23.1952,23.3371,23.2378,23.2946,23.1527,
23,6.27296,1.38398,3.15338,4.12445,6.27424,1.96948,1.55575,0.0025669,-0.0561803,-3.17699e-05,0.123513,0,0.0617897,-1.05901e-05,0.372257,-6.15151,-0.35072,1.5454,0.714705,-22.9587,0.82182,-0.000367238,-20,-0.421388,0.619264,-0.0393213,0.60644,0.00866058,-2.67113e-05,0.00302506,7.44047e-06,0.495948,0.00122872,0.0730451,0.0476837,-0.000525385,0.0267526,1.98682,0.000224416,0.005,1.74542,0.000656534,-0.0180107,-0.119324,15.2733,0.0245854,1.26058,2.76002,-0.0471781,5.43608,0.275565,5.4285,0.174214,0.539795,-0.952355,0.113938,-0.0649547,-0.0485074,-0.523744,-0.120917,23.479,23.3371,23.1669,23.3229,23.2236,23.2804,23.1527,
24,6.27296,1.38398,3.15338,4.12445,6.27424,1.96948,1.55575,0.0025669,-0.0561803,-3.17699e-05,0.123513,0,0.0617897,-1.05901e-05,0.374725,-6.37119,-0.351455,1.38189,0.73573,-23.8219,0.836957,0.000288734,-20,-0.424372,0.590951,-0.0392608,0.520273,0.00920648,-2.83252e-05,0.00327285,7.66543e-06,0.495948,0.00122872,0.0730451,0.0476837,-0.000525385,0.0267526,1.98582,0.000235585,0.005,1.74433,0.000684873,-0.0195773,-0.124438,16.0805,0.0267474,1.26058,2.76002,-0.0471781,5.43608,0.275565,5.4285,0.174214,0.539795,-0.952355,0.113938,-0.0649547,-0.0485074,-0.523744,-0.120917,23.479,23.3371,23.1669,23.3229,23.2236,23.2804,23.1527,
25,6.27296,1.38391,3.15338,4.12445,6.27424,1.96954,1.55575,0.00266627,-0.061689,-3.70648e-05,0.123513,5.29098e-06,0.0607719,-1.0582e-05,0.374764,-6.37027,-0.351573,1.38091,0.73578,-23.82,0.837031,0.000284122,-20,-0.424375,0.590965,-0.039259,0.520217,0.0092081,-2.83252e-05,0.00327285,7.66543e-06,0.495948,0.00122872,0.0730451,0.0488459,-0.000552714,0.0288331,1.98582,0.000235585,0.005,1.74433,0.000684873,-0.0195773,-0.124438,16.0805,0.0267474,1.15812,3.09906,-0.02827,5.43608,0.288342,5.36597,0.174489,0.531799,-1.00711,0.11308,-0.0649547,-0.036478,-0.531754,-0.12085,23.479,23.3513,23.1811,23.3229,23.2378,23.2946,23.1243,
26,6.27296,1.38384,3.15338,4.12457,6.27424,1.96961,1.55575,0.00248852,-0.0701542,-4.23598e-05,0.122084,5.29103e-06,0.0591814,-1.059e-05,0.376107,-6.49368,-0.349842,1.28328,0.754332,-24.3193,0.847318,0.000632622,-20,-0.425943,0.575103,-0.0391724,0.469236,0.00964981,-2.91915e-05,0.0033984,8.93605e-06,0.495948,0.00122872,0.0730451,0.0502184,-0.000468238,0.0320566,1.98555,0.000250924,0.005,1.74303,0.000723275,-0.0214498,-0.128668,16.5542,0.0334474,1.18704,3.31948,-0.0013444,5.15213,0.296419,5.24957,0.185013,0.539855,-1.02332,0.121118,-0.0180152,-0.0471503,-0.51166,-0.11308,23.479,23.3371,23.1669,23.3229,23.2094,23.2946,23.1385,
27,6.27296,1.38384,3.15338,4.12457,6.27424,1.96961,1.55575,0.00248852,-0.0701542,-4.23598e-05,0.122084,5.29103e-06,0.0591814,-1.059e-05,0.378842,-6.71912,-0.353353,1.11196,0.768026,-25.2183,0.865524,0.00135953,-20,-0.429197,0.545092,-0.0391655,0.378728,0.0105227,-3.13817e-05,0.00365084,8.63096e-06,0.495948,0.00122872,0.0730451,0.0502184,-0.000468238,0.0320566,1.98456,0.00025469,0.005,1.7409,0.000650635,-0.024351,-0.136978,17.3992,0.0284852,1.18704,3.31948,-0.0013444,5.15213,0.296419,5.24957,0.185013,0.539855,-1.02332,0.121118,-0.0180152,-0.0471503,-0.51166,-0.11308,23.479,23.3371,23.1669,23.3229,23.2094,23.2946,23.1385,
28,6.27296,1.38377,3.15338,4.12469,6.27424,1.96966,1.55575,0.00254512,-0.0772479,-4.76188e-05,0.122354,1.58729e-05,0.0561803,-1.059e-05,0.378871,-6.7167,-0.353478,1.1106,0.768072,-25.2145,0.865505,0.00134939,-20,-0.429217,0.546262,-0.0391619,0.378534,0.0105208,-3.13817e-05,0.00365084,8.63096e-06,0.495948,0.00122872,0.0730451,0.0517924,-0.000477336,0.0345593,1.98456,0.00025469,0.005,1.7409,0.000650635,-0.024351,-0.136978,17.3992,0.0284852,1.14423,3.65266,-0.0013444,4.99684,0.289821,5.13073,0.190508,0.539855,-0.950718,0.105046,0.0332184,-0.0362549,-0.467303,-0.12085,23.4506,23.3513,23.1811,23.3087,23.2094,23.2946,23.1385,
29,6.27297,1.38368,3.15338,4.12482,6.27424,1.96972,1.55575,0.00245736,-0.0827536,-5.29498e-05,0.122877,1.58849e-05,0.0529391,-1.05901e-05,0.381396,-6.93176,-0.35472,0.943152,0.788046,-26.0733,0.883794,0.00200582,-20,-0.432221,0.518613,-0.0390957,0.291504,0.0113902,-3.35368e-05,0.00390287,8.08611e-06,0.495948,0.00122872,0.0730451,0.0531027,-0.000433427,0.0364043,1.98353,0.000263539,0.005,1.73857,0.000666787,-0.0266034,-0.145309,18.2105,0.0296591,1.18731,3.99447,0.0219689,4.84513,0.278781,5.01118,0.187429,0.539855,-0.910543,0.104736,0.0322266,-0.0371393,-0.427021,-0.124878,23.479,23.3229,23.1811,23.2946,23.2378,23.2946,23.1243,
30,6.27297,1.3836,3.15338,4.12494,6.27424,1.96977,1.55575,0.00239964,-0.0853508,-5.82447e-05,0.124245,2.64549e-05,0.0518587,-1.0582e-05,0.383994,-7.14979,-0.357099,0.774549,0.804556,-26.9367,0.901418,0.00267927,-20,-0.435343,0.490879,-0.0390617,0.204315,0.0122163,-3.57349e-05,0.00417342,7.87005e-06,0.495948,0.00122872,0.0730451,0.0540433,-0.000401439,0.0373097,1.98241,0.00026792,0.005,1.73637,0.000631212,-0.0282638,-0.153212,19.0246,0.0277024,1.06973,4.38315,0.030428,4.7134,0.288423,4.92404,0.20028,0.547911,-0.894614,0.0970148,0.041081,-0.0322266,-0.370605,-0.112793,23.4648,23.3513,23.1811,23.3087,23.2236,23.2946,23.1527,
31,6.27297,1.3836,3.15338,4.12494,6.27424,1.96977,1.55575,0.00239964,-0.0853508,-5.82447e-05,0.124245,2.64549e-05,0.0518587,-1.0582e-05,0.386543,-7.36359,-0.360599,0.612635,0.817013,-27.7709,0.918232,0.00335657,-20,-0.438447,0.462595,-0.0390551,0.120922,0.0130003,-3.79853e-05,0.00443118,6.83148e-06,0.495948,0.00122872,0.0730451,0.0540433,-0.000401439,0.0373097,1.98134,0.000272261,0.005,1.73457,0.00060633,-0.0290788,-0.160679,19.8071,0.0228632,1.06973,4.38315,0.030428,4.7134,0.288423,4.92404,0.20028,0.547911,-0.894614,0.0970148,0.041081,-0.0322266,-0.370605,-0.112793,23.4648,23.3513,23.1811,23.3087,23.2236,23.2946,23.1527,
32,6.27297,1.38351,3.15338,4.12507,6.27424,1.96982,1.55575,0.00231077,-0.0891322,-6.88347e-05,0.126008,4.76188e-05,0.0521108,-1.059e-05,0.386579,-7.36163,-0.360706,0.61128,0.817072,-27.7676,0.918218,0.00335059,-20,-0.438477,0.46404,-0.0390465,0.120722,0.0129967,-3.79853e-05,0.00443118,6.83148e-06,0.495948,0.00122872,0.0730451,0.0553481,-0.00034904,0.0388206,1.98134,0.000272261,0.005,1.73457,0.00060633,-0.0290788,-0.160679,19.8071,0.0228632,1.11242,4.66476,0.0522821,4.46799,0.293961,4.78304,0.191344,0.547911,-0.934605,0.105046,0.0540456,-0.0322266,-0.358543,-0.121118,23.4932,23.3371,23.1669,23.3087,23.2236,23.2804,23.1527,
33,6.27297,1.38341,3.15338,4.1252,6.27425,1.96987,1.55575,0.00231077,-0.0922828,-7.40737e-05,0.125886,5.82447e-05,0.0502381,-1.059e-05,0.389588,-7.60276,-0.365553,0.425712,0.829341,-28.7188,0.938565,0.00412799,-20,-0.442083,0.433692,-0.0390434,0.0248515,0.0140142,-4.08107e-05,0.00469851,5.6133e-06,0.495948,0.00122872,0.0730451,0.0559731,-0.000343264,0.0398889,1.98025,0.000273239,0.005,1.73241,0.000560051,-0.0304386,-0.170427,20.7028,0.0155464,1.06392,5.02806,0.0245121,4.34172,0.293309,4.63414,0.174235,0.563965,-0.950718,0.104736,0.0180152,-0.0324774,-0.342407,-0.109063,23.4648,23.3229,23.1669,23.3087,23.2094,23.2804,23.1527,
34,6.27297,1.38332,3.15338,4.12532,6.27425,1.96992,1.55575,0.00226491,-0.0961547,-7.94246e-05,0.123975,5.82453e-05,0.0491577,0,0.392118,-7.81739,-0.367746,0.261274,0.846143,-29.5627,0.957552,0.0047808,-20,-0.445142,0.406951,-0.0390031,-0.0600973,0.0149832,-4.3816e-05,0.0049797,4.90846e-06,0.495948,0.00122872,0.0730451,0.0562324,-0.000321258,0.0413561,1.97906,0.000277792,0.005,1.73078,0.00055895,-0.0314,-0.179741,21.4967,0.0142163,1.08186,5.34373,0.027438,4.17412,0.33826,4.48935,0.159901,0.539855,-0.958876,0.0889885,0.0180152,-0.0324774,-0.318237,-0.117099,23.4932,23.3371,23.1669,23.2946,23.2094,23.2804,23.1385,
35,6.27298,1.38322,3.15338,4.12544,6.27425,1.96997,1.55575,0.00226459,-0.0976762,-8.47196e-05,0.123435,6.34917e-05,0.0491577,0,0.394487,-8.01768,-0.369379,0.108921,0.862975,-30.3537,0.969863,0.00538628,-20,-0.447965,0.382597,-0.0389613,-0.13974,0.0153391,-4.48216e-05,0.00524519,4.8909e-06,0.495948,0.00122872,0.0730451,0.0563918,-0.000317252,0.0419823,1.97795,0.000283864,0.005,1.72955,0.000544609,-0.0327205,-0.183005,22.2399,0.0139187,0.961923,5.70757,0.0340828,4.05242,0.340308,4.34182,0.175299,0.547852,-0.974987,0.0970148,0.0332184,-0.0284845,-0.286124,-0.109063,23.479,23.3229,23.1669,23.3087,23.2236,23.2804,23.1243,
36,6.27298,1.38311,3.15338,4.12557,6.27425,1.97002,1.55575,0.00228958,-0.0998999,-9.00146e-05,0.121121,7.40737e-05,0.047646,0,0.396899,-8.22132,-0.371571,-0.0456273,0.878618,-31.1518,0.98607,0.00600077,-20,-0.450874,0.358122,-0.0389264,-0.219916,0.0160784,-4.72421e-05,0.00551174,4.34549e-06,0.495948,0.00122872,0.0730451,0.0561855,-0.000327502,0.0427571,1.97684,0.000287354,0.005,1.7284,0.000544145,-0.0332841,-0.19007,22.989,0.0124548,0.998589,5.977,0.0424857,3.83227,0.330955,4.16381,0.163336,0.547911,-1.03128,0.0889885,0.0402832,-0.0284845,-0.277983,-0.104736,23.479,23.3229,23.1527,23.2946,23.2236,23.2804,23.1243,
37,6.27298,1.38301,3.15338,4.12569,6.27425,1.97006,1.55575,0.0023659,-0.101993,-0.000100528,0.118573,8.47196e-05,0.0461399,0,0.399211,-8.41748,-0.373008,-0.193684,0.895755,-31.9217,1.0022,0.00658798,-20,-0.453624,0.334697,-0.0388792,-0.29721,0.0168284,-4.97614e-05,0.00579693,3.78157e-06,0.495948,0.00122872,0.0730451,0.0558839,-0.000357433,0.0434836,1.97565,0.000294762,0.005,1.72751,0.000560037,-0.0339814,-0.197258,23.711,0.0128495,0.896039,6.23007,0.014312,3.73603,0.34457,3.95555,0.156109,0.547852,-1.04736,0.088623,0.0966797,-0.0241699,-0.257844,-0.108839,23.4648,23.3087,23.1669,23.2946,23.2094,23.2804,23.1527,
38,6.27298,1.38291,3.15338,4.12581,6.27425,1.97011,1.55575,0.00234041,-0.104798,-0.000108547,0.118843,0.00010606,0.044296,0,0.401237,-8.59402,-0.373521,-0.327405,0.913386,-32.6155,1.01855,0.00710574,-20,-0.456061,0.31362,-0.0388206,-0.366863,0.0176777,-5.26525e-05,0.00605988,3.32955e-06,0.495948,0.00122872,0.0730451,0.0565485,-0.000339561,0.0444113,1.97454,0.000300074,0.005,1.72679,0.000591757,-0.0346352,-0.205509,24.3621,0.0151364,0.946029,6.50732,0.0367307,3.62973,0.367377,3.78009,0.152908,0.556142,-1.06375,0.104736,0.145243,-0.0161133,-0.22573,-0.112865,23.4648,23.3087,23.1669,23.2946,23.2094,23.2946,23.1385,
39,6.27298,1.38291,3.15338,4.12581,6.27425,1.97011,1.55575,0.00234041,-0.104798,-0.000108547,0.118843,0.00010606,0.044296,0,0.403711,-8.79892,-0.377444,-0.482469,0.923895,-33.4156,1.03792,0.00776316,-20,-0.459079,0.286599,-0.0388203,-0.446849,0.0187586,-5.59917e-05,0.00632414,1.38767e-06,0.495948,0.00122872,0.0730451,0.0565485,-0.000339561,0.0444113,1.97343,0.000299005,0.005,1.72519,0.00057471,-0.0354702,-0.215924,25.1125,0.00923947,0.946029,6.50732,0.0367307,3.62973,0.367377,3.78009,0.152908,0.556142,-1.06375,0.104736,0.145243,-0.0161133,-0.22573,-0.112865,23.4648,23.3087,23.1669,23.2946,23.2094,23.2946,23.1385,
40,6.27299,1.38281,3.15338,4.12593,6.27425,1.97016,1.55575,0.00226491,-0.105338,-0.000119137,0.120193,0.000111277,0.0446368,0,0.403763,-8.79703,-0.377559,-0.48336,0.923969,-33.4128,1.03794,0.00775469,-20,-0.459102,0.28859,-0.0388109,-0.447138,0.0187553,-5.59917e-05,0.00632414,1.38767e-06,0.495948,0.00122872,0.0730451,0.0570474,-0.00030172,0.044654,1.97343,0.000299005,0.005,1.72519,0.00057471,-0.0354702,-0.215924,25.1125,0.00923947,0.82854,6.82303,0.0391966,3.49306,0.349527,3.5968,0.173293,0.547852,-1.06396,0.0809682,0.153288,-0.0180152,-0.201456,-0.0967636,23.4648,23.3229,23.1527,23.3087,23.2094,23.2804,23.1385,
41,6.27299,1.3827,3.15338,4.12605,6.27425,1.9702,1.55575,0.00226459,-0.104798,-0.000127079,0.119617,0.000132476,0.0434857,0,0.406428,-9.01412,-0.38165,-0.648704,0.935499,-34.2597,1.0556,0.0084369,-20,-0.462331,0.262378,-0.0388072,-0.532146,0.0196116,-5.8721e-05,0.00659388,3.12176e-07,0.495948,0.00122872,0.0730451,0.0567604,-0.000301803,0.0443409,1.9723,0.000296634,0.005,1.72373,0.000538518,-0.0356886,-0.224134,25.9078,0.00325082,0.846982,7.07021,0.058007,3.32417,0.352191,3.37629,0.151228,0.555908,-1.0957,0.0889885,0.105046,-0.00805664,-0.197429,-0.104814,23.479,23.3229,23.1527,23.2804,23.2236,23.2804,23.1385,
42,6.27299,1.3827,3.15338,4.12605,6.27425,1.9702,1.55575,0.00226459,-0.104798,-0.000127079,0.119617,0.000132476,0.0434857,0,0.408606,-9.20031,-0.384596,-0.78743,0.946533,-34.9766,1.0724,0.00901551,-20,-0.465034,0.238432,-0.0388004,-0.60327,0.0205122,-6.1874e-05,0.00686707,-1.14807e-06,0.495948,0.00122872,0.0730451,0.0567604,-0.000301803,0.0443409,1.97113,0.000300917,0.005,1.72293,0.000542448,-0.0354068,-0.232806,26.5773,-0.000607872,0.846982,7.07021,0.058007,3.32417,0.352191,3.37629,0.151228,0.555908,-1.0957,0.0889885,0.105046,-0.00805664,-0.197429,-0.104814,23.479,23.3229,23.1527,23.2804,23.2236,23.2804,23.1385,
43,6.27299,1.38259,3.15338,4.12617,6.27425,1.97024,1.55575,0.00213663,-0.107329,-0.000126983,0.121421,0.000143181,0.0432156,0,0.408622,-9.19811,-0.38467,-0.788613,0.94658,-34.9733,1.07233,0.00900028,-20,-0.465057,0.240251,-0.0387921,-0.603513,0.0205065,-6.1874e-05,0.00686707,-1.14807e-06,0.495948,0.00122872,0.0730451,0.0578106,-0.000241284,0.0453038,1.97113,0.000300917,0.005,1.72293,0.000542448,-0.0354068,-0.232806,26.5773,-0.000607872,0.736417,7.30466,0.0471413,3.27451,0.363398,3.16737,0.154063,0.547911,-1.17638,0.0805664,0.0970148,-0.0234889,-0.185478,-0.100789,23.4648,23.3229,23.1385,23.3087,23.2094,23.2804,23.1243,
44,6.27299,1.38259,3.15338,4.12617,6.27425,1.97024,1.55575,0.00213663,-0.107329,-0.000126983,0.121421,0.000143181,0.0432156,0,0.41155,-9.43517,-0.390372,-0.968691,0.955252,-35.8984,1.09063,0.00977802,-20,-0.468634,0.208831,-0.0388179,-0.696041,0.0213656,-6.44028e-05,0.00714346,-3.09153e-06,0.495948,0.00122872,0.0730451,0.0578106,-0.000241284,0.0453038,1.96996,0.000295943,0.005,1.72093,0.000483504,-0.0362734,-0.240948,27.4455,-0.0104893,0.736417,7.30466,0.0471413,3.27451,0.363398,3.16737,0.154063,0.547911,-1.17638,0.0805664,0.0970148,-0.0234889,-0.185478,-0.100789,23.4648,23.3229,23.1385,23.3087,23.2094,23.2804,23.1243,
45,6.27299,1.38248,3.15337,4.12629,6.27425,1.97028,1.55575,0.00211392,-0.10658,-0.000137669,0.122084,0.000148484,0.041595,0,0.41161,-9.43307,-0.390502,-0.969054,0.955322,-35.8959,1.09067,0.00976879,-20,-0.46865,0.211223,-0.0388085,-0.696403,0.0213644,-6.44028e-05,0.00714346,-3.09153e-06,0.495948,0.00122872,0.0730451,0.057839,-0.000231751,0.0448382,1.96996,0.000295943,0.005,1.72093,0.000483504,-0.0362734,-0.240948,27.4455,-0.0104893,0.784067,7.50836,0.0403207,3.1913,0.411282,2.96677,0.128305,0.564195,-1.16824,0.0889885,0.041081,-0.00569691,-0.173265,-0.0926514,23.4648,23.3229,23.1669,23.2804,23.2236,23.2662,23.1243,
46,6.27299,1.38238,3.15337,4.12641,6.27426,1.97032,1.55575,0.00196293,-0.106689,-0.000142964,0.120734,0.000169567,0.0393706,1.059e-05,0.413765,-9.61685,-0.392519,-1.10881,0.968908,-36.6083,1.10647,0.0103235,-20,-0.471295,0.189477,-0.0387797,-0.767796,0.0221626,-6.71587e-05,0.00741001,-3.55745e-06,0.495948,0.00122872,0.0730451,0.0574649,-0.000174582,0.0446809,1.96882,0.000297884,0.005,1.71988,0.000476672,-0.0358544,-0.248683,28.114,-0.0121298,0.692796,7.79114,0.022033,3.08205,0.374138,2.76237,0.136506,0.564022,-1.24075,0.0889885,0.0360304,-0.0145243,-0.149102,-0.100789,23.4648,23.3229,23.1669,23.3087,23.1952,23.2946,23.1385,
47,6.27299,1.38238,3.15337,4.12641,6.27426,1.97032,1.55575,0.00196293,-0.106689,-0.000142964,0.120734,0.000169567,0.0393706,1.059e-05,0.415911,-9.78729,-0.397906,-1.23572,0.971279,-37.266,1.11993,0.0108937,-20,-0.473961,0.167582,-0.0388258,-0.833075,0.0228343,-6.9597e-05,0.00767601,-6.02495e-06,0.495948,0.00122872,0.0730451,0.0574649,-0.000174582,0.0446809,1.96768,0.000292508,0.005,1.7192,0.000420381,-0.0357128,-0.255057,28.7282,-0.0224571,0.692796,7.79114,0.022033,3.08205,0.374138,2.76237,0.136506,0.564022,-1.24075,0.0889885,0.0360304,-0.0145243,-0.149102,-0.100789,23.4648,23.3229,23.1669,23.3087,23.1952,23.2946,23.1385,
48,6.27299,1.38227,3.15337,4.12654,6.27426,1.97036,1.55575,0.00181193,-0.108039,-0.000148259,0.12062,0.000190763,0.036696,1.0582e-05,0.41594,-9.78481,-0.397975,-1.23623,0.971291,-37.263,1.11984,0.0108845,-20,-0.473981,0.169875,-0.0388155,-0.833429,0.0228273,-6.9597e-05,0.00767601,-6.02495e-06,0.495948,0.00122872,0.0730451,0.0577113,-0.000112799,0.0449509,1.96768,0.000292508,0.005,1.7192,0.000420381,-0.0357128,-0.255057,28.7282,-0.0224571,0.714527,8.02421,0.0114076,2.98832,0.345829,2.53637,0.126815,0.556142,-1.31323,0.0889885,0.0490066,-0.0090076,-0.12085,-0.100789,23.479,23.3229,23.1669,23.2946,23.2094,23.2662,23.1243,
49,6.273,1.38216,3.15337,4.12666,6.27426,1.97039,1.55575,0.00167902,-0.109335,-0.000150793,0.118303,0.000206817,0.0329519,1.059e-05,0.418347,-9.97154,-0.403673,-1.37897,0.97504,-37.9946,1.13784,0.0115036,-20,-0.476923,0.147567,-0.0388485,-0.907038,0.0238739,-7.30537e-05,0.00794666,-8.50923e-06,0.495948,0.00122872,0.0730451,0.0573082,-6.59616e-05,0.0451204,1.96649,0.000286874,0.005,1.7179,0.000359706,-0.0359559,-0.26518,29.4158,-0.0330597,0.612174,8.19203,-0.0203432,2.9977,0.362813,2.30734,0.128716,0.555908,-1.31363,0.088623,0.0509547,-0.0113938,-0.0926514,-0.0967636,23.4648,23.3229,23.1669,23.2946,23.1952,23.2804,23.1385,
50,6.273,1.38216,3.15337,4.12666,6.27426,1.97039,1.55575,0.00167902,-0.109335,-0.000150793,0.118303,0.000206817,0.0329519,1.059e-05,0.420313,-10.1297,-0.408068,-1.49697,0.978961,-38.6075,1.15269,0.0120259,-20,-0.479354,0.127201,-0.0388805,-0.967976,0.0247269,-7.60483e-05,0.00821173,-1.07983e-05,0.495948,0.00122872,0.0730451,0.0573082,-6.59616e-05,0.0451204,1.96533,0.000279744,0.005,1.71722,0.000311135,-0.0361084,-0.273379,29.9886,-0.0411911,0.612174,8.19203,-0.0203432,2.9977,0.362813,2.30734,0.128716,0.555908,-1.31363,0.088623,0.0509547,-0.0113938,-0.0926514,-0.0967636,23.4648,23.3229,23.1669,23.2946,23.1952,23.2804,23.1385,
51,6.273,1.38205,3.15337,4.12677,6.27426,1.97042,1.55575,0.0016027,-0.1102,-0.000156202,0.114521,0.000228026,0.0291705,1.059e-05,0.420359,-10.1274,-0.408153,-1.4967,0.978975,-38.6055,1.15262,0.012016,-20,-0.479357,0.129745,-0.0388725,-0.968439,0.0247197,-7.60483e-05,0.00821173,-1.07983e-05,0.495948,0.00122872,0.0730451,0.0563906,-4.44022e-05,0.0451365,1.96533,0.000279744,0.005,1.71722,0.000311135,-0.0361084,-0.273379,29.9886,-0.0411911,0.66773,8.4199,0.0101959,2.98018,0.382011,2.1068,0.111548,0.556433,-1.29734,0.0809682,0.0809682,-0.00805664,-0.0525229,-0.0894432,23.479,23.3087,23.1669,23.2946,23.2094,23.2804,23.1385,
52,6.273,1.38194,3.15337,4.12688,6.27426,1.97045,1.55575,0.00135914,-0.11182,-0.000161498,0.112517,0.000243753,0.0270097,1.059e-05,0.422021,-10.2571,-0.412086,-1.59397,0.981659,-39.1127,1.16695,0.0124432,-20,-0.481415,0.11535,-0.0388894,-1.0193,0.0256279,-7.94079e-05,0.00846201,-1.35274e-05,0.495948,0.00122872,0.0730451,0.0561463,5.1113e-05,0.0455968,1.96421,0.000270668,0.005,1.71704,0.000283564,-0.0361228,-0.282228,30.4634,-0.0484471,0.579301,8.7458,0.0286358,2.93207,0.355542,1.89796,0.133646,0.555908,-1.32131,0.0809682,0.153288,-0.00805664,-0.0180152,-0.0887145,23.4648,23.3229,23.1527,23.3087,23.2094,23.252,23.1243,
53,6.273,1.38194,3.15337,4.12688,6.27426,1.97045,1.55575,0.00135914,-0.11182,-0.000161498,0.112517,0.000243753,0.0270097,1.059e-05,0.424132,-10.42,-0.418012,-1.71582,0.981624,-39.7467,1.18246,0.0130041,-20,-0.484018,0.0942934,-0.0389515,-1.08245,0.0265522,-8.25591e-05,0.00870991,-1.57146e-05,0.495948,0.00122872,0.0730451,0.0561463,5.1113e-05,0.0455968,1.96311,0.000262715,0.005,1.71626,0.000190442,-0.0365371,-0.291092,31.0564,-0.0604515,0.579301,8.7458,0.0286358,2.93207,0.355542,1.89796,0.133646,0.555908,-1.32131,0.0809682,0.153288,-0.00805664,-0.0180152,-0.0887145,23.4648,23.3229,23.1527,23.3087,23.2094,23.252,23.1243,
54,6.273,1.38182,3.15337,4.127,6.27427,1.97047,1.55575,0.00135895,-0.113056,-0.000164146,0.113849,0.000264949,0.0230707,1.0582e-05,0.424172,-10.4173,-0.418122,-1.71618,0.981633,-39.7437,1.18237,0.0129906,-20,-0.484034,0.0965899,-0.0389461,-1.08276,0.026545,-8.25591e-05,0.00870991,-1.57146e-05,0.495948,0.00122872,0.0730451,0.0567883,5.30816e-05,0.0456648,1.96311,0.000262715,0.005,1.71626,0.000190442,-0.0365371,-0.291092,31.0564,-0.0604515,0.600035,9.022,-0.00253062,2.88851,0.339543,1.65127,0.121954,0.547911,-1.32151,0.072956,0.193527,0.00402832,0.00569691,-0.0967636,23.4506,23.3229,23.1669,23.2946,23.2094,23.252,23.1243,
55,6.273,1.38171,3.15337,4.12711,6.27427,1.97049,1.55575,0.00114479,-0.11182,-0.000174602,0.112631,0.000281058,0.022148,1.05901e-05,0.426419,-10.5951,-0.422268,-1.85342,0.989121,-40.4372,1.19975,0.0135681,-20,-0.486745,0.0751539,-0.0389426,-1.15261,0.0275377,-8.57487e-05,0.00896698,-1.84273e-05,0.495948,0.00122872,0.0730451,0.0561697,0.00013599,0.0451077,1.96194,0.000254811,0.005,1.71463,0.000181557,-0.0365983,-0.300739,31.7094,-0.0670683,0.474055,9.29637,-0.0218349,2.91634,0.36306,1.4385,0.120841,0.555967,-1.33743,0.0644531,0.145243,0.00805664,0.0483398,-0.0887145,23.4506,23.3229,23.1669,23.2946,23.1952,23.2804,23.1243,
56,6.273,1.3816,3.15337,4.12722,6.27427,1.97051,1.55575,0.00106847,-0.110589,-0.000181813,0.113171,0.00030227,0.0202573,2.11799e-05,0.428507,-10.7482,-0.428879,-1.9687,0.986571,-41.0304,1.21564,0.0140966,-20,-0.489305,0.0578948,-0.0390097,-1.21192,0.0285443,-8.94253e-05,0.00921021,-2.11748e-05,0.495948,0.00122872,0.0730451,0.0560617,0.000165837,0.044423,1.96083,0.000239772,0.005,1.71419,9.34038e-05,-0.0360969,-0.310488,32.2648,-0.0805731,0.514739,9.5888,0.0112446,2.90894,0.422643,1.26506,0.0936414,0.563965,-1.41806,0.0809682,0.153922,0.00805664,0.0563965,-0.088623,23.4506,23.3229,23.1385,23.2946,23.1952,23.2804,23.1385,
57,6.273,1.38149,3.15337,4.12734,6.27427,1.97053,1.55575,0.000981463,-0.10993,-0.000186673,0.114521,0.00032854,0.0172687,2.11639e-05,0.430605,-10.9118,-0.433922,-2.09358,0.989746,-41.6638,1.22877,0.0146319,-20,-0.491901,0.038715,-0.0390387,-1.27534,0.0291984,-9.17954e-05,0.00945916,-2.37593e-05,0.495948,0.00122872,0.0730451,0.0563101,0.000200997,0.0438369,1.95969,0.000230667,0.005,1.71326,5.83469e-05,-0.0354807,-0.316781,32.8595,-0.089801,0.440815,9.9644,-0.00383586,2.85443,0.408831,1.0792,0.110357,0.547911,-1.49057,0.072956,0.161133,0.00805664,0.0809682,-0.088623,23.4648,23.3087,23.1385,23.2804,23.1952,23.2662,23.1385,
58,6.273,1.38149,3.15337,4.12734,6.27427,1.97053,1.55575,0.000981463,-0.10993,-0.000186673,0.114521,0.00032854,0.0172687,2.11639e-05,0.432638,-11.0715,-0.439411,-2.21475,0.990918,-42.2768,1.24491,0.0151717,-20,-0.494433,0.0176393,-0.0390838,-1.33632,0.0301831,-9.5095e-05,0.00969746,-2.6756e-05,0.495948,0.00122872,0.0730451,0.0563101,0.000200997,0.0438369,1.95858,0.00022245,0.005,1.71204,1.93081e-05,-0.0349532,-0.326268,33.434,-0.100378,0.440815,9.9644,-0.00383586,2.85443,0.408831,1.0792,0.110357,0.547911,-1.49057,0.072956,0.161133,0.00805664,0.0809682,-0.088623,23.4648,23.3087,23.1385,23.2804,23.1952,23.2662,23.1385,
59,6.273,1.38138,3.15337,4.12746,6.27427,1.97055,1.55575,0.000905965,-0.10993,-0.000196455,0.114493,0.000349733,0.0164759,2.11639e-05,0.432688,-11.0694,-0.439514,-2.21532,0.990936,-42.2742,1.24481,0.0151609,-20,-0.494451,0.0199709,-0.0390759,-1.33665,0.0301745,-9.5095e-05,0.00969746,-2.6756e-05,0.495948,0.00122872,0.0730451,0.0562972,0.000234467,0.0437674,1.95858,0.00022245,0.005,1.71204,1.93081e-05,-0.0349532,-0.326268,33.434,-0.100378,0.450329,10.2535,-0.0219873,2.74595,0.403072,0.875702,0.101442,0.531738,-1.51542,0.0644531,0.105046,0.012085,0.104814,-0.0966797,23.4506,23.3229,23.1527,23.2804,23.2236,23.2804,23.1243,
60,6.273,1.38127,3.15337,4.12757,6.27428,1.97056,1.55575,0.000830351,-0.108579,-0.00021941,0.113286,0.000401671,0.0135415,2.11799e-05,0.43501,-11.2443,-0.445469,-2.3484,0.992971,-42.9563,1.26187,0.0157539,-20,-0.497251,-0.000478966,-0.039113,-1.40514,0.0311775,-9.85211e-05,0.00994374,-2.99334e-05,0.495948,0.00122872,0.0730451,0.0556595,0.000265902,0.0429506,1.95742,0.000209184,0.005,1.71101,-2.27549e-05,-0.0348906,-0.33604,34.0743,-0.111495,0.389339,10.5013,-0.0520957,2.71835,0.431864,0.69579,0.106522,0.539795,-1.53078,0.072956,0.104736,0.0170907,0.112793,-0.0809682,23.4506,23.2946,23.1527,23.2804,23.2094,23.2662,23.1243,
61,6.273,1.38116,3.15337,4.12768,6.27428,1.97057,1.55575,0.000763083,-0.109733,-0.00024836,0.111977,0.000554787,0.0116142,2.91227e-05,0.436813,-11.3724,-0.452482,-2.44554,0.987101,-43.4512,1.27959,0.0162122,-20,-0.499508,-0.0148417,-0.0391825,-1.45465,0.0324724,-0.000102998,0.0101766,-3.4533e-05,0.495948,0.00122872,0.0730451,0.055519,0.000312312,0.0432393,1.95632,0.000190353,0.005,1.71059,-6.7994e-05,-0.0341555,-0.348717,34.5381,-0.126008,0.415376,10.8416,-0.0202914,2.63864,0.450338,0.556178,0.100676,0.547911,-1.57929,0.0569691,0.105969,0.0090076,0.145243,-0.0846906,23.479,23.3087,23.1527,23.2804,23.1952,23.2662,23.1243,
62,6.273,1.38116,3.15337,4.12768,6.27428,1.97057,1.55575,0.000763083,-0.109733,-0.00024836,0.111977,0.000554787,0.0116142,2.91227e-05,0.438984,-11.5323,-0.46011,-2.56577,0.982612,-44.0725,1.29573,0.0167886,-20,-0.502196,-0.0356463,-0.0392586,-1.51656,0.0334692,-0.000105639,0.0104151,-3.84417e-05,0.495948,0.00122872,0.0730451,0.055519,0.000312312,0.0432393,1.95519,0.000176787,0.005,1.7097,-0.000121972,-0.0344154,-0.358272,35.1197,-0.141659,0.415376,10.8416,-0.0202914,2.63864,0.450338,0.556178,0.100676,0.547911,-1.57929,0.0569691,0.105969,0.0090076,0.145243,-0.0846906,23.479,23.3087,23.1527,23.2804,23.1952,23.2662,23.1243,
63,6.273,1.38105,3.15337,4.12779,6.27428,1.97058,1.55575,0.000754971,-0.11182,-0.000287811,0.11182,0.000812435,0.0105231,2.91004e-05,0.439009,-11.5301,-0.460238,-2.56643,0.982555,-44.0696,1.29556,0.0167786,-20,-0.502216,-0.0336615,-0.0392492,-1.51683,0.0334617,-0.000105639,0.0104151,-3.84417e-05,0.495948,0.00122872,0.0730451,0.0559083,0.000354086,0.0439705,1.95519,0.000176787,0.005,1.7097,-0.000121972,-0.0344154,-0.358272,35.1197,-0.141659,0.360817,11.2317,-0.0165105,2.53033,0.453186,0.433854,0.140476,0.531799,-1.56318,0.0644531,0.129909,0.0161133,0.169237,-0.0814677,23.4506,23.3087,23.1527,23.2946,23.1952,23.252,23.1101,
64,6.27301,1.38094,3.15337,4.12791,6.27429,1.97059,1.55575,0.000754971,-0.1102,-0.000322765,0.109084,0.00117439,0.0100402,2.91001e-05,0.44141,-11.7052,-0.467866,-2.70077,0.980384,-44.7584,1.31716,0.0173948,-20,-0.50513,-0.0543564,-0.0393023,-1.58632,0.0349321,-0.000109194,0.0106458,-4.13568e-05,0.495948,0.00122872,0.0730451,0.0547701,0.000389105,0.0433281,1.95409,0.000167329,0.005,1.70836,-0.000168082,-0.0350734,-0.3726,35.7677,-0.156584,0.414443,11.5656,-0.00748584,2.39543,0.449734,0.295876,0.125872,0.531799,-1.53884,0.0483398,0.129909,0.0113938,0.177246,-0.0846906,23.4648,23.2946,23.1527,23.2804,23.1811,23.252,23.1243,
65,6.27301,1.38083,3.15337,4.12801,6.27429,1.9706,1.55575,0.000794875,-0.11047,-0.000338307,0.109389,0.00170042,0.00863436,2.91224e-05,0.443365,-11.8405,-0.476719,-2.80187,0.970422,-45.2821,1.33613,0.0179009,-20,-0.507619,-0.0693305,-0.0393911,-1.63853,0.0363391,-0.000112783,0.0108809,-4.48714e-05,0.495948,0.00122872,0.0730451,0.0549113,0.000427804,0.0432945,1.95296,0.000153444,0.005,1.70837,-0.000212095,-0.0344953,-0.386335,36.2571,-0.175129,0.368131,11.9529,-0.0078474,2.31693,0.468913,0.163065,0.124968,0.523682,-1.61135,0.0563965,0.193527,0.012085,0.181274,-0.0689537,23.4364,23.2946,23.1243,23.2804,23.1952,23.252,23.1101,
66,6.27301,1.38071,3.15337,4.12812,6.27429,1.97061,1.55575,0.000708052,-0.109335,-0.000347942,0.109389,0.0021726,0.00756273,3.70648e-05,0.445732,-11.9992,-0.487736,-2.92377,0.957304,-45.9021,1.35898,0.0185159,-20,-0.510574,-0.0880004,-0.039496,-1.70089,0.0380399,-0.000116458,0.0111061,-4.86634e-05,0.495948,0.00122872,0.0730451,0.054668,0.000507005,0.0427416,1.95187,0.000143624,0.005,1.70727,-0.000255762,-0.0344651,-0.402925,36.8401,-0.198302,0.383169,12.3682,0.0545405,2.26254,0.48822,0.0465875,0.095241,0.540035,-1.61946,0.0563965,0.161334,0.0201416,0.189331,-0.080667,23.4222,23.2946,23.1385,23.2946,23.1952,23.252,23.1101,
67,6.27301,1.38061,3.15337,4.12823,6.2743,1.97062,1.55575,0.000643558,-0.106689,-0.000344694,0.10993,0.00248383,0.00675244,3.70648e-05,0.448111,-12.1529,-0.500207,-3.0407,0.939174,-46.4977,1.37772,0.0191277,-20,-0.513562,-0.105677,-0.03964,-1.76055,0.0393766,-0.000119334,0.0113376,-5.3065e-05,0.495948,0.00122872,0.0730451,0.0542641,0.0005563,0.0416055,1.95076,0.00012458,0.005,1.70648,-0.000344183,-0.0339674,-0.415821,37.3987,-0.225444,0.294361,12.8146,0.0751577,2.15584,0.484576,-0.0923325,0.0989742,0.523744,-1.64427,0.0569691,0.1372,0.012085,0.205484,-0.080667,23.4506,23.3087,23.1527,23.2662,23.1811,23.252,23.1101,
68,6.27301,1.38061,3.15337,4.12823,6.2743,1.97062,1.55575,0.000643558,-0.106689,-0.000344694,0.10993,0.00248383,0.00675244,3.70648e-05,0.450134,-12.2956,-0.509194,-3.14742,0.928969,-47.0407,1.39417,0.0196647,-20,-0.516122,-0.124073,-0.0397456,-1.81424,0.0405005,-0.000122301,0.0115578,-5.63382e-05,0.495948,0.00122872,0.0730451,0.0542641,0.0005563,0.0416055,1.94969,0.000114294,0.005,1.70588,-0.000397806,-0.0329449,-0.426626,37.9056,-0.244648,0.294361,12.8146,0.0751577,2.15584,0.484576,-0.0923325,0.0989742,0.523744,-1.64427,0.0569691,0.1372,0.012085,0.205484,-0.080667,23.4506,23.3087,23.1527,23.2662,23.1811,23.252,23.1101,
69,6.27301,1.3805,3.15337,4.12835,6.2743,1.97062,1.55575,0.000531039,-0.103717,-0.0003553,0.110485,0.00260465,0.00297107,3.70369e-05,0.450181,-12.2934,-0.509282,-3.14728,0.928956,-47.0386,1.39402,0.0196541,-20,-0.516136,-0.121297,-0.0397369,-1.81462,0.0404906,-0.000122301,0.0115578,-5.63382e-05,0.495948,0.00122872,0.0730451,0.0537986,0.000604739,0.0400257,1.94969,0.000114294,0.005,1.70588,-0.000397806,-0.0329449,-0.426626,37.9056,-0.244648,0.311991,13.1855,0.076429,2.00602,0.466359,-0.281452,0.0746555,0.515688,-1.69191,0.0569691,0.112793,0.0127387,0.209628,-0.0649547,23.4506,23.3087,23.1385,23.2804,23.1952,23.252,23.1101,
70,6.27301,1.3805,3.15337,4.12835,6.2743,1.97062,1.55575,0.000531039,-0.103717,-0.0003553,0.110485,0.00260465,0.00297107,3.70369e-05,0.451842,-12.4118,-0.516666,-3.2361,0.920387,-47.4836,1.40908,0.0200949,-20,-0.518256,-0.136631,-0.0398297,-1.85849,0.0415769,-0.000125838,0.0117805,-6.02906e-05,0.495948,0.00122872,0.0730451,0.0537986,0.000604739,0.0400257,1.94858,9.66135e-05,0.005,1.7053,-0.000457313,-0.0315231,-0.437115,38.321,-0.260602,0.311991,13.1855,0.076429,2.00602,0.466359,-0.281452,0.0746555,0.515688,-1.69191,0.0569691,0.112793,0.0127387,0.209628,-0.0649547,23.4506,23.3087,23.1385,23.2804,23.1952,23.252,23.1101,
71,6.27301,1.3804,3.15337,4.12846,6.2743,1.97062,1.55575,0.00053098,-0.102803,-0.000357007,0.11155,0.00269419,0,3.70652e-05,0.451873,-12.4095,-0.516764,-3.23629,0.920387,-47.4812,1.40897,0.0200782,-20,-0.518269,-0.13428,-0.0398238,-1.85879,0.0415718,-0.000125838,0.0117805,-6.02906e-05,0.495948,0.00122872,0.0730451,0.0539133,0.000609542,0.0393431,1.94858,9.66135e-05,0.005,1.7053,-0.000457313,-0.0315231,-0.437115,38.321,-0.260602,0.259133,13.4819,0.0849061,1.96517,0.486393,-0.494439,0.0574794,0.523929,-1.74837,0.0490066,0.0805664,0.012085,0.245761,-0.076644,23.4648,23.2946,23.1385,23.2662,23.1952,23.252,23.1101,
72,6.27301,1.3804,3.15337,4.12846,6.2743,1.97062,1.55575,0.00053098,-0.102803,-0.000357007,0.11155,0.00269419,0,3.70652e-05,0.453594,-12.545,-0.521433,-3.33937,0.921522,-47.9998,1.42311,0.0205351,-20,-0.520421,-0.15219,-0.0398573,-1.91036,0.042446,-0.000128573,0.011992,-6.29919e-05,0.495948,0.00122872,0.0730451,0.0539133,0.000609542,0.0393431,1.94752,8.76708e-05,0.005,1.70424,-0.000469684,-0.0309088,-0.445552,38.8072,-0.269431,0.259133,13.4819,0.0849061,1.96517,0.486393,-0.494439,0.0574794,0.523929,-1.74837,0.0490066,0.0805664,0.012085,0.245761,-0.076644,23.4648,23.2946,23.1385,23.2662,23.1952,23.252,23.1101,
73,6.27301,1.3804,3.15337,4.12846,6.2743,1.97062,1.55575,0.00053098,-0.102803,-0.000357007,0.11155,0.00269419,0,3.70652e-05,0.453594,-12.545,-0.521433,-3.33937,0.921522,-47.9998,1.42311,0.0205351,-20,-0.520421,-0.15219,-0.0398573,-1.91036,0.042446,-0.000128573,0.011992,-6.29919e-05,0.495948,0.00122872,0.0730451,0.0539133,0.000609542,0.0393431,1.94752,8.76708e-05,0.005,1.70424,-0.000469684,-0.0309088,-0.445552,38.8072,-0.269431,0.259133,13.4819,0.0849061,1.96517,0.486393,-0.494439,0.0574794,0.523929,-1.74837,0.0490066,0.0805664,0.012085,0.245761,-0.076644,23.4648,23.2946,23.1385,23.2662,23.1952,23.252,23.1101,
74,6.27301,1.3803,3.15337,4.12857,6.2743,1.97062,1.55575,0.000472035,-0.103447,-0.000353263,0.1102,0.00269363,-0.0010403,4.76548e-05,0.453624,-12.5431,-0.521498,-3.33975,0.921567,-47.9975,1.42304,0.0205179,-20,-0.52043,-0.15002,-0.0398521,-1.91066,0.042443,-0.000128573,0.011992,-6.29919e-05,0.495948,0.00122872,0.0730451,0.0536546,0.00062875,0.0395217,1.94752,8.76708e-05,0.005,1.70424,-0.000469684,-0.0309088,-0.445552,38.8072,-0.269431,0.26674,13.8698,0.155424,1.89834,0.519071,-0.663216,0.059389,0.515625,-1.74846,0.0490066,0.0490066,0.012085,0.278071,-0.0765381,23.4506,23.2946,23.1385,23.2804,23.1811,23.252,23.1101,
75,6.27301,1.3803,3.15337,4.12857,6.2743,1.97062,1.55575,0.000472035,-0.103447,-0.000353263,0.1102,0.00269363,-0.0010403,4.76548e-05,0.455368,-12.6837,-0.525282,-3.44555,0.925588,-48.5432,1.4322,0.0209811,-20,-0.522587,-0.168267,-0.0398739,-1.96503,0.0427856,-0.000129959,0.0122006,-6.51988e-05,0.495948,0.00122872,0.0730451,0.0536546,0.00062875,0.0395217,1.94646,7.66588e-05,0.005,1.70352,-0.000496882,-0.0310695,-0.448722,39.3181,-0.276191,0.26674,13.8698,0.155424,1.89834,0.519071,-0.663216,0.059389,0.515625,-1.74846,0.0490066,0.0490066,0.012085,0.278071,-0.0765381,23.4506,23.2946,23.1385,23.2804,23.1811,23.252,23.1101,
76,6.27301,1.3803,3.15337,4.12857,6.2743,1.97062,1.55575,0.000472035,-0.103447,-0.000353263,0.1102,0.00269363,-0.0010403,4.76548e-05,0.455368,-12.6837,-0.525282,-3.44555,0.925588,-48.5432,1.4322,0.0209811,-20,-0.522587,-0.168267,-0.0398739,-1.96503,0.0427856,-0.000129959,0.0122006,-6.51988e-05,0.495948,0.00122872,0.0730451,0.0536546,0.00062875,0.0395217,1.94646,7.66588e-05,0.005,1.70352,-0.000496882,-0.0310695,-0.448722,39.3181,-0.276191,0.26674,13.8698,0.155424,1.89834,0.519071,-0.663216,0.059389,0.515625,-1.74846,0.0490066,0.0490066,0.012085,0.278071,-0.0765381,23.4506,23.2946,23.1385,23.2804,23.1811,23.252,23.1101,
77,6.27301,1.38019,3.15337,4.12867,6.2743,1.97061,1.55575,0.000468094,-0.103818,-0.000353263,0.107769,0.00256116,-0.00193046,4.76193e-05,0.455425,-12.6819,-0.525368,-3.44576,0.925667,-48.5412,1.43221,0.020962,-20,-0.52259,-0.165954,-0.0398709,-1.96537,0.0427852,-0.000129959,0.0122006,-6.51988e-05,0.495948,0.00122872,0.0730451,0.0530251,0.000611531,0.0396231,1.94646,7.66588e-05,0.005,1.70352,-0.000496882,-0.0310695,-0.448722,39.3181,-0.276191,0.212909,14.2586,0.189768,1.82178,0.487365,-0.855065,0.0815054,0.507568,-1.73218,0.0509547,0.072956,0.012085,0.282011,-0.0726216,23.4364,23.2804,23.1243,23.2662,23.1952,23.2662,23.1243,
78,6.27301,1.38019,3.15337,4.12867,6.2743,1.97061,1.55575,0.000468094,-0.103818,-0.000353263,0.107769,0.00256116,-0.00193046,4.76193e-05,0.456928,-12.8162,-0.526156,-3.54578,0.937319,-49.0609,1.44256,0.0213608,-20,-0.524446,-0.183096,-0.0398449,-2.01701,0.0432445,-0.000132337,0.0124132,-6.68198e-05,0.495948,0.00122872,0.0730451,0.0530251,0.000611531,0.0396231,1.94538,6.97043e-05,0.005,1.70312,-0.000487644,-0.0311608,-0.453137,39.8037,-0.27578,0.212909,14.2586,0.189768,1.82178,0.487365,-0.855065,0.0815054,0.507568,-1.73218,0.0509547,0.072956,0.012085,0.282011,-0.0726216,23.4364,23.2804,23.1243,23.2662,23.1952,23.2662,23.1243,
79,6.27301,1.38009,3.15337,4.12879,6.2743,1.97061,1.55575,0.000354026,-0.104258,-0.000357007,0.107078,0.00242868,-0.00264925,4.76188e-05,0.456984,-12.8142,-0.526223,-3.54629,0.937383,-49.0584,1.44255,0.0213491,-20,-0.524458,-0.180889,-0.0398391,-2.0173,0.0432428,-0.000132337,0.0124132,-6.68198e-05,0.495948,0.00122872,0.0730451,0.0529141,0.000643452,0.0397448,1.94538,6.97043e-05,0.005,1.70312,-0.000487644,-0.0311608,-0.453137,39.8037,-0.27578,0.238805,14.5572,0.212972,1.70867,0.447983,-1.07552,0.0679574,0.507632,-1.72429,0.0490066,0.117306,0.0201416,0.277954,-0.076644,23.4506,23.2946,23.1385,23.2662,23.1811,23.2378,23.1101,
80,6.27301,1.38009,3.15337,4.12879,6.2743,1.97061,1.55575,0.000354026,-0.104258,-0.000357007,0.107078,0.00242868,-0.00264925,4.76188e-05,0.458764,-12.9637,-0.528891,-3.6592,0.945143,-49.6379,1.4547,0.0218214,-20,-0.526654,-0.200391,-0.0398464,-2.07505,0.0438482,-0.000135021,0.012625,-6.86507e-05,0.495948,0.00122872,0.0730451,0.0529141,0.000643452,0.0397448,1.94429,5.6563e-05,0.005,1.70224,-0.0005282,-0.0312703,-0.45893,40.3466,-0.279938,0.238805,14.5572,0.212972,1.70867,0.447983,-1.07552,0.0679574,0.507632,-1.72429,0.0490066,0.117306,0.0201416,0.277954,-0.076644,23.4506,23.2946,23.1385,23.2662,23.1811,23.2378,23.1101,
81,6.27301,1.37999,3.15337,4.12889,6.2743,1.9706,1.55575,0.000295022,-0.103177,-0.000342223,0.105771,0.00220771,-0.00356276,4.76188e-05,0.458823,-12.962,-0.528955,-3.65937,0.945232,-49.636,1.4547,0.0218031,-20,-0.526658,-0.198053,-0.039844,-2.07538,0.0438454,-0.000135021,0.012625,-6.86507e-05,0.495948,0.00122872,0.0730451,0.0523058,0.000634698,0.0392479,1.94429,5.6563e-05,0.005,1.70224,-0.0005282,-0.0312703,-0.45893,40.3466,-0.279938,0.218502,14.862,0.219411,1.68735,0.449161,-1.28712,0.0635896,0.491455,-1.71614,0.0483398,0.121118,0.0201416,0.298205,-0.0685998,23.4364,23.2946,23.1527,23.2662,23.1952,23.252,23.1243,
82,6.27301,1.37999,3.15337,4.12889,6.2743,1.9706,1.55575,0.000295022,-0.103177,-0.000342223,0.105771,0.00220771,-0.00356276,4.76188e-05,0.46019,-13.0842,-0.529912,-3.75054,0.954965,-50.1044,1.46254,0.0221661,-20,-0.528368,-0.213677,-0.0398285,-2.12178,0.0441147,-0.000137304,0.0128237,-7.07249e-05,0.495948,0.00122872,0.0730451,0.0523058,0.000634698,0.0392479,1.94326,4.59163e-05,0.005,1.70186,-0.000529904,-0.0308231,-0.461469,40.784,-0.280244,0.218502,14.862,0.219411,1.68735,0.449161,-1.28712,0.0635896,0.491455,-1.71614,0.0483398,0.121118,0.0201416,0.298205,-0.0685998,23.4364,23.2946,23.1527,23.2662,23.1952,23.252,23.1243,
83,6.27301,1.37989,3.15337,4.12899,6.27431,1.97059,1.55575,0.000236017,-0.0992952,-0.000336704,0.102471,0.00203126,-0.00421261,4.76548e-05,0.460265,-13.0829,-0.529993,-3.7503,0.955073,-50.1033,1.46261,0.022148,-20,-0.528365,-0.210998,-0.0398246,-2.12219,0.0441141,-0.000137304,0.0128237,-7.07249e-05,0.495948,0.00122872,0.0730451,0.050532,0.000623061,0.0376895,1.94326,4.59163e-05,0.005,1.70186,-0.000529904,-0.0308231,-0.461469,40.784,-0.280244,0.222372,15.2296,0.284922,1.63876,0.464409,-1.44083,0.0638038,0.499577,-1.7242,0.041081,0.129158,0.0245033,0.298123,-0.0645789,23.4648,23.3087,23.1243,23.2378,23.1952,23.2662,23.1101,
84,6.27301,1.37989,3.15337,4.12899,6.27431,1.97059,1.55575,0.000236017,-0.0992952,-0.000336704,0.102471,0.00203126,-0.00421261,4.76548e-05,0.461127,-13.1655,-0.530288,-3.80858,0.96223,-50.4089,1.46788,0.022377,-20,-0.5295,-0.220654,-0.0398162,-2.15177,0.0443021,-0.000139515,0.0130149,-7.22265e-05,0.495948,0.00122872,0.0730451,0.050532,0.000623061,0.0376895,1.94226,3.98367e-05,0.005,1.70256,-0.000524901,-0.0294205,-0.463264,41.0653,-0.279719,0.222372,15.2296,0.284922,1.63876,0.464409,-1.44083,0.0638038,0.499577,-1.7242,0.041081,0.129158,0.0245033,0.298123,-0.0645789,23.4648,23.3087,23.1243,23.2378,23.1952,23.2662,23.1101,
85,6.27301,1.3798,3.15337,4.12909,6.27431,1.97059,1.55575,0.000234021,-0.0940893,-0.000325671,0.102803,0.00191083,-0.00483113,5.82453e-05,0.461198,-13.1641,-0.530393,-3.80859,0.962321,-50.4074,1.46791,0.0223599,-20,-0.529505,-0.218078,-0.0398126,-2.15211,0.0442991,-0.000139515,0.0130149,-7.22265e-05,0.495948,0.00122872,0.0730451,0.049533,0.000597625,0.0355534,1.94226,3.98367e-05,0.005,1.70256,-0.000524901,-0.0294205,-0.463264,41.0653,-0.279719,0.151012,15.5802,0.306862,1.54356,0.475414,-1.59318,0.0711421,0.491455,-1.79692,0.0569691,0.185478,0.0284845,0.294067,-0.0644531,23.4648,23.2946,23.1385,23.2804,23.1811,23.252,23.1101,
86,6.27301,1.3798,3.15337,4.12909,6.27431,1.97059,1.55575,0.000234021,-0.0940893,-0.000325671,0.102803,0.00191083,-0.00483113,5.82453e-05,0.462296,-13.2626,-0.531916,-3.88088,0.967864,-50.77,1.47183,0.0226511,-20,-0.530942,-0.230351,-0.0398146,-2.18744,0.0442889,-0.000140748,0.0132005,-7.42521e-05,0.495948,0.00122872,0.0730451,0.049533,0.000597625,0.0355534,1.94128,2.9737e-05,0.005,1.70258,-0.000511099,-0.0274981,-0.463051,41.4017,-0.281688,0.151012,15.5802,0.306862,1.54356,0.475414,-1.59318,0.0711421,0.491455,-1.79692,0.0569691,0.185478,0.0284845,0.294067,-0.0644531,23.4648,23.2946,23.1385,23.2804,23.1811,23.252,23.1101,
87,6.27301,1.3798,3.15337,4.12909,6.27431,1.97059,1.55575,0.000234021,-0.0940893,-0.000325671,0.102803,0.00191083,-0.00483113,5.82453e-05,0.462296,-13.2626,-0.531916,-3.88088,0.967864,-50.77,1.47183,0.0226511,-20,-0.530942,-0.230351,-0.0398146,-2.18744,0.0442889,-0.000140748,0.0132005,-7.42521e-05,0.495948,0.00122872,0.0730451,0.049533,0.000597625,0.0355534,1.94128,2.9737e-05,0.005,1.70258,-0.000511099,-0.0274981,-0.463051,41.4017,-0.281688,0.151012,15.5802,0.306862,1.54356,0.475414,-1.59318,0.0711421,0.491455,-1.79692,0.0569691,0.185478,0.0284845,0.294067,-0.0644531,23.4648,23.2946,23.1385,23.2804,23.1811,23.252,23.1101,
88,6.27301,1.3797,3.15337,4.1292,6.27431,1.97058,1.55575,0.000177013,-0.0899412,-0.000315128,0.103317,0.00181047,-0.00625818,5.82013e-05,0.462352,-13.2608,-0.531998,-3.88097,0.967923,-50.7682,1.47178,0.0226336,-20,-0.53095,-0.227764,-0.03981,-2.18777,0.0442835,-0.000140748,0.0132005,-7.42521e-05,0.495948,0.00122872,0.0730451,0.0488095,0.000597602,0.0337512,1.94128,2.9737e-05,0.005,1.70258,-0.000511099,-0.0274981,-0.463051,41.4017,-0.281688,0.184732,15.9011,0.326619,1.43532,0.448628,-1.73952,0.0632001,0.499512,-1.88532,0.0433863,0.1372,0.0293266,0.286011,-0.0604248,23.4506,23.3087,23.1243,23.2662,23.1669,23.2662,23.1101,
89,6.27301,1.3797,3.15337,4.1292,6.27431,1.97058,1.55575,0.000177013,-0.0899412,-0.000315128,0.103317,0.00181047,-0.00625818,5.82013e-05,0.463651,-13.3693,-0.534983,-3.96167,0.970465,-51.1726,1.48031,0.0229784,-20,-0.532625,-0.241574,-0.0398336,-2.22746,0.0447092,-0.000143216,0.0133962,-7.6849e-05,0.495948,0.00122872,0.0730451,0.0488095,0.000597602,0.0337512,1.94025,1.81535e-05,0.005,1.70229,-0.000521504,-0.0258761,-0.467108,41.7783,-0.287113,0.184732,15.9011,0.326619,1.43532,0.448628,-1.73952,0.0632001,0.499512,-1.88532,0.0433863,0.1372,0.0293266,0.286011,-0.0604248,23.4506,23.3087,23.1243,23.2662,23.1669,23.2662,23.1101,
90,6.27301,1.3797,3.15337,4.1292,6.27431,1.97058,1.55575,0.000177013,-0.0899412,-0.000315128,0.103317,0.00181047,-0.00625818,5.82013e-05,0.463651,-13.3693,-0.534983,-3.96167,0.970465,-51.1726,1.48031,0.0229784,-20,-0.532625,-0.241574,-0.0398336,-2.22746,0.0447092,-0.000143216,0.0133962,-7.6849e-05,0.495948,0.00122872,0.0730451,0.0488095,0.000597602,0.0337512,1.94025,1.81535e-05,0.005,1.70229,-0.000521504,-0.0258761,-0.467108,41.7783,-0.287113,0.184732,15.9011,0.326619,1.43532,0.448628,-1.73952,0.0632001,0.499512,-1.88532,0.0433863,0.1372,0.0293266,0.286011,-0.0604248,23.4506,23.3087,23.1243,23.2662,23.1669,23.2662,23.1101,
91,6.27301,1.37961,3.15337,4.1293,6.27431,1.97056,1.55575,0.000176993,-0.0875116,-0.000309105,0.102097,0.00158968,-0.00880211,5.82013e-05,0.463714,-13.3676,-0.535056,-3.96157,0.970542,-51.1709,1.48031,0.0229617,-20,-0.532625,-0.239228,-0.0398327,-2.22778,0.0447062,-0.000143216,0.0133962,-7.6849e-05,0.495948,0.00122872,0.0730451,0.0479462,0.000562563,0.0325398,1.94025,1.81535e-05,0.005,1.70229,-0.000521504,-0.0258761,-0.467108,41.7783,-0.287113,0.126747,16.1237,0.320181,1.36965,0.469206,-1.87449,0.0457722,0.499512,-1.9418,0.0509547,0.12085,0.0402832,0.294178,-0.0649547,23.4648,23.2946,23.1243,23.2804,23.1811,23.252,23.1101,
92,6.27301,1.37961,3.15337,4.1293,6.27431,1.97056,1.55575,0.000176993,-0.0875116,-0.000309105,0.102097,0.00158968,-0.00880211,5.82013e-05,0.464558,-13.4504,-0.534657,-4.02272,0.979936,-51.4806,1.48586,0.0231858,-20,-0.533711,-0.24963,-0.0398056,-2.25816,0.0449048,-0.000145311,0.0135716,-7.88224e-05,0.495948,0.00122872,0.0730451,0.0479462,0.000562563,0.0325398,1.9393,8.45282e-06,0.005,1.70222,-0.000498699,-0.0247858,-0.469031,42.0664,-0.284728,0.126747,16.1237,0.320181,1.36965,0.469206,-1.87449,0.0457722,0.499512,-1.9418,0.0509547,0.12085,0.0402832,0.294178,-0.0649547,23.4648,23.2946,23.1243,23.2804,23.1811,23.252,23.1101,
93,6.27301,1.37953,3.15337,4.1294,6.27431,1.97055,1.55575,0.000118009,-0.0875116,-0.000309105,0.099666,0.00150137,-0.0107088,6.61872e-05,0.464594,-13.4487,-0.534709,-4.02281,0.979952,-51.4788,1.48575,0.0231701,-20,-0.533715,-0.247547,-0.039803,-2.25846,0.0448975,-0.000145311,0.0135716,-7.88224e-05,0.495948,0.00122872,0.0730451,0.0472414,0.000569271,0.0323817,1.9393,8.45282e-06,0.005,1.70222,-0.000498699,-0.0247858,-0.469031,42.0664,-0.284728,0.129598,16.3895,0.362937,1.27558,0.457395,-1.96815,0.0408973,0.483466,-1.96589,0.0569691,0.1372,0.0371393,0.314235,-0.0726216,23.4364,23.2946,23.1243,23.2804,23.1811,23.252,23.1101,
94,6.27301,1.37953,3.15337,4.1294,6.27431,1.97055,1.55575,0.000118009,-0.0875116,-0.000309105,0.099666,0.00150137,-0.0107088,6.61872e-05,0.465771,-13.5426,-0.537665,-4.09252,0.981404,-51.8405,1.49207,0.0234825,-20,-0.535187,-0.259464,-0.0398252,-2.29432,0.0451533,-0.000146867,0.0137448,-8.17508e-05,0.495948,0.00122872,0.0730451,0.0472414,0.000569271,0.0323817,1.93837,-3.22851e-06,0.005,1.70201,-0.00051525,-0.0246435,-0.471406,42.404,-0.290261,0.129598,16.3895,0.362937,1.27558,0.457395,-1.96815,0.0408973,0.483466,-1.96589,0.0569691,0.1372,0.0371393,0.314235,-0.0726216,23.4364,23.2946,23.1243,23.2804,23.1811,23.252,23.1101,
95,6.27301,1.37953,3.15337,4.1294,6.27431,1.97055,1.55575,0.000118009,-0.0875116,-0.000309105,0.099666,0.00150137,-0.0107088,6.61872e-05,0.465771,-13.5426,-0.537665,-4.09252,0.981404,-51.8405,1.49207,0.0234825,-20,-0.535187,-0.259464,-0.0398252,-2.29432,0.0451533,-0.000146867,0.0137448,-8.17508e-05,0.495948,0.00122872,0.0730451,0.0472414,0.000569271,0.0323817,1.93837,-3.22851e-06,0.005,1.70201,-0.00051525,-0.0246435,-0.471406,42.404,-0.290261,0.129598,16.3895,0.362937,1.27558,0.457395,-1.96815,0.0408973,0.483466,-1.96589,0.0569691,0.1372,0.0371393,0.314235,-0.0726216,23.4364,23.2946,23.1243,23.2804,23.1811,23.252,23.1101,
96,6.27301,1.37944,3.15337,4.1295,6.27431,1.97054,1.55575,0.000118009,-0.0875116,-0.000292096,0.0985856,0.00133325,-0.0115828,6.61872e-05,0.465794,-13.5409,-0.537708,-4.09283,0.981479,-51.8385,1.49205,0.0234599,-20,-0.53519,-0.257504,-0.039824,-2.29457,0.0451527,-0.000146867,0.0137448,-8.17508e-05,0.495948,0.00122872,0.0730451,0.0469271,0.000544383,0.0323137,1.93837,-3.22851e-06,0.005,1.70201,-0.00051525,-0.0246435,-0.471406,42.404,-0.290261,0.0820072,16.6387,0.384081,1.18252,0.437414,-2.07415,0.0339572,0.483398,-1.9256,0.041081,0.177246,0.0444942,0.322291,-0.0685998,23.4364,23.2946,23.1385,23.252,23.1952,23.2378,23.1101,
97,6.27301,1.37944,3.15337,4.1295,6.27431,1.97054,1.55575,0.000118009,-0.0875116,-0.000292096,0.0985856,0.00133325,-0.0115828,6.61872e-05,0.467006,-13.6525,-0.537734,-4.17685,0.992935,-52.2694,1.49795,0.0237816,-20,-0.53669,-0.271953,-0.0397909,-2.33744,0.0452545,-0.000148203,0.0139159,-8.30818e-05,0.495948,0.00122872,0.0730451,0.0469271,0.000544383,0.0323137,1.93744,-8.71036e-06,0.005,1.70146,-0.000497784,-0.0245823,-0.472327,42.8074,-0.288336,0.0820072,16.6387,0.384081,1.18252,0.437414,-2.07415,0.0339572,0.483398,-1.9256,0.041081,0.177246,0.0444942,0.322291,-0.0685998,23.4364,23.2946,23.1385,23.252,23.1952,23.2378,23.1101,
98,6.27301,1.37944,3.15337,4.1295,6.27431,1.97054,1.55575,0.000118009,-0.0875116,-0.000292096,0.0985856,0.00133325,-0.0115828,6.61872e-05,0.467006,-13.6525,-0.537734,-4.17685,0.992935,-52.2694,1.49795,0.0237816,-20,-0.53669,-0.271953,-0.0397909,-2.33744,0.0452545,-0.000148203,0.0139159,-8.30818e-05,0.495948,0.00122872,0.0730451,0.0469271,0.000544383,0.0323137,1.93744,-8.71036e-06,0.005,1.70146,-0.000497784,-0.0245823,-0.472327,42.8074,-0.288336,0.0820072,16.6387,0.384081,1.18252,0.437414,-2.07415,0.0339572,0.483398,-1.9256,0.041081,0.177246,0.0444942,0.322291,-0.0685998,23.4364,23.2946,23.1385,23.252,23.1952,23.2378,23.1101,
99,6.27301,1.37935,3.15337,4.1296,6.27431,1.97053,1.55575,0.000105576,-0.0882705,-0.000281278,0.0977997,0.00119226,-0.0125145,6.61372e-05,0.467046,-13.6506,-0.537805,-4.17728,0.992977,-52.2671,1.49789,0.0237644,-20,-0.536698,-0.269937,-0.0397885,-2.3377,0.0452513,-0.000148203,0.0139159,-8.30818e-05,0.495948,0.00122872,0.0730451,0.0468571,0.000531008,0.032539,1.93744,-8.71036e-06,0.005,1.70146,-0.000497784,-0.0245823,-0.472327,42.8074,-0.288336,0.0943553,16.8496,0.399365,1.03816,0.39786,-2.19844,0.0466626,0.475342,-1.90138,0.0509547,0.185478,0.0485074,0.314312,-0.0644531,23.4506,23.2946,23.1527,23.252,23.1811,23.252,23.1101,
100,6.27301,1.37935,3.15337,4.1296,6.27431,1.97053,1.55575,0.000105576,-0.0882705,-0.000281278,0.0977997,0.00119226,-0.0125145,6.61372e-05,0.46853,-13.7794,-0.539184,-4.27488,1.00253,-52.7669,1.50759,0.0241581,-20,-0.538524,-0.286794,-0.0397713,-2.38759,0.045673,-0.000150398,0.0141002,-8.50644e-05,0.495948,0.00122872,0.0730451,0.0468571,0.000531008,0.032539,1.93645,-1.88072e-05,0.005,1.70063,-0.000494834,-0.0247851,-0.476365,43.2762,-0.289404,0.0943553,16.8496,0.399365,1.03816,0.39786,-2.19844,0.0466626,0.475342,-1.90138,0.0509547,0.185478,0.0485074,0.314312,-0.0644531,23.4506,23.2946,23.1527,23.252,23.1811,23.252,23.1101,
101,6.27301,1.37935,3.15337,4.1296,6.27431,1.97053,1.55575,0.000105576,-0.0882705,-0.000281278,0.0977997,0.00119226,-0.0125145,6.61372e-05,0.46853,-13.7794,-0.539184,-4.27488,1.00253,-52.7669,1.50759,0.0241581,-20,-0.538524,-0.286794,-0.0397713,-2.38759,0.045673,-0.000150398,0.0141002,-8.50644e-05,0.495948,0.00122872,0.0730451,0.0468571,0.000531008,0.032539,1.93645,-1.88072e-05,0.005,1.70063,-0.000494834,-0.0247851,-0.476365,43.2762,-0.289404,0.0943553,16.8496,0.399365,1.03816,0.39786,-2.19844,0.0466626,0.475342,-1.90138,0.0509547,0.185478,0.0485074,0.314312,-0.0644531,23.4506,23.2946,23.1527,23.252,23.1811,23.252,23.1101,
102,6.27301,1.37926,3.15337,4.1297,6.27431,1.97051,1.55575,5.31888e-05,-0.0874229,-0.000280844,0.0945341,0.00110395,-0.0135239,6.61372e-05,0.468572,-13.778,-0.539247,-4.2749,1.00257,-52.7655,1.50755,0.0241419,-20,-0.538525,-0.284679,-0.039768,-2.3879,0.0456698,-0.000150398,0.0141002,-8.50644e-05,0.495948,0.00122872,0.0730451,0.045732,0.000532796,0.0321484,1.93645,-1.88072e-05,0.005,1.70063,-0.000494834,-0.0247851,-0.476365,43.2762,-0.289404,0.080358,17.0486,0.426973,0.967574,0.401083,-2.34314,0.0384063,0.467355,-1.86108,0.0433863,0.186872,0.0444942,0.314235,-0.0685998,23.4506,23.2946,23.1385,23.2662,23.1811,23.252,23.0959,
103,6.27301,1.37926,3.15337,4.1297,6.27431,1.97051,1.55575,5.31888e-05,-0.0874229,-0.000280844,0.0945341,0.00110395,-0.0135239,6.61372e-05,0.469537,-13.8603,-0.540833,-4.33478,1.00646,-53.0804,1.51447,0.0243982,-20,-0.539746,-0.294777,-0.0397748,-2.41891,0.0460272,-0.000152432,0.0142654,-8.691e-05,0.495948,0.00122872,0.0730451,0.045732,0.000532796,0.0321484,1.93555,-2.8101e-05,0.005,1.70083,-0.000504807,-0.0244336,-0.479797,43.5687,-0.291927,0.080358,17.0486,0.426973,0.967574,0.401083,-2.34314,0.0384063,0.467355,-1.86108,0.0433863,0.186872,0.0444942,0.314235,-0.0685998,23.4506,23.2946,23.1385,23.2662,23.1811,23.252,23.0959,
104,6.27301,1.37918,3.15337,4.12979,6.27432,1.9705,1.55575,5.31888e-05,-0.0834601,-0.000270465,0.0912005,0.00119226,-0.0148242,7.42418e-05,0.469585,-13.8591,-0.540935,-4.33451,1.00646,-53.0795,1.51437,0.0243828,-20,-0.539747,-0.292418,-0.0397704,-2.41926,0.0460198,-0.000152432,0.0142654,-8.691e-05,0.495948,0.00122872,0.0730451,0.0439345,0.000520864,0.0304833,1.93555,-2.8101e-05,0.005,1.70083,-0.000504807,-0.0244336,-0.479797,43.5687,-0.291927,0.0906605,17.2837,0.470066,0.906294,0.39673,-2.45829,0.0587721,0.483667,-1.87721,0.0569691,0.22573,0.0529843,0.314209,-0.0645789,23.4506,23.3087,23.1243,23.2662,23.1952,23.2804,23.1101,
105,6.27301,1.37918,3.15337,4.12979,6.27432,1.9705,1.55575,5.31888e-05,-0.0834601,-0.000270465,0.0912005,0.00119226,-0.0148242,7.42418e-05,0.470284,-13.9092,-0.544691,-4.36843,1.00104,-53.2591,1.51865,0.0245683,-20,-0.540695,-0.297898,-0.0398195,-2.43629,0.046273,-0.000153881,0.0144214,-8.9669e-05,0.495948,0.00122872,0.0730451,0.0439345,0.000520864,0.0304833,1.93468,-3.91037e-05,0.005,1.70167,-0.000503971,-0.0229349,-0.482168,43.732,-0.300032,0.0906605,17.2837,0.470066,0.906294,0.39673,-2.45829,0.0587721,0.483667,-1.87721,0.0569691,0.22573,0.0529843,0.314209,-0.0645789,23.4506,23.3087,23.1243,23.2662,23.1952,23.2804,23.1101,
106,6.27301,1.3791,3.15337,4.12988,6.27432,1.97048,1.55575,4.84211e-05,-0.0792428,-0.00027046,0.0907527,0.00114299,-0.0178174,7.42418e-05,0.470335,-13.9077,-0.544777,-4.36815,1.00108,-53.2579,1.51865,0.0245523,-20,-0.540697,-0.29557,-0.0398157,-2.43659,0.0462723,-0.000153881,0.0144214,-8.9669e-05,0.495948,0.00122872,0.0730451,0.0429216,0.000503295,0.028497,1.93468,-3.91037e-05,0.005,1.70167,-0.000503971,-0.0229349,-0.482168,43.732,-0.300032,0.0356418,17.542,0.510508,0.827543,0.396106,-2.5735,0.0572916,0.47541,-1.91775,0.0483398,0.274044,0.0565402,0.314209,-0.0604248,23.4506,23.3087,23.1385,23.2804,23.1952,23.252,23.1101,
107,6.27301,1.3791,3.15337,4.12988,6.27432,1.97048,1.55575,4.84211e-05,-0.0792428,-0.00027046,0.0907527,0.00114299,-0.0178174,7.42418e-05,0.470935,-13.9646,-0.545407,-4.4095,1.00476,-53.4606,1.52383,0.0247114,-20,-0.54151,-0.302537,-0.0398167,-2.4561,0.0465649,-0.000155657,0.0145759,-9.09087e-05,0.495948,0.00122872,0.0730451,0.0429216,0.000503295,0.028497,1.93381,-4.69509e-05,0.005,1.7018,-0.000495222,-0.0211473,-0.48502,43.9193,-0.300664,0.0356418,17.542,0.510508,0.827543,0.396106,-2.5735,0.0572916,0.47541,-1.91775,0.0483398,0.274044,0.0565402,0.314209,-0.0604248,23.4506,23.3087,23.1385,23.2804,23.1952,23.252,23.1101,
108,6.27301,1.3791,3.15337,4.12988,6.27432,1.97048,1.55575,4.84211e-05,-0.0792428,-0.00027046,0.0907527,0.00114299,-0.0178174,7.42418e-05,0.470935,-13.9646,-0.545407,-4.4095,1.00476,-53.4606,1.52383,0.0247114,-20,-0.54151,-0.302537,-0.0398167,-2.4561,0.0465649,-0.000155657,0.0145759,-9.09087e-05,0.495948,0.00122872,0.0730451,0.0429216,0.000503295,0.028497,1.93381,-4.69509e-05,0.005,1.7018,-0.000495222,-0.0211473,-0.48502,43.9193,-0.300664,0.0356418,17.542,0.510508,0.827543,0.396106,-2.5735,0.0572916,0.47541,-1.91775,0.0483398,0.274044,0.0565402,0.314209,-0.0604248,23.4506,23.3087,23.1385,23.2804,23.1952,23.252,23.1101,
109,6.27301,1.37902,3.15337,4.12997,6.27432,1.97046,1.55575,4.80889e-05,-0.0753572,-0.00027046,0.0890228,0.00114299,-0.0210676,7.4185e-05,0.47098,-13.9631,-0.54549,-4.40922,1.00478,-53.4594,1.52378,0.0246965,-20,-0.541512,-0.300245,-0.0398131,-2.45642,0.0465616,-0.000155657,0.0145759,-9.09087e-05,0.495948,0.00122872,0.0730451,0.0416076,0.000486328,0.0266329,1.93381,-4.69509e-05,0.005,1.7018,-0.000495222,-0.0211473,-0.48502,43.9193,-0.300664,0.0357054,17.7448,0.548834,0.726461,0.37433,-2.69518,0.051202,0.459299,-1.97394,0.0563965,0.265991,0.0569691,0.342407,-0.0609595,23.4506,23.2946,23.1243,23.2662,23.1952,23.2378,23.1101,
110,6.27301,1.37902,3.15337,4.12997,6.27432,1.97046,1.55575,4.80889e-05,-0.0753572,-0.00027046,0.0890228,0.00114299,-0.0210676,7.4185e-05,0.47146,-14.005,-0.546899,-4.43857,1.00484,-53.6054,1.52903,0.0248239,-20,-0.542181,-0.305083,-0.0398293,-2.47022,0.0469325,-0.000157581,0.0147238,-9.267e-05,0.495948,0.00122872,0.0730451,0.0416076,0.000486328,0.0266329,1.93295,-5.55815e-05,0.005,1.70221,-0.000487718,-0.0194696,-0.488636,44.0527,-0.30338,0.0357054,17.7448,0.548834,0.726461,0.37433,-2.69518,0.051202,0.459299,-1.97394,0.0563965,0.265991,0.0569691,0.342407,-0.0609595,23.4506,23.2946,23.1243,23.2662,23.1952,23.2378,23.1101,
111,6.27301,1.37895,3.15337,4.13006,6.27432,1.97043,1.55575,0,-0.0731964,-0.000254159,0.0875116,0.0012145,-0.0250768,7.42418e-05,0.471463,-14.0034,-0.546935,-4.43823,1.00481,-53.6042,1.52887,0.0248035,-20,-0.542183,-0.303032,-0.0398263,-2.47049,0.0469256,-0.000157581,0.0147238,-9.267e-05,0.495948,0.00122872,0.0730451,0.0407197,0.000493753,0.025373,1.93295,-5.55815e-05,0.005,1.70221,-0.000487718,-0.0194696,-0.488636,44.0527,-0.30338,-0.0157385,17.8715,0.559015,0.698034,0.377171,-2.80769,0.0482884,0.443115,-2.03034,0.0569691,0.282097,0.0649547,0.346459,-0.0649547,23.4648,23.2946,23.1385,23.2804,23.1952,23.252,23.0959,
112,6.27301,1.37895,3.15337,4.13006,6.27432,1.97043,1.55575,0,-0.0731964,-0.000254159,0.0875116,0.0012145,-0.0250768,7.42418e-05,0.472032,-14.0412,-0.55039,-4.46573,0.999004,-53.74,1.53426,0.0249546,-20,-0.542942,-0.307682,-0.0398734,-2.48358,0.0473419,-0.000159307,0.0148556,-9.51344e-05,0.495948,0.00122872,0.0730451,0.0407197,0.000493753,0.025373,1.93215,-6.26631e-05,0.005,1.70228,-0.000500774,-0.0183357,-0.492635,44.1781,-0.311053,-0.0157385,17.8715,0.559015,0.698034,0.377171,-2.80769,0.0482884,0.443115,-2.03034,0.0569691,0.282097,0.0649547,0.346459,-0.0649547,23.4648,23.2946,23.1385,23.2804,23.1952,23.252,23.0959,
113,6.27301,1.37895,3.15337,4.13006,6.27432,1.97043,1.55575,0,-0.0731964,-0.000254159,0.0875116,0.0012145,-0.0250768,7.42418e-05,0.472032,-14.0412,-0.55039,-4.46573,0.999004,-53.74,1.53426,0.0249546,-20,-0.542942,-0.307682,-0.0398734,-2.48358,0.0473419,-0.000159307,0.0148556,-9.51344e-05,0.495948,0.00122872,0.0730451,0.0407197,0.000493753,0.025373,1.93215,-6.26631e-05,0.005,1.70228,-0.000500774,-0.0183357,-0.492635,44.1781,-0.311053,-0.0157385,17.8715,0.559015,0.698034,0.377171,-2.80769,0.0482884,0.443115,-2.03034,0.0569691,0.282097,0.0649547,0.346459,-0.0649547,23.4648,23.2946,23.1385,23.2804,23.1952,23.252,23.0959,
114,6.27301,1.37895,3.15337,4.13006,6.27432,1.97043,1.55575,0,-0.0731964,-0.000254159,0.0875116,0.0012145,-0.0250768,7.42418e-05,0.472032,-14.0412,-0.55039,-4.46573,0.999004,-53.74,1.53426,0.0249546,-20,-0.542942,-0.307682,-0.0398734,-2.48358,0.0473419,-0.000159307,0.0148556,-9.51344e-05,0.495948,0.00122872,0.0730451,0.0407197,0.000493753,0.025373,1.93215,-6.26631e-05,0.005,1.70228,-0.000500774,-0.0183357,-0.492635,44.1781,-0.311053,-0.0157385,17.8715,0.559015,0.698034,0.377171,-2.80769,0.0482884,0.443115,-2.03034,0.0569691,0.282097,0.0649547,0.346459,-0.0649547,23.4648,23.2946,23.1385,23.2804,23.1952,23.252,23.0959,
115,6.27301,1.37888,3.15337,4.13014,6.27432,1.9704,1.55576,0,-0.0713057,-0.000243569,0.0852643,0.00113469,-0.0270097,8.48478e-05,0.472073,-14.04,-0.55046,-4.46558,0.999042,-53.7389,1.53428,0.0249403,-20,-0.542943,-0.305764,-0.0398707,-2.48383,0.0473436,-0.000159307,0.0148556,-9.51344e-05,0.495948,0.00122872,0.0730451,0.0396733,0.000471105,0.0244508,1.93215,-6.26631e-05,0.005,1.70228,-0.000500774,-0.0183357,-0.492635,44.1781,-0.311053,-0.00598156,18.0631,0.601807,0.662475,0.379069,-2.88633,0.0572885,0.443188,-2.0464,0.0483398,0.290039,0.0655763,0.38674,-0.0483398,23.4222,23.2804,23.1101,23.2662,23.1952,23.2378,23.1101,
116,6.27301,1.37888,3.15337,4.13014,6.27432,1.9704,1.55576,0,-0.0713057,-0.000243569,0.0852643,0.00113469,-0.0270097,8.48478e-05,0.472525,-14.0876,-0.549805,-4.49982,1.00551,-53.9149,1.53458,0.0250603,-20,-0.543538,-0.311481,-0.0398507,-2.50093,0.0471655,-0.000159629,0.0149833,-9.57059e-05,0.495948,0.00122872,0.0730451,0.0396733,0.000471105,0.0244508,1.93136,-6.84137e-05,0.005,1.70252,-0.000485567,-0.0175057,-0.490861,44.3408,-0.308679,-0.00598156,18.0631,0.601807,0.662475,0.379069,-2.88633,0.0572885,0.443188,-2.0464,0.0483398,0.290039,0.0655763,0.38674,-0.0483398,23.4222,23.2804,23.1101,23.2662,23.1952,23.2378,23.1101,
117,6.27301,1.37888,3.15337,4.13014,6.27432,1.9704,1.55576,0,-0.0713057,-0.000243569,0.0852643,0.00113469,-0.0270097,8.48478e-05,0.472525,-14.0876,-0.549805,-4.49982,1.00551,-53.9149,1.53458,0.0250603,-20,-0.543538,-0.311481,-0.0398507,-2.50093,0.0471655,-0.000159629,0.0149833,-9.57059e-05,0.495948,0.00122872,0.0730451,0.0396733,0.000471105,0.0244508,1.93136,-6.84137e-05,0.005,1.70252,-0.000485567,-0.0175057,-0.490861,44.3408,-0.308679,-0.00598156,18.0631,0.601807,0.662475,0.379069,-2.88633,0.0572885,0.443188,-2.0464,0.0483398,0.290039,0.0655763,0.38674,-0.0483398,23.4222,23.2804,23.1101,23.2662,23.1952,23.2378,23.1101,
118,6.27301,1.37881,3.15337,4.13022,6.27432,1.97038,1.55576,0,-0.0681449,-0.000233332,0.0848106,0.00117023,-0.0289004,8.48478e-05,0.472537,-14.0864,-0.549859,-4.49971,1.00551,-53.9137,1.5345,0.0250396,-20,-0.543542,-0.309519,-0.0398477,-2.50116,0.0471631,-0.000159629,0.0149833,-9.57059e-05,0.495948,0.00122872,0.0730451,0.0388804,0.000461012,0.0230008,1.93136,-6.84137e-05,0.005,1.70252,-0.000485567,-0.0175057,-0.490861,44.3408,-0.308679,-0.0156665,18.2058,0.614655,0.643533,0.366289,-2.97187,0.0626412,0.443188,-2.05451,0.0725098,0.322266,0.0684814,0.38674,-0.0525229,23.4364,23.2946,23.1243,23.2662,23.1811,23.252,23.0959,
119,6.27301,1.37881,3.15337,4.13022,6.27432,1.97038,1.55576,0,-0.0681449,-0.000233332,0.0848106,0.00117023,-0.0289004,8.48478e-05,0.473186,-14.1396,-0.551819,-4.53886,1.00539,-54.1074,1.5392,0.0252118,-20,-0.544401,-0.31616,-0.0398663,-2.51996,0.0474284,-0.000160926,0.0151109,-9.71296e-05,0.495948,0.00122872,0.0730451,0.0388804,0.000461012,0.0230008,1.93057,-7.32609e-05,0.005,1.70252,-0.000480846,-0.0162007,-0.4934,44.5204,-0.312452,-0.0156665,18.2058,0.614655,0.643533,0.366289,-2.97187,0.0626412,0.443188,-2.05451,0.0725098,0.322266,0.0684814,0.38674,-0.0525229,23.4364,23.2946,23.1243,23.2662,23.1811,23.252,23.0959,
120,6.27301,1.37874,3.15337,4.13032,6.27432,1.97034,1.55576,0,-0.0656337,-0.000228029,0.085512,0.001126,-0.0295907,9.53807e-05,0.473219,-14.1383,-0.551889,-4.53904,1.0054,-54.1059,1.53916,0.0251982,-20,-0.544411,-0.314337,-0.039863,-2.52015,0.0474275,-0.000160926,0.0151109,-9.71296e-05,0.495948,0.00122872,0.0730451,0.0385576,0.000450293,0.0219216,1.93057,-7.32609e-05,0.005,1.70252,-0.000480846,-0.0162007,-0.4934,44.5204,-0.312452,-0.00586545,18.3536,0.62703,0.601265,0.352325,-3.04441,0.0584679,0.435059,-2.08673,0.0649547,0.306258,0.0703516,0.394858,-0.0565402,23.4364,23.2946,23.1243,23.2804,23.1952,23.252,23.1101,
121,6.27301,1.37874,3.15337,4.13032,6.27432,1.97034,1.55576,0,-0.0656337,-0.000228029,0.085512,0.001126,-0.0295907,9.53807e-05,0.474066,-14.2125,-0.553071,-4.59518,1.00961,-54.384,1.54251,0.025423,-20,-0.545496,-0.324003,-0.0398629,-2.54759,0.0474569,-0.000161586,0.015235,-9.81975e-05,0.495948,0.00122872,0.0730451,0.0385576,0.000450293,0.0219216,1.92978,-7.99529e-05,0.005,1.7021,-0.000477221,-0.0152294,-0.493605,44.7805,-0.314013,-0.00586545,18.3536,0.62703,0.601265,0.352325,-3.04441,0.0584679,0.435059,-2.08673,0.0649547,0.306258,0.0703516,0.394858,-0.0565402,23.4364,23.2946,23.1243,23.2804,23.1952,23.252,23.1101,
122,6.27301,1.37868,3.15337,4.1304,6.27432,1.97031,1.55576,0,-0.0642832,-0.000228033,0.0848106,0.00112607,-0.0307599,9.54538e-05,0.474093,-14.2113,-0.553136,-4.59524,1.00959,-54.3827,1.54243,0.0254099,-20,-0.545503,-0.322293,-0.0398601,-2.54778,0.0474538,-0.000161586,0.015235,-9.81975e-05,0.495948,0.00122872,0.0730451,0.0380721,0.000444099,0.0212739,1.92978,-7.99529e-05,0.005,1.7021,-0.000477221,-0.0152294,-0.493605,44.7805,-0.314013,-0.0358886,18.4539,0.624484,0.604208,0.352731,-3.10609,0.0481618,0.435133,-2.10278,0.072956,0.273926,0.0726216,0.386803,-0.0483398,23.4506,23.2946,23.1101,23.2662,23.1952,23.252,23.0959,
123,6.27301,1.37868,3.15337,4.1304,6.27432,1.97031,1.55576,0,-0.0642832,-0.000228033,0.0848106,0.00112607,-0.0307599,9.54538e-05,0.474847,-14.273,-0.554937,-4.6415,1.01092,-54.616,1.54911,0.0256099,-20,-0.546463,-0.330222,-0.0398718,-2.57082,0.0478757,-0.000163313,0.0153515,-9.96891e-05,0.495948,0.00122872,0.0730451,0.0380721,0.000444099,0.0212739,1.92902,-8.73495e-05,0.005,1.70186,-0.000478304,-0.0146465,-0.497691,44.9984,-0.31728,-0.0358886,18.4539,0.624484,0.604208,0.352731,-3.10609,0.0481618,0.435133,-2.10278,0.072956,0.273926,0.0726216,0.386803,-0.0483398,23.4506,23.2946,23.1101,23.2662,23.1952,23.252,23.0959,
124,6.27301,1.37868,3.15337,4.1304,6.27432,1.97031,1.55576,0,-0.0642832,-0.000228033,0.0848106,0.00112607,-0.0307599,9.54538e-05,0.474847,-14.273,-0.554937,-4.6415,1.01092,-54.616,1.54911,0.0256099,-20,-0.546463,-0.330222,-0.0398718,-2.57082,0.0478757,-0.000163313,0.0153515,-9.96891e-05,0.495948,0.00122872,0.0730451,0.0380721,0.000444099,0.0212739,1.92902,-8.73495e-05,0.005,1.70186,-0.000478304,-0.0146465,-0.497691,44.9984,-0.31728,-0.0358886,18.4539,0.624484,0.604208,0.352731,-3.10609,0.0481618,0.435133,-2.10278,0.072956,0.273926,0.0726216,0.386803,-0.0483398,23.4506,23.2946,23.1101,23.2662,23.1952,23.252,23.0959,
125,6.27301,1.37861,3.15337,4.13048,6.27432,1.97028,1.55576,0,-0.063743,-0.000218113,0.0829199,0.00112343,-0.0318715,0.000106059,0.474861,-14.2718,-0.554986,-4.64152,1.01091,-54.6148,1.54903,0.0255937,-20,-0.546468,-0.328557,-0.0398697,-2.57101,0.047873,-0.000163313,0.0153515,-9.96891e-05,0.495948,0.00122872,0.0730451,0.0374118,0.000434107,0.0209717,1.92902,-8.73495e-05,0.005,1.70186,-0.000478304,-0.0146465,-0.497691,44.9984,-0.31728,-0.0232062,18.5745,0.627884,0.579045,0.364093,-3.12867,0.055996,0.443408,-2.10284,0.088623,0.266357,0.076961,0.39083,-0.0483398,23.4364,23.2804,23.1527,23.2804,23.1952,23.2378,23.0959,
126,6.27301,1.37861,3.15337,4.13048,6.27432,1.97028,1.55576,0,-0.063743,-0.000218113,0.0829199,0.00112343,-0.0318715,0.000106059,0.475543,-14.3279,-0.556468,-4.68309,1.01262,-54.8294,1.55156,0.0257746,-20,-0.547329,-0.335633,-0.0398763,-2.59221,0.0478954,-0.000163827,0.015465,-0.000101096,0.495948,0.00122872,0.0730451,0.0374118,0.000434107,0.0209717,1.92829,-9.31227e-05,0.005,1.70179,-0.000474507,-0.0143745,-0.497826,45.1984,-0.319798,-0.0232062,18.5745,0.627884,0.579045,0.364093,-3.12867,0.055996,0.443408,-2.10284,0.088623,0.266357,0.076961,0.39083,-0.0483398,23.4364,23.2804,23.1527,23.2804,23.1952,23.2378,23.0959,
127,6.27301,1.37861,3.15337,4.13048,6.27432,1.97028,1.55576,0,-0.063743,-0.000218113,0.0829199,0.00112343,-0.0318715,0.000106059,0.475543,-14.3279,-0.556468,-4.68309,1.01262,-54.8294,1.55156,0.0257746,-20,-0.547329,-0.335633,-0.0398763,-2.59221,0.0478954,-0.000163827,0.015465,-0.000101096,0.495948,0.00122872,0.0730451,0.0374118,0.000434107,0.0209717,1.92829,-9.31227e-05,0.005,1.70179,-0.000474507,-0.0143745,-0.497826,45.1984,-0.319798,-0.0232062,18.5745,0.627884,0.579045,0.364093,-3.12867,0.055996,0.443408,-2.10284,0.088623,0.266357,0.076961,0.39083,-0.0483398,23.4364,23.2804,23.1527,23.2804,23.1952,23.2378,23.0959,
128,6.27301,1.37855,3.15337,4.13056,6.27432,1.97025,1.55576,-3.10663e-05,-0.0618523,-0.000207727,0.0810292,0.00112343,-0.0318715,0.00010606,0.475571,-14.3269,-0.556527,-4.68315,1.01262,-54.8284,1.55147,0.0257617,-20,-0.547335,-0.333955,-0.0398739,-2.59241,0.0478899,-0.000163827,0.015465,-0.000101096,0.495948,0.00122872,0.0730451,0.0364674,0.000435558,0.0202473,1.92829,-9.31227e-05,0.005,1.70179,-0.000474507,-0.0143745,-0.497826,45.1984,-0.319798,-0.0470135,18.6752,0.625488,0.545068,0.369922,-3.12298,0.0497239,0.410889,-2.0707,0.0725098,0.281982,0.0685998,0.378748,-0.0565402,23.4648,23.2946,23.1385,23.2804,23.1669,23.2378,23.0959,
129,6.27301,1.37855,3.15337,4.13056,6.27432,1.97025,1.55576,-3.10663e-05,-0.0618523,-0.000207727,0.0810292,0.00112343,-0.0318715,0.00010606,0.476265,-14.3793,-0.559183,-4.72102,1.01054,-55.025,1.55676,0.0259457,-20,-0.548232,-0.340312,-0.0399044,-2.61162,0.0482239,-0.000165504,0.0155744,-0.000103064,0.495948,0.00122872,0.0730451,0.0364674,0.000435558,0.0202473,1.92757,-0.000104485,0.005,1.70199,-0.000486039,-0.0137226,-0.501017,45.3804,-0.325331,-0.0470135,18.6752,0.625488,0.545068,0.369922,-3.12298,0.0497239,0.410889,-2.0707,0.0725098,0.281982,0.0685998,0.378748,-0.0565402,23.4648,23.2946,23.1385,23.2804,23.1669,23.2378,23.0959,
130,6.27301,1.37849,3.15337,4.13065,6.27433,1.97022,1.55576,-2.93753e-05,-0.0586246,-0.000197633,0.081249,0.0011457,-0.0337622,0.00010598,0.476296,-14.3781,-0.559257,-4.72101,1.01051,-55.0237,1.55666,0.0259326,-20,-0.54824,-0.338471,-0.0399013,-2.61182,0.0482185,-0.000165504,0.0155744,-0.000103064,0.495948,0.00122872,0.0730451,0.0358567,0.000424852,0.0187601,1.92757,-0.000104485,0.005,1.70199,-0.000486039,-0.0137226,-0.501017,45.3804,-0.325331,-0.0388784,18.7776,0.605509,0.528096,0.369922,-3.11415,0.0452465,0.419023,-2.10292,0.0805664,0.298205,0.080667,0.378855,-0.0483398,23.4506,23.2946,23.1243,23.2662,23.1952,23.252,23.1101,
131,6.27301,1.37849,3.15337,4.13065,6.27433,1.97022,1.55576,-2.93753e-05,-0.0586246,-0.000197633,0.081249,0.0011457,-0.0337622,0.00010598,0.476929,-14.4271,-0.561728,-4.75754,1.00858,-55.2009,1.56289,0.0261004,-20,-0.54908,-0.344713,-0.0399283,-2.62904,0.0486612,-0.000167449,0.0156898,-0.000105036,0.495948,0.00122872,0.0730451,0.0358567,0.000424852,0.0187601,1.9268,-0.000112909,0.005,1.70185,-0.000483985,-0.0123841,-0.505302,45.5451,-0.330399,-0.0388784,18.7776,0.605509,0.528096,0.369922,-3.11415,0.0452465,0.419023,-2.10292,0.0805664,0.298205,0.080667,0.378855,-0.0483398,23.4506,23.2946,23.1243,23.2662,23.1952,23.252,23.1101,
132,6.27301,1.37844,3.15337,4.13073,6.27433,1.97018,1.55576,-2.95005e-05,-0.0545597,-0.000197633,0.0809471,0.00114233,-0.0341045,0.000114014,0.476961,-14.4262,-0.561797,-4.75754,1.00857,-55.1999,1.56283,0.0260883,-20,-0.549087,-0.34301,-0.0399254,-2.62922,0.0486583,-0.000167449,0.0156898,-0.000105036,0.495948,0.00122872,0.0730451,0.034918,0.000414764,0.0171086,1.9268,-0.000112909,0.005,1.70185,-0.000483985,-0.0123841,-0.505302,45.5451,-0.330399,-0.0667651,18.8263,0.599309,0.519833,0.363595,-3.10385,0.0485312,0.419023,-2.14313,0.0742786,0.274044,0.0725098,0.378855,-0.0523682,23.4506,23.3087,23.1527,23.2662,23.2094,23.252,23.0959,
133,6.27301,1.37844,3.15337,4.13073,6.27433,1.97018,1.55576,-2.95005e-05,-0.0545597,-0.000197633,0.0809471,0.00114233,-0.0341045,0.000114014,0.47742,-14.4641,-0.56345,-4.78466,1.00762,-55.3326,1.56451,0.0262101,-20,-0.54972,-0.347529,-0.0399455,-2.64184,0.0486867,-0.000168118,0.0157873,-0.000106397,0.495948,0.00122872,0.0730451,0.034918,0.000414764,0.0171086,1.92612,-0.000119559,0.005,1.70208,-0.000480891,-0.0108977,-0.505512,45.6669,-0.333728,-0.0667651,18.8263,0.599309,0.519833,0.363595,-3.10385,0.0485312,0.419023,-2.14313,0.0742786,0.274044,0.0725098,0.378855,-0.0523682,23.4506,23.3087,23.1527,23.2662,23.2094,23.252,23.0959,
134,6.27301,1.37839,3.15337,4.1308,6.27433,1.97014,1.55576,-2.79729e-05,-0.0507783,-0.000183424,0.0785984,0.00119805,-0.0375435,0.000114014,0.477427,-14.4631,-0.563488,-4.78434,1.00758,-55.3319,1.56436,0.026192,-20,-0.549721,-0.345779,-0.0399442,-2.64207,0.0486796,-0.000168118,0.0157873,-0.000106397,0.495948,0.00122872,0.0730451,0.0334493,0.000397096,0.015269,1.92612,-0.000119559,0.005,1.70208,-0.000480891,-0.0108977,-0.505512,45.6669,-0.333728,-0.0505681,18.9219,0.584496,0.540478,0.356,-3.08422,0.0318468,0.418945,-2.20753,0.0970148,0.274044,0.0887145,0.362571,-0.0402832,23.4506,23.3087,23.1385,23.2662,23.1811,23.252,23.1101,
135,6.27301,1.37839,3.15337,4.1308,6.27433,1.97014,1.55576,-2.79729e-05,-0.0507783,-0.000183424,0.0785984,0.00119805,-0.0375435,0.000114014,0.477416,-14.4563,-0.565565,-4.77677,1.00095,-55.2902,1.56625,0.026189,-20,-0.549785,-0.344249,-0.0399816,-2.63716,0.0489255,-0.00016955,0.0158778,-0.000108605,0.495948,0.00122872,0.0730451,0.0334493,0.000397096,0.015269,1.92546,-0.000124998,0.005,1.70281,-0.000469885,-0.00924209,-0.507901,45.6243,-0.338763,-0.0505681,18.9219,0.584496,0.540478,0.356,-3.08422,0.0318468,0.418945,-2.20753,0.0970148,0.274044,0.0887145,0.362571,-0.0402832,23.4506,23.3087,23.1385,23.2662,23.1811,23.252,23.1101,
136,6.27301,1.37839,3.15337,4.1308,6.27433,1.97014,1.55576,-2.79729e-05,-0.0507783,-0.000183424,0.0785984,0.00119805,-0.0375435,0.000114014,0.477416,-14.4563,-0.565565,-4.77677,1.00095,-55.2902,1.56625,0.026189,-20,-0.549785,-0.344249,-0.0399816,-2.63716,0.0489255,-0.00016955,0.0158778,-0.000108605,0.495948,0.00122872,0.0730451,0.0334493,0.000397096,0.015269,1.92546,-0.000124998,0.005,1.70281,-0.000469885,-0.00924209,-0.507901,45.6243,-0.338763,-0.0505681,18.9219,0.584496,0.540478,0.356,-3.08422,0.0318468,0.418945,-2.20753,0.0970148,0.274044,0.0887145,0.362571,-0.0402832,23.4506,23.3087,23.1385,23.2662,23.1811,23.252,23.1101,
137,6.27301,1.37834,3.15337,4.13088,6.27433,1.97011,1.55576,-2.79729e-05,-0.0480774,-0.000178329,0.0758974,0.00116579,-0.0377753,0.000114014,0.477445,-14.4556,-0.565623,-4.77672,1.00095,-55.2895,1.56623,0.0261777,-20,-0.549789,-0.342715,-0.0399794,-2.63733,0.0489248,-0.00016955,0.0158778,-0.000108605,0.495948,0.00122872,0.0730451,0.0321014,0.000380632,0.0142052,1.92546,-0.000124998,0.005,1.70281,-0.000469885,-0.00924209,-0.507901,45.6243,-0.338763,-0.0410701,18.9717,0.59459,0.540085,0.352953,-3.05659,0.0409435,0.402913,-2.25599,0.0889885,0.306152,0.088623,0.378855,-0.0525229,23.4506,23.3087,23.1385,23.2804,23.1952,23.252,23.1101,
138,6.27301,1.37834,3.15337,4.13088,6.27433,1.97011,1.55576,-2.79729e-05,-0.0480774,-0.000178329,0.0758974,0.00116579,-0.0377753,0.000114014,0.477639,-14.4756,-0.565833,-4.78918,1.00218,-55.3573,1.56851,0.0262289,-20,-0.550076,-0.3446,-0.0399814,-2.64353,0.0490763,-0.000170838,0.0159627,-0.000109404,0.495948,0.00122872,0.0730451,0.0321014,0.000380632,0.0142052,1.92482,-0.000130085,0.005,1.70345,-0.000459646,-0.00828469,-0.509392,45.6846,-0.338962,-0.0410701,18.9717,0.59459,0.540085,0.352953,-3.05659,0.0409435,0.402913,-2.25599,0.0889885,0.306152,0.088623,0.378855,-0.0525229,23.4506,23.3087,23.1385,23.2804,23.1952,23.252,23.1101,
139,6.27301,1.37829,3.15337,4.13096,6.27433,1.97007,1.55576,-2.64952e-05,-0.047646,-0.000178329,0.0757321,0.00119228,-0.0386239,0.000121877,0.477655,-14.4744,-0.565886,-4.78929,1.00211,-55.356,1.56835,0.0262177,-20,-0.550086,-0.343142,-0.0399796,-2.64366,0.0490688,-0.000170838,0.0159627,-0.000109404,0.495948,0.00122872,0.0730451,0.0319641,0.000380044,0.0139496,1.92482,-0.000130085,0.005,1.70345,-0.000459646,-0.00828469,-0.509392,45.6846,-0.338962,-0.0439119,19.0567,0.576123,0.549451,0.365736,-3.02002,0.0308144,0.394858,-2.26392,0.088623,0.346529,0.0926514,0.374655,-0.0523682,23.4648,23.2946,23.1243,23.2662,23.1811,23.252,23.1101,
140,6.27301,1.37829,3.15337,4.13096,6.27433,1.97007,1.55576,-2.64952e-05,-0.047646,-0.000178329,0.0757321,0.00119228,-0.0386239,0.000121877,0.478452,-14.5319,-0.569056,-4.83332,0.999431,-55.5766,1.57347,0.0264291,-20,-0.551087,-0.350778,-0.0400103,-2.66564,0.0493587,-0.000171889,0.0160555,-0.000111726,0.495948,0.00122872,0.0730451,0.0319641,0.000380044,0.0139496,1.92414,-0.000138638,0.005,1.70296,-0.000466814,-0.00805463,-0.512123,45.8917,-0.345486,-0.0439119,19.0567,0.576123,0.549451,0.365736,-3.02002,0.0308144,0.394858,-2.26392,0.088623,0.346529,0.0926514,0.374655,-0.0523682,23.4648,23.2946,23.1243,23.2662,23.1811,23.252,23.1101,
141,6.27301,1.37824,3.15337,4.13103,6.27433,1.97003,1.55576,-2.64952e-05,-0.0475372,-0.000175027,0.0756273,0.00123756,-0.041126,0.000121969,0.478465,-14.5307,-0.569103,-4.8332,0.999345,-55.5756,1.57329,0.0264184,-20,-0.551096,-0.349379,-0.0400088,-2.66576,0.0493512,-0.000171889,0.0160555,-0.000111726,0.495948,0.00122872,0.0730451,0.0319139,0.000379154,0.0136465,1.92414,-0.000138638,0.005,1.70296,-0.000466814,-0.00805463,-0.512123,45.8917,-0.345486,-0.0334269,19.0561,0.5529,0.599321,0.379254,-2.97891,0.0329428,0.394858,-2.23988,0.0970148,0.322266,0.0845947,0.374634,-0.0444942,23.4506,23.2946,23.1243,23.2804,23.1811,23.252,23.0959,
142,6.27301,1.37824,3.15337,4.13103,6.27433,1.97003,1.55576,-2.64952e-05,-0.0475372,-0.000175027,0.0756273,0.00123756,-0.041126,0.000121969,0.479003,-14.5664,-0.571866,-4.8613,0.995544,-55.7116,1.58024,0.0265613,-20,-0.551775,-0.354328,-0.0400391,-2.67937,0.0499175,-0.000173789,0.0161332,-0.000113899,0.495948,0.00122872,0.0730451,0.0319139,0.000379154,0.0136465,1.92352,-0.000146611,0.005,1.70244,-0.000473189,-0.00778188,-0.517624,46.0201,-0.351439,-0.0334269,19.0561,0.5529,0.599321,0.379254,-2.97891,0.0329428,0.394858,-2.23988,0.0970148,0.322266,0.0845947,0.374634,-0.0444942,23.4506,23.2946,23.1243,23.2804,23.1811,23.252,23.0959,
143,6.27301,1.3782,3.15337,4.13111,6.27434,1.96998,1.55576,-2.52564e-05,-0.0480774,-0.000165029,0.0753572,0.00125461,-0.044296,0.000121969,0.479015,-14.5651,-0.571909,-4.86113,0.99547,-55.7105,1.58009,0.0265504,-20,-0.551783,-0.352938,-0.0400375,-2.67949,0.0499123,-0.000173789,0.0161332,-0.000113899,0.495948,0.00122872,0.0730451,0.0319526,0.000373097,0.0135344,1.92352,-0.000146611,0.005,1.70244,-0.000473189,-0.00778188,-0.517624,46.0201,-0.351439,-0.0197246,19.1188,0.559829,0.66347,0.395455,-2.9415,0.0231868,0.394775,-2.23175,0.088623,0.33042,0.0927389,0.378684,-0.0402832,23.4506,23.2946,23.1101,23.2804,23.1811,23.252,23.1101,
144,6.27301,1.3782,3.15337,4.13111,6.27434,1.96998,1.55576,-2.52564e-05,-0.0480774,-0.000165029,0.0753572,0.00125461,-0.044296,0.000121969,0.479477,-14.5988,-0.573594,-4.88802,0.994443,-55.8402,1.58612,0.0266731,-20,-0.552356,-0.357706,-0.0400509,-2.69254,0.0503838,-0.000175486,0.016211,-0.000115575,0.495948,0.00122872,0.0730451,0.0319526,0.000373097,0.0135344,1.92289,-0.000153545,0.005,1.70184,-0.000473979,-0.00768095,-0.522223,46.143,-0.354837,-0.0197246,19.1188,0.559829,0.66347,0.395455,-2.9415,0.0231868,0.394775,-2.23175,0.088623,0.33042,0.0927389,0.378684,-0.0402832,23.4506,23.2946,23.1101,23.2804,23.1811,23.252,23.1101,
145,6.27301,1.3782,3.15337,4.13111,6.27434,1.96998,1.55576,-2.52564e-05,-0.0480774,-0.000165029,0.0753572,0.00125461,-0.044296,0.000121969,0.479477,-14.5988,-0.573594,-4.88802,0.994443,-55.8402,1.58612,0.0266731,-20,-0.552356,-0.357706,-0.0400509,-2.69254,0.0503838,-0.000175486,0.016211,-0.000115575,0.495948,0.00122872,0.0730451,0.0319526,0.000373097,0.0135344,1.92289,-0.000153545,0.005,1.70184,-0.000473979,-0.00768095,-0.522223,46.143,-0.354837,-0.0197246,19.1188,0.559829,0.66347,0.395455,-2.9415,0.0231868,0.394775,-2.23175,0.088623,0.33042,0.0927389,0.378684,-0.0402832,23.4506,23.2946,23.1101,23.2804,23.1811,23.252,23.1101,
146,6.27301,1.37815,3.15337,4.13118,6.27434,1.96993,1.55576,-2.52552e-05,-0.0461867,-0.000155027,0.0731223,0.00129341,-0.0477823,0.000132575,0.479499,-14.5979,-0.573648,-4.88758,0.994354,-55.8397,1.58596,0.0266618,-20,-0.55236,-0.356168,-0.0400497,-2.6927,0.0503769,-0.000175486,0.016211,-0.000115575,0.495948,0.00122872,0.0730451,0.0309133,0.000359774,0.0124425,1.92289,-0.000153545,0.005,1.70184,-0.000473979,-0.00768095,-0.522223,46.143,-0.354837,-0.0139261,19.1231,0.555346,0.719961,0.384909,-2.94202,0.0179169,0.402832,-2.18336,0.105046,0.314622,0.0927389,0.398824,-0.0485074,23.4506,23.2804,23.1385,23.2804,23.1811,23.252,23.1101,
147,6.27301,1.37815,3.15337,4.13118,6.27434,1.96993,1.55576,-2.52552e-05,-0.0461867,-0.000155027,0.0731223,0.00129341,-0.0477823,0.000132575,0.479419,-14.585,-0.57527,-4.87672,0.988481,-55.7809,1.58654,0.0266407,-20,-0.552307,-0.354202,-0.0400796,-2.68642,0.0505089,-0.000176423,0.0162744,-0.00011756,0.495948,0.00122872,0.0730451,0.0309133,0.000359774,0.0124425,1.92228,-0.000161028,0.005,1.70223,-0.000468722,-0.00669829,-0.523493,46.0861,-0.358885,-0.0139261,19.1231,0.555346,0.719961,0.384909,-2.94202,0.0179169,0.402832,-2.18336,0.105046,0.314622,0.0927389,0.398824,-0.0485074,23.4506,23.2804,23.1385,23.2804,23.1811,23.252,23.1101,
148,6.27301,1.37815,3.15337,4.13118,6.27434,1.96993,1.55576,-2.52552e-05,-0.0461867,-0.000155027,0.0731223,0.00129341,-0.0477823,0.000132575,0.479419,-14.585,-0.57527,-4.87672,0.988481,-55.7809,1.58654,0.0266407,-20,-0.552307,-0.354202,-0.0400796,-2.68642,0.0505089,-0.000176423,0.0162744,-0.00011756,0.495948,0.00122872,0.0730451,0.0309133,0.000359774,0.0124425,1.92228,-0.000161028,0.005,1.70223,-0.000468722,-0.00669829,-0.523493,46.0861,-0.358885,-0.0139261,19.1231,0.555346,0.719961,0.384909,-2.94202,0.0179169,0.402832,-2.18336,0.105046,0.314622,0.0927389,0.398824,-0.0485074,23.4506,23.2804,23.1385,23.2804,23.1811,23.252,23.1101,
149,6.27301,1.3781,3.15337,4.13126,6.27434,1.96988,1.55576,-2.51645e-05,-0.0445948,-0.000145025,0.0717198,0.00130266,-0.0476012,0.000132575,0.47944,-14.5842,-0.575327,-4.87668,0.988422,-55.7801,1.58643,0.0266292,-20,-0.552316,-0.352742,-0.0400778,-2.68655,0.050504,-0.000176423,0.0162744,-0.00011756,0.495948,0.00122872,0.0730451,0.0301738,0.000351741,0.0118476,1.92228,-0.000161028,0.005,1.70223,-0.000468722,-0.00669829,-0.523493,46.0861,-0.358885,0.00441658,19.1528,0.519178,0.831368,0.391165,-2.92913,0.0174394,0.379005,-2.19952,0.0996551,0.33042,0.088623,0.410968,-0.0444942,23.4364,23.2946,23.1385,23.2662,23.1952,23.252,23.0959,
150,6.27301,1.3781,3.15337,4.13126,6.27434,1.96988,1.55576,-2.51645e-05,-0.0445948,-0.000145025,0.0717198,0.00130266,-0.0476012,0.000132575,0.479887,-14.6169,-0.57729,-4.90044,0.986365,-55.9016,1.59136,0.0267477,-20,-0.552898,-0.356739,-0.0400993,-2.6984,0.0508759,-0.000178135,0.0163474,-0.000119158,0.495948,0.00122872,0.0730451,0.0301738,0.000351741,0.0118476,1.92164,-0.000167833,0.005,1.70232,-0.000467617,-0.00616286,-0.527098,46.1987,-0.362996,0.00441658,19.1528,0.519178,0.831368,0.391165,-2.92913,0.0174394,0.379005,-2.19952,0.0996551,0.33042,0.088623,0.410968,-0.0444942,23.4364,23.2946,23.1385,23.2662,23.1952,23.252,23.0959,
151,6.27301,1.3781,3.15337,4.13126,6.27434,1.96988,1.55576,-2.51645e-05,-0.0445948,-0.000145025,0.0717198,0.00130266,-0.0476012,0.000132575,0.479887,-14.6169,-0.57729,-4.90044,0.986365,-55.9016,1.59136,0.0267477,-20,-0.552898,-0.356739,-0.0400993,-2.6984,0.0508759,-0.000178135,0.0163474,-0.000119158,0.495948,0.00122872,0.0730451,0.0301738,0.000351741,0.0118476,1.92164,-0.000167833,0.005,1.70232,-0.000467617,-0.00616286,-0.527098,46.1987,-0.362996,0.00441658,19.1528,0.519178,0.831368,0.391165,-2.92913,0.0174394,0.379005,-2.19952,0.0996551,0.33042,0.088623,0.410968,-0.0444942,23.4364,23.2946,23.1385,23.2662,23.1952,23.252,23.0959,
152,6.27301,1.37806,3.15337,4.13133,6.27434,1.96983,1.55576,-2.52564e-05,-0.0426754,-0.000140024,0.0734665,0.00133635,-0.0491577,0.000132575,0.479901,-14.6158,-0.577339,-4.90036,0.986277,-55.9006,1.59119,0.0267375,-20,-0.552909,-0.355385,-0.0400976,-2.6985,0.0508685,-0.000178135,0.0163474,-0.000119158,0.495948,0.00122872,0.0730451,0.0302803,0.000350899,0.010896,1.92164,-0.000167833,0.005,1.70232,-0.000467617,-0.00616286,-0.527098,46.1987,-0.362996,0.029655,19.1106,0.500389,0.918176,0.397376,-2.92965,0.0237027,0.379005,-2.20758,0.0966797,0.346436,0.10103,0.402832,-0.0444942,23.4648,23.2804,23.1385,23.252,23.1811,23.2236,23.1101,
153,6.27301,1.37806,3.15337,4.13133,6.27434,1.96983,1.55576,-2.52564e-05,-0.0426754,-0.000140024,0.0734665,0.00133635,-0.0491577,0.000132575,0.480446,-14.6525,-0.580301,-4.92953,0.981905,-56.0349,1.59764,0.0268823,-20,-0.553617,-0.360549,-0.0401324,-2.71179,0.0513875,-0.000179971,0.0164135,-0.000121235,0.495948,0.00122872,0.0730451,0.0302803,0.000350899,0.010896,1.92104,-0.000175367,0.005,1.70168,-0.00047364,-0.00530638,-0.532125,46.3254,-0.369427,0.029655,19.1106,0.500389,0.918176,0.397376,-2.92965,0.0237027,0.379005,-2.20758,0.0966797,0.346436,0.10103,0.402832,-0.0444942,23.4648,23.2804,23.1385,23.252,23.1811,23.2236,23.1101,
154,6.27301,1.37802,3.15337,4.1314,6.27434,1.96978,1.55576,-2.41283e-05,-0.0418651,-0.000140022,0.0756273,0.00134709,-0.0513185,0.000132575,0.480456,-14.6513,-0.580342,-4.92944,0.981821,-56.0337,1.59749,0.0268721,-20,-0.553628,-0.359219,-0.0401307,-2.71187,0.0513823,-0.000179971,0.0164135,-0.000121235,0.495948,0.00122872,0.0730451,0.0307398,0.000351034,0.0103186,1.92104,-0.000175367,0.005,1.70168,-0.00047364,-0.00530638,-0.532125,46.3254,-0.369427,0.0377357,19.1337,0.503122,0.992631,0.409002,-2.92575,0.0107426,0.362638,-2.21563,0.0966797,0.290151,0.0927389,0.40694,-0.0404841,23.4648,23.2946,23.1527,23.252,23.1669,23.252,23.1101,
155,6.27301,1.37802,3.15337,4.1314,6.27434,1.96978,1.55576,-2.41283e-05,-0.0418651,-0.000140022,0.0756273,0.00134709,-0.0513185,0.000132575,0.481031,-14.6938,-0.582458,-4.96405,0.980423,-56.1938,1.60406,0.0270246,-20,-0.554352,-0.365415,-0.0401498,-2.72795,0.0518782,-0.000181609,0.0164789,-0.000122815,0.495948,0.00122872,0.0730451,0.0307398,0.000351034,0.0103186,1.92043,-0.000181851,0.005,1.70072,-0.000479596,-0.00478674,-0.536947,46.4775,-0.373746,0.0377357,19.1337,0.503122,0.992631,0.409002,-2.92575,0.0107426,0.362638,-2.21563,0.0966797,0.290151,0.0927389,0.40694,-0.0404841,23.4648,23.2946,23.1527,23.252,23.1669,23.252,23.1101,
156,6.27301,1.37802,3.15337,4.1314,6.27434,1.96978,1.55576,-2.41283e-05,-0.0418651,-0.000140022,0.0756273,0.00134709,-0.0513185,0.000132575,0.481031,-14.6938,-0.582458,-4.96405,0.980423,-56.1938,1.60406,0.0270246,-20,-0.554352,-0.365415,-0.0401498,-2.72795,0.0518782,-0.000181609,0.0164789,-0.000122815,0.495948,0.00122872,0.0730451,0.0307398,0.000351034,0.0103186,1.92043,-0.000181851,0.005,1.70072,-0.000479596,-0.00478674,-0.536947,46.4775,-0.373746,0.0377357,19.1337,0.503122,0.992631,0.409002,-2.92575,0.0107426,0.362638,-2.21563,0.0966797,0.290151,0.0927389,0.40694,-0.0404841,23.4648,23.2946,23.1527,23.252,23.1669,23.252,23.1101,
