LWingKi/MAS_RnD/main/log/us2/contactless/34/grasp_log_12_08_2023_15_16_54.csv
Index,joint_angle_0,joint_angle_1,joint_angle_2,joint_angle_3,joint_angle_4,joint_angle_5,joint_angle_6,joint_velocity_0,joint_velocity_1,joint_velocity_2,joint_velocity_3,joint_velocity_4,joint_velocity_5,joint_velocity_6,joint_accel_0,joint_accel_1,joint_accel_2,joint_accel_3,joint_accel_4,joint_accel_5,joint_accel_6,constraint_tau_0,constraint_tau_1,constraint_tau_2,constraint_tau_3,constraint_tau_4,constraint_tau_5,constraint_tau_6,current_pos_x,current_pos_y,current_pos_z,target_pos_x,target_pos_y,target_pos_z,current_vel_x,current_vel_y,current_vel_z,target_vel_x,target_vel_y,target_vel_z,control_signal_linear_x,control_signal_linear_y,control_signal_linear_z,control_signal_angular_x,control_signal_angular_y,control_signal_angular_z,joint_torque_0,joint_torque_1,joint_torque_2,joint_torque_3,joint_torque_4,joint_torque_5,joint_torque_6,actuar_current_0,actuar_current_1,actuar_current_2,actuar_current_3,actuar_current_4,actuar_current_5,actuar_current_6,actuar_voltage_0,actuar_voltage_1,actuar_voltage_2,actuar_voltage_3,actuar_voltage_4,actuar_voltage_5,actuar_voltage_6
0,6.27281,1.38592,3.15334,4.1213,6.27418,1.97281,1.55572,0.00159566,0.0294406,7.41857e-05,0.108039,1.05821e-05,0.0259294,1.05901e-05,0.358142,-4.91834,-0.357246,2.62121,0.540114,-17.8769,0.822565,-0.00346621,-20,-0.404867,0.775267,-0.0405457,1.13608,0.0149712,-6.84278e-05,0.00383223,-1.20997e-05,0.495336,0.00127353,0.072812,0.0250191,-0.000439674,-0.0108679,1.98864,-0.000787334,0.005,1.78977,-0.000708601,0.0045,-0.184755,10.347,-0.0326692,1.60259,0.330363,-0.089516,5.11069,0.173899,5.96191,0.262132,0.129158,0.225586,0.1372,-0.0725098,-0.132935,-0.721069,-0.149102,23.479,23.3371,23.1811,23.3229,23.2236,23.3087,23.1385,
1,6.27281,1.38595,3.15334,4.12141,6.27418,1.97284,1.55572,0.00154247,0.0296806,7.41857e-05,0.11101,1.05821e-05,0.0291705,1.059e-05,0.335031,-2.91876,-0.334515,4.03227,0.409049,-10.078,0.569212,-0.0096119,-19.038,-0.376626,1.01482,-0.0404103,1.90457,-0.00234337,0,0,0,0.495336,0.00127353,0.072812,0.025828,-0.000407585,-0.010672,2,0,0.005,1.77748,0.000395706,0.0142811,-0.0150666,3.13548,-0.00117163,1.58991,0.337961,-0.0808189,5.11338,0.15114,5.93326,0.252149,0.12085,0.217678,0.153076,-0.11308,-0.132935,-0.717052,-0.14502,23.479,23.3513,23.2094,23.3087,23.2236,23.3087,23.1669,
2,6.27281,1.38598,3.15334,4.12152,6.27418,1.97287,1.55572,0.00153086,0.0294406,7.41857e-05,0.110088,1.0582e-05,0.0320682,1.05901e-05,0.336643,-3.04838,-0.337836,3.93355,0.41338,-10.5817,0.576976,-0.00918233,-19.1171,-0.378613,0.998234,-0.0404234,1.85411,-0.00210325,-5.94542e-07,0.000108777,-6.30427e-07,0.495336,0.00127353,0.072812,0.0256125,-0.000399876,-0.0102516,1.99949,4.04948e-06,0.005,1.7763,0.000370471,0.0141048,-0.0173229,3.60833,-0.0069658,1.58635,0.379981,-0.0699893,5.15603,0.122637,5.8684,0.239336,0.136963,0.209628,0.121118,-0.169189,-0.136963,-0.729126,-0.14502,23.479,23.3371,23.1669,23.3087,23.2378,23.2946,23.1811,
3,6.27281,1.38601,3.15334,4.12164,6.27418,1.9729,1.55572,0.00142542,0.0285876,6.89389e-05,0.111341,1.0582e-05,0.0329519,1.0582e-05,0.337846,-3.15074,-0.339318,3.8576,0.419997,-10.9818,0.582913,-0.00885987,-19.1801,-0.380114,0.985967,-0.0404145,1.81416,-0.00194945,-1.18487e-06,0.000222614,-8.03415e-07,0.495336,0.00127353,0.072812,0.0261551,-0.00035073,-0.00984146,1.99899,1.21554e-05,0.005,1.77604,0.000370828,0.0137264,-0.0187555,3.98215,-0.00877409,1.56437,0.421999,-0.056112,5.20066,0.123568,5.828,0.23809,0.145243,0.19403,0.153076,-0.137907,-0.129158,-0.733199,-0.161334,23.4932,23.3655,23.1952,23.3087,23.2378,23.3087,23.1385,
4,6.27281,1.38601,3.15334,4.12164,6.27418,1.9729,1.55572,0.00142542,0.0285876,6.89389e-05,0.111341,1.0582e-05,0.0329519,1.0582e-05,0.339318,-3.26421,-0.343219,3.77166,0.420874,-11.424,0.590087,-0.00846815,-19.2485,-0.381903,0.970834,-0.0404474,1.76997,-0.00168573,-1.8417e-06,0.000342975,-2.12417e-06,0.495336,0.00127353,0.072812,0.0261551,-0.00035073,-0.00984146,1.99843,1.15345e-05,0.005,1.77505,0.000326038,0.0133573,-0.0212563,4.39681,-0.0163655,1.56437,0.421999,-0.056112,5.20066,0.123568,5.828,0.23809,0.145243,0.19403,0.153076,-0.137907,-0.129158,-0.733199,-0.161334,23.4932,23.3655,23.1952,23.3087,23.2378,23.3087,23.1385,
5,6.27281,1.38603,3.15334,4.12175,6.27418,1.97294,1.55572,0.00138305,0.0280901,6.88867e-05,0.11074,1.58729e-05,0.0345725,1.059e-05,0.339311,-3.26366,-0.343219,3.77149,0.420917,-11.4233,0.590069,-0.00846871,-19.2492,-0.381922,0.971647,-0.0404451,1.76983,-0.00168613,-1.8417e-06,0.000342975,-2.12417e-06,0.495336,0.00127353,0.072812,0.0260863,-0.000331095,-0.00946027,1.99843,1.15345e-05,0.005,1.77505,0.000326038,0.0133573,-0.0212563,4.39681,-0.0163655,1.56775,0.482201,-0.0417988,5.24391,0.130195,5.79767,0.230236,0.153076,0.209628,0.128906,-0.161334,-0.132996,-0.708996,-0.161183,23.479,23.3655,23.1952,23.3229,23.2378,23.3087,23.1669,
6,6.27282,1.38606,3.15334,4.12186,6.27418,1.97298,1.55572,0.00132985,0.0264696,6.88867e-05,0.10993,1.58729e-05,0.0378136,1.059e-05,0.340551,-3.36165,-0.346093,3.69812,0.423302,-11.8061,0.596524,-0.0081385,-19.3094,-0.383459,0.959701,-0.0404586,1.73153,-0.00144652,-2.66183e-06,0.000458802,-3.32517e-06,0.495336,0.00127353,0.072812,0.0261958,-0.000303121,-0.00845948,1.99791,1.43037e-05,0.005,1.77464,0.000310859,0.0130142,-0.0235365,4.75504,-0.0215504,1.54487,0.511606,-0.0246699,5.27657,0.123337,5.76041,0.217147,0.145243,0.209628,0.145243,-0.12085,-0.128969,-0.708984,-0.157156,23.4932,23.3655,23.1811,23.3087,23.2378,23.3087,23.1527,
7,6.27282,1.38608,3.15334,4.12196,6.27418,1.97302,1.55572,0.00121413,0.0253892,6.88867e-05,0.108579,1.58731e-05,0.0386183,1.05898e-05,0.342009,-3.48158,-0.348312,3.60805,0.429739,-12.2796,0.603718,-0.00774887,-19.3827,-0.385242,0.94487,-0.0404565,1.684,-0.00123719,-3.27845e-06,0.000578098,-3.53923e-06,0.495336,0.00127353,0.072812,0.0260334,-0.000256639,-0.00792055,1.9974,2.22069e-05,0.005,1.77408,0.000292795,0.0121135,-0.0254959,5.19867,-0.0249103,1.54487,0.544405,-0.0309431,5.3999,0.135709,5.72664,0.238532,0.145243,0.0809682,0.145243,-0.0889885,-0.129158,-0.704956,-0.169189,23.479,23.3655,23.1952,23.3087,23.2378,23.3087,23.1527,
8,6.27282,1.38611,3.15334,4.12208,6.27418,1.97306,1.55572,0.00121413,0.0225479,6.89389e-05,0.109837,1.58729e-05,0.041595,0,0.343255,-3.57618,-0.351828,3.53715,0.42989,-12.6508,0.609279,-0.00741859,-19.4411,-0.386784,0.933441,-0.0404864,1.64683,-0.0010593,-3.89519e-06,0.000700856,-4.85944e-06,0.495336,0.00127353,0.072812,0.0269996,-0.000242978,-0.00650211,1.99689,2.15767e-05,0.005,1.77377,0.000250394,0.0116285,-0.0271619,5.54616,-0.0318426,1.51793,0.632517,-0.0579669,5.51994,0.156181,5.70425,0.225682,0.161334,-0.129909,0.129158,-0.0332184,-0.124943,-0.680786,-0.157156,23.4932,23.3655,23.2094,23.3087,23.2378,23.2946,23.1669,
9,6.27282,1.38611,3.15334,4.12208,6.27418,1.97306,1.55572,0.00121413,0.0225479,6.89389e-05,0.109837,1.58729e-05,0.041595,0,0.345117,-3.7309,-0.354121,3.41967,0.439907,-13.2607,0.622084,-0.00692339,-19.5345,-0.389006,0.912771,-0.0404717,1.58563,-0.000446417,-5.53477e-06,0.000834398,-5.22158e-06,0.495336,0.00127353,0.072812,0.0269996,-0.000242978,-0.00650211,1.99631,2.8905e-05,0.005,1.77238,0.000244694,0.0103519,-0.0330885,6.11896,-0.0346005,1.51793,0.632517,-0.0579669,5.51994,0.156181,5.70425,0.225682,0.161334,-0.129909,0.129158,-0.0332184,-0.124943,-0.680786,-0.157156,23.4932,23.3655,23.2094,23.3087,23.2378,23.2946,23.1669,
10,6.27282,1.38612,3.15334,4.12219,6.27418,1.9731,1.55572,0.00120222,0.0145853,6.36359e-05,0.108199,1.58729e-05,0.0442511,0,0.345147,-3.72983,-0.354183,3.41831,0.439978,-13.2583,0.622097,-0.00691992,-19.5352,-0.389029,0.913313,-0.0404681,1.58555,-0.000446757,-5.53477e-06,0.000834398,-5.22158e-06,0.495336,0.00127353,0.072812,0.0282144,-0.00021864,-0.00303926,1.99631,2.8905e-05,0.005,1.77238,0.000244694,0.0103519,-0.0330885,6.11896,-0.0346005,1.524,0.746349,-0.043451,5.6763,0.183113,5.6665,0.250593,0.177246,-0.379433,0.129158,-0.00805664,-0.125138,-0.676758,-0.157156,23.479,23.3513,23.1811,23.3229,23.252,23.3087,23.1527,
11,6.27282,1.38612,3.15334,4.12219,6.27418,1.9731,1.55572,0.00120222,0.0145853,6.36359e-05,0.108199,1.58729e-05,0.0442511,0,0.347224,-3.8975,-0.356889,3.29066,0.450557,-13.9358,0.635255,-0.00636733,-19.6364,-0.391448,0.890828,-0.0404512,1.51705,0.000135721,-6.78553e-06,0.000970732,-6.14773e-06,0.495336,0.00127353,0.072812,0.0282144,-0.00021864,-0.00303926,1.99575,2.89336e-05,0.005,1.77079,0.000222816,0.00723533,-0.0386867,6.75649,-0.0381173,1.524,0.746349,-0.043451,5.6763,0.183113,5.6665,0.250593,0.177246,-0.379433,0.129158,-0.00805664,-0.125138,-0.676758,-0.157156,23.479,23.3513,23.1811,23.3229,23.252,23.3087,23.1527,
12,6.27282,1.38613,3.15334,4.12229,6.27418,1.97315,1.55572,0.00111369,0.00378136,5.82888e-05,0.10966,2.64549e-05,0.0473952,0,0.347235,-3.89639,-0.356935,3.28879,0.450615,-13.9328,0.635221,-0.00636921,-19.6374,-0.391479,0.891203,-0.0404487,1.51704,0.00013421,-6.78553e-06,0.000970732,-6.14773e-06,0.495336,0.00127353,0.072812,0.0309275,-0.000149212,0.00154397,1.99575,2.89336e-05,0.005,1.77079,0.000222816,0.00723533,-0.0386867,6.75649,-0.0381173,1.47438,0.834592,-0.00411695,5.76709,0.174588,5.61113,0.244896,0.177246,-0.459299,0.128906,0.0180152,-0.124878,-0.664722,-0.145075,23.4932,23.3655,23.2094,23.3229,23.2378,23.3229,23.1669,
13,6.27282,1.38612,3.15334,4.1224,6.27418,1.9732,1.55572,0.00110604,-0.00783283,5.82888e-05,0.11128,2.64549e-05,0.0502381,0,0.350273,-4.12612,-0.363493,3.10807,0.457633,-14.862,0.652733,-0.00556854,-19.7778,-0.395039,0.859782,-0.0404668,1.42248,0.00090833,-8.05441e-06,0.00112556,-8.60121e-06,0.495336,0.00127353,0.072812,0.0338585,-0.000112713,0.0064141,1.99514,2.49327e-05,0.005,1.76779,0.000156731,0.00311043,-0.0461084,7.63675,-0.0496426,1.49087,0.937337,-0.0254838,5.88709,0.151006,5.54996,0.243098,0.177246,-0.467563,0.107489,0.0227876,-0.120917,-0.660645,-0.157156,23.4932,23.3655,23.1811,23.3229,23.252,23.3087,23.1669,
14,6.27282,1.38612,3.15334,4.1224,6.27418,1.9732,1.55572,0.00110604,-0.00783283,5.82888e-05,0.11128,2.64549e-05,0.0502381,0,0.353269,-4.37095,-0.366643,2.91841,0.475344,-15.8501,0.670486,-0.0047713,-19.9256,-0.398516,0.826092,-0.0404271,1.32226,0.00160356,-9.03233e-06,0.00129253,-9.01702e-06,0.495336,0.00127353,0.072812,0.0338585,-0.000112713,0.0064141,1.99448,3.08966e-05,0.005,1.76456,0.000129249,-0.00127269,-0.0527456,8.56984,-0.0528371,1.49087,0.937337,-0.0254838,5.88709,0.151006,5.54996,0.243098,0.177246,-0.467563,0.107489,0.0227876,-0.120917,-0.660645,-0.157156,23.4932,23.3655,23.1811,23.3229,23.252,23.3087,23.1669,
15,6.27282,1.3861,3.15334,4.12252,6.27418,1.97325,1.55572,0.00110604,-0.0119634,5.03784e-05,0.112344,2.64549e-05,0.0550999,0,0.353305,-4.3702,-0.366725,2.91736,0.475438,-15.8483,0.670522,-0.00477094,-19.9265,-0.398545,0.827004,-0.0404225,1.32213,0.00160316,-9.03233e-06,0.00129253,-9.01702e-06,0.495336,0.00127353,0.072812,0.0350419,-9.13981e-05,0.0085489,1.99448,3.08966e-05,0.005,1.76456,0.000129249,-0.00127269,-0.0527456,8.56984,-0.0528371,1.44704,1.12423,-0.0270339,5.98949,0.184124,5.49924,0.233887,0.177246,-0.443188,0.0966797,0.0180152,-0.125138,-0.652588,-0.153076,23.479,23.3513,23.1811,23.3229,23.252,23.3087,23.1385,
16,6.27282,1.38608,3.15334,4.12264,6.27418,1.97331,1.55572,0.00110395,-0.0213377,5.03784e-05,0.113711,1.58729e-05,0.0578009,0,0.356016,-4.58894,-0.370863,2.74892,0.487495,-16.7135,0.68648,-0.00405893,-20,-0.401793,0.798242,-0.0404131,1.23499,0.00225823,-1.07049e-05,0.00148265,-1.02437e-05,0.495336,0.00127353,0.072812,0.0374237,-6.38141e-05,0.0125245,1.99372,2.86974e-05,0.005,1.76281,0.000108086,-0.00319401,-0.0590255,9.38485,-0.0587558,1.48075,1.40587,0.0137113,6.05707,0.209277,5.47018,0.244611,0.185303,-0.580134,0.112793,0.0322266,-0.121118,-0.672729,-0.141049,23.4648,23.3513,23.1952,23.3229,23.2378,23.2804,23.1527,
17,6.27282,1.38606,3.15334,4.12275,6.27419,1.97338,1.55572,0.00110395,-0.0256333,3.97423e-05,0.116682,2.64552e-05,0.0609367,1.059e-05,0.359025,-4.83088,-0.374587,2.56079,0.503575,-17.6841,0.703587,-0.00326677,-20,-0.405315,0.766015,-0.0403806,1.13657,0.00290492,-1.18398e-05,0.00167292,-1.1334e-05,0.495336,0.00127353,0.072812,0.0391922,-3.8981e-05,0.0145088,1.99298,2.95185e-05,0.005,1.76,8.39993e-05,-0.00677201,-0.0652026,10.3018,-0.0631612,1.46879,1.59216,0.0264429,6.06381,0.194261,5.437,0.236572,0.201577,-0.564483,0.0970148,0.0332184,-0.116891,-0.664673,-0.157156,23.479,23.3513,23.1811,23.3229,23.2236,23.2946,23.1669,
18,6.27283,1.38603,3.15334,4.12287,6.27419,1.97344,1.55572,0.00109578,-0.0292001,3.4443e-05,0.118722,2.64552e-05,0.0615822,1.059e-05,0.361966,-5.06344,-0.380144,2.38127,0.513212,-18.6027,0.719233,-0.00249371,-20,-0.408846,0.735601,-0.0403868,1.04396,0.00347868,-1.30542e-05,0.00187794,-1.36515e-05,0.495336,0.00127353,0.072812,0.0405363,-2.10451e-05,0.0159583,1.9922,2.47138e-05,0.005,1.75771,5.73253e-05,-0.00855789,-0.0706569,11.1674,-0.0722098,1.51251,1.88275,-0.00746107,6.05474,0.184103,5.40106,0.239715,0.201577,-0.67695,0.11308,0.0180152,-0.120917,-0.656616,-0.149048,23.479,23.3655,23.1811,23.3229,23.2236,23.2946,23.1385,
19,6.27283,1.38603,3.15334,4.12287,6.27419,1.97344,1.55572,0.00109578,-0.0292001,3.4443e-05,0.118722,2.64552e-05,0.0615822,1.059e-05,0.364412,-5.26566,-0.383494,2.22699,0.525224,-19.3967,0.733285,-0.00184295,-20,-0.411779,0.708439,-0.0403755,0.964311,0.00401793,-1.43112e-05,0.00208485,-1.4856e-05,0.495336,0.00127353,0.072812,0.0405363,-2.10451e-05,0.0159583,1.9914,2.48541e-05,0.005,1.75578,4.13093e-05,-0.0098625,-0.0758075,11.9136,-0.0767308,1.51251,1.88275,-0.00746107,6.05474,0.184103,5.40106,0.239715,0.201577,-0.67695,0.11308,0.0180152,-0.120917,-0.656616,-0.149048,23.479,23.3655,23.1811,23.3229,23.2236,23.2946,23.1385,
20,6.27283,1.38599,3.15334,4.12298,6.27419,1.9735,1.55572,0.00102052,-0.0333208,3.18179e-05,0.117763,2.64549e-05,0.0636784,1.059e-05,0.364435,-5.2644,-0.383547,2.22586,0.525309,-19.3943,0.733295,-0.00184646,-20,-0.4118,0.709504,-0.0403702,0.964107,0.00401719,-1.43112e-05,0.00208485,-1.4856e-05,0.495336,0.00127353,0.072812,0.0411301,1.97412e-05,0.0178348,1.9914,2.48541e-05,0.005,1.75578,4.13093e-05,-0.0098625,-0.0758075,11.9136,-0.0767308,1.43629,2.1313,-0.0234961,6.00326,0.176242,5.3654,0.224521,0.201416,-0.781536,0.0966797,0,-0.112865,-0.632446,-0.149102,23.479,23.3513,23.1811,23.3371,23.252,23.2946,23.1669,
21,6.27283,1.38595,3.15334,4.12311,6.27419,1.97356,1.55572,0.00110217,-0.0380837,2.91664e-05,0.120369,3.70369e-05,0.0648234,1.059e-05,0.366945,-5.46207,-0.388257,2.07467,0.533482,-20.1768,0.747266,-0.00119209,-20,-0.414812,0.684358,-0.0403816,0.885319,0.00457886,-1.58891e-05,0.00229907,-1.66575e-05,0.495336,0.00127353,0.072812,0.0428909,7.02984e-06,0.0198023,1.99058,1.89827e-05,0.005,1.75451,-6.82663e-07,-0.0115514,-0.0811787,12.6497,-0.0844776,1.48342,2.459,-0.0187514,5.95472,0.176169,5.33626,0.227386,0.201577,-0.862061,0.105046,0.0161133,-0.116891,-0.628431,-0.137022,23.4648,23.3229,23.1811,23.3087,23.2378,23.2946,23.1669,
22,6.27283,1.38591,3.15334,4.12323,6.27419,1.97363,1.55572,0.00110064,-0.0429455,1.85464e-05,0.121814,4.23278e-05,0.066444,0,0.369828,-5.6967,-0.391929,1.8925,0.548886,-21.1032,0.765161,-0.000436729,-20,-0.41824,0.653479,-0.0403487,0.791823,0.00533785,-1.7742e-05,0.0025282,-1.8475e-05,0.495336,0.00127353,0.072812,0.0443364,2.74388e-05,0.0218805,1.98968,2.03308e-05,0.005,1.75211,1.19709e-05,-0.0133221,-0.0884919,13.5238,-0.0886566,1.43185,2.68583,-0.0109595,5.88291,0.205668,5.32447,0.233908,0.209628,-0.918457,0.088623,0.0161133,-0.117099,-0.608276,-0.141508,23.4932,23.3513,23.1669,23.3087,23.2378,23.2946,23.1527,
23,6.27283,1.38586,3.15334,4.12335,6.27419,1.9737,1.55572,0.00109463,-0.0480774,1.32474e-05,0.121421,4.23282e-05,0.0689613,0,0.372682,-5.92565,-0.396442,1.71536,0.561077,-22.0085,0.783659,0.000309088,-20,-0.421648,0.6236,-0.0403394,0.700438,0.0062038,-1.98948e-05,0.00275627,-2.03718e-05,0.495336,0.00127353,0.072812,0.0453071,4.56394e-05,0.0241938,1.98881,1.55731e-05,0.005,1.75003,-1.06792e-05,-0.0151924,-0.0968506,14.3774,-0.095253,1.46213,3.01461,-0.0109595,5.70249,0.241282,5.28467,0.230363,0.209473,-0.950684,0.107489,0.00805664,-0.112865,-0.600233,-0.141049,23.479,23.3371,23.1811,23.2946,23.2236,23.2946,23.1669,
24,6.27283,1.38586,3.15334,4.12335,6.27419,1.9737,1.55572,0.00109463,-0.0480774,1.32474e-05,0.121421,4.23282e-05,0.0689613,0,0.375516,-6.15952,-0.400244,1.53859,0.575258,-22.932,0.799606,0.00106301,-20,-0.425035,0.592675,-0.0403245,0.607827,0.00679131,-2.13616e-05,0.00299659,-2.17932e-05,0.495336,0.00127353,0.072812,0.0453071,4.56394e-05,0.0241938,1.98792,1.44022e-05,0.005,1.74835,-2.81135e-05,-0.0172744,-0.102448,15.2439,-0.100298,1.46213,3.01461,-0.0109595,5.70249,0.241282,5.28467,0.230363,0.209473,-0.950684,0.107489,0.00805664,-0.112865,-0.600233,-0.141049,23.479,23.3371,23.1811,23.2946,23.2236,23.2946,23.1669,
25,6.27283,1.38581,3.15334,4.12347,6.27419,1.97377,1.55572,0.00101914,-0.0526118,2.65149e-06,0.124101,4.23282e-05,0.0686048,0,0.375545,-6.1578,-0.400316,1.53716,0.575343,-22.9289,0.799613,0.00106043,-20,-0.425066,0.593811,-0.0403186,0.607672,0.00679028,-2.13616e-05,0.00299659,-2.17932e-05,0.495336,0.00127353,0.072812,0.047039,9.36274e-05,0.025913,1.98792,1.44022e-05,0.005,1.74835,-2.81135e-05,-0.0172744,-0.102448,15.2439,-0.100298,1.36363,3.31046,-0.0122903,5.52522,0.225957,5.21187,0.248773,0.217529,-0.974887,0.0809682,0.0290486,-0.112793,-0.600233,-0.129158,23.4932,23.3513,23.1669,23.3229,23.2378,23.2946,23.1527,
26,6.27283,1.38581,3.15334,4.12347,6.27419,1.97377,1.55572,0.00101914,-0.0526118,2.65149e-06,0.124101,4.23282e-05,0.0686048,0,0.378464,-6.39298,-0.405471,1.35686,0.585684,-23.853,0.817816,0.00183705,-20,-0.428568,0.56203,-0.0403302,0.514868,0.00762613,-2.34635e-05,0.00324238,-2.37854e-05,0.495336,0.00127353,0.072812,0.047039,9.36274e-05,0.025913,1.98697,5.71433e-06,0.005,1.74594,-7.91218e-05,-0.0188217,-0.110496,16.1132,-0.108758,1.36363,3.31046,-0.0122903,5.52522,0.225957,5.21187,0.248773,0.217529,-0.974887,0.0809682,0.0290486,-0.112793,-0.600233,-0.129158,23.4932,23.3513,23.1669,23.3229,23.2378,23.2946,23.1527,
27,6.27283,1.38575,3.15334,4.1236,6.27419,1.97384,1.55572,0.00106268,-0.0594214,0,0.125738,5.29103e-05,0.0712335,0,0.378491,-6.39139,-0.405579,1.35468,0.58577,-23.8492,0.817797,0.00182876,-20,-0.428599,0.56279,-0.0403268,0.514761,0.00762456,-2.34635e-05,0.00324238,-2.37854e-05,0.495336,0.00127353,0.072812,0.0489514,0.00010073,0.0288686,1.98697,5.71433e-06,0.005,1.74594,-7.91218e-05,-0.0188217,-0.110496,16.1132,-0.108758,1.39238,3.70288,0.00534914,5.33002,0.215994,5.15411,0.247843,0.217678,-0.991,0.072956,0.0180152,-0.108765,-0.563979,-0.136963,23.5074,23.3371,23.1952,23.3229,23.2378,23.3087,23.1385,
28,6.27283,1.38568,3.15334,4.12373,6.27419,1.97391,1.55572,0.00106385,-0.066444,-7.94839e-06,0.128393,5.29098e-05,0.0723861,0,0.381878,-6.66228,-0.410778,1.14384,0.600927,-24.9251,0.83813,0.00271529,-20,-0.432633,0.526987,-0.040307,0.406015,0.00847961,-2.55033e-05,0.0034956,-2.61922e-05,0.495336,0.00127353,0.072812,0.0512024,0.000125384,0.0317362,1.986,1.87331e-06,0.005,1.74335,-8.89712e-05,-0.0214817,-0.118706,17.1292,-0.116005,1.34212,3.943,0.0216665,5.12125,0.234315,5.14728,0.24266,0.209628,-0.967099,0.0725098,-0.00805664,-0.108765,-0.555908,-0.128906,23.479,23.3513,23.1669,23.3371,23.2236,23.2946,23.1243,
29,6.27283,1.38561,3.15334,4.12386,6.27419,1.97399,1.55572,0.00102671,-0.0718459,-1.32474e-05,0.131808,5.29098e-05,0.0717198,1.059e-05,0.38538,-6.94585,-0.415391,0.922546,0.618782,-26.0501,0.859388,0.00363427,-20,-0.436797,0.48941,-0.040279,0.292259,0.00937334,-2.75564e-05,0.00376895,-2.78238e-05,0.495336,0.00127353,0.072812,0.0533286,0.000159676,0.033757,1.98494,-2.25136e-06,0.005,1.74036,-0.000114872,-0.0240626,-0.127301,18.1921,-0.121851,1.38502,4.34159,0.0693882,4.80594,0.239996,5.0964,0.218138,0.22573,-0.918775,0.0805664,-0.0402832,-0.104736,-0.53981,-0.133178,23.479,23.3655,23.1811,23.2946,23.2236,23.2946,23.1669,
30,6.27283,1.38561,3.15334,4.12386,6.27419,1.97399,1.55572,0.00102671,-0.0718459,-1.32474e-05,0.131808,5.29098e-05,0.0717198,1.059e-05,0.388674,-7.21373,-0.420631,0.716538,0.632474,-27.1034,0.877159,0.00451047,-20,-0.440742,0.453079,-0.040278,0.186403,0.0100137,-2.89394e-05,0.00404562,-3.00347e-05,0.495336,0.00127353,0.072812,0.0533286,0.000159676,0.033757,1.98389,-1.21843e-05,0.005,1.7375,-0.000154674,-0.0258813,-0.133382,19.1836,-0.129835,1.38502,4.34159,0.0693882,4.80594,0.239996,5.0964,0.218138,0.22573,-0.918775,0.0805664,-0.0402832,-0.104736,-0.53981,-0.133178,23.479,23.3655,23.1811,23.2946,23.2236,23.2946,23.1669,
31,6.27283,1.38553,3.15334,4.124,6.27419,1.97406,1.55572,0.000993593,-0.0774875,-2.38635e-05,0.134509,6.34917e-05,0.0723861,1.059e-05,0.388711,-7.21166,-0.420741,0.71446,0.632554,-27.0992,0.877146,0.00450515,-20,-0.440778,0.454201,-0.0402715,0.186261,0.0100117,-2.89394e-05,0.00404562,-3.00347e-05,0.495336,0.00127353,0.072812,0.0552986,0.00019597,0.036028,1.98389,-1.21843e-05,0.005,1.7375,-0.000154674,-0.0258813,-0.133382,19.1836,-0.129835,1.24414,4.66248,0.0665496,4.59021,0.215037,5.00804,0.221617,0.233643,-0.926549,0.0649547,-0.088623,-0.104736,-0.515641,-0.128969,23.479,23.3371,23.1669,23.3087,23.2378,23.2946,23.1669,
32,6.27284,1.38545,3.15334,4.12413,6.27419,1.97413,1.55572,0.000993532,-0.0791386,-2.65149e-05,0.132348,6.34924e-05,0.0704954,1.0598e-05,0.392239,-7.49118,-0.426873,0.497994,0.645648,-28.2053,0.900059,0.00542323,-20,-0.444975,0.418245,-0.0402721,0.0744594,0.0111106,-3.18147e-05,0.00433187,-3.26499e-05,0.495336,0.00127353,0.072812,0.0550181,0.000192547,0.0365317,1.98277,-2.04452e-05,0.005,1.73472,-0.000194774,-0.0279252,-0.143983,20.2267,-0.139465,1.31124,5.08934,0.0782977,4.36297,0.2215,4.89419,0.203611,0.22573,-0.902667,0.0809682,-0.129909,-0.100708,-0.491472,-0.12085,23.479,23.3371,23.1527,23.3371,23.252,23.2946,23.1527,
33,6.27284,1.38537,3.15334,4.12426,6.27419,1.9742,1.55572,0.00102671,-0.0823797,-3.17939e-05,0.128644,6.34917e-05,0.0689613,1.059e-05,0.394485,-7.67562,-0.429345,0.357778,0.658672,-28.928,0.913432,0.00599822,-20,-0.447646,0.396055,-0.0402488,0.00177911,0.0116416,-3.36844e-05,0.00460987,-3.41364e-05,0.495336,0.00127353,0.072812,0.0546278,0.000177383,0.0377305,1.98169,-2.32956e-05,0.005,1.734,-0.000194258,-0.0283786,-0.149079,20.9053,-0.141888,1.26721,5.36022,0.0850244,4.19546,0.219154,4.84269,0.218555,0.234198,-0.966797,0.0644531,-0.105046,-0.100789,-0.45119,-0.116891,23.479,23.3371,23.1811,23.3087,23.252,23.2946,23.1527,
34,6.27284,1.38537,3.15334,4.12426,6.27419,1.9742,1.55572,0.00102671,-0.0823797,-3.17939e-05,0.128644,6.34917e-05,0.0689613,1.059e-05,0.396802,-7.87398,-0.431496,0.210044,0.673527,-29.7044,0.929201,0.00661458,-20,-0.450447,0.370487,-0.0402211,-0.0756402,0.0123572,-3.61604e-05,0.00490093,-3.58465e-05,0.495336,0.00127353,0.072812,0.0546278,0.000177383,0.0377305,1.98055,-2.96627e-05,0.005,1.73333,-0.000186341,-0.0294575,-0.156004,21.6313,-0.143556,1.26721,5.36022,0.0850244,4.19546,0.219154,4.84269,0.218555,0.234198,-0.966797,0.0644531,-0.105046,-0.100789,-0.45119,-0.116891,23.479,23.3371,23.1811,23.3087,23.252,23.2946,23.1527,
35,6.27284,1.38529,3.15334,4.12439,6.27419,1.97427,1.55572,0.000927354,-0.0861611,-3.70929e-05,0.127087,6.34924e-05,0.0645533,1.059e-05,0.39681,-7.87133,-0.431526,0.209374,0.673591,-29.7011,0.929166,0.0066029,-20,-0.450458,0.372363,-0.0402157,-0.0760041,0.0123559,-3.61604e-05,0.00490093,-3.58465e-05,0.495336,0.00127353,0.072812,0.0549727,0.00021606,0.0388015,1.98055,-2.96627e-05,0.005,1.73333,-0.000186341,-0.0294575,-0.156004,21.6313,-0.143556,1.27534,5.82915,0.118404,3.88414,0.226048,4.70618,0.211672,0.22573,-0.98291,0.0563965,-0.0254773,-0.0926514,-0.422993,-0.124943,23.4648,23.3513,23.1669,23.3229,23.2378,23.2946,23.1527,
36,6.27284,1.38519,3.15334,4.12451,6.27419,1.97433,1.55572,0.000927354,-0.0881875,-4.5075e-05,0.123435,7.40737e-05,0.0617897,1.059e-05,0.399128,-8.05258,-0.435763,0.0700653,0.681259,-30.4173,0.943131,0.00719686,-20,-0.453207,0.350273,-0.0402252,-0.148383,0.0129882,-3.80622e-05,0.00517494,-3.82512e-05,0.495336,0.00127353,0.072812,0.05434,0.000211318,0.0393874,1.97947,-4.08498e-05,0.005,1.73204,-0.000231219,-0.0304214,-0.162091,22.3056,-0.150522,1.14286,6.18252,0.0851302,3.7017,0.212906,4.54399,0.216507,0.233643,-0.991262,0.0563965,0.0241699,-0.100789,-0.358521,-0.124943,23.479,23.3513,23.1811,23.3087,23.2378,23.2946,23.1385,
37,6.27284,1.38519,3.15334,4.12451,6.27419,1.97433,1.55572,0.000927354,-0.0881875,-4.5075e-05,0.123435,7.40737e-05,0.0617897,1.059e-05,0.40115,-8.22163,-0.43865,-0.0553946,0.690913,-31.0754,0.957742,0.00773443,-20,-0.455672,0.32861,-0.0402205,-0.21384,0.0137313,-4.07028e-05,0.00545134,-4.05345e-05,0.495336,0.00127353,0.072812,0.05434,0.000211318,0.0393874,1.97837,-4.73011e-05,0.005,1.73162,-0.000232757,-0.0309487,-0.169305,22.9202,-0.154504,1.14286,6.18252,0.0851302,3.7017,0.212906,4.54399,0.216507,0.233643,-0.991262,0.0563965,0.0241699,-0.100789,-0.358521,-0.124943,23.479,23.3513,23.1811,23.3087,23.2378,23.2946,23.1385,
38,6.27284,1.38511,3.15334,4.12464,6.27419,1.97438,1.55572,0.000904988,-0.0864312,-5.03789e-05,0.121121,7.40178e-05,0.0567205,1.0598e-05,0.401186,-8.21926,-0.438717,-0.0548461,0.691001,-31.0736,0.957776,0.00772146,-20,-0.455674,0.331405,-0.040215,-0.214359,0.0137316,-4.07028e-05,0.00545134,-4.05345e-05,0.495336,0.00127353,0.072812,0.053295,0.000204655,0.0382063,1.97837,-4.73011e-05,0.005,1.73162,-0.000232757,-0.0309487,-0.169305,22.9202,-0.154504,1.1947,6.59184,0.124323,3.54494,0.220857,4.40888,0.226779,0.241699,-1.02348,0.0644531,0.0889885,-0.0934362,-0.314235,-0.117099,23.479,23.3371,23.1669,23.2946,23.252,23.2946,23.1385,
39,6.27284,1.38502,3.15334,4.12476,6.27419,1.97444,1.55572,0.000904988,-0.085891,-5.82888e-05,0.120193,7.40737e-05,0.0550999,1.85324e-05,0.402732,-8.34658,-0.440733,-0.150088,0.698878,-31.5605,0.967624,0.00810994,-20,-0.457553,0.317309,-0.0402077,-0.262871,0.0141729,-4.26333e-05,0.00572136,-4.23287e-05,0.495336,0.00127353,0.072812,0.0529078,0.000201006,0.0378479,1.97726,-5.41776e-05,0.005,1.73157,-0.00023295,-0.0298856,-0.173562,23.3751,-0.156954,1.12436,6.85404,0.124323,3.37595,0.217511,4.26738,0.217517,0.233643,-1.12793,0.072956,0.12085,-0.0970148,-0.249756,-0.128906,23.4506,23.3371,23.1811,23.3087,23.2378,23.2946,23.1385,
40,6.27284,1.38494,3.15334,4.12488,6.27419,1.97449,1.55572,0.000881355,-0.085891,-5.82888e-05,0.121544,8.46557e-05,0.0529121,1.85326e-05,0.404703,-8.51205,-0.44293,-0.275632,0.710301,-32.2022,0.978348,0.00861444,-20,-0.459963,0.297732,-0.0401906,-0.327111,0.0145325,-4.40625e-05,0.00597859,-4.35432e-05,0.495336,0.00127353,0.072812,0.0532937,0.000210776,0.0376049,1.97622,-5.929e-05,0.005,1.73098,-0.000234267,-0.0295631,-0.177011,23.977,-0.159219,1.15146,7.11028,0.166023,3.19549,0.201133,4.05495,0.207479,0.233643,-1.20055,0.0649547,0.14502,-0.0934362,-0.213501,-0.116891,23.479,23.3513,23.1669,23.2946,23.2236,23.2946,23.1385,
41,6.27284,1.38484,3.15334,4.125,6.27419,1.97454,1.55572,0.000822553,-0.0892736,-6.36359e-05,0.122084,8.46565e-05,0.0521288,1.85322e-05,0.407055,-8.69777,-0.44758,-0.419236,0.717277,-32.9234,0.99296,0.0092215,-20,-0.462821,0.274521,-0.0402018,-0.399537,0.0152143,-4.6334e-05,0.00623941,-4.62167e-05,0.495336,0.00127353,0.072812,0.0541599,0.000242864,0.0388667,1.97517,-6.78387e-05,0.005,1.72969,-0.000250753,-0.0293444,-0.183596,24.6561,-0.166915,1.06512,7.33644,0.156091,3.11503,0.209355,3.86228,0.198084,0.233781,-1.25686,0.0649547,0.113938,-0.0926514,-0.177658,-0.112865,23.479,23.3229,23.1811,23.2946,23.2236,23.2804,23.1385,
42,6.27284,1.38484,3.15334,4.125,6.27419,1.97454,1.55572,0.000822553,-0.0892736,-6.36359e-05,0.122084,8.46565e-05,0.0521288,1.85322e-05,0.409782,-8.91892,-0.452329,-0.587784,0.727222,-33.7894,1.01055,0.00994674,-20,-0.466113,0.245022,-0.0402125,-0.486303,0.0160481,-4.88177e-05,0.00650583,-4.84742e-05,0.495336,0.00127353,0.072812,0.0541599,0.000242864,0.0388667,1.97407,-8.18312e-05,0.005,1.72792,-0.000292226,-0.03048,-0.191638,25.4696,-0.174629,1.06512,7.33644,0.156091,3.11503,0.209355,3.86228,0.198084,0.233781,-1.25686,0.0649547,0.113938,-0.0926514,-0.177658,-0.112865,23.479,23.3229,23.1811,23.2946,23.2236,23.2804,23.1385,
43,6.27284,1.38475,3.15334,4.12513,6.27419,1.97459,1.55572,0.000796514,-0.0922797,-6.35877e-05,0.123513,8.46557e-05,0.0502381,1.85464e-05,0.409804,-8.9165,-0.452408,-0.588932,0.727296,-33.7859,1.01054,0.00993345,-20,-0.466135,0.246811,-0.0402072,-0.486564,0.0160483,-4.88177e-05,0.00650583,-4.84742e-05,0.495336,0.00127353,0.072812,0.0552038,0.000259759,0.0398478,1.97407,-8.18312e-05,0.005,1.72792,-0.000292226,-0.03048,-0.191638,25.4696,-0.174629,1.08711,7.65032,0.175525,3.00069,0.237033,3.67824,0.199674,0.241699,-1.21666,0.0563965,0.0809682,-0.0854536,-0.157156,-0.104814,23.4648,23.3513,23.1669,23.3087,23.2236,23.2804,23.1385,
44,6.27284,1.38466,3.15334,4.12525,6.27419,1.97464,1.55572,0.000796514,-0.0958846,-6.35877e-05,0.120193,8.46565e-05,0.0501872,1.85324e-05,0.412496,-9.13498,-0.456188,-0.758769,0.74026,-34.6441,1.02689,0.0106261,-20,-0.469351,0.218964,-0.0401934,-0.573219,0.0167454,-5.08267e-05,0.00677745,-5.01979e-05,0.495336,0.00127353,0.072812,0.0550008,0.000260264,0.0413409,1.97293,-8.88511e-05,0.005,1.72595,-0.000313749,-0.031363,-0.198338,26.2793,-0.1797,0.98511,7.86843,0.178073,2.89007,0.223887,3.49944,0.176353,0.233781,-1.20055,0.0569691,0.0569691,-0.0887145,-0.121118,-0.117099,23.4648,23.3087,23.1811,23.3087,23.2236,23.2946,23.1385,
45,6.27284,1.38456,3.15334,4.12536,6.27419,1.9747,1.55572,0.000780128,-0.100476,-6.88867e-05,0.117222,8.99466e-05,0.0481475,2.91224e-05,0.414837,-9.32718,-0.458964,-0.905435,0.753317,-35.4055,1.04103,0.0112282,-20,-0.47215,0.195453,-0.0401714,-0.64999,0.0173205,-5.27677e-05,0.00704001,-5.17761e-05,0.495336,0.00127353,0.072812,0.055107,0.000269006,0.0430091,1.97184,-9.5476e-05,0.005,1.72516,-0.000320166,-0.0327068,-0.203872,26.9953,-0.182786,1.03533,8.10653,0.188777,2.7378,0.194436,3.29161,0.182018,0.241699,-1.16846,0.0649547,0.121118,-0.0966797,-0.100789,-0.11308,23.479,23.3371,23.1811,23.2804,23.2378,23.2662,23.1385,
46,6.27284,1.38445,3.15334,4.12548,6.27419,1.97474,1.55572,0.000696543,-0.10432,-7.15362e-05,0.116952,8.99466e-05,0.0453764,2.91224e-05,0.417172,-9.51562,-0.462197,-1.05042,0.76474,-36.1545,1.05302,0.0118304,-20,-0.47494,0.172237,-0.0401555,-0.725661,0.0176997,-5.38766e-05,0.00730603,-5.38365e-05,0.495336,0.00127353,0.072812,0.0558356,0.000306246,0.0442587,1.97076,-0.000103269,0.005,1.72408,-0.000335047,-0.0342082,-0.207458,27.7009,-0.187061,0.947809,8.33286,0.170619,2.68702,0.217295,3.08171,0.172467,0.249756,-1.13599,0.0509547,0.153288,-0.088623,-0.0563965,-0.0967636,23.4506,23.3087,23.1669,23.3087,23.2236,23.2804,23.1385,
47,6.27284,1.38445,3.15334,4.12548,6.27419,1.97474,1.55572,0.000696543,-0.10432,-7.15362e-05,0.116952,8.99466e-05,0.0453764,2.91224e-05,0.419691,-9.72055,-0.466384,-1.20694,0.774492,-36.9578,1.06939,0.0124999,-20,-0.477976,0.144847,-0.0401636,-0.806193,0.0184809,-5.62211e-05,0.00757672,-5.58859e-05,0.495336,0.00127353,0.072812,0.0558356,0.000306246,0.0442587,1.96962,-0.000116027,0.005,1.72241,-0.000380046,-0.0353329,-0.214994,28.4559,-0.193767,0.947809,8.33286,0.170619,2.68702,0.217295,3.08171,0.172467,0.249756,-1.13599,0.0509547,0.153288,-0.088623,-0.0563965,-0.0967636,23.4506,23.3087,23.1669,23.3087,23.2236,23.2804,23.1385,
48,6.27284,1.38435,3.15334,4.1256,6.27419,1.97478,1.55572,0.000668681,-0.102907,-7.15904e-05,0.114601,8.99466e-05,0.0434857,2.91444e-05,0.419737,-9.71852,-0.466479,-1.20691,0.774585,-36.9557,1.06944,0.0124844,-20,-0.477981,0.147505,-0.0401569,-0.806664,0.0184819,-5.62211e-05,0.00757672,-5.58859e-05,0.495336,0.00127353,0.072812,0.0548525,0.000306044,0.0435503,1.96962,-0.000116027,0.005,1.72241,-0.000380046,-0.0353329,-0.214994,28.4559,-0.193767,0.954462,8.6625,0.212382,2.64504,0.253462,2.87971,0.189081,0.249886,-1.09597,0.0490066,0.14502,-0.0805664,-0.0281982,-0.108765,23.479,23.3229,23.1669,23.3087,23.2236,23.2804,23.1385,
49,6.27284,1.38435,3.15334,4.1256,6.27419,1.97478,1.55572,0.000668681,-0.102907,-7.15904e-05,0.114601,8.99466e-05,0.0434857,2.91444e-05,0.421533,-9.87248,-0.468891,-1.32064,0.7836,-37.5446,1.08054,0.0129621,-20,-0.480215,0.127979,-0.0401564,-0.864847,0.0189474,-5.82592e-05,0.00784275,-5.73999e-05,0.495336,0.00127353,0.072812,0.0548525,0.000306044,0.0435503,1.96849,-0.000122877,0.005,1.72227,-0.00038603,-0.0346952,-0.219477,29.0045,-0.197022,0.954462,8.6625,0.212382,2.64504,0.253462,2.87971,0.189081,0.249886,-1.09597,0.0490066,0.14502,-0.0805664,-0.0281982,-0.108765,23.479,23.3229,23.1669,23.3087,23.2236,23.2804,23.1385,
50,6.27284,1.38425,3.15334,4.12571,6.27419,1.97483,1.55572,0.000643377,-0.100374,-7.68352e-05,0.113171,0.000100453,0.0432156,2.91224e-05,0.421604,-9.87081,-0.469018,-1.32075,0.783679,-37.5428,1.08058,0.0129532,-20,-0.480225,0.130502,-0.0401489,-0.865279,0.0189451,-5.82592e-05,0.00784275,-5.73999e-05,0.495336,0.00127353,0.072812,0.0538985,0.000309452,0.0425524,1.96849,-0.000122877,0.005,1.72227,-0.00038603,-0.0346952,-0.219477,29.0045,-0.197022,0.836492,8.9015,0.226047,2.59496,0.223812,2.67775,0.17824,0.241833,-1.1763,0.0490066,0.177429,-0.0849775,-0.00805664,-0.108765,23.4648,23.3229,23.1669,23.3087,23.2094,23.2946,23.1385,
51,6.27284,1.38415,3.15334,4.12582,6.27419,1.97486,1.55572,0.000640819,-0.0999361,-7.68352e-05,0.113326,0.00010053,0.0394342,2.91224e-05,0.423556,-10.0256,-0.473168,-1.43676,0.788552,-38.139,1.0941,0.0134476,-20,-0.482629,0.112962,-0.0401683,-0.924715,0.0196578,-6.11332e-05,0.00809624,-5.98713e-05,0.495336,0.00127353,0.072812,0.0538471,0.000303763,0.0419875,1.96743,-0.000134253,0.005,1.72217,-0.000399335,-0.0337972,-0.22637,29.562,-0.204152,0.889609,9.11568,0.219634,2.55424,0.210265,2.40672,0.171073,0.241699,-1.27305,0.0644531,0.209628,-0.0805664,0.0161133,-0.100708,23.4506,23.3371,23.1669,23.2946,23.1952,23.2804,23.1243,
52,6.27284,1.38415,3.15334,4.12582,6.27419,1.97486,1.55572,0.000640819,-0.0999361,-7.68352e-05,0.113326,0.00010053,0.0394342,2.91224e-05,0.425337,-10.1792,-0.475107,-1.55299,0.798994,-38.728,1.10589,0.0139209,-20,-0.484824,0.0927524,-0.0401564,-0.983268,0.0201854,-6.30613e-05,0.00834575,-6.12135e-05,0.495336,0.00127353,0.072812,0.0538471,0.000303763,0.0419875,1.96636,-0.000140428,0.005,1.72126,-0.000399772,-0.0332888,-0.231481,30.1137,-0.2062,0.889609,9.11568,0.219634,2.55424,0.210265,2.40672,0.171073,0.241699,-1.27305,0.0644531,0.209628,-0.0805664,0.0161133,-0.100708,23.4506,23.3371,23.1669,23.2946,23.1952,23.2804,23.1243,
53,6.27284,1.38404,3.15334,4.12594,6.27419,1.9749,1.55572,0.000585096,-0.0998058,-7.68344e-05,0.115062,0.000111111,0.0358262,3.70648e-05,0.425364,-10.1768,-0.47518,-1.55333,0.799039,-38.7253,1.10584,0.0139058,-20,-0.484839,0.0950455,-0.040151,-0.983598,0.0201821,-6.30613e-05,0.00834575,-6.12135e-05,0.495336,0.00127353,0.072812,0.0543175,0.000324615,0.0415379,1.96636,-0.000140428,0.005,1.72126,-0.000399772,-0.0332888,-0.231481,30.1137,-0.2062,0.771861,9.34459,0.218953,2.61279,0.238889,2.19401,0.13289,0.234198,-1.30528,0.0586532,0.185303,-0.0765381,0.0565402,-0.100789,23.4648,23.3229,23.1669,23.2804,23.2094,23.2804,23.1243,
54,6.27284,1.38404,3.15334,4.12594,6.27419,1.9749,1.55572,0.000585096,-0.0998058,-7.68344e-05,0.115062,0.000111111,0.0358262,3.70648e-05,0.427558,-10.3528,-0.480016,-1.68777,0.803843,-39.4023,1.1176,0.0144891,-20,-0.48754,0.0715353,-0.0401789,-1.05109,0.02064,-6.45679e-05,0.00860338,-6.40717e-05,0.495336,0.00127353,0.072812,0.0543175,0.000324615,0.0415379,1.96526,-0.000153271,0.005,1.71985,-0.000430097,-0.0328841,-0.235825,30.7492,-0.214851,0.771861,9.34459,0.218953,2.61279,0.238889,2.19401,0.13289,0.234198,-1.30528,0.0586532,0.185303,-0.0765381,0.0565402,-0.100789,23.4648,23.3229,23.1669,23.2804,23.2094,23.2804,23.1243,
55,6.27284,1.38395,3.15334,4.12605,6.27419,1.97493,1.55572,0.000557234,-0.0972351,-7.6836e-05,0.114521,0.00010582,0.0329519,3.70648e-05,0.427602,-10.3507,-0.480104,-1.68763,0.803922,-39.4004,1.11765,0.0144742,-20,-0.487547,0.0741472,-0.0401725,-1.05151,0.0206415,-6.45679e-05,0.00860338,-6.40717e-05,0.495336,0.00127353,0.072812,0.0536153,0.000323751,0.0402336,1.96526,-0.000153271,0.005,1.71985,-0.000430097,-0.0328841,-0.235825,30.7492,-0.214851,0.790694,9.65492,0.262402,2.59621,0.297109,1.99152,0.169937,0.22573,-1.34546,0.0649547,0.128906,-0.080667,0.104814,-0.0926514,23.4506,23.3371,23.1669,23.2946,23.2236,23.2804,23.1385,
56,6.27284,1.38395,3.15334,4.12605,6.27419,1.97493,1.55572,0.000557234,-0.0972351,-7.6836e-05,0.114521,0.00010582,0.0329519,3.70648e-05,0.429143,-10.4845,-0.482088,-1.78726,0.811934,-39.9063,1.12751,0.0148839,-20,-0.489482,0.0569839,-0.0401723,-1.10142,0.0210722,-6.6477e-05,0.00884464,-6.53257e-05,0.495336,0.00127353,0.072812,0.0536153,0.000323751,0.0402336,1.9642,-0.000159161,0.005,1.71953,-0.000434621,-0.0317103,-0.239987,31.2211,-0.217442,0.790694,9.65492,0.262402,2.59621,0.297109,1.99152,0.169937,0.22573,-1.34546,0.0649547,0.128906,-0.080667,0.104814,-0.0926514,23.4506,23.3371,23.1669,23.2946,23.2236,23.2804,23.1385,
57,6.27284,1.38385,3.15334,4.12617,6.2742,1.97496,1.55572,0.000531485,-0.0991258,-7.68352e-05,0.116106,0.000116402,0.0297107,3.70648e-05,0.429164,-10.482,-0.482162,-1.788,0.811964,-39.903,1.12743,0.014869,-20,-0.4895,0.0590114,-0.040168,-1.10169,0.0210685,-6.6477e-05,0.00884464,-6.53257e-05,0.495336,0.00127353,0.072812,0.0544693,0.00033738,0.0406282,1.9642,-0.000159161,0.005,1.71953,-0.000434621,-0.0317103,-0.239987,31.2211,-0.217442,0.693478,9.89368,0.263175,2.55599,0.275191,1.7943,0.156504,0.233643,-1.44216,0.0569691,0.12085,-0.076961,0.136963,-0.104736,23.4648,23.3371,23.1527,23.3087,23.2094,23.2662,23.1385,
58,6.27284,1.38385,3.15334,4.12617,6.2742,1.97496,1.55572,0.000531485,-0.0991258,-7.68352e-05,0.116106,0.000116402,0.0297107,3.70648e-05,0.431489,-10.6687,-0.48677,-1.93176,0.818797,-40.6292,1.14313,0.015487,-20,-0.492328,0.0337887,-0.0401835,-1.17443,0.0218625,-6.89099e-05,0.00909508,-6.81673e-05,0.495336,0.00127353,0.072812,0.0544693,0.00033738,0.0406282,1.96308,-0.000171791,0.005,1.71775,-0.000458253,-0.0320654,-0.24766,31.9043,-0.225263,0.693478,9.89368,0.263175,2.55599,0.275191,1.7943,0.156504,0.233643,-1.44216,0.0569691,0.12085,-0.076961,0.136963,-0.104736,23.4648,23.3371,23.1527,23.3087,23.2094,23.2662,23.1385,
59,6.27284,1.38375,3.15334,4.12629,6.2742,1.97499,1.55572,0.000473649,-0.102637,-7.67192e-05,0.115872,0.000116402,0.0291705,3.70648e-05,0.431507,-10.6665,-0.486838,-1.93288,0.818849,-40.6259,1.1431,0.0154718,-20,-0.492343,0.0354698,-0.040178,-1.17468,0.0218622,-6.89099e-05,0.00909508,-6.81673e-05,0.495336,0.00127353,0.072812,0.0551379,0.000366568,0.0419822,1.96308,-0.000171791,0.005,1.71775,-0.000458253,-0.0320654,-0.24766,31.9043,-0.225263,0.715463,10.1486,0.246926,2.48953,0.268815,1.5476,0.158267,0.241833,-1.41806,0.0664368,0.0809682,-0.0726216,0.169189,-0.0967636,23.4648,23.3087,23.1527,23.2946,23.2094,23.2804,23.1385,
60,6.27284,1.38375,3.15334,4.12629,6.2742,1.97499,1.55572,0.000473649,-0.102637,-7.67192e-05,0.115872,0.000116402,0.0291705,3.70648e-05,0.433967,-10.8673,-0.490786,-2.08627,0.828935,-41.4138,1.15817,0.0161258,-20,-0.495308,0.00867302,-0.0401811,-1.25372,0.0225236,-7.08842e-05,0.009339,-6.99129e-05,0.495336,0.00127353,0.072812,0.0551379,0.000366568,0.0419822,1.96199,-0.000182071,0.005,1.71617,-0.000493775,-0.033284,-0.254015,32.645,-0.231383,0.715463,10.1486,0.246926,2.48953,0.268815,1.5476,0.158267,0.241833,-1.41806,0.0664368,0.0809682,-0.0726216,0.169189,-0.0967636,23.4648,23.3087,23.1527,23.2946,23.2094,23.2804,23.1385,
61,6.27284,1.38364,3.15334,4.1264,6.2742,1.97502,1.55572,0.000417926,-0.10432,-7.68352e-05,0.115062,0.000126983,0.0250768,3.70648e-05,0.43399,-10.8647,-0.490854,-2.0865,0.828959,-41.411,1.1581,0.0161094,-20,-0.495317,0.0109524,-0.040176,-1.25408,0.0225206,-7.08842e-05,0.009339,-6.99129e-05,0.495336,0.00127353,0.072812,0.0552556,0.000385122,0.0422434,1.96199,-0.000182071,0.005,1.71617,-0.000493775,-0.033284,-0.254015,32.645,-0.231383,0.660502,10.407,0.236629,2.49546,0.294259,1.33775,0.134293,0.241833,-1.36963,0.0322266,0.0725098,-0.076644,0.181319,-0.0887145,23.4506,23.3087,23.1669,23.2662,23.2094,23.2662,23.1243,
62,6.27284,1.38364,3.15334,4.1264,6.2742,1.97502,1.55572,0.000417926,-0.10432,-7.68352e-05,0.115062,0.000126983,0.0250768,3.70648e-05,0.435973,-11.0239,-0.494916,-2.20773,0.834276,-42.0293,1.17206,0.0166362,-20,-0.497737,-0.0101795,-0.040195,-1.31584,0.0232612,-7.33691e-05,0.0095897,-7.25984e-05,0.495336,0.00127353,0.072812,0.0552556,0.000385122,0.0422434,1.96087,-0.000194745,0.005,1.71505,-0.00052188,-0.0335191,-0.261183,33.2253,-0.238471,0.660502,10.407,0.236629,2.49546,0.294259,1.33775,0.134293,0.241833,-1.36963,0.0322266,0.0725098,-0.076644,0.181319,-0.0887145,23.4506,23.3087,23.1669,23.2662,23.2094,23.2662,23.1243,
63,6.27284,1.38352,3.15334,4.12651,6.2742,1.97504,1.55572,0.000362183,-0.104841,-7.67192e-05,0.113981,0.000126985,0.0232284,4.76553e-05,0.436009,-11.0218,-0.495006,-2.20805,0.834338,-42.0268,1.17207,0.0166183,-20,-0.497746,-0.00778575,-0.0401887,-1.31621,0.0232619,-7.33691e-05,0.0095897,-7.25984e-05,0.495336,0.00127353,0.072812,0.0550488,0.000403048,0.0422861,1.96087,-0.000194745,0.005,1.71505,-0.00052188,-0.0335191,-0.261183,33.2253,-0.238471,0.669068,10.7572,0.259344,2.48135,0.332896,1.15029,0.161364,0.233781,-1.34556,0.0483398,0.0809682,-0.0725098,0.233677,-0.0967636,23.4648,23.3229,23.1669,23.2946,23.2094,23.2662,23.1243,
64,6.27284,1.38343,3.15334,4.12663,6.2742,1.97506,1.55572,0.000363648,-0.104932,-7.68352e-05,0.113241,0.000132175,0.022148,4.76188e-05,0.438084,-11.1895,-0.498283,-2.33673,0.843043,-42.6809,1.18218,0.0171456,-20,-0.500257,-0.0278441,-0.0401898,-1.38195,0.023565,-7.45855e-05,0.00984428,-7.4233e-05,0.495336,0.00127353,0.072812,0.0548503,0.000399856,0.0422318,1.95971,-0.000205557,0.005,1.7142,-0.000547744,-0.0335575,-0.264043,33.8404,-0.243345,0.578989,11.0257,0.27405,2.43478,0.327815,0.961643,0.132927,0.242236,-1.36984,0.0563965,0.104736,-0.0685998,0.245761,-0.0927389,23.479,23.3229,23.1669,23.2946,23.2094,23.2804,23.1101,
65,6.27284,1.38333,3.15334,4.12674,6.2742,1.97508,1.55572,0.000344437,-0.105338,-8.2011e-05,0.109389,0.000153438,0.019447,4.76548e-05,0.44005,-11.3445,-0.501748,-2.45518,0.850141,-43.286,1.19445,0.0176422,-20,-0.502603,-0.045965,-0.0401914,-1.44283,0.0241353,-7.66803e-05,0.0100741,-7.64368e-05,0.495336,0.00127353,0.072812,0.0538195,0.000399203,0.0421812,1.95865,-0.000216339,0.005,1.71342,-0.000554575,-0.0335086,-0.26961,34.409,-0.248651,0.610766,11.2768,0.250582,2.35367,0.302159,0.739736,0.130815,0.233643,-1.38595,0.0490066,0.11308,-0.0645789,0.265869,-0.0926514,23.479,23.3229,23.1385,23.2804,23.1952,23.2804,23.1243,
66,6.27284,1.38322,3.15334,4.12685,6.2742,1.9751,1.55572,0.000291447,-0.103717,-8.21342e-05,0.107499,0.00016402,0.0187899,4.76548e-05,0.44166,-11.4646,-0.50618,-2.54526,0.850873,-43.7545,1.20807,0.0180425,-20,-0.504551,-0.0589456,-0.040219,-1.48984,0.0250083,-7.99909e-05,0.0103048,-8.002e-05,0.495336,0.00127353,0.072812,0.052927,0.000412621,0.0415095,1.95759,-0.000233302,0.005,1.71339,-0.000569255,-0.0334631,-0.278136,34.8475,-0.256966,0.546441,11.6171,0.218442,2.42392,0.344389,0.559225,0.105149,0.217529,-1.40994,0.0490066,0.177246,-0.0605589,0.294067,-0.0927389,23.4506,23.3087,23.1385,23.3087,23.1952,23.2804,23.1385,
67,6.27284,1.3831,3.15334,4.12695,6.2742,1.97512,1.55572,0.000264952,-0.102227,-8.20102e-05,0.107769,0.000169311,0.0164759,4.76188e-05,0.443425,-11.6003,-0.510429,-2.64748,0.853556,-44.2794,1.21929,0.0184801,-20,-0.506703,-0.0738707,-0.0402441,-1.54233,0.0255761,-8.23288e-05,0.0105331,-8.25195e-05,0.495336,0.00127353,0.072812,0.0526872,0.000417268,0.0406806,1.95654,-0.00024508,0.005,1.71325,-0.000591931,-0.0328586,-0.283606,35.339,-0.264646,0.570009,12.0064,0.260477,2.44622,0.38686,0.410596,0.142984,0.217529,-1.4664,0.0433863,0.193359,-0.0645789,0.302151,-0.0845947,23.4648,23.3229,23.1669,23.2946,23.1952,23.2662,23.1385,
68,6.27284,1.383,3.15334,4.12707,6.2742,1.97513,1.55573,0.000211961,-0.101016,-8.20102e-05,0.10758,0.000190477,0.0135049,5.82013e-05,0.445333,-11.7544,-0.513785,-2.76573,0.860515,-44.8746,1.23185,0.0189628,-20,-0.509045,-0.0918837,-0.0402498,-1.602,0.0261918,-8.46822e-05,0.0107796,-8.44755e-05,0.495336,0.00127353,0.072812,0.0523754,0.000432616,0.0398998,1.95541,-0.000256652,0.005,1.71245,-0.000606528,-0.0321125,-0.289625,35.8984,-0.269919,0.495651,12.3203,0.264961,2.39915,0.378521,0.238035,0.119864,0.201416,-1.52279,0.0490066,0.177429,-0.0644531,0.33042,-0.0845947,23.479,23.3229,23.1527,23.2804,23.2094,23.252,23.1385,
69,6.27284,1.383,3.15334,4.12707,6.2742,1.97513,1.55573,0.000211961,-0.101016,-8.20102e-05,0.10758,0.000190477,0.0135049,5.82013e-05,0.447081,-11.8892,-0.518967,-2.8676,0.860089,-45.3897,1.24194,0.0194272,-20,-0.511223,-0.109549,-0.0402953,-1.65311,0.0266688,-8.65444e-05,0.0110067,-8.79486e-05,0.495336,0.00127353,0.072812,0.0523754,0.000432616,0.0398998,1.95433,-0.000270529,0.005,1.71175,-0.000632831,-0.0314098,-0.294166,36.3805,-0.280065,0.495651,12.3203,0.264961,2.39915,0.378521,0.238035,0.119864,0.201416,-1.52279,0.0490066,0.177429,-0.0644531,0.33042,-0.0845947,23.479,23.3229,23.1527,23.2804,23.2094,23.252,23.1385,
70,6.27284,1.38292,3.15334,4.12717,6.2742,1.97514,1.55573,0.000185457,-0.101104,-8.74332e-05,0.106689,0.000201059,0.0105323,5.82453e-05,0.447129,-11.8872,-0.51906,-2.86778,0.860101,-45.3874,1.2419,0.0194192,-20,-0.511233,-0.107452,-0.0402904,-1.65343,0.0266654,-8.65444e-05,0.0110067,-8.79486e-05,0.495336,0.00127353,0.072812,0.052135,0.000439234,0.0396447,1.95433,-0.000270529,0.005,1.71175,-0.000632831,-0.0314098,-0.294166,36.3805,-0.280065,0.506424,12.5621,0.243116,2.32663,0.365663,0.0315583,0.133666,0.217529,-1.55495,0.0490066,0.193359,-0.0604248,0.362571,-0.088623,23.4506,23.3229,23.1385,23.2946,23.2094,23.2804,23.1101,
71,6.27284,1.3828,3.15334,4.12728,6.27421,1.97515,1.55573,0.000185466,-0.0982781,-8.73011e-05,0.109389,0.000222223,0.00864312,5.82447e-05,0.448665,-12.004,-0.52255,-2.9581,0.863108,-45.8431,1.25417,0.0197955,-20,-0.513082,-0.120501,-0.0403053,-1.69933,0.0274121,-8.92141e-05,0.0112076,-9.04057e-05,0.495336,0.00127353,0.072812,0.0523175,0.000437969,0.038291,1.95336,-0.00028421,0.005,1.7111,-0.0006511,-0.0311803,-0.301472,36.8096,-0.286168,0.463999,12.844,0.246085,2.32831,0.396202,-0.158575,0.0967134,0.217678,-1.53129,0.0569691,0.194864,-0.0563965,0.394796,-0.080667,23.4506,23.3229,23.1527,23.2946,23.2094,23.2804,23.1101,
72,6.27284,1.3827,3.15334,4.12739,6.27421,1.97516,1.55573,0.000176795,-0.0958846,-8.73011e-05,0.109279,0.000243753,0.00593612,5.82008e-05,0.450711,-12.1639,-0.527286,-3.08164,0.866987,-46.4559,1.26834,0.0203121,-20,-0.515593,-0.139555,-0.0403282,-1.76072,0.0281758,-9.19511e-05,0.0114435,-9.3246e-05,0.495336,0.00127353,0.072812,0.0517801,0.000433765,0.0370653,1.95223,-0.000297487,0.005,1.70993,-0.000661911,-0.0299619,-0.308888,37.3862,-0.294505,0.465474,13.2055,0.294115,2.28472,0.420897,-0.320637,0.123998,0.209628,-1.61135,0.0490066,0.136963,-0.0565402,0.414937,-0.0846906,23.4648,23.3087,23.1527,23.2946,23.1811,23.2804,23.1243,
73,6.27284,1.38261,3.15334,4.12751,6.27421,1.97516,1.55573,0.000151538,-0.0945341,-8.7302e-05,0.108583,0.000264349,0.00567205,6.61372e-05,0.452158,-12.277,-0.530624,-3.16847,0.869799,-46.8877,1.27872,0.0206703,-20,-0.51738,-0.15217,-0.0403439,-1.80392,0.0287527,-9.42228e-05,0.0116516,-9.55529e-05,0.495336,0.00127353,0.072812,0.0512915,0.000440948,0.0365225,1.95121,-0.000308551,0.005,1.70949,-0.000668085,-0.0288588,-0.314508,37.7917,-0.300333,0.384833,13.4697,0.297709,2.21491,0.414061,-0.476912,0.112808,0.193359,-1.65975,0.0332184,0.136963,-0.0490066,0.427078,-0.080667,23.4648,23.3229,23.1385,23.2804,23.1811,23.2662,23.1243,
74,6.27284,1.38252,3.15334,4.12761,6.27421,1.97517,1.55573,0.000125829,-0.0931836,-8.7302e-05,0.106689,0.000264949,0.00451383,6.61872e-05,0.453965,-12.4171,-0.534814,-3.27519,0.87315,-47.4298,1.28786,0.0211239,-20,-0.519581,-0.168268,-0.0403645,-1.85825,0.0290887,-9.56093e-05,0.0118657,-9.79421e-05,0.495336,0.00127353,0.072812,0.0504573,0.000442333,0.0359028,1.95015,-0.000319878,0.005,1.70898,-0.000684743,-0.0283703,-0.317659,38.3004,-0.30775,0.423647,13.6743,0.293723,2.11706,0.401722,-0.667501,0.107904,0.193359,-1.68386,0.0322266,0.121919,-0.0444942,0.443115,-0.0726216,23.4506,23.3087,23.1243,23.2946,23.1952,23.2804,23.1243,
75,6.27284,1.38242,3.15334,4.12772,6.27421,1.97517,1.55573,0.000101021,-0.0895243,-8.73011e-05,0.107229,0.000275547,0.00108039,6.61872e-05,0.455373,-12.531,-0.536971,-3.36112,0.879251,-47.8706,1.29675,0.0214701,-20,-0.52129,-0.180438,-0.0403636,-1.90239,0.0294994,-9.74141e-05,0.0120675,-9.92243e-05,0.495336,0.00127353,0.072812,0.0498431,0.000441012,0.0340856,1.94916,-0.000328606,0.005,1.70883,-0.000693845,-0.0278125,-0.321655,38.7133,-0.310824,0.35661,13.9332,0.284092,2.04294,0.402184,-0.837273,0.0995767,0.201577,-1.71614,0.0433863,0.14502,-0.0490066,0.447162,-0.0846906,23.4506,23.3087,23.1527,23.2946,23.1952,23.2662,23.1243,
76,6.27284,1.38234,3.15334,4.12782,6.27421,1.97517,1.55573,0.000101021,-0.0875116,-8.73011e-05,0.104258,0.000285929,0.00108039,6.61379e-05,0.456643,-12.63,-0.540108,-3.43671,0.880965,-48.2421,1.30606,0.0217798,-20,-0.522862,-0.19118,-0.0403841,-1.93938,0.0300357,-9.96735e-05,0.0122692,-0.000101435,0.495336,0.00127353,0.072812,0.0485579,0.000431181,0.0333403,1.94815,-0.000339448,0.005,1.70847,-0.000702414,-0.026177,-0.326883,39.0614,-0.316473,0.380736,14.2644,0.306595,1.95476,0.42436,-0.970592,0.107826,0.185303,-1.80471,0.041081,0.145243,-0.0402832,0.479387,-0.080667,23.4364,23.3087,23.1385,23.2946,23.1811,23.252,23.1243,
77,6.27284,1.38225,3.15334,4.12793,6.27421,1.97517,1.55573,9.65088e-05,-0.0869714,-8.99466e-05,0.102718,0.000291444,0,6.61372e-05,0.457949,-12.731,-0.54309,-3.51208,0.883582,-48.6312,1.31494,0.0221019,-20,-0.52446,-0.201747,-0.0403977,-1.97818,0.0305059,-0.000101818,0.0124592,-0.000103611,0.495336,0.00127353,0.072812,0.0479976,0.000428023,0.0330447,1.94719,-0.000349781,0.005,1.70877,-0.000702865,-0.0255063,-0.33144,39.4248,-0.32161,0.313074,14.5317,0.344232,1.86897,0.411188,-1.09234,0.0887119,0.185478,-1.85304,0.0490066,0.177246,-0.041081,0.475359,-0.0726216,23.4364,23.2946,23.1385,23.2946,23.1952,23.2662,23.0959,
78,6.27284,1.38225,3.15334,4.12793,6.27421,1.97517,1.55573,9.65088e-05,-0.0869714,-8.99466e-05,0.102718,0.000291444,0,6.61372e-05,0.459389,-12.8504,-0.545637,-3.60166,0.888867,-49.0903,1.3257,0.0224845,-20,-0.526243,-0.217181,-0.0404049,-2.02377,0.0310884,-0.000104064,0.0126534,-0.000105392,0.495336,0.00127353,0.072812,0.0479976,0.000428023,0.0330447,1.9462,-0.000360777,0.005,1.70838,-0.00070992,-0.0252402,-0.337102,39.8542,-0.325702,0.313074,14.5317,0.344232,1.86897,0.411188,-1.09234,0.0887119,0.185478,-1.85304,0.0490066,0.177246,-0.041081,0.475359,-0.0726216,23.4364,23.2946,23.1385,23.2946,23.1952,23.2662,23.0959,
79,6.27284,1.38217,3.15334,4.12803,6.27421,1.97517,1.55573,7.21333e-05,-0.0852643,-8.99466e-05,0.102907,0.000302042,-0.000630014,6.62867e-05,0.459424,-12.8487,-0.545721,-3.60205,0.888887,-49.0882,1.32565,0.0224697,-20,-0.526254,-0.215108,-0.0404001,-2.02404,0.0310858,-0.000104064,0.0126534,-0.000105392,0.495336,0.00127353,0.072812,0.0476912,0.000434469,0.0323051,1.9462,-0.000360777,0.005,1.70838,-0.00070992,-0.0252402,-0.337102,39.8542,-0.325702,0.326242,14.8156,0.344232,1.73125,0.40723,-1.22818,0.0756248,0.177429,-1.84499,0.0490066,0.201416,-0.036478,0.479438,-0.076961,23.4506,23.2946,23.1385,23.2662,23.1952,23.2662,23.0959,
80,6.27284,1.38208,3.15334,4.12813,6.27421,1.97516,1.55573,4.8091e-05,-0.0815694,-8.99466e-05,0.104258,0.000312637,-0.00145709,7.42418e-05,0.460966,-12.9678,-0.549376,-3.69353,0.891462,-49.5471,1.336,0.0228545,-20,-0.528142,-0.228664,-0.0404191,-2.07003,0.0316353,-0.000106174,0.012837,-0.000107511,0.495336,0.00127353,0.072812,0.047303,0.000438692,0.0307354,1.94526,-0.000370865,0.005,1.70781,-0.0007248,-0.0245746,-0.342432,40.2854,-0.332232,0.266695,15.1274,0.339754,1.70401,0.428514,-1.34071,0.0645498,0.185303,-1.86152,0.0433863,0.209628,-0.0324774,0.487443,-0.0765381,23.4506,23.3087,23.1385,23.2662,23.1952,23.2662,23.1101,
81,6.27284,1.38208,3.15334,4.12813,6.27421,1.97516,1.55573,4.8091e-05,-0.0815694,-8.99466e-05,0.104258,0.000312637,-0.00145709,7.42418e-05,0.462345,-13.0788,-0.552981,-3.77731,0.89274,-49.9634,1.34273,0.0232208,-20,-0.529893,-0.243137,-0.040449,-2.11109,0.0318689,-0.000107326,0.0130163,-0.000109614,0.495336,0.00127353,0.072812,0.047303,0.000438692,0.0307354,1.94432,-0.000380792,0.005,1.70732,-0.000737535,-0.0231619,-0.344609,40.6745,-0.339018,0.266695,15.1274,0.339754,1.70401,0.428514,-1.34071,0.0645498,0.185303,-1.86152,0.0433863,0.209628,-0.0324774,0.487443,-0.0765381,23.4506,23.3087,23.1385,23.2662,23.1952,23.2662,23.1101,
82,6.27284,1.382,3.15334,4.12823,6.27421,1.97516,1.55573,2.41283e-05,-0.0799951,-8.99457e-05,0.103447,0.00031264,-0.0019148,7.42418e-05,0.462381,-13.0772,-0.553067,-3.77766,0.892786,-49.9614,1.34274,0.0232055,-20,-0.529902,-0.241031,-0.0404438,-2.11138,0.0318706,-0.000107326,0.0130163,-0.000109614,0.495336,0.00127353,0.072812,0.0467359,0.000442333,0.0300819,1.94432,-0.000380792,0.005,1.70732,-0.000737535,-0.0231619,-0.344609,40.6745,-0.339018,0.291367,15.4796,0.342377,1.65446,0.421004,-1.46524,0.0688282,0.177246,-1.93359,0.0433863,0.145912,-0.0324774,0.491455,-0.0726216,23.4364,23.3087,23.1527,23.2804,23.1811,23.2378,23.0959,
83,6.27284,1.38192,3.15334,4.12835,6.27421,1.97516,1.55573,2.41283e-05,-0.0799489,-8.99475e-05,0.10457,0.000323238,-0.00239964,7.42418e-05,0.463765,-13.19,-0.555282,-3.86443,0.898584,-50.3968,1.35146,0.0235514,-20,-0.531611,-0.253934,-0.0404449,-2.155,0.0322732,-0.000109034,0.0131995,-0.000110732,0.495336,0.00127353,0.072812,0.0470494,0.000444963,0.0300048,1.94338,-0.00038881,0.005,1.70698,-0.000748028,-0.0225737,-0.348529,41.0839,-0.342269,0.263467,15.7519,0.3808,1.56959,0.410234,-1.59655,0.0655735,0.19403,-1.94972,0.0490066,0.153288,-0.0324774,0.483398,-0.0726216,23.4364,23.2946,23.1385,23.2946,23.1811,23.2662,23.1101,
84,6.27284,1.38184,3.15334,4.12845,6.27421,1.97515,1.55573,2.30198e-05,-0.0788685,-8.99466e-05,0.105338,0.000328537,-0.00297645,7.42418e-05,0.465566,-13.3307,-0.55906,-3.97438,0.903305,-50.9453,1.36367,0.0240074,-20,-0.533799,-0.271067,-0.0404551,-2.21028,0.0329084,-0.00011117,0.0133847,-0.000112918,0.495336,0.00127353,0.072812,0.0470429,0.000444351,0.029511,1.9424,-0.000399004,0.005,1.70582,-0.00075957,-0.0225043,-0.354676,41.6017,-0.348636,0.261498,16.0382,0.381365,1.49178,0.378992,-1.75651,0.0572251,0.161133,-1.92555,0.0332184,0.104736,-0.0281982,0.483415,-0.0845947,23.4364,23.3229,23.1385,23.2804,23.1811,23.2662,23.1243,
85,6.27284,1.38184,3.15334,4.12845,6.27421,1.97515,1.55573,2.30198e-05,-0.0788685,-8.99466e-05,0.105338,0.000328537,-0.00297645,7.42418e-05,0.467066,-13.4545,-0.561808,-4.06881,0.908516,-51.4198,1.37387,0.0244058,-20,-0.535655,-0.287464,-0.0404631,-2.25753,0.0334168,-0.000113025,0.0135595,-0.000114503,0.495336,0.00127353,0.072812,0.0470429,0.000444351,0.029511,1.94147,-0.000407731,0.005,1.70499,-0.000766874,-0.0220599,-0.359597,42.047,-0.353102,0.261498,16.0382,0.381365,1.49178,0.378992,-1.75651,0.0572251,0.161133,-1.92555,0.0332184,0.104736,-0.0281982,0.483415,-0.0845947,23.4364,23.3229,23.1385,23.2804,23.1811,23.2662,23.1243,
86,6.27284,1.38184,3.15334,4.12855,6.27421,1.97514,1.55573,0,-0.0788685,-8.99466e-05,0.104152,0.000328533,-0.00377518,8.4847e-05,0.467066,-13.4531,-0.561817,-4.06949,0.908542,-51.4178,1.37381,0.0244013,-20,-0.535669,-0.286307,-0.0404609,-2.25769,0.0334158,-0.000113025,0.0135595,-0.000114503,0.495336,0.00127353,0.072812,0.0467012,0.000449705,0.0294497,1.94147,-0.000407731,0.005,1.70499,-0.000766874,-0.0220599,-0.359597,42.047,-0.353102,0.216097,16.0382,0.390975,1.47043,0.383885,-1.90713,0.0648818,0.153288,-1.92555,0.0483398,0.0821619,-0.0205405,0.479438,-0.0685998,23.4222,23.3229,23.1385,23.2804,23.1952,23.2662,23.1243,
87,6.27284,1.38177,3.15334,4.12865,6.27422,1.97513,1.55573,0,-0.0740067,-8.98788e-05,0.101016,0.000339131,-0.00454283,8.4847e-05,0.467783,-13.5051,-0.563436,-4.10953,0.909883,-51.6223,1.37519,0.0245636,-20,-0.536494,-0.290841,-0.0404659,-2.27851,0.033334,-0.000112933,0.0136528,-0.000115543,0.495336,0.00127353,0.072812,0.0447717,0.000432127,0.0274874,1.94088,-0.000411917,0.005,1.70476,-0.000775459,-0.0220048,-0.358743,42.2394,-0.355829,0.25798,16.3652,0.364093,1.43994,0.409524,-2.02027,0.0584735,0.14502,-1.92554,0.0563965,0.0970148,-0.0284845,0.471313,-0.0644531,23.4648,23.2946,23.1385,23.2804,23.1952,23.2662,23.1101,
88,6.27284,1.3817,3.15334,4.12876,6.27422,1.97512,1.55573,0,-0.0703996,-8.99475e-05,0.100558,0.000339135,-0.00728547,8.48478e-05,0.468468,-13.5574,-0.565631,-4.14619,0.909288,-51.8125,1.38051,0.0247204,-20,-0.537382,-0.294446,-0.0404864,-2.29698,0.0336649,-0.000114914,0.0138149,-0.000117511,0.495336,0.00127353,0.072812,0.0438823,0.000418992,0.0257756,1.94,-0.000421171,0.005,1.7057,-0.000767968,-0.0202387,-0.361936,42.414,-0.36001,0.225684,16.6747,0.398067,1.33177,0.39074,-2.11746,0.0511217,0.161334,-2.03839,0.0483398,0.145243,-0.0161133,0.467285,-0.0725098,23.4506,23.2946,23.1527,23.2946,23.1952,23.2662,23.1101,
89,6.27284,1.3817,3.15334,4.12876,6.27422,1.97512,1.55573,0,-0.0703996,-8.99475e-05,0.100558,0.000339135,-0.00728547,8.48478e-05,0.469295,-13.6315,-0.566723,-4.20113,0.913577,-52.0842,1.3868,0.02494,-20,-0.538459,-0.303823,-0.0404885,-2.3235,0.0339936,-0.000116556,0.0139841,-0.000118554,0.495336,0.00127353,0.072812,0.0438823,0.000418992,0.0257756,1.93906,-0.000428687,0.005,1.70566,-0.000762911,-0.018698,-0.365149,42.6667,-0.361437,0.225684,16.6747,0.398067,1.33177,0.39074,-2.11746,0.0511217,0.161334,-2.03839,0.0483398,0.145243,-0.0161133,0.467285,-0.0725098,23.4506,23.2946,23.1527,23.2946,23.1952,23.2662,23.1101,
90,6.27284,1.38163,3.15334,4.12886,6.27422,1.9751,1.55573,0,-0.0675244,-8.99475e-05,0.0991258,0.000349733,-0.0120905,8.48478e-05,0.469328,-13.6297,-0.566793,-4.20083,0.913569,-52.0828,1.38673,0.0249265,-20,-0.538461,-0.30162,-0.0404852,-2.32382,0.0339912,-0.000116556,0.0139841,-0.000118554,0.495336,0.00127353,0.072812,0.0428679,0.000403062,0.0241501,1.93906,-0.000428687,0.005,1.70566,-0.000762911,-0.018698,-0.365149,42.6667,-0.361437,0.232263,16.9098,0.409597,1.21495,0.384058,-2.24301,0.0406666,0.153076,-2.07868,0.0490066,0.148557,-0.0180152,0.483398,-0.0685998,23.4506,23.3087,23.1527,23.2946,23.2094,23.252,23.1101,
91,6.27284,1.38156,3.15334,4.12895,6.27422,1.97508,1.55573,0,-0.0669842,-8.99466e-05,0.0966949,0.000353197,-0.0162546,8.48478e-05,0.469807,-13.6664,-0.568218,-4.22861,0.913534,-52.2159,1.39226,0.0250334,-20,-0.539081,-0.304358,-0.0404964,-2.33698,0.0344035,-0.000118456,0.0141313,-0.000120403,0.495336,0.00127353,0.072812,0.0420549,0.00039034,0.0235372,1.93822,-0.000437377,0.005,1.70582,-0.000756396,-0.0172351,-0.369176,42.7909,-0.364072,0.15383,17.1215,0.420821,1.1533,0.397759,-2.37784,0.0554352,0.136963,-2.12701,0.0483398,0.161334,-0.0127387,0.515641,-0.0645789,23.4364,23.2946,23.1385,23.2662,23.1952,23.252,23.0818,
92,6.27284,1.38156,3.15334,4.12895,6.27422,1.97508,1.55573,0,-0.0669842,-8.99466e-05,0.0966949,0.000353197,-0.0162546,8.48478e-05,0.470358,-13.7172,-0.568432,-4.26631,0.918055,-52.4071,1.39768,0.0251798,-20,-0.53978,-0.310786,-0.0404877,-2.35579,0.0347314,-0.000119916,0.0142766,-0.000121256,0.495336,0.00127353,0.072812,0.0420549,0.00039034,0.0235372,1.93739,-0.000443896,0.005,1.7058,-0.000750812,-0.0166835,-0.372411,42.9691,-0.363761,0.15383,17.1215,0.420821,1.1533,0.397759,-2.37784,0.0554352,0.136963,-2.12701,0.0483398,0.161334,-0.0127387,0.515641,-0.0645789,23.4364,23.2946,23.1385,23.2662,23.1952,23.252,23.0818,
93,6.27284,1.3815,3.15334,4.12905,6.27422,1.97507,1.55573,0,-0.0648234,-8.99466e-05,0.0950743,0.000367829,-0.0159358,8.48478e-05,0.470391,-13.716,-0.568512,-4.26662,0.918063,-52.4056,1.39763,0.0251668,-20,-0.539789,-0.308944,-0.040484,-2.35604,0.0347286,-0.000119916,0.0142766,-0.000121256,0.495336,0.00127353,0.072812,0.041131,0.000384067,0.022741,1.93739,-0.000443896,0.005,1.7058,-0.000750812,-0.0166835,-0.372411,42.9691,-0.363761,0.154982,17.3686,0.434672,1.09754,0.401942,-2.46302,0.064115,0.136963,-2.09474,0.0402832,0.193359,-0.012085,0.539795,-0.0609595,23.4364,23.3087,23.1527,23.2662,23.1811,23.252,23.1101,
94,6.27284,1.38143,3.15334,4.12914,6.27422,1.97505,1.55573,0,-0.0614383,-8.99466e-05,0.0964248,0.000394451,-0.0144502,9.54529e-05,0.471417,-13.7945,-0.571227,-4.3258,0.918974,-52.7053,1.40496,0.025418,-20,-0.541064,-0.317097,-0.0405003,-2.38589,0.0351458,-0.000121754,0.0144189,-0.000123087,0.495336,0.00127353,0.072812,0.0408078,0.000384645,0.0215364,1.93658,-0.00045235,0.005,1.7059,-0.000752775,-0.0159669,-0.376471,43.2495,-0.368696,0.120836,17.5924,0.482736,1.05003,0.397715,-2.54745,0.0650732,0.136963,-2.12697,0.0402832,0.209473,-0.0166092,0.523744,-0.0604248,23.4364,23.2946,23.1385,23.2804,23.1811,23.252,23.0959,
95,6.27284,1.38143,3.15334,4.12914,6.27422,1.97505,1.55573,0,-0.0614383,-8.99466e-05,0.0964248,0.000394451,-0.0144502,9.54529e-05,0.472772,-13.9022,-0.574899,-4.40714,0.91987,-53.112,1.41083,0.0257778,-20,-0.542776,-0.331121,-0.0405294,-2.4261,0.0353031,-0.000122553,0.0145659,-0.000124959,0.495336,0.00127353,0.072812,0.0408078,0.000384645,0.0215364,1.93575,-0.000460985,0.005,1.70545,-0.000761067,-0.0148827,-0.377885,43.6298,-0.375618,0.120836,17.5924,0.482736,1.05003,0.397715,-2.54745,0.0650732,0.136963,-2.12697,0.0402832,0.209473,-0.0166092,0.523744,-0.0604248,23.4364,23.2946,23.1385,23.2804,23.1811,23.252,23.0959,
96,6.27284,1.38138,3.15334,4.12924,6.27422,1.97504,1.55573,0,-0.0583411,-8.99466e-05,0.095954,0.000427532,-0.013914,9.54538e-05,0.472802,-13.9009,-0.574977,-4.40758,0.919892,-53.1103,1.4108,0.0257654,-20,-0.542788,-0.329239,-0.0405251,-2.42634,0.0353022,-0.000122553,0.0145659,-0.000124959,0.495336,0.00127353,0.072812,0.0400198,0.000380999,0.0203725,1.93575,-0.000460985,0.005,1.70545,-0.000761067,-0.0148827,-0.377885,43.6298,-0.375618,0.132478,17.7696,0.487883,0.964245,0.374974,-2.63399,0.0559395,0.136963,-2.18336,0.0490066,0.145243,-0.00805664,0.495483,-0.0645789,23.4364,23.3087,23.1527,23.252,23.1669,23.252,23.1101,
97,6.27284,1.38132,3.15334,4.12933,6.27422,1.97502,1.55573,0,-0.0550441,-8.99466e-05,0.0939939,0.000464592,-0.014817,9.54529e-05,0.473882,-13.9851,-0.577683,-4.47108,0.921282,-53.4293,1.41798,0.0260322,-20,-0.544132,-0.338192,-0.040542,-2.45809,0.0356833,-0.000124184,0.0147101,-0.000126395,0.495336,0.00127353,0.072812,0.0387609,0.000371771,0.0189976,1.93492,-0.000468486,0.005,1.70541,-0.000764537,-0.0138353,-0.381589,43.9282,-0.380492,0.0957562,17.9109,0.498016,0.936985,0.379688,-2.70922,0.0568974,0.128906,-2.1996,0.0402832,0.153922,-0.00569691,0.483415,-0.0609595,23.4506,23.3087,23.1385,23.2662,23.1952,23.2662,23.1101,
98,6.27284,1.38127,3.15334,4.12943,6.27422,1.97501,1.55573,0,-0.0550999,-8.99475e-05,0.0923733,0.000502016,-0.0168725,9.54538e-05,0.474548,-14.0345,-0.580122,-4.50748,0.91974,-53.6127,1.4235,0.0261928,-20,-0.544998,-0.342579,-0.0405662,-2.47613,0.0360518,-0.000125915,0.0148416,-0.000128212,0.495336,0.00127353,0.072812,0.0383059,0.000368764,0.0188318,1.93416,-0.000476475,0.005,1.70586,-0.000763422,-0.0125978,-0.385187,44.0985,-0.385345,0.093847,18.0498,0.488343,0.874644,0.380234,-2.76496,0.0613949,0.112793,-2.24782,0.0563965,0.186872,-0.0127387,0.471331,-0.0645789,23.4648,23.3087,23.1385,23.2662,23.1952,23.2662,23.0959,
99,6.27284,1.38121,3.15334,4.12952,6.27422,1.97499,1.55573,0,-0.0546675,-8.99475e-05,0.0921032,0.000553089,-0.0197171,0.00010598,0.475402,-14.098,-0.582456,-4.55692,0.920262,-53.8618,1.43085,0.0264029,-20,-0.546047,-0.349385,-0.040579,-2.50129,0.0365318,-0.000127632,0.0149689,-0.000129971,0.495336,0.00127353,0.072812,0.0381398,0.000367728,0.0183681,1.9334,-0.000484311,0.005,1.70559,-0.000767767,-0.0124486,-0.389881,44.3335,-0.38965,0.0512259,18.2115,0.488032,0.827114,0.389994,-2.81307,0.0544172,0.11308,-2.19142,0.0433863,0.201416,-0.0090076,0.475359,-0.0565402,23.4506,23.3087,23.1385,23.2804,23.1669,23.252,23.1101,
100,6.27284,1.38115,3.15334,4.12961,6.27422,1.97496,1.55573,0,-0.0559102,-8.99466e-05,0.0900259,0.000605417,-0.024849,0.00010606,0.476273,-14.1628,-0.584942,-4.60825,0.920436,-54.1143,1.43583,0.0266188,-20,-0.547123,-0.356596,-0.0405947,-2.52684,0.0367714,-0.000128457,0.0150969,-0.000131678,0.495336,0.00127353,0.072812,0.0378058,0.000362874,0.0183563,1.93263,-0.000492211,0.005,1.70504,-0.000773944,-0.0120313,-0.392186,44.5726,-0.394301,0.0380968,18.3196,0.505875,0.759669,0.392713,-2.85947,0.0485709,0.112793,-2.17535,0.0490066,0.20206,-0.0090076,0.487443,-0.0605589,23.4506,23.2946,23.1385,23.252,23.1811,23.252,23.0818,
101,6.27284,1.3811,3.15334,4.1297,6.27422,1.97493,1.55573,0,-0.0550999,-8.99466e-05,0.0874229,0.00062307,-0.027083,0.000106059,0.476872,-14.2058,-0.586601,-4.64248,0.920719,-54.2845,1.44296,0.0267597,-20,-0.547837,-0.360887,-0.0406018,-2.54422,0.0373101,-0.000130221,0.0152229,-0.000133389,0.495336,0.00127353,0.072812,0.0368853,0.000353633,0.0178398,1.93185,-0.000500074,0.005,1.70464,-0.000776654,-0.0120206,-0.397445,44.734,-0.397352,0.0287186,18.436,0.512408,0.740209,0.403954,-2.91602,0.0476987,0.104736,-2.11891,0.0490066,0.233781,-0.0090076,0.519653,-0.0523682,23.4506,23.2946,23.1385,23.2804,23.1952,23.252,23.1101,
102,6.27284,1.38105,3.15334,4.12978,6.27422,1.9749,1.55573,0,-0.0518587,-8.99466e-05,0.0848106,0.000624511,-0.0280901,0.00010606,0.47732,-14.243,-0.586965,-4.67015,0.923709,-54.4265,1.4473,0.0268588,-20,-0.548376,-0.363805,-0.0405952,-2.55844,0.0375869,-0.000131484,0.0153348,-0.000133952,0.495336,0.00127353,0.072812,0.0354502,0.000339466,0.0164836,1.93112,-0.000505289,0.005,1.70481,-0.000773029,-0.0115559,-0.400178,44.8665,-0.397462,0.0444705,18.5907,0.510642,0.735443,0.405605,-2.93412,0.0544865,0.112793,-2.1028,0.0569691,0.258316,0.00402832,0.52771,-0.0645789,23.4506,23.2946,23.1385,23.2662,23.1952,23.252,23.1101,
103,6.27284,1.381,3.15334,4.12987,6.27422,1.97488,1.55573,-1.43289e-05,-0.0481475,-8.99466e-05,0.0845405,0.000654919,-0.0280617,0.000114013,0.477643,-14.269,-0.58782,-4.68798,0.923995,-54.5179,1.45045,0.0269262,-20,-0.548809,-0.364932,-0.0406027,-2.56719,0.0378062,-0.0001329,0.0154418,-0.000134991,0.495336,0.00127353,0.072812,0.0345928,0.000339598,0.0150154,1.93042,-0.00051132,0.005,1.70548,-0.000765708,-0.0103352,-0.402377,44.9498,-0.398955,0.0164101,18.717,0.53441,0.716108,0.410572,-2.9574,0.0478585,0.088623,-2.15114,0.041081,0.298096,0.0127387,0.511613,-0.0529843,23.4506,23.3229,23.1527,23.2662,23.1952,23.252,23.1101,
104,6.27284,1.38095,3.15334,4.12995,6.27423,1.97485,1.55573,-1.39309e-05,-0.0464097,-8.99475e-05,0.0834601,0.000680105,-0.0280901,0.000114014,0.478354,-14.3186,-0.591042,-4.72516,0.920238,-54.7,1.45307,0.0270988,-20,-0.549728,-0.369693,-0.0406402,-2.58511,0.0378924,-0.000133594,0.0155486,-0.000137047,0.495336,0.00127353,0.072812,0.0339155,0.000335744,0.0143394,1.92973,-0.000522627,0.005,1.70562,-0.000776002,-0.00901383,-0.403141,45.1194,-0.405697,0.0149553,18.8406,0.537918,0.703144,0.409108,-2.97035,0.0592397,0.088623,-2.20758,0.0563965,0.290039,0.00402832,0.507632,-0.0404841,23.4364,23.3087,23.1243,23.2804,23.1952,23.252,23.0959,
105,6.27284,1.38095,3.15334,4.12995,6.27423,1.97485,1.55573,-1.39309e-05,-0.0464097,-8.99475e-05,0.0834601,0.000680105,-0.0280901,0.000114014,0.47904,-14.3718,-0.593256,-4.76457,0.91958,-54.9002,1.45894,0.027281,-20,-0.550604,-0.376403,-0.0406609,-2.60479,0.0382739,-0.000135155,0.0156492,-0.000138561,0.495336,0.00127353,0.072812,0.0339155,0.000335744,0.0143394,1.92906,-0.00052942,0.005,1.70563,-0.000778647,-0.00840544,-0.406838,45.3058,-0.410088,0.0149553,18.8406,0.537918,0.703144,0.409108,-2.97035,0.0592397,0.088623,-2.20758,0.0563965,0.290039,0.00402832,0.507632,-0.0404841,23.4364,23.3087,23.1243,23.2804,23.1952,23.252,23.0959,
106,6.27284,1.38091,3.15334,4.13004,6.27423,1.97482,1.55573,-1.39309e-05,-0.0464568,-8.99466e-05,0.0825028,0.000707319,-0.0285876,0.000114014,0.479055,-14.3705,-0.593309,-4.76487,0.919547,-54.8986,1.45885,0.0272703,-20,-0.550615,-0.37495,-0.0406584,-2.60494,0.0382711,-0.000135155,0.0156492,-0.000138561,0.495336,0.00127353,0.072812,0.0336492,0.000335643,0.014324,1.92906,-0.00052942,0.005,1.70563,-0.000778647,-0.00840544,-0.406838,45.3058,-0.410088,-0.0217526,18.9321,0.542173,0.719628,0.408846,-2.97066,0.0337694,0.088623,-2.20753,0.0402832,0.273926,0.0166092,0.483415,-0.0523682,23.4364,23.3087,23.1385,23.2804,23.1811,23.252,23.1101,
107,6.27284,1.38086,3.15334,4.13011,6.27423,1.97479,1.55573,-1.35806e-05,-0.0464568,-8.99475e-05,0.0802189,0.000724832,-0.0318715,0.000114014,0.47991,-14.4341,-0.595642,-4.81428,0.920032,-55.1484,1.46596,0.0274821,-20,-0.551654,-0.382029,-0.0406717,-2.63017,0.0387259,-0.000136758,0.0157521,-0.000140093,0.495336,0.00127353,0.072812,0.0329928,0.000327038,0.0140132,1.92836,-0.000536347,0.005,1.70524,-0.000784791,-0.00839158,-0.411257,45.5414,-0.414426,-0.0388716,19.0343,0.517241,0.751793,0.425232,-2.97595,0.0478741,0.0966797,-2.17529,0.0569691,0.298096,0.0113938,0.475342,-0.0525229,23.4506,23.3087,23.1243,23.2662,23.2094,23.2662,23.1243,
108,6.27284,1.38081,3.15334,4.13019,6.27423,1.97475,1.55573,-1.3607e-05,-0.0451383,-8.99466e-05,0.0796788,0.000785039,-0.0329519,0.000114014,0.480212,-14.4574,-0.596169,-4.83252,0.921166,-55.2392,1.47008,0.0275472,-20,-0.552028,-0.38365,-0.0406704,-2.63937,0.0390471,-0.000138085,0.0158457,-0.000141022,0.495336,0.00127353,0.072812,0.0325612,0.000327189,0.0133849,1.92771,-0.000541841,0.005,1.70524,-0.000781991,-0.00811192,-0.414496,45.6271,-0.41515,-0.0445533,19.0967,0.543115,0.778515,0.419973,-2.98284,0.0356402,0.0805664,-2.15112,0.0563965,0.322366,0.0161133,0.487443,-0.0498276,23.4506,23.3087,23.1385,23.2804,23.1952,23.2804,23.1101,
109,6.27284,1.38077,3.15334,4.13027,6.27423,1.97472,1.55573,-1.32473e-05,-0.041595,-8.46557e-05,0.0799489,0.00084302,-0.0345725,0.000114102,0.480925,-14.5034,-0.59968,-4.86812,0.916533,-55.4152,1.47731,0.027721,-20,-0.552918,-0.388277,-0.0407073,-2.65702,0.0396075,-0.00014005,0.0159397,-0.000143403,0.495336,0.00127353,0.072812,0.0318979,0.00032158,0.0117997,1.92705,-0.000550476,0.005,1.70504,-0.000789899,-0.00754638,-0.419949,45.7926,-0.422579,-0.0509102,19.1615,0.541059,0.755005,0.42228,-2.97935,0.0314619,0.0664368,-2.16725,0.0569691,0.314312,0.0166092,0.475342,-0.0483398,23.4506,23.2946,23.1527,23.2662,23.1952,23.252,23.1101,
110,6.27284,1.38077,3.15334,4.13027,6.27423,1.97472,1.55573,-1.32473e-05,-0.041595,-8.46557e-05,0.0799489,0.00084302,-0.0345725,0.000114102,0.481298,-14.5304,-0.601803,-4.88797,0.913251,-55.5063,1.48175,0.0278201,-20,-0.553437,-0.391645,-0.0407364,-2.66562,0.0399652,-0.00014153,0.0160252,-0.000144778,0.495336,0.00127353,0.072812,0.0318979,0.00032158,0.0117997,1.92642,-0.000556689,0.005,1.70507,-0.000790442,-0.00611969,-0.423422,45.8766,-0.427228,-0.0509102,19.1615,0.541059,0.755005,0.42228,-2.97935,0.0314619,0.0664368,-2.16725,0.0569691,0.314312,0.0166092,0.475342,-0.0483398,23.4506,23.2946,23.1527,23.2662,23.1952,23.252,23.1101,
111,6.27284,1.38073,3.15334,4.13036,6.27423,1.97468,1.55573,-1.32476e-05,-0.0383538,-8.46557e-05,0.080922,0.000879251,-0.034824,0.000121969,0.481316,-14.5294,-0.601857,-4.88818,0.913216,-55.505,1.48166,0.0278102,-20,-0.55345,-0.390163,-0.0407336,-2.66576,0.0399624,-0.00014153,0.0160252,-0.000144778,0.495336,0.00127353,0.072812,0.0314998,0.00031985,0.0104701,1.92642,-0.000556689,0.005,1.70507,-0.000790442,-0.00611969,-0.423422,45.8766,-0.427228,-0.0775545,19.1703,0.535463,0.778569,0.429327,-2.98458,0.033295,0.0569691,-2.22365,0.0644531,0.306152,0.0205405,0.467355,-0.0525229,23.4506,23.3087,23.1385,23.2662,23.1811,23.252,23.0959,
112,6.27284,1.3807,3.15334,4.13044,6.27423,1.97465,1.55573,-1.29305e-05,-0.0340724,-8.46557e-05,0.0799489,0.000925276,-0.0378136,0.000121969,0.481954,-14.5751,-0.604354,-4.92349,0.911099,-55.6739,1.48434,0.0279641,-20,-0.554263,-0.394744,-0.040759,-2.68252,0.0400634,-0.000142105,0.0161118,-0.00014619,0.495336,0.00127353,0.072812,0.030324,0.0003081,0.0084624,1.92576,-0.000562991,0.005,1.70484,-0.000794557,-0.00492305,-0.424381,46.0349,-0.43227,-0.0794318,19.191,0.544671,0.749822,0.422785,-2.97624,0.0323303,0.0664368,-2.23975,0.0483398,0.249886,0.0205405,0.447162,-0.0525229,23.4506,23.3087,23.1385,23.2804,23.1952,23.252,23.1101,
113,6.27284,1.38067,3.15334,4.13051,6.27423,1.97461,1.55573,-1.29302e-05,-0.0307911,-8.46565e-05,0.0783283,0.000902718,-0.0405146,0.000121969,0.481966,-14.5692,-0.606227,-4.91783,0.905177,-55.6366,1.4872,0.0279529,-20,-0.554338,-0.392225,-0.0407928,-2.67833,0.0404089,-0.000143745,0.0161897,-0.000148012,0.495336,0.00127353,0.072812,0.0291706,0.000291003,0.00689312,1.92515,-0.000569948,0.005,1.70535,-0.000790243,-0.00311616,-0.427779,45.9979,-0.436783,-0.111244,19.1558,0.532982,0.731354,0.43231,-2.9614,0.0419118,0.0725098,-2.32838,0.0644531,0.265991,0.0332184,0.471331,-0.0444942,23.4506,23.3087,23.1527,23.2662,23.1811,23.2662,23.1101,
114,6.27284,1.38067,3.15334,4.13051,6.27423,1.97461,1.55573,-1.29302e-05,-0.0307911,-8.46565e-05,0.0783283,0.000902718,-0.0405146,0.000121969,0.481851,-14.5609,-0.606586,-4.90978,0.903034,-55.5909,1.48871,0.0279223,-20,-0.554256,-0.390675,-0.0408053,-2.67318,0.0406116,-0.000145104,0.0162573,-0.000149283,0.495336,0.00127353,0.072812,0.0291706,0.000291003,0.00689312,1.92458,-0.000575456,0.005,1.70587,-0.000779813,-0.0017038,-0.429786,45.9524,-0.437823,-0.111244,19.1558,0.532982,0.731354,0.43231,-2.9614,0.0419118,0.0725098,-2.32838,0.0644531,0.265991,0.0332184,0.471331,-0.0444942,23.4506,23.3087,23.1527,23.2662,23.1811,23.2662,23.1101,
115,6.27284,1.38064,3.15334,4.13059,6.27424,1.97456,1.55573,-1.29305e-05,-0.0297107,-8.2011e-05,0.0772479,0.00087406,-0.041126,0.000122061,0.481852,-14.56,-0.606608,-4.90984,0.902993,-55.5899,1.48861,0.0279102,-20,-0.554264,-0.389434,-0.0408044,-2.67328,0.040609,-0.000145104,0.0162573,-0.000149283,0.495336,0.00127353,0.072812,0.0286327,0.000281821,0.00641563,1.92458,-0.000575456,0.005,1.70587,-0.000779813,-0.0017038,-0.429786,45.9524,-0.437823,-0.0881681,19.1411,0.531464,0.748595,0.433201,-2.94464,0.0429787,0.0483398,-2.35254,0.0563965,0.282442,0.0241699,0.459246,-0.0483398,23.4364,23.3087,23.1527,23.2662,23.1952,23.2662,23.1101,
116,6.27284,1.38061,3.15334,4.13067,6.27424,1.97452,1.55573,-1.26052e-05,-0.0289004,-8.20102e-05,0.0791683,0.00087406,-0.0432156,0.000121968,0.482159,-14.5828,-0.60752,-4.92798,0.902994,-55.6779,1.4914,0.0279813,-20,-0.554666,-0.391222,-0.0408093,-2.68213,0.040801,-0.000146183,0.016319,-0.000150436,0.495336,0.00127353,0.072812,0.0290215,0.000280869,0.00584736,1.92401,-0.00057925,0.005,1.70584,-0.000774964,-0.00127406,-0.431688,46.0357,-0.439481,-0.0544842,19.0465,0.545746,0.743523,0.433826,-2.92723,0.0461583,0.0483398,-2.33648,0.0563965,0.298205,0.0293266,0.455271,-0.0490066,23.4506,23.3087,23.1385,23.2804,23.1952,23.2662,23.1101,
117,6.27284,1.38058,3.15334,4.13075,6.27424,1.97448,1.55573,-2.52558e-05,-0.0302509,-8.46557e-05,0.0772479,0.00086541,-0.044296,0.000132573,0.482754,-14.6263,-0.609244,-4.96416,0.902937,-55.8445,1.49715,0.0281286,-20,-0.555395,-0.396491,-0.0408202,-2.69907,0.0412074,-0.00014758,0.0163889,-0.000151745,0.495336,0.00127353,0.072812,0.0287514,0.000282879,0.00630222,1.92341,-0.000584893,0.005,1.70495,-0.000779186,-0.000762627,-0.435685,46.195,-0.442736,-0.0649031,18.9416,0.533215,0.742261,0.438467,-2.91745,0.0353032,0.0490066,-2.32838,0.0649547,0.241833,0.0284845,0.455271,-0.0483398,23.4506,23.3087,23.1385,23.2804,23.1952,23.2662,23.1101,
118,6.27284,1.38055,3.15334,4.13082,6.27424,1.97443,1.55573,-2.46789e-05,-0.0315968,-8.46557e-05,0.0745469,0.000851474,-0.0472671,0.000132575,0.48319,-14.6566,-0.610536,-4.98829,0.902753,-55.9691,1.49927,0.0282325,-20,-0.555912,-0.39947,-0.0408288,-2.71186,0.0413002,-0.000148052,0.016451,-0.000153032,0.495336,0.00127353,0.072812,0.0282569,0.000273619,0.00656587,1.92284,-0.000594925,0.005,1.70468,-0.000790023,-0.00117199,-0.436574,46.3134,-0.445217,-0.05809,18.8298,0.52938,0.751032,0.427626,-2.91025,0.041338,0.0402832,-2.25586,0.0563965,0.274044,0.0404841,0.439105,-0.0362549,23.4506,23.3229,23.1385,23.2946,23.1952,23.2662,23.1243,
119,6.27284,1.38052,3.15334,4.1309,6.27424,1.97438,1.55573,-2.46789e-05,-0.0318392,-8.46565e-05,0.0731964,0.00084976,-0.0483983,0.000132575,0.483312,-14.6643,-0.610801,-4.99479,0.90305,-56.0036,1.50286,0.0282534,-20,-0.556052,-0.399412,-0.0408264,-2.71555,0.0416298,-0.000149414,0.0165115,-0.000154161,0.495336,0.00127353,0.072812,0.0279192,0.000269259,0.00656477,1.92227,-0.0006002,0.005,1.70461,-0.000786438,-0.00140929,-0.43986,46.3468,-0.445598,-0.0792009,18.7826,0.517705,0.779967,0.428371,-2.88936,0.0385353,0.0563965,-2.21559,0.0569691,0.322366,0.0402832,0.447144,-0.0483398,23.4648,23.3087,23.1527,23.2662,23.1952,23.252,23.1243,
120,6.27284,1.38048,3.15334,4.13097,6.27424,1.97433,1.55573,-2.40863e-05,-0.0318715,-8.20102e-05,0.0724721,0.000823557,-0.0491079,0.000132575,0.483592,-14.6834,-0.611733,-5.01041,0.902695,-56.0805,1.50699,0.028316,-20,-0.556396,-0.400891,-0.0408313,-2.72345,0.0419694,-0.000150743,0.0165635,-0.000155202,0.495336,0.00127353,0.072812,0.027718,0.000263115,0.00651583,1.92172,-0.000605168,0.005,1.70442,-0.000786984,-0.00140829,-0.443174,46.4201,-0.447391,-0.056002,18.7048,0.479755,0.806099,0.426355,-2.87967,0.0330637,0.0180152,-2.19142,0.0649547,0.338475,0.0284845,0.439161,-0.041081,23.4648,23.3087,23.1243,23.2804,23.2236,23.252,23.1243,
121,6.27284,1.38045,3.15334,4.13105,6.27424,1.97428,1.55573,-2.40863e-05,-0.0321416,-8.20102e-05,0.0737366,0.000851474,-0.0502381,0.000143181,0.483952,-14.7153,-0.611624,-5.03611,0.906425,-56.2068,1.51037,0.0284014,-20,-0.556841,-0.404205,-0.0408177,-2.73627,0.0421719,-0.000151698,0.0166236,-0.000155361,0.495336,0.00127353,0.072812,0.0281425,0.000267433,0.00648947,1.92114,-0.000608374,0.005,1.70408,-0.00078434,-0.00136424,-0.445211,46.5402,-0.446495,-0.0533434,18.7021,0.45964,0.856877,0.429718,-2.84788,0.0331946,0.0433863,-2.18341,0.0490066,0.346436,0.0404841,0.427002,-0.0404841,23.4364,23.2946,23.1527,23.2946,23.1952,23.2662,23.1101,
122,6.27284,1.38045,3.15334,4.13105,6.27424,1.97428,1.55573,-2.40863e-05,-0.0321416,-8.20102e-05,0.0737366,0.000851474,-0.0502381,0.000143181,0.484539,-14.7589,-0.613462,-5.07149,0.905999,-56.3755,1.51369,0.0285573,-20,-0.557558,-0.410523,-0.0408312,-2.75335,0.0423294,-0.000152102,0.0166785,-0.000156435,0.495336,0.00127353,0.072812,0.0281425,0.000267433,0.00648947,1.92059,-0.000613447,0.005,1.7032,-0.000792792,-0.00134052,-0.446697,46.7008,-0.450097,-0.0533434,18.7021,0.45964,0.856877,0.429718,-2.84788,0.0331946,0.0433863,-2.18341,0.0490066,0.346436,0.0404841,0.427002,-0.0404841,23.4364,23.2946,23.1527,23.2946,23.1952,23.2662,23.1101,
123,6.27284,1.38042,3.15334,4.13112,6.27424,1.97423,1.55573,-2.35605e-05,-0.0329519,-8.20721e-05,0.0729263,0.000843634,-0.0513185,0.000143181,0.484546,-14.7579,-0.613495,-5.07143,0.905941,-56.3746,1.51361,0.028548,-20,-0.557567,-0.409339,-0.0408297,-2.75343,0.0423291,-0.000152102,0.0166785,-0.000156435,0.495336,0.00127353,0.072812,0.0280801,0.000264776,0.00671298,1.92059,-0.000613447,0.005,1.7032,-0.000792792,-0.00134052,-0.446697,46.7008,-0.450097,-0.00377762,18.6639,0.439336,0.908226,0.416881,-2.85436,0.0387093,0.0161133,-2.15918,0.0569691,0.314209,0.0459299,0.414937,-0.0402832,23.4222,23.3087,23.1527,23.2946,23.1952,23.252,23.1101,
124,6.27284,1.38038,3.15334,4.13119,6.27424,1.97418,1.55573,-2.35605e-05,-0.0328507,-8.20102e-05,0.0718459,0.000841999,-0.0513185,0.000143288,0.484923,-14.7875,-0.613972,-5.09554,0.907914,-56.4937,1.51789,0.0286358,-20,-0.558016,-0.412382,-0.0408245,-2.76563,0.0426337,-0.000153235,0.0167326,-0.000156997,0.495336,0.00127353,0.072812,0.0277469,0.000262041,0.00669064,1.92003,-0.000617454,0.005,1.70276,-0.000794007,-0.00154168,-0.449722,46.8143,-0.450619,-0.0148786,18.6597,0.423253,0.952518,0.422255,-2.83579,0.0389232,0.0161133,-2.11896,0.0586532,0.323171,0.0498276,0.402852,-0.0523682,23.4506,23.3087,23.1527,23.2804,23.1811,23.252,23.1243,
125,6.27284,1.38035,3.15334,4.13126,6.27424,1.97413,1.55573,-2.30198e-05,-0.0326818,-8.20102e-05,0.0703996,0.000843634,-0.0501065,0.000143179,0.485345,-14.8181,-0.615239,-5.11953,0.907773,-56.614,1.52245,0.0287355,-20,-0.558537,-0.415301,-0.0408321,-2.7778,0.0429722,-0.000154589,0.0167878,-0.000158037,0.495336,0.00127353,0.072812,0.027292,0.000260394,0.00677467,1.91948,-0.00062255,0.005,1.70256,-0.000796132,-0.00152158,-0.453056,46.928,-0.453012,-0.00840926,18.6418,0.425489,1.00684,0.41149,-2.82159,0.0395934,0.0113938,-2.12701,0.0563965,0.322366,0.0485074,0.370627,-0.0444942,23.4506,23.3229,23.1385,23.2804,23.1952,23.2662,23.1101,
126,6.27284,1.38035,3.15334,4.13126,6.27424,1.97413,1.55573,-2.30198e-05,-0.0326818,-8.20102e-05,0.0703996,0.000843634,-0.0501065,0.000143179,0.485828,-14.8546,-0.616717,-5.14701,0.907566,-56.7561,1.52727,0.0288638,-20,-0.559134,-0.420009,-0.0408435,-2.79197,0.0433088,-0.000155948,0.0168416,-0.000159081,0.495336,0.00127353,0.072812,0.027292,0.000260394,0.00677467,1.91891,-0.000627619,0.005,1.70245,-0.000799212,-0.00159721,-0.456334,47.0611,-0.455907,-0.00840926,18.6418,0.425489,1.00684,0.41149,-2.82159,0.0395934,0.0113938,-2.12701,0.0563965,0.322366,0.0485074,0.370627,-0.0444942,23.4506,23.3229,23.1385,23.2804,23.1952,23.2662,23.1101,
127,6.27284,1.38032,3.15334,4.13133,6.27424,1.97408,1.55573,-2.30582e-05,-0.0315694,-8.20102e-05,0.072116,0.00084943,-0.0491577,0.000143181,0.485836,-14.8538,-0.616754,-5.14712,0.907501,-56.7552,1.52717,0.028855,-20,-0.559147,-0.418859,-0.0408418,-2.79203,0.043306,-0.000155948,0.0168416,-0.000159081,0.495336,0.00127353,0.072812,0.0275544,0.000263858,0.00641021,1.91891,-0.000627619,0.005,1.70245,-0.000799212,-0.00159721,-0.456334,47.0611,-0.455907,-0.008214,18.6239,0.412977,1.04589,0.41414,-2.81593,0.043324,0.0113938,-2.11084,0.0569691,0.354492,0.0576768,0.342431,-0.0404841,23.4648,23.3229,23.1527,23.2946,23.1952,23.2662,23.1101,
128,6.27284,1.38032,3.15334,4.13133,6.27424,1.97408,1.55573,-2.30582e-05,-0.0315694,-8.20102e-05,0.072116,0.00084943,-0.0491577,0.000143181,0.486532,-14.9069,-0.618844,-5.18908,0.907293,-56.9581,1.53307,0.0290397,-20,-0.560012,-0.426239,-0.040858,-2.81235,0.0436865,-0.000157265,0.0168954,-0.000160155,0.495336,0.00127353,0.072812,0.0275544,0.000263858,0.00641021,1.91836,-0.00063263,0.005,1.70173,-0.000806839,-0.00126918,-0.460022,47.2529,-0.459988,-0.008214,18.6239,0.412977,1.04589,0.41414,-2.81593,0.043324,0.0113938,-2.11084,0.0569691,0.354492,0.0576768,0.342431,-0.0404841,23.4648,23.3229,23.1527,23.2946,23.1952,23.2662,23.1101,
129,6.27284,1.38026,3.15334,4.13148,6.27425,1.97398,1.55574,-2.25763e-05,-0.0315671,-8.2011e-05,0.0753572,0.000847845,-0.0502381,0.00015367,0.486542,-14.9048,-0.618909,-5.18917,0.907163,-56.9559,1.53288,0.0290217,-20,-0.560037,-0.423892,-0.0408547,-2.81248,0.0436836,-0.000157265,0.0168954,-0.000160155,0.495336,0.00127353,0.072812,0.0284944,0.000268967,0.00625666,1.91836,-0.00063263,0.005,1.70173,-0.000806839,-0.00126918,-0.460022,47.2529,-0.459988,0.0125508,18.4476,0.403886,1.02067,0.41007,-2.8039,0.0317915,0,-2.09479,0.0563965,0.249886,0.0525229,0.286039,-0.0444942,23.4648,23.3229,23.1527,23.2804,23.1952,23.2662,23.1243,
130,6.27284,1.38022,3.15334,4.13156,6.27425,1.97393,1.55574,-2.20789e-05,-0.0324117,-8.20102e-05,0.0739071,0.00087434,-0.0511568,0.000153787,0.487825,-15.0044,-0.621835,-5.27024,0.909705,-57.3436,1.54126,0.0293509,-20,-0.561607,-0.437037,-0.0408656,-2.85181,0.0441202,-0.000158683,0.0170081,-0.00016184,0.495336,0.00127353,0.072812,0.0282539,0.00026858,0.00651991,1.91724,-0.000641856,0.005,1.69987,-0.00081974,-0.00113099,-0.464304,47.6221,-0.465117,0.0108304,18.3415,0.395131,0.955547,0.413272,-2.80296,0.0379793,0,-2.09473,0.0490066,0.209473,0.0605589,0.269928,-0.0322266,23.4506,23.3229,23.1527,23.2946,23.2236,23.2804,23.1385,
131,6.27284,1.38019,3.15334,4.13163,6.27425,1.97388,1.55574,-2.20789e-05,-0.0351127,-8.20102e-05,0.0746226,0.000898062,-0.0502381,0.000153785,0.488283,-15.0318,-0.624334,-5.29263,0.906005,-57.4553,1.54738,0.0294634,-20,-0.562182,-0.439838,-0.0408905,-2.86325,0.0446387,-0.000160484,0.0170646,-0.000163895,0.495336,0.00127353,0.072812,0.0290268,0.000279792,0.00768977,1.91665,-0.000649131,0.005,1.69956,-0.00082594,-0.00136792,-0.469373,47.7287,-0.470477,0.00547755,18.2392,0.387788,0.881106,0.396552,-2.78584,0.0408173,0.0180152,-2.03835,0.0490066,0.233781,0.0645789,0.249756,-0.0444942,23.4648,23.3087,23.1527,23.252,23.1952,23.2804,23.1243,
132,6.27284,1.38015,3.15334,4.13171,6.27425,1.97382,1.55574,-2.16368e-05,-0.0367333,-8.20721e-05,0.0763601,0.000935251,-0.052076,0.000153788,0.48928,-15.1061,-0.626708,-5.35299,0.907676,-57.757,1.55553,0.0297185,-20,-0.563375,-0.449306,-0.0408969,-2.89416,0.0451483,-0.000161854,0.017123,-0.000164981,0.495336,0.00127353,0.072812,0.0298726,0.000287705,0.0081224,1.91608,-0.00065436,0.005,1.69835,-0.000840737,-0.00242079,-0.474349,48.0165,-0.474727,0.0121452,18.0833,0.380172,0.81948,0.414098,-2.76907,0.0542953,0.0113938,-1.98195,0.0563965,0.209473,0.0644531,0.205484,-0.0404841,23.4506,23.3229,23.1527,23.3087,23.2094,23.2804,23.1101,
133,6.27284,1.38011,3.15334,4.13179,6.27425,1.97377,1.55574,-2.16368e-05,-0.0376153,-8.20102e-05,0.0777881,0.000974388,-0.0540195,0.00016174,0.490021,-15.1599,-0.628705,-5.39837,0.908141,-57.9735,1.56289,0.0299038,-20,-0.564268,-0.456175,-0.040905,-2.91645,0.0456709,-0.000163258,0.0171832,-0.00016606,0.495336,0.00127353,0.072812,0.030474,0.000293507,0.0082533,1.91549,-0.000659687,0.005,1.69706,-0.000852653,-0.00281016,-0.479494,48.2246,-0.47844,0.0208108,18.0058,0.356437,0.708239,0.430863,-2.72352,0.0624081,-0.0161133,-1.94972,0.0563965,0.169381,0.0645789,0.201456,-0.0362549,23.4506,23.3229,23.1527,23.2946,23.2094,23.2804,23.1243,
134,6.27284,1.38008,3.15334,4.13187,6.27425,1.97371,1.55574,-3.17699e-05,-0.0372357,-8.20102e-05,0.0764844,0.000998685,-0.0536645,0.000161741,0.490717,-15.208,-0.631173,-5.43854,0.906667,-58.1639,1.56761,0.0300752,-20,-0.565111,-0.462006,-0.0409233,-2.93598,0.0459582,-0.000163986,0.0172467,-0.000167613,0.495336,0.00127353,0.072812,0.0300173,0.000296853,0.00816067,1.91488,-0.00066622,0.005,1.69596,-0.000863755,-0.00292797,-0.482292,48.407,-0.483343,0.0555108,17.9115,0.385655,0.590967,0.408973,-2.7075,0.0489553,0.00805664,-1.94167,0.0563965,0.121118,0.076644,0.189331,-0.0293266,23.4506,23.3229,23.1527,23.2804,23.2094,23.2804,23.1243,
135,6.27284,1.38008,3.15334,4.13187,6.27425,1.97371,1.55574,-3.17699e-05,-0.0372357,-8.20102e-05,0.0764844,0.000998685,-0.0536645,0.000161741,0.491221,-15.2425,-0.633497,-5.46465,0.903873,-58.2967,1.57277,0.030209,-20,-0.565742,-0.466494,-0.0409496,-2.9492,0.0463489,-0.000165446,0.0173075,-0.000169209,0.495336,0.00127353,0.072812,0.0300173,0.000296853,0.00816067,1.91425,-0.000675904,0.005,1.69581,-0.000875481,-0.0028446,-0.48607,48.5314,-0.488341,0.0555108,17.9115,0.385655,0.590967,0.408973,-2.7075,0.0489553,0.00805664,-1.94167,0.0563965,0.121118,0.076644,0.189331,-0.0293266,23.4506,23.3229,23.1527,23.2804,23.2094,23.2804,23.1243,
136,6.27284,1.38004,3.15334,4.13194,6.27425,1.97366,1.55574,-3.1159e-05,-0.0353828,-8.2011e-05,0.0726562,0.00102978,-0.0550999,0.000161741,0.491241,-15.2419,-0.633546,-5.46442,0.903799,-58.2963,1.57266,0.0301989,-20,-0.565747,-0.465126,-0.0409484,-2.94933,0.0463442,-0.000165446,0.0173075,-0.000169209,0.495336,0.00127353,0.072812,0.0285235,0.000284988,0.0073232,1.91425,-0.000675904,0.005,1.69581,-0.000875481,-0.0028446,-0.48607,48.5314,-0.488341,0.0721316,17.8457,0.405509,0.499208,0.399399,-2.6884,0.0420553,0.0180152,-1.94972,0.0563965,0.153076,0.0684814,0.165161,-0.036478,23.4648,23.3087,23.1243,23.2804,23.2094,23.2804,23.1385,
137,6.27284,1.38001,3.15334,4.13201,6.27426,1.9736,1.55574,-3.12047e-05,-0.0329519,-8.20721e-05,0.0696851,0.00106041,-0.0578009,0.00016174,0.491101,-15.2241,-0.634667,-5.44841,0.898831,-58.2223,1.57472,0.0301472,-20,-0.565602,-0.460843,-0.0409717,-2.9416,0.0466509,-0.000167012,0.0173598,-0.000170694,0.495336,0.00127353,0.072812,0.0271582,0.000271988,0.00610867,1.91369,-0.000681962,0.005,1.69665,-0.000870255,-0.00209088,-0.489145,48.4591,-0.491236,0.130816,17.7114,0.37075,0.447123,0.415718,-2.65657,0.0326746,0.0113938,-1.98999,0.0490066,0.217529,0.076644,0.145075,-0.0404841,23.4648,23.3229,23.1669,23.2946,23.1952,23.2662,23.1243,
138,6.27284,1.38001,3.15334,4.13201,6.27426,1.9736,1.55574,-3.12047e-05,-0.0329519,-8.20721e-05,0.0696851,0.00106041,-0.0578009,0.00016174,0.490803,-15.1935,-0.636005,-5.42299,0.891817,-58.0934,1.57678,0.0300681,-20,-0.565291,-0.456279,-0.041004,-2.92819,0.047012,-0.000168738,0.017404,-0.000172593,0.495336,0.00127353,0.072812,0.0271582,0.000271988,0.00610867,1.91315,-0.000688739,0.005,1.6974,-0.000864655,-0.000997805,-0.492681,48.3353,-0.494984,0.130816,17.7114,0.37075,0.447123,0.415718,-2.65657,0.0326746,0.0113938,-1.98999,0.0490066,0.217529,0.076644,0.145075,-0.0404841,23.4648,23.3229,23.1669,23.2946,23.1952,23.2662,23.1243,
139,6.27284,1.37998,3.15334,4.13207,6.27426,1.97354,1.55574,-3.06152e-05,-0.0307911,-8.20102e-05,0.069145,0.00109292,-0.0599009,0.000169697,0.490816,-15.1927,-0.636046,-5.42274,0.89171,-58.0928,1.57662,0.0300589,-20,-0.565299,-0.455034,-0.0410031,-2.92828,0.0470049,-0.000168738,0.017404,-0.000172593,0.495336,0.00127353,0.072812,0.0265523,0.000265755,0.00503268,1.91315,-0.000688739,0.005,1.6974,-0.000864655,-0.000997805,-0.492681,48.3353,-0.494984,0.0934767,17.6443,0.344685,0.422163,0.429423,-2.60259,0.0366118,0,-2.05444,0.0563965,0.257938,0.0765381,0.149102,-0.0293266,23.4506,23.3087,23.1527,23.2946,23.2236,23.2804,23.1243,
140,6.27284,1.37995,3.15334,4.13215,6.27426,1.97348,1.55574,-3.06157e-05,-0.0290891,-8.20102e-05,0.0687106,0.00119581,-0.0617472,0.000180302,0.490824,-15.1841,-0.638048,-5.41639,0.885308,-58.0534,1.57731,0.0300488,-20,-0.565349,-0.45269,-0.0410356,-2.92418,0.0471437,-0.000169503,0.0174435,-0.000174454,0.495336,0.00127353,0.072812,0.0260729,0.000268266,0.00416545,1.91263,-0.000695337,0.005,1.69747,-0.000864983,-2.94156e-05,-0.494078,48.298,-0.499767,0.102975,17.5964,0.342347,0.403784,0.444058,-2.57189,0.0422059,-0.0180152,-2.09473,0.041081,0.249886,0.0846906,0.132996,-0.0324774,23.4506,23.3229,23.1527,23.2804,23.1952,23.2662,23.1101,
141,6.27284,1.37992,3.15334,4.13221,6.27426,1.97342,1.55574,-3.00052e-05,-0.0280901,-8.20102e-05,0.067456,0.00124331,-0.0625991,0.000180302,0.490972,-15.1808,-0.641462,-5.41427,0.875641,-58.0354,1.58229,0.0300766,-20,-0.565567,-0.451248,-0.0410878,-2.92229,0.0477022,-0.000171451,0.0174815,-0.000176765,0.495336,0.00127353,0.072812,0.0255022,0.000266421,0.00369522,1.91208,-0.000702991,0.005,1.6974,-0.000874131,0.000751092,-0.499556,48.2812,-0.507889,0.0781431,17.5243,0.351105,0.410515,0.442753,-2.54229,0.049905,-0.0113938,-2.13503,0.0563965,0.265991,0.080667,0.128969,-0.0293266,23.4648,23.2946,23.1527,23.2946,23.1952,23.2804,23.1243,
142,6.27284,1.37992,3.15334,4.13221,6.27426,1.97342,1.55574,-3.00052e-05,-0.0280901,-8.20102e-05,0.067456,0.00124331,-0.0625991,0.000180302,0.491079,-15.1803,-0.643705,-5.41364,0.869461,-58.0297,1.58654,0.0301051,-20,-0.565723,-0.451128,-0.041122,-2.92158,0.0481539,-0.000173106,0.0175139,-0.000178571,0.495336,0.00127353,0.072812,0.0255022,0.000266421,0.00369522,1.91157,-0.000709311,0.005,1.69747,-0.000878158,0.0011743,-0.503948,48.2753,-0.513252,0.0781431,17.5243,0.351105,0.410515,0.442753,-2.54229,0.049905,-0.0113938,-2.13503,0.0563965,0.265991,0.080667,0.128969,-0.0293266,23.4648,23.2946,23.1527,23.2946,23.1952,23.2804,23.1243,
143,6.27284,1.37989,3.15334,4.13228,6.27427,1.97335,1.55574,-3.00052e-05,-0.0269824,-7.67192e-05,0.0656337,0.00128687,-0.0656337,0.000180302,0.491089,-15.1796,-0.643741,-5.41325,0.869327,-58.0294,1.58633,0.0300963,-20,-0.56573,-0.44996,-0.0411218,-2.92165,0.0481444,-0.000173106,0.0175139,-0.000178571,0.495336,0.00127353,0.072812,0.0247474,0.000258018,0.0029577,1.91157,-0.000709311,0.005,1.69747,-0.000878158,0.0011743,-0.503948,48.2753,-0.513252,0.12137,17.4018,0.360836,0.407971,0.451617,-2.52189,0.0502639,0,-2.13503,0.041081,0.282442,0.0814677,0.104736,-0.0284845,23.4506,23.2946,23.1669,23.2946,23.1952,23.252,23.1101,
144,6.27284,1.37987,3.15334,4.13234,6.27427,1.97329,1.55574,-2.94592e-05,-0.0275499,-7.67199e-05,0.063743,0.00131403,-0.066444,0.000180302,0.490884,-15.1513,-0.645766,-5.39143,0.860892,-57.9159,1.58938,0.0300314,-20,-0.565513,-0.445152,-0.0411593,-2.91017,0.0486027,-0.000174943,0.0175405,-0.000180801,0.495336,0.00127353,0.072812,0.024321,0.000256274,0.00312633,1.91109,-0.000716455,0.005,1.69771,-0.000877025,0.00183807,-0.508466,48.1682,-0.518473,0.0988714,17.3362,0.353208,0.421035,0.453647,-2.49373,0.0579813,-0.0113938,-2.15919,0.0483398,0.298205,0.0887145,0.109063,-0.0293266,23.4364,23.2946,23.1527,23.2662,23.1952,23.2662,23.1385,
145,6.27284,1.37984,3.15333,4.13241,6.27427,1.97321,1.55574,-2.94592e-05,-0.0285876,-8.20102e-05,0.063946,0.00134318,-0.0672059,0.000180302,0.490984,-15.1504,-0.647085,-5.39115,0.85739,-57.9166,1.59301,0.0300483,-20,-0.565616,-0.444026,-0.0411754,-2.91039,0.0489874,-0.000176357,0.0175647,-0.000182015,0.495336,0.00127353,0.072812,0.024599,0.000262137,0.00346037,1.91061,-0.000721429,0.005,1.69766,-0.000879932,0.0016863,-0.512303,48.1695,-0.521475,0.127864,17.2134,0.360836,0.445828,0.45286,-2.46928,0.0344359,-0.0180152,-2.1432,0.0402832,0.314312,0.0887145,0.0926514,-0.0284845,23.4506,23.3229,23.1527,23.2804,23.2094,23.2662,23.1243,
146,6.27284,1.37984,3.15333,4.13241,6.27427,1.97321,1.55574,-2.94592e-05,-0.0285876,-8.20102e-05,0.063946,0.00134318,-0.0672059,0.000180302,0.491379,-15.1728,-0.649483,-5.41031,0.853335,-58.0068,1.60076,0.0301531,-20,-0.566088,-0.447532,-0.0412024,-2.91971,0.0496876,-0.000178575,0.0175915,-0.000183788,0.495336,0.00127353,0.072812,0.024599,0.000262137,0.00346037,1.91009,-0.000730629,0.005,1.69694,-0.000893489,0.00138567,-0.519149,48.2564,-0.526837,0.127864,17.2134,0.360836,0.445828,0.45286,-2.46928,0.0344359,-0.0180152,-2.1432,0.0402832,0.314312,0.0887145,0.0926514,-0.0284845,23.4506,23.3229,23.1527,23.2804,23.2094,23.2662,23.1243,
147,6.27284,1.37981,3.15333,4.13248,6.27427,1.97315,1.55574,-2.88935e-05,-0.0302509,-7.67192e-05,0.0661739,0.00139999,-0.0675244,0.000190908,0.491375,-15.1718,-0.649511,-5.41003,0.853191,-58.0061,1.60056,0.0301445,-20,-0.566103,-0.446453,-0.0412017,-2.91972,0.0496807,-0.000178575,0.0175915,-0.000183788,0.495336,0.00127353,0.072812,0.0255938,0.000273986,0.0040645,1.91009,-0.000730629,0.005,1.69694,-0.000893489,0.00138567,-0.519149,48.2564,-0.526837,0.113539,17.1148,0.358679,0.462551,0.451181,-2.43813,0.0250586,-0.0113938,-2.14313,0.0509547,0.298205,0.0887145,0.0644531,-0.0322266,23.4506,23.3087,23.1527,23.2946,23.2094,23.2662,23.1101,
148,6.27284,1.37981,3.15333,4.13248,6.27427,1.97315,1.55574,-2.88935e-05,-0.0302509,-7.67192e-05,0.0661739,0.00139999,-0.0675244,0.000190908,0.492109,-15.2198,-0.652738,-5.45037,0.849655,-58.1979,1.60579,0.0303393,-20,-0.566978,-0.453767,-0.0412309,-2.93943,0.0500179,-0.000179311,0.01762,-0.000185503,0.495336,0.00127353,0.072812,0.0255938,0.000273986,0.0040645,1.90958,-0.000736839,0.005,1.69559,-0.000909743,0.000841948,-0.52236,48.4404,-0.533622,0.113539,17.1148,0.358679,0.462551,0.451181,-2.43813,0.0250586,-0.0113938,-2.14313,0.0509547,0.298205,0.0887145,0.0644531,-0.0322266,23.4506,23.3087,23.1527,23.2946,23.2094,23.2662,23.1101,
149,6.27284,1.37978,3.15333,4.13254,6.27427,1.97308,1.55574,-2.89333e-05,-0.0321416,-7.67192e-05,0.0679956,0.00145721,-0.0704954,0.000180302,0.492106,-15.2186,-0.652764,-5.4499,0.849513,-58.1971,1.60562,0.03033,-20,-0.566989,-0.452611,-0.0412299,-2.93945,0.0500134,-0.000179311,0.01762,-0.000185503,0.495336,0.00127353,0.072812,0.0265225,0.000283023,0.00448436,1.90958,-0.000736839,0.005,1.69559,-0.000909743,0.000841948,-0.52236,48.4404,-0.533622,0.127221,16.973,0.359193,0.516626,0.452054,-2.44943,0.0329246,0,-2.10278,0.0490066,0.22573,0.0926514,0.0490066,-0.0245033,23.4364,23.3371,23.1385,23.2804,23.1952,23.2804,23.1101,
150,6.27284,1.37974,3.15333,4.13261,6.27428,1.97301,1.55574,-2.84257e-05,-0.0340323,-7.14282e-05,0.066444,0.00156541,-0.0723128,0.000180302,0.492521,-15.2434,-0.654728,-5.47294,0.84699,-58.3002,1.61254,0.0304298,-20,-0.56748,-0.455874,-0.0412462,-2.95037,0.0506239,-0.000180806,0.0176493,-0.000186708,0.495336,0.00127353,0.072812,0.026473,0.000289726,0.0050711,1.90906,-0.000742083,0.005,1.69428,-0.000922595,0.000464078,-0.528401,48.5417,-0.537775,0.111515,16.8938,0.36295,0.580157,0.445035,-2.42449,0.0286516,0,-2.07057,0.0322266,0.201416,0.0970148,0.0523682,-0.0281982,23.4506,23.3229,23.1527,23.2804,23.1952,23.2804,23.1243,
151,6.27284,1.3797,3.15333,4.13268,6.27428,1.97292,1.55574,-2.84257e-05,-0.0356091,-7.14289e-05,0.0662029,0.00163502,-0.077989,0.000180438,0.49276,-15.2488,-0.657364,-5.47849,0.840654,-58.3308,1.6185,0.0304814,-20,-0.567761,-0.455761,-0.0412786,-2.95382,0.0512251,-0.000182513,0.0176771,-0.00018836,0.495336,0.00127353,0.072812,0.0267427,0.000290478,0.00510671,1.90854,-0.000748321,0.005,1.69386,-0.000934243,-6.39877e-05,-0.534293,48.5724,-0.54385,0.112468,16.7962,0.389908,0.599238,0.441279,-2.40985,0.0434202,-0.00805664,-2.03833,0.0402832,0.217529,0.0970148,0.0525229,-0.0284845,23.4648,23.3229,23.1527,23.2946,23.1952,23.2662,23.1243,
152,6.27284,1.3797,3.15333,4.13268,6.27428,1.97292,1.55574,-2.84257e-05,-0.0356091,-7.14289e-05,0.0662029,0.00163502,-0.077989,0.000180438,0.492615,-15.2307,-0.658119,-5.46757,0.836851,-58.2613,1.6232,0.0304429,-20,-0.56757,-0.454179,-0.041292,-2.94722,0.0517834,-0.000184097,0.0177022,-0.000189403,0.495336,0.00127353,0.072812,0.0267427,0.000290478,0.00510671,1.90797,-0.000753546,0.005,1.6931,-0.000939621,-9.60357e-05,-0.5398,48.51,-0.545983,0.112468,16.7962,0.389908,0.599238,0.441279,-2.40985,0.0434202,-0.00805664,-2.03833,0.0402832,0.217529,0.0970148,0.0525229,-0.0284845,23.4648,23.3229,23.1527,23.2946,23.1952,23.2662,23.1243,
153,6.27284,1.37967,3.15333,4.13274,6.27428,1.97284,1.55574,-2.78987e-05,-0.036696,-6.87834e-05,0.0656337,0.00171735,-0.0810292,0.000190908,0.492619,-15.2298,-0.658156,-5.46688,0.836689,-58.2611,1.623,0.0304325,-20,-0.567579,-0.452928,-0.0412914,-2.94726,0.0517771,-0.000184097,0.0177022,-0.000189403,0.495336,0.00127353,0.072812,0.0268109,0.000293891,0.00522968,1.90797,-0.000753546,0.005,1.6931,-0.000939621,-9.60357e-05,-0.5398,48.51,-0.545983,0.101842,16.6891,0.401466,0.610568,0.442014,-2.40199,0.0481022,-0.00805664,-2.00612,0.0490066,0.209628,0.100789,0.0645789,-0.0245033,23.4648,23.3087,23.1527,23.2946,23.1952,23.2804,23.1385,
154,6.27284,1.37963,3.15333,4.13281,6.27428,1.97276,1.55574,-2.78987e-05,-0.0372735,-6.87834e-05,0.0656337,0.00180167,-0.0829199,0.000190908,0.492676,-15.2229,-0.66017,-5.4635,0.830663,-58.2386,1.62538,0.0304359,-20,-0.567647,-0.451411,-0.0413191,-2.94532,0.0520709,-0.000184893,0.0177232,-0.000190912,0.495336,0.00127353,0.072812,0.0269353,0.000300418,0.0052632,1.90744,-0.000759592,0.005,1.69257,-0.000948135,-0.000206714,-0.542695,48.491,-0.550759,0.0913056,16.5858,0.416234,0.631372,0.442777,-2.37886,0.0422012,-0.0241699,-1.99806,0.0433863,0.225586,0.0926514,0.0845947,-0.0322266,23.4364,23.3229,23.1527,23.2804,23.2094,23.2662,23.1243,
155,6.27284,1.37963,3.15333,4.13281,6.27428,1.97276,1.55574,-2.78987e-05,-0.0372735,-6.87834e-05,0.0656337,0.00180167,-0.0829199,0.000190908,0.492847,-15.2259,-0.662496,-5.46777,0.824754,-58.2511,1.63124,0.0304813,-20,-0.567855,-0.452349,-0.041351,-2.9468,0.052667,-0.000186627,0.0177429,-0.000192397,0.495336,0.00127353,0.072812,0.0269353,0.000300418,0.0052632,1.90691,-0.000765604,0.005,1.69198,-0.00095942,-0.00023688,-0.548511,48.5048,-0.556273,0.0913056,16.5858,0.416234,0.631372,0.442777,-2.37886,0.0422012,-0.0241699,-1.99806,0.0433863,0.225586,0.0926514,0.0845947,-0.0322266,23.4364,23.3229,23.1527,23.2804,23.2094,23.2662,23.1243,
