LWingKi/MAS_RnD/log/us2/contactless/46/grasp_log_12_08_2023_16_23_06.csv
Index,joint_angle_0,joint_angle_1,joint_angle_2,joint_angle_3,joint_angle_4,joint_angle_5,joint_angle_6,joint_velocity_0,joint_velocity_1,joint_velocity_2,joint_velocity_3,joint_velocity_4,joint_velocity_5,joint_velocity_6,joint_accel_0,joint_accel_1,joint_accel_2,joint_accel_3,joint_accel_4,joint_accel_5,joint_accel_6,constraint_tau_0,constraint_tau_1,constraint_tau_2,constraint_tau_3,constraint_tau_4,constraint_tau_5,constraint_tau_6,current_pos_x,current_pos_y,current_pos_z,target_pos_x,target_pos_y,target_pos_z,current_vel_x,current_vel_y,current_vel_z,target_vel_x,target_vel_y,target_vel_z,control_signal_linear_x,control_signal_linear_y,control_signal_linear_z,control_signal_angular_x,control_signal_angular_y,control_signal_angular_z,joint_torque_0,joint_torque_1,joint_torque_2,joint_torque_3,joint_torque_4,joint_torque_5,joint_torque_6,actuar_current_0,actuar_current_1,actuar_current_2,actuar_current_3,actuar_current_4,actuar_current_5,actuar_current_6,actuar_voltage_0,actuar_voltage_1,actuar_voltage_2,actuar_voltage_3,actuar_voltage_4,actuar_voltage_5,actuar_voltage_6
0,6.27335,1.38303,3.15333,4.11986,6.27415,1.9769,1.55566,0.00621224,0.019967,-4.76193e-05,0.0875182,0.00173128,0.0428814,1.0606e-05,0.355566,-1.04322,-1.04621,5.51573,-1.70584,-3.02121,0.342949,-0.00463021,-17.8977,-0.402071,1.29312,-0.051164,2.6036,-0.0100273,2.48006e-05,-0.00131496,-0.000633592,0.495529,0.00106882,0.074412,0.0210747,-0.00207268,-0.00492063,2.00854,-0.00552988,0.005,1.80769,-0.00497689,0.0045,0.0669617,-3.5504,-1.7107,1.11297,1.095,-0.2733,5.57422,0.452353,5.57551,0.0713093,0.652588,0.233643,0.0805664,-0.0569691,-0.0726216,-0.563965,-0.193401,23.479,23.3655,23.1811,23.3229,23.2378,23.3087,23.1527,
1,6.27336,1.38305,3.15333,4.11994,6.27415,1.97694,1.55566,0.00648234,0.0195599,-4.76193e-05,0.085804,0.00177509,0.0464568,1.06059e-05,0.335767,-2.95264,-0.309158,4.01904,0.518273,-10.2738,0.608387,-0.00989468,-19.0483,-0.375272,1.02975,-0.0387514,1.87755,-0.000254652,0,0,0,0.495529,0.00106882,0.074412,0.020664,-0.00217238,-0.0043492,2,0,0.005,1.78103,0.00186541,0.00892857,-0.0348818,3.31189,0.0886963,1.08146,1.17184,-0.282035,5.64282,0.437383,5.54242,0.0730884,0.652638,0.258316,0.072956,-0.0433863,-0.0805664,-0.580092,-0.177292,23.4932,23.3655,23.1811,23.3229,23.2378,23.3087,23.1527,
2,6.27337,1.38307,3.15333,4.12003,6.27415,1.97699,1.55566,0.00701858,0.019447,-4.76548e-05,0.0861611,0.00178315,0.0464568,1.0598e-05,0.336611,-3.05241,-0.304164,3.94567,0.543561,-10.6641,0.617016,-0.00967667,-19.1092,-0.376262,1.01778,-0.0386151,1.83862,6.5243e-05,-1.0436e-06,0.000109688,3.25786e-06,0.495529,0.00106882,0.074412,0.0207905,-0.00238304,-0.00430968,1.9996,4.34534e-05,0.005,1.78104,0.00199425,0.00841428,-0.0378513,3.67607,0.103363,1.11142,1.25528,-0.26229,5.67319,0.428104,5.53169,0.0664477,0.620361,0.281982,0.0644531,-0.0113938,-0.0846906,-0.60829,-0.217529,23.4932,23.3655,23.1669,23.3087,23.2236,23.2946,23.1527,
3,6.27337,1.38309,3.15333,4.12011,6.27415,1.97704,1.55566,0.00727853,0.019447,-5.03023e-05,0.0877817,0.00173432,0.0483474,0,0.336898,-3.13943,-0.291684,3.87998,0.588497,-10.9996,0.624288,-0.00960563,-19.1625,-0.376555,1.00701,-0.0383503,1.80509,0.000203809,-1.47237e-06,0.000220996,9.57926e-06,0.495529,0.00106882,0.074412,0.0212574,-0.0024839,-0.00413693,1.99919,0.000102597,0.005,1.78056,0.00223708,0.00837872,-0.0391909,3.99069,0.136171,1.0882,1.34885,-0.232855,5.72604,0.447294,5.51403,0.0608437,0.62847,0.281982,0.0563965,0.00805664,-0.072956,-0.592163,-0.209473,23.479,23.3655,23.1669,23.2804,23.2236,23.2946,23.1385,
4,6.27338,1.38311,3.15333,4.12021,6.27416,1.97709,1.55566,0.00675244,0.0199872,-5.02643e-05,0.0907782,0.00181101,0.0501065,0,0.337753,-3.2538,-0.284822,3.79333,0.619918,-11.4426,0.636336,-0.00937028,-19.2324,-0.377628,0.992585,-0.0381781,1.76078,0.000794707,-3.52442e-06,0.000335882,1.37566e-05,0.495529,0.00106882,0.074412,0.0220071,-0.00226094,-0.00421623,1.99877,0.000149625,0.005,1.77976,0.00237017,0.00822324,-0.0448588,4.40623,0.155165,1.11399,1.45971,-0.2364,5.77463,0.463974,5.54512,0.0595206,0.644531,0.290151,0.072956,-0.0113938,-0.072956,-0.592177,-0.209511,23.479,23.3371,23.1669,23.3229,23.2236,23.2946,23.1243,
5,6.27339,1.38313,3.15333,4.1203,6.27416,1.97714,1.55566,0.00675244,0.0203122,-5.03023e-05,0.0921032,0.00175529,0.0529391,0,0.339534,-3.38535,-0.290735,3.69317,0.616279,-11.9512,0.646551,-0.00889813,-19.3126,-0.379824,0.975585,-0.0382576,1.70991,0.00134743,-4.86898e-06,0.000465801,1.62754e-05,0.495529,0.00106882,0.074412,0.0223196,-0.00226013,-0.00406688,1.9983,0.000191308,0.005,1.77866,0.00220702,0.0082946,-0.049861,4.88343,0.142237,1.09768,1.52359,-0.227342,5.81527,0.471238,5.55133,0.0709072,0.628418,0.290039,0.072956,-0.041081,-0.0725098,-0.612318,-0.205444,23.479,23.3371,23.1669,23.2946,23.2378,23.2946,23.1385,
6,6.27339,1.38315,3.15333,4.12039,6.27416,1.9772,1.55566,0.00753847,0.0199872,-5.55978e-05,0.0930892,0.00172743,0.0529391,0,0.340739,-3.50725,-0.28726,3.60107,0.63913,-12.4239,0.654631,-0.00859005,-19.387,-0.381214,0.960219,-0.0381595,1.66263,0.00155924,-5.73285e-06,0.000587346,2.03844e-05,0.495529,0.00106882,0.074412,0.0226724,-0.00257005,-0.00395423,1.99786,0.000239615,0.005,1.77799,0.00224977,0.00816019,-0.0516596,5.32659,0.153128,1.09623,1.57029,-0.207113,5.80843,0.466436,5.54055,0.0704818,0.612305,0.153288,0.0649547,-0.041081,-0.0684814,-0.616333,-0.205602,23.4648,23.3513,23.1811,23.3087,23.2094,23.2946,23.1243,
7,6.2734,1.38317,3.15333,4.12049,6.27416,1.97725,1.55566,0.00753847,0.0167291,-5.55978e-05,0.0954412,0.00169956,0.0550999,0,0.341056,-3.6105,-0.271996,3.52187,0.694158,-12.8225,0.665235,-0.0085143,-19.4504,-0.381531,0.947074,-0.0378278,1.62271,0.00189929,-6.93544e-06,0.000711689,2.64716e-05,0.495529,0.00106882,0.074412,0.0240354,-0.00255825,-0.00247624,1.99741,0.000298505,0.005,1.77727,0.0025817,0.00805881,-0.0550208,5.70165,0.193544,1.05534,1.60991,-0.209859,5.82953,0.464707,5.51342,0.070733,0.58819,-0.0569691,0.0563965,-0.041081,-0.0645789,-0.588149,-0.205484,23.4648,23.3371,23.1811,23.2946,23.2378,23.2946,23.1527,
8,6.27341,1.38318,3.15333,4.12059,6.27416,1.97731,1.55566,0.00702253,0.011074,-5.55553e-05,0.0987098,0.00169956,0.0556182,0,0.342687,-3.76837,-0.269109,3.39894,0.719135,-13.4458,0.676815,-0.00808357,-19.547,-0.383465,0.9261,-0.0377179,1.55976,0.00230396,-7.86882e-06,0.000843354,3.05138e-05,0.495529,0.00106882,0.074412,0.0261672,-0.00233552,-0.00023933,1.99694,0.000346431,0.005,1.77562,0.00261422,0.00672862,-0.0586316,6.29027,0.203438,1.08049,1.68152,-0.215492,5.79361,0.462111,5.43754,0.0549099,0.596191,-0.242236,0.0490066,-0.041081,-0.0649547,-0.588149,-0.209473,23.4932,23.3655,23.1811,23.2946,23.2094,23.3087,23.1527,
9,6.27341,1.38318,3.15333,4.12059,6.27416,1.97731,1.55566,0.00702253,0.011074,-5.55553e-05,0.0987098,0.00169956,0.0556182,0,0.345058,-3.95418,-0.273777,3.25456,0.724813,-14.1834,0.691252,-0.00745358,-19.659,-0.386264,0.900326,-0.0377614,1.48525,0.00301347,-9.35667e-06,0.000996307,3.33809e-05,0.495529,0.00106882,0.074412,0.0261672,-0.00233552,-0.00023933,1.99638,0.000391471,0.005,1.77319,0.0024543,0.0047154,-0.0650109,6.98649,0.194339,1.08049,1.68152,-0.215492,5.79361,0.462111,5.43754,0.0549099,0.596191,-0.242236,0.0490066,-0.041081,-0.0649547,-0.588149,-0.209473,23.4932,23.3655,23.1811,23.2946,23.2094,23.3087,23.1527,
10,6.27342,1.38318,3.15333,4.12069,6.27416,1.97737,1.55566,0.00729263,0.00175538,-6.08463e-05,0.100476,0.0016427,0.0567205,0,0.345162,-3.9531,-0.274067,3.25291,0.724911,-14.1807,0.691375,-0.00745063,-19.6598,-0.38629,0.900713,-0.0377586,1.4852,0.00301375,-9.35667e-06,0.000996307,3.33809e-05,0.495529,0.00106882,0.074412,0.0286367,-0.00242245,0.00353644,1.99638,0.000391471,0.005,1.77319,0.0024543,0.0047154,-0.0650109,6.98649,0.194339,1.05298,1.73186,-0.22567,5.74991,0.469002,5.36206,0.0487386,0.612358,-0.378748,0.041081,-0.0563965,-0.0644531,-0.580134,-0.197429,23.479,23.3655,23.1811,23.3087,23.2094,23.3087,23.1385,
11,6.27342,1.38318,3.15333,4.12079,6.27416,1.97742,1.55566,0.00728208,-0.00756273,-6.35397e-05,0.100476,0.00158971,0.0588813,0,0.347196,-4.15716,-0.266962,3.09136,0.767799,-15.0021,0.708882,-0.00693081,-19.7843,-0.38852,0.872625,-0.0375458,1.40152,0.00371008,-1.07835e-05,0.00114954,3.82621e-05,0.495529,0.00106882,0.074412,0.0305953,-0.00240054,0.00745616,1.99582,0.00044081,0.005,1.77046,0.00257693,0.0013172,-0.0714226,7.76584,0.216056,1.05494,1.84385,-0.217875,5.68929,0.473804,5.29761,0.0473217,0.620414,-0.402913,0.0322266,-0.072956,-0.0525229,-0.56805,-0.205484,23.479,23.3513,23.1811,23.3087,23.2378,23.2946,23.1669,
12,6.27343,1.38316,3.15333,4.12089,6.27416,1.97749,1.55566,0.00780223,-0.0109389,-6.35397e-05,0.102907,0.00156321,0.0626626,0,0.349484,-4.36428,-0.263725,2.93022,0.79989,-15.8361,0.725566,-0.00635198,-19.9105,-0.391053,0.844965,-0.0374153,1.31682,0.00437914,-1.22456e-05,0.00131396,4.26733e-05,0.495529,0.00106882,0.074412,0.0320053,-0.00259169,0.0091538,1.99521,0.000490175,0.005,1.76816,0.00260164,-0.00221055,-0.0774687,8.55414,0.228124,1.01863,2.02821,-0.20825,5.61964,0.472868,5.25443,0.0501999,0.612305,-0.427078,0.0254773,-0.0805664,-0.0485074,-0.572036,-0.197388,23.479,23.3655,23.1669,23.3229,23.2236,23.2946,23.1527,
13,6.27343,1.38316,3.15333,4.12089,6.27416,1.97749,1.55566,0.00780223,-0.0109389,-6.35397e-05,0.102907,0.00156321,0.0626626,0,0.351261,-4.57192,-0.25383,2.77153,0.850207,-16.6513,0.741587,-0.00587984,-20,-0.393113,0.816989,-0.0371576,1.23499,0.00488114,-1.35274e-05,0.00149143,4.81156e-05,0.495529,0.00106882,0.074412,0.0320053,-0.00259169,0.0091538,1.99457,0.000548977,0.005,1.76631,0.0028266,-0.00373842,-0.0820271,9.32094,0.256606,1.01863,2.02821,-0.20825,5.61964,0.472868,5.25443,0.0501999,0.612305,-0.427078,0.0254773,-0.0805664,-0.0485074,-0.572036,-0.197388,23.479,23.3655,23.1669,23.3229,23.2236,23.2946,23.1527,
14,6.27344,1.38314,3.15333,4.121,6.27417,1.97755,1.55566,0.00864312,-0.0188877,-6.87827e-05,0.104821,0.00156321,0.0646983,0,0.351431,-4.57074,-0.254298,2.76982,0.850343,-16.6484,0.741747,-0.00587983,-20,-0.393137,0.817549,-0.0371624,1.2349,0.00488,-1.35274e-05,0.00149143,4.81156e-05,0.495529,0.00106882,0.074412,0.0342284,-0.00290031,0.0124864,1.99457,0.000548977,0.005,1.76631,0.0028266,-0.00373842,-0.0820271,9.32094,0.256606,1.01582,2.28454,-0.20825,5.57361,0.484275,5.19885,0.0538408,0.604248,-0.572078,0.041081,-0.088623,-0.0525229,-0.580092,-0.209473,23.4648,23.3513,23.1952,23.3087,23.2236,23.3087,23.1527,
15,6.27345,1.38312,3.15333,4.12111,6.27417,1.97762,1.55566,0.00945341,-0.023252,-7.41297e-05,0.104258,0.00151531,0.0675244,0,0.353634,-4.80783,-0.242748,2.58486,0.910909,-17.5932,0.764695,-0.00533698,-20,-0.39547,0.785783,-0.0368327,1.13914,0.00584984,-1.58645e-05,0.00169005,5.2264e-05,0.495529,0.00106882,0.074412,0.0349815,-0.00321256,0.0145279,1.99385,0.000601937,0.005,1.76366,0.00315202,-0.00673778,-0.0911564,10.2141,0.291428,0.916315,2.50044,-0.192172,5.5588,0.467425,5.14783,0.0442171,0.580078,-0.564022,0.0241699,-0.105969,-0.045038,-0.584106,-0.197429,23.479,23.3513,23.1669,23.3087,23.2236,23.2946,23.1385,
16,6.27346,1.38309,3.15333,4.12121,6.27417,1.97769,1.55566,0.0110338,-0.0270575,-7.94246e-05,0.106041,0.00154057,0.0713057,0,0.355161,-5.00102,-0.227059,2.43669,0.978463,-18.3557,0.78185,-0.00500148,-20,-0.396905,0.760853,-0.0364708,1.0623,0.00639676,-1.75477e-05,0.00188243,5.96075e-05,0.495529,0.00106882,0.074412,0.0362946,-0.00381773,0.0164087,1.99316,0.000670895,0.005,1.76236,0.00349511,-0.00857507,-0.0963149,10.9324,0.335778,0.982946,2.84741,-0.175773,5.49422,0.467425,5.11556,0.0392931,0.572021,-0.644733,0.0161133,-0.0805664,-0.0490066,-0.596205,-0.197429,23.479,23.3371,23.1811,23.3087,23.2236,23.3087,23.1527,
17,6.27347,1.38306,3.15333,4.12132,6.27417,1.97777,1.55566,0.010793,-0.0302509,-8.20721e-05,0.109119,0.00156827,0.0760903,0,0.356428,-5.22578,-0.203602,2.26336,1.07134,-19.2376,0.804911,-0.00468175,-20,-0.398266,0.731453,-0.0359032,0.973522,0.0072398,-1.99246e-05,0.00208624,6.70026e-05,0.495529,0.00106882,0.074412,0.0378504,-0.00369949,0.0181313,1.99243,0.000748979,0.005,1.76052,0.00411003,-0.0102678,-0.104542,11.7637,0.400112,0.975532,3.18984,-0.152882,5.39228,0.461912,5.10778,0.0461932,0.531738,-0.757367,0.0254773,-0.0649547,-0.038216,-0.620374,-0.197429,23.4648,23.3513,23.1811,23.3229,23.2378,23.2804,23.1385,
18,6.27347,1.38306,3.15333,4.12132,6.27417,1.97777,1.55566,0.010793,-0.0302509,-8.20721e-05,0.109119,0.00156827,0.0760903,0,0.359128,-5.4715,-0.202731,2.07587,1.09887,-20.2012,0.824201,-0.00396415,-20,-0.401475,0.698398,-0.0358289,0.876884,0.00808469,-2.20663e-05,0.00229884,7.3274e-05,0.495529,0.00106882,0.074412,0.0378504,-0.00369949,0.0181313,1.99169,0.000819827,0.005,1.75845,0.00406739,-0.0118182,-0.112175,12.6694,0.405818,0.975532,3.18984,-0.152882,5.39228,0.461912,5.10778,0.0461932,0.531738,-0.757367,0.0254773,-0.0649547,-0.038216,-0.620374,-0.197429,23.4648,23.3513,23.1811,23.3229,23.2378,23.2804,23.1385,
19,6.27349,1.38303,3.15333,4.12144,6.27417,1.97784,1.55566,0.0124245,-0.0340323,-9.25921e-05,0.11109,0.00149082,0.0792189,0,0.359447,-5.47044,-0.203509,2.0745,1.09912,-20.1988,0.824574,-0.00396244,-20,-0.401489,0.699323,-0.035843,0.876728,0.00808751,-2.20663e-05,0.00229884,7.3274e-05,0.495529,0.00106882,0.074412,0.039212,-0.00433446,0.0199319,1.99169,0.000819827,0.005,1.75845,0.00406739,-0.0118182,-0.112175,12.6694,0.405818,0.980403,3.59568,-0.152046,5.31036,0.466429,5.05582,0.0333478,0.523682,-0.82999,-0.00805664,-0.1372,-0.0324774,-0.644582,-0.197429,23.4648,23.3371,23.1811,23.3229,23.2236,23.3087,23.1385,
20,6.2735,1.38299,3.15333,4.12154,6.27417,1.97793,1.55566,0.0124245,-0.0378136,-9.78831e-05,0.10993,0.00146671,0.0796694,0,0.360695,-5.70974,-0.176404,1.8895,1.20356,-21.1382,0.847787,-0.00364977,-20,-0.402782,0.668135,-0.0352116,0.782011,0.00883184,-2.44729e-05,0.00252837,8.23023e-05,0.495529,0.00106882,0.074412,0.0396684,-0.00433016,0.0215033,1.99086,0.000901322,0.005,1.75649,0.0047122,-0.0134387,-0.119456,13.5556,0.479132,0.881445,3.82642,-0.183743,5.24237,0.475007,4.98762,0.0305046,0.507824,-0.886267,0.0180152,-0.161936,-0.0332184,-0.648572,-0.193401,23.4648,23.3229,23.1669,23.3087,23.2094,23.2946,23.1527,
21,6.27351,1.38295,3.15333,4.12165,6.27417,1.978,1.55566,0.014043,-0.0420895,-9.79571e-05,0.11074,0.00139938,0.0772479,0,0.362701,-5.90166,-0.169497,1.74224,1.24498,-21.8957,0.865471,-0.00319584,-20,-0.404823,0.643689,-0.0350439,0.705678,0.00961538,-2.69394e-05,0.00275841,8.99729e-05,0.495529,0.00106882,0.074412,0.0408007,-0.00497242,0.0229328,1.99008,0.000982739,0.005,1.75537,0.00478161,-0.014853,-0.126729,14.2688,0.500683,0.91674,4.18831,-0.153308,5.12427,0.486726,4.91489,0.0368454,0.491455,-0.958774,0,-0.121118,-0.0332184,-0.640503,-0.197429,23.479,23.3513,23.1811,23.3087,23.2236,23.2804,23.1385,
22,6.27351,1.38295,3.15333,4.12165,6.27417,1.978,1.55566,0.014043,-0.0420895,-9.79571e-05,0.11074,0.00139938,0.0772479,0,0.363113,-6.09195,-0.138593,1.59599,1.35389,-22.6394,0.884618,-0.00308657,-20,-0.405163,0.618015,-0.0343863,0.631012,0.0101533,-2.87508e-05,0.00298833,0.000101012,0.495529,0.00106882,0.074412,0.0408007,-0.00497242,0.0229328,1.98926,0.00108923,0.005,1.75362,0.00545549,-0.0161395,-0.132202,14.9696,0.581721,0.91674,4.18831,-0.153308,5.12427,0.486726,4.91489,0.0368454,0.491455,-0.958774,0,-0.121118,-0.0332184,-0.640503,-0.197429,23.479,23.3513,23.1811,23.3087,23.2236,23.2804,23.1385,
23,6.27353,1.3829,3.15333,4.12176,6.27418,1.97808,1.55566,0.0140451,-0.0448362,-0.000100606,0.10993,0.00142351,0.0761675,0,0.363163,-6.09036,-0.138806,1.59516,1.35393,-22.637,0.884793,-0.00308809,-20,-0.405191,0.619302,-0.0343669,0.630739,0.0101538,-2.87508e-05,0.00298833,0.000101012,0.495529,0.00106882,0.074412,0.0411413,-0.00496901,0.0239269,1.98926,0.00108923,0.005,1.75362,0.00545549,-0.0161395,-0.132202,14.9696,0.581721,0.868099,4.5266,-0.134493,4.95014,0.479909,4.85534,0.0369148,0.451459,-0.974987,0.0113938,-0.12085,-0.0201416,-0.600233,-0.189331,23.479,23.3513,23.1811,23.3087,23.2236,23.3087,23.1669,
24,6.27354,1.38285,3.15333,4.12188,6.27418,1.97816,1.55566,0.0145705,-0.0480774,-0.00010582,0.107478,0.00140421,0.0760903,0,0.364717,-6.26345,-0.129651,1.46213,1.39836,-23.3165,0.901348,-0.00271286,-20,-0.406861,0.597539,-0.0341524,0.562234,0.0109003,-3.10209e-05,0.00321585,0.000110473,0.495529,0.00106882,0.074412,0.0411118,-0.00517711,0.025252,1.98845,0.00118486,0.005,1.75258,0.00553848,-0.0170342,-0.139233,15.6095,0.607418,0.873657,4.8836,-0.111902,4.83298,0.491557,4.73907,0.0386973,0.467285,-1.03934,-0.0113938,-0.090076,-0.0245033,-0.572036,-0.197388,23.4932,23.3371,23.1811,23.3087,23.2094,23.2946,23.1385,
25,6.27355,1.3828,3.15333,4.12198,6.27418,1.97824,1.55566,0.0140451,-0.0518587,-0.00010582,0.105878,0.00135817,0.0777382,0,0.36575,-6.44219,-0.112064,1.32564,1.46692,-24.0186,0.91839,-0.00244414,-20,-0.40804,0.575137,-0.0337597,0.491561,0.011532,-3.32045e-05,0.00345256,0.000121327,0.495529,0.00106882,0.074412,0.0414393,-0.00496745,0.026959,1.9876,0.00128495,0.005,1.75183,0.00581586,-0.0182268,-0.145339,16.2701,0.653877,0.724669,5.12479,-0.127079,4.71042,0.503247,4.64694,0.0238744,0.451172,-1.0636,0.00805664,-0.0254773,-0.0245033,-0.559994,-0.197429,23.4932,23.3371,23.1527,23.3087,23.2094,23.2946,23.1385,
26,6.27355,1.3828,3.15333,4.12198,6.27418,1.97824,1.55566,0.0140451,-0.0518587,-0.00010582,0.105878,0.00135817,0.0777382,0,0.367819,-6.64784,-0.107888,1.17079,1.49845,-24.8267,0.933112,-0.00189427,-20,-0.410482,0.548097,-0.0336687,0.410693,0.0120948,-3.50279e-05,0.0036906,0.000131258,0.495529,0.00106882,0.074412,0.0414393,-0.00496745,0.026959,1.98678,0.00138279,0.005,1.75081,0.00571521,-0.0197631,-0.150312,17.0277,0.666013,0.724669,5.12479,-0.127079,4.71042,0.503247,4.64694,0.0238744,0.451172,-1.0636,0.00805664,-0.0254773,-0.0245033,-0.559994,-0.197429,23.4932,23.3371,23.1527,23.3087,23.2094,23.2946,23.1385,
27,6.27357,1.38274,3.15333,4.12208,6.27418,1.97832,1.55566,0.0140451,-0.0561721,-0.00010582,0.104798,0.00139504,0.0792189,0,0.367896,-6.64635,-0.10816,1.16944,1.49851,-24.8239,0.933263,-0.00189997,-20,-0.41051,0.54917,-0.0336519,0.41045,0.0120928,-3.50279e-05,0.0036906,0.000131258,0.495529,0.00106882,0.074412,0.0420288,-0.00495608,0.0288505,1.98678,0.00138279,0.005,1.75081,0.00571521,-0.0197631,-0.150312,17.0277,0.666013,0.74626,5.41213,-0.134152,4.59525,0.512913,4.53776,0.0254168,0.467355,-1.07181,0.0113938,0.0180152,-0.0166092,-0.55188,-0.185347,23.4648,23.3371,23.1527,23.2804,23.2236,23.2946,23.1385,
28,6.27358,1.38268,3.15333,4.12219,6.27418,1.9784,1.55566,0.014043,-0.0605018,-0.0001059,0.102907,0.00141305,0.0831057,0,0.369973,-6.85961,-0.100886,1.00548,1.5419,-25.6647,0.952704,-0.0013785,-20,-0.412858,0.521709,-0.0334458,0.325663,0.0129674,-3.75554e-05,0.00393155,0.000139803,0.495529,0.00106882,0.074412,0.0423861,-0.00494348,0.0310174,1.98593,0.00147739,0.005,1.74951,0.00579012,-0.0214654,-0.158432,17.8196,0.687777,0.677889,5.70035,-0.114814,4.43511,0.509498,4.4874,0.0257989,0.467355,-1.06351,-0.00805664,0.041081,-0.012085,-0.551895,-0.197429,23.479,23.3371,23.1527,23.2804,23.2094,23.2946,23.1385,
29,6.2736,1.38262,3.15333,4.12229,6.27419,1.97848,1.55566,0.0145853,-0.0642832,-0.000111111,0.10106,0.00149197,0.0821096,0,0.372118,-7.08688,-0.0911336,0.831973,1.59384,-26.5637,0.970822,-0.00084832,-20,-0.415207,0.492987,-0.0332054,0.235046,0.0136125,-3.94317e-05,0.00417453,0.000150846,0.495529,0.00106882,0.074412,0.0426435,-0.00514806,0.0324496,1.9851,0.00158351,0.005,1.74844,0.00587429,-0.0234156,-0.164322,18.6654,0.715937,0.693517,6.00297,-0.0828451,4.34418,0.524694,4.35081,0.0171756,0.443188,-1.06351,-0.00805664,0.0966797,-0.00569691,-0.564022,-0.189374,23.479,23.3371,23.1952,23.2946,23.2094,23.2804,23.1101,
30,6.27361,1.38256,3.15333,4.12239,6.27419,1.97857,1.55566,0.0145853,-0.0659038,-0.000111279,0.102097,0.00160094,0.0832551,0,0.373514,-7.27787,-0.0769443,0.685478,1.65512,-27.3147,0.99224,-0.000497269,-20,-0.416776,0.468938,-0.0328612,0.159392,0.0146509,-4.25377e-05,0.00442599,0.000159737,0.495529,0.00106882,0.074412,0.0432775,-0.00513159,0.0332031,1.98421,0.00167899,0.005,1.74741,0.00614435,-0.0247047,-0.174381,19.3725,0.755099,0.56098,6.2413,-0.115881,4.2748,0.513814,4.24393,0.0126697,0.443188,-1.07962,-0.0241699,0.1372,-0.00805664,-0.543823,-0.189502,23.4648,23.3229,23.1669,23.2804,23.2094,23.2946,23.1243,
31,6.27361,1.38256,3.15333,4.12239,6.27419,1.97857,1.55566,0.0145853,-0.0659038,-0.000111279,0.102097,0.00160094,0.0832551,0,0.375527,-7.49706,-0.0694544,0.519345,1.69844,-28.1668,1.01157,3.73902e-05,-20,-0.419166,0.439877,-0.0326782,0.0742738,0.015524,-4.48652e-05,0.00467986,0.000169179,0.495529,0.00106882,0.074412,0.0432775,-0.00513159,0.0332031,1.98336,0.00177849,0.005,1.74607,0.00621907,-0.0253828,-0.182499,20.172,0.776711,0.56098,6.2413,-0.115881,4.2748,0.513814,4.24393,0.0126697,0.443188,-1.07962,-0.0241699,0.1372,-0.00805664,-0.543823,-0.189502,23.4648,23.3229,23.1669,23.2804,23.2094,23.2946,23.1243,
32,6.27364,1.38242,3.15333,4.12259,6.2742,1.97873,1.55566,0.0125266,-0.065837,-0.000119137,0.100914,0.0018617,0.0790584,0,0.375265,-7.49366,-0.0691153,0.518656,1.69826,-28.1627,1.01164,3.98668e-05,-20,-0.419255,0.443444,-0.0325902,0.0735573,0.015517,-4.48652e-05,0.00467986,0.000169179,0.495529,0.00106882,0.074412,0.0429129,-0.00429945,0.0327673,1.98336,0.00177849,0.005,1.74607,0.00621907,-0.0253828,-0.182499,20.172,0.776711,0.455301,6.71589,-0.0697557,4.12166,0.527354,4.00803,0.00941762,0.451244,-1.19241,-0.00805664,0.129158,-0.00569691,-0.503604,-0.193401,23.4506,23.3371,23.1669,23.2946,23.2236,23.2946,23.1385,
33,6.27365,1.38235,3.15333,4.1227,6.2742,1.9788,1.55566,0.0129647,-0.0686048,-0.000124338,0.102564,0.00203929,0.0753572,0,0.379419,-7.81614,-0.0784048,0.274491,1.70177,-29.4103,1.04264,0.00111414,-20,-0.424246,0.402537,-0.0327736,-0.0509602,0.0175011,-5.0561e-05,0.00517348,0.000186114,0.495529,0.00106882,0.074412,0.0439686,-0.00445274,0.0334528,1.98164,0.00195978,0.005,1.74485,0.00563331,-0.0249906,-0.200784,21.3413,0.755744,0.493186,7.00738,-0.0610697,4.10108,0.569984,3.82507,0.00534171,0.499512,-1.265,-0.0161133,0.161334,-0.00402832,-0.45119,-0.189331,23.4648,23.3513,23.1669,23.2804,23.1952,23.2946,23.1243,
34,6.27366,1.38228,3.15333,4.12281,6.2742,1.97887,1.55566,0.0113441,-0.0723861,-0.000124338,0.104258,0.00219598,0.0713057,0,0.380778,-8.00469,-0.0682596,0.126617,1.74973,-30.1488,1.06551,0.00152939,-20,-0.426143,0.378036,-0.0324819,-0.12553,0.0187849,-5.39216e-05,0.00542414,0.000192998,0.495529,0.00106882,0.074412,0.0452479,-0.00379162,0.0345026,1.98073,0.00204164,0.005,1.74308,0.00584493,-0.0256075,-0.213249,22.0395,0.783644,0.41251,7.19992,-0.0851627,4.05074,0.573751,3.67509,0.0140557,0.475342,-1.26492,-0.0241699,0.129158,-0.0113938,-0.398824,-0.197388,23.479,23.3371,23.1811,23.3087,23.2094,23.2804,23.1243,
35,6.27366,1.38228,3.15333,4.12281,6.2742,1.97887,1.55566,0.0113441,-0.0723861,-0.000124338,0.104258,0.00219598,0.0713057,0,0.383752,-8.19488,-0.083365,-0.0202172,1.72404,-30.8946,1.08272,0.00231946,-20,-0.429752,0.351995,-0.0327701,-0.200468,0.0200077,-5.67529e-05,0.00566842,0.000198513,0.495529,0.00106882,0.074412,0.0452479,-0.00379162,0.0345026,1.97983,0.00211405,0.005,1.74113,0.0053151,-0.0265524,-0.224205,22.7417,0.746834,0.41251,7.19992,-0.0851627,4.05074,0.573751,3.67509,0.0140557,0.475342,-1.26492,-0.0241699,0.129158,-0.0113938,-0.398824,-0.197388,23.479,23.3371,23.1811,23.3087,23.2094,23.2804,23.1243,
36,6.27367,1.3822,3.15333,4.12291,6.27421,1.97894,1.55566,0.0108039,-0.074729,-0.000129629,0.103447,0.0023404,0.0689613,0,0.383713,-8.19289,-0.0833834,-0.0209703,1.724,-30.8918,1.08273,0.00231851,-20,-0.429785,0.353626,-0.0327405,-0.200797,0.020001,-5.67529e-05,0.00566842,0.000198513,0.495529,0.00106882,0.074412,0.0455019,-0.00356351,0.0352057,1.97983,0.00211405,0.005,1.74113,0.0053151,-0.0265524,-0.224205,22.7417,0.746834,0.428661,7.39531,-0.0753026,3.98677,0.571834,3.50446,-0.0125653,0.499512,-1.24114,-0.0180152,0.0970148,0,-0.346459,-0.193401,23.479,23.3371,23.1527,23.2946,23.2094,23.2946,23.1243,
37,6.27368,1.38213,3.15332,4.12301,6.27421,1.97901,1.55566,0.00918331,-0.0755507,-0.000132575,0.102367,0.00261424,0.066444,0,0.385606,-8.37234,-0.0850185,-0.158802,1.73568,-31.5962,1.10094,0.00288342,-20,-0.432399,0.33138,-0.0327053,-0.271766,0.021111,-5.97572e-05,0.00592295,0.000204341,0.495529,0.00106882,0.074412,0.0453581,-0.00289865,0.0352912,1.97891,0.00218096,0.005,1.74007,0.00517002,-0.0271851,-0.234629,23.4045,0.743688,0.341624,7.57869,-0.0626841,3.93933,0.591779,3.35822,0.00650994,0.507632,-1.24096,-0.0180152,0.11308,0,-0.306179,-0.181453,23.479,23.3371,23.1669,23.2946,23.2094,23.2804,23.1385,
38,6.27368,1.38213,3.15332,4.12301,6.27421,1.97901,1.55566,0.00918331,-0.0755507,-0.000132575,0.102367,0.00261424,0.066444,0,0.388387,-8.5286,-0.104034,-0.276191,1.69554,-32.2026,1.11742,0.00362212,-20,-0.435838,0.31083,-0.0330692,-0.332154,0.0224651,-6.30801e-05,0.00616389,0.000207278,0.495529,0.00106882,0.074412,0.0453581,-0.00289865,0.0352912,1.97802,0.00223407,0.005,1.7394,0.00461945,-0.0272621,-0.246885,23.9716,0.696931,0.341624,7.57869,-0.0626841,3.93933,0.591779,3.35822,0.00650994,0.507632,-1.24096,-0.0180152,0.11308,0,-0.306179,-0.181453,23.479,23.3371,23.1669,23.2946,23.2094,23.2804,23.1385,
39,6.27369,1.38205,3.15332,4.12312,6.27421,1.97907,1.55566,0.00901917,-0.0764376,-0.000137773,0.102969,0.00264792,0.063743,0,0.388409,-8.5266,-0.104165,-0.276785,1.69555,-32.2,1.11751,0.00361934,-20,-0.435864,0.312634,-0.0330492,-0.332471,0.0224612,-6.30801e-05,0.00616389,0.000207278,0.495529,0.00106882,0.074412,0.0457152,-0.00283107,0.0353559,1.97802,0.00223407,0.005,1.7394,0.00461945,-0.0272621,-0.246885,23.9716,0.696931,0.359766,7.85879,-0.0742561,3.93905,0.634888,3.13393,-0.0189495,0.531799,-1.28916,-0.0180152,0.104736,0.00402832,-0.261841,-0.193401,23.4648,23.3513,23.1669,23.2946,23.2236,23.2946,23.1243,
40,6.2737,1.38197,3.15332,4.12322,6.27421,1.97913,1.55566,0.00810292,-0.0791386,-0.000143074,0.103717,0.00278442,0.0625991,0,0.390049,-8.69901,-0.100576,-0.410599,1.72259,-32.8706,1.13385,0.00407764,-20,-0.437984,0.290816,-0.0329241,-0.399935,0.0233053,-6.56889e-05,0.00641152,0.000213092,0.495529,0.00106882,0.074412,0.0464933,-0.00244863,0.0363026,1.97707,0.00229484,0.005,1.73822,0.00461332,-0.0273203,-0.254853,24.6039,0.707754,0.277136,8.09101,-0.0899527,3.92996,0.617098,2.95269,-0.0108719,0.540035,-1.32139,-0.0322266,0.121118,-0.00402832,-0.221594,-0.185303,23.4648,23.3229,23.1669,23.3087,23.2094,23.2804,23.1527,
41,6.2737,1.38189,3.15332,4.12332,6.27422,1.9792,1.55566,0.00810292,-0.0823797,-0.000145722,0.102907,0.00300274,0.0609367,0,0.392803,-8.89362,-0.110373,-0.561927,1.71423,-33.6366,1.15204,0.00479584,-20,-0.44131,0.265834,-0.0330745,-0.477283,0.0244605,-6.86915e-05,0.00665354,0.000216427,0.495529,0.00106882,0.074412,0.0469356,-0.00242483,0.0374347,1.97616,0.00234108,0.005,1.7367,0.00431075,-0.0281723,-0.265605,25.3264,0.68573,0.277136,8.28778,-0.0785654,3.88935,0.587617,2.74724,-0.0380528,0.540035,-1.28906,-0.0180152,0.0970148,0.0090076,-0.193527,-0.189331,23.4648,23.3371,23.1669,23.2946,23.2094,23.2946,23.1527,
42,6.27371,1.38189,3.15332,4.12332,6.27422,1.9792,1.55566,0.00702253,-0.0823797,-0.000145722,0.102907,0.00300274,0.0609367,0,0.395315,-9.08126,-0.120494,-0.704666,1.7055,-34.3723,1.17312,0.00551012,-20,-0.444582,0.240783,-0.0331423,-0.550985,0.0258471,-7.21073e-05,0.00690086,0.000210317,0.495529,0.00106882,0.074412,0.0469346,-0.00199649,0.0374347,1.97523,0.00232214,0.005,1.73546,0.00427227,-0.0291913,-0.278238,26.0172,0.664218,0.27356,8.28778,-0.0785654,3.88935,0.587617,2.74724,-0.0380528,0.555908,-1.28906,-0.0180152,0.0970148,0.0090076,-0.193527,-0.189331,23.4364,23.3371,23.1669,23.2946,23.2094,23.2946,23.1527,
43,6.27371,1.38181,3.15332,4.12342,6.27422,1.97926,1.55566,0.00702253,-0.0827536,-0.000151135,0.101557,0.00307769,0.0588813,0,0.39562,-9.07927,-0.125199,-0.704894,1.68996,-34.3702,1.17142,0.00557382,-20,-0.444921,0.242745,-0.0332782,-0.55138,0.0258472,-7.20834e-05,0.00690086,0.000217241,0.495529,0.00106882,0.074412,0.0466199,-0.00199347,0.037397,1.97523,0.00237708,0.005,1.73547,0.00393622,-0.0291913,-0.278122,26.0172,0.650502,0.201949,8.50987,-0.0640975,3.86115,0.615851,2.573,-0.00949611,0.564022,-1.28111,-0.0241699,0.105046,0.00402832,-0.169189,-0.185478,23.4932,23.3513,23.1527,23.2804,23.2094,23.2946,23.1385,
44,6.27371,1.38181,3.15332,4.12342,6.27422,1.97926,1.55566,0.00702253,-0.0827536,-0.000151135,0.101557,0.00307769,0.0588813,0,0.397291,-9.2379,-0.123971,-0.82405,1.70977,-34.9824,1.18832,0.00601763,-20,-0.446953,0.222035,-0.0332126,-0.612265,0.0268211,-7.51654e-05,0.00714675,0.000219592,0.495529,0.00106882,0.074412,0.0466199,-0.00199347,0.037397,1.97428,0.00241471,0.005,1.7349,0.00396737,-0.0291573,-0.287283,26.5901,0.656139,0.201949,8.50987,-0.0640975,3.86115,0.615851,2.573,-0.00949611,0.564022,-1.28111,-0.0241699,0.105046,0.00402832,-0.169189,-0.185478,23.4932,23.3513,23.1527,23.2804,23.2094,23.2946,23.1385,
45,6.27372,1.38173,3.15332,4.12353,6.27422,1.97931,1.55566,0.00650186,-0.0804891,-0.00015632,0.106326,0.00307769,0.0567205,0,0.397264,-9.23601,-0.123982,-0.824623,1.70974,-34.98,1.18825,0.00601465,-20,-0.446993,0.224071,-0.0331902,-0.612533,0.0268083,-7.51654e-05,0.00714675,0.000219592,0.495529,0.00106882,0.074412,0.0475183,-0.00178485,0.0362009,1.97428,0.00241471,0.005,1.7349,0.00396737,-0.0291573,-0.287283,26.5901,0.656139,0.223736,8.79415,-0.0585156,3.86778,0.65026,2.33162,-0.0340126,0.564022,-1.33743,-0.0254773,0.1372,0.012085,-0.1372,-0.189502,23.4506,23.3229,23.1527,23.2946,23.2094,23.2804,23.1385,
46,6.27372,1.38173,3.15332,4.12353,6.27422,1.97931,1.55566,0.00650186,-0.0804891,-0.00015632,0.106326,0.00307769,0.0567205,0,0.399652,-9.4259,-0.129699,-0.970707,1.71221,-35.7044,1.20519,0.00664886,-20,-0.449938,0.198316,-0.0332622,-0.684684,0.0277928,-7.82634e-05,0.00739502,0.000221292,0.495529,0.00106882,0.074412,0.0475183,-0.00178485,0.0362009,1.9733,0.00244804,0.005,1.7332,0.0038096,-0.0280808,-0.296197,27.2707,0.644406,0.223736,8.79415,-0.0585156,3.86778,0.65026,2.33162,-0.0340126,0.564022,-1.33743,-0.0254773,0.1372,0.012085,-0.1372,-0.189502,23.4506,23.3229,23.1527,23.2946,23.2094,23.2804,23.1385,
47,6.27373,1.38165,3.15332,4.12364,6.27423,1.97937,1.55566,0.00546156,-0.0801377,-0.00015632,0.107769,0.0030296,0.0540195,-1.05901e-05,0.399533,-9.42392,-0.129462,-0.971214,1.71216,-35.7019,1.205,0.00664116,-20,-0.449973,0.20024,-0.0332327,-0.684994,0.0277782,-7.82634e-05,0.00739502,0.000221292,0.495529,0.00106882,0.074412,0.0478583,-0.0013794,0.0357613,1.9733,0.00244804,0.005,1.7332,0.0038096,-0.0280808,-0.296197,27.2707,0.644406,0.16232,9.04446,-0.0591387,3.8311,0.631649,2.14783,-0.0476359,0.564195,-1.42605,-0.0254773,0.0490066,0.0127387,-0.100708,-0.189374,23.4648,23.3513,23.1527,23.2662,23.1952,23.2804,23.1243,
48,6.27373,1.38165,3.15332,4.12364,6.27423,1.97937,1.55566,0.00546156,-0.0801377,-0.00015632,0.107769,0.0030296,0.0540195,-1.05901e-05,0.401978,-9.58894,-0.140854,-1.09704,1.69524,-36.3372,1.22003,0.0072906,-20,-0.452989,0.178128,-0.0334358,-0.748305,0.0287999,-8.16484e-05,0.0076336,0.000222096,0.495529,0.00106882,0.074412,0.0478583,-0.0013794,0.0357613,1.97236,0.00247307,0.005,1.73205,0.00346722,-0.0276851,-0.305335,27.8666,0.617408,0.16232,9.04446,-0.0591387,3.8311,0.631649,2.14783,-0.0476359,0.564195,-1.42605,-0.0254773,0.0490066,0.0127387,-0.100708,-0.189374,23.4648,23.3513,23.1527,23.2662,23.1952,23.2804,23.1243,
49,6.27373,1.38157,3.15332,4.12375,6.27423,1.97942,1.55566,0.00486175,-0.0811115,-0.000161619,0.108849,0.0030296,0.0529391,-1.05821e-05,0.401944,-9.58703,-0.140806,-1.09794,1.69526,-36.3344,1.21998,0.0072872,-20,-0.453019,0.179825,-0.0334128,-0.74858,0.0287917,-8.16484e-05,0.0076336,0.000222096,0.495529,0.00106882,0.074412,0.0483702,-0.00113804,0.0360254,1.97236,0.00247307,0.005,1.73205,0.00346722,-0.0276851,-0.305335,27.8666,0.617408,0.170311,9.27349,-0.0359094,3.72973,0.631649,1.95587,-0.0683995,0.588135,-1.45825,-0.0332184,-0.00805664,0.0127387,-0.0565402,-0.181274,23.479,23.3229,23.1669,23.2804,23.1952,23.2946,23.1243,
50,6.27373,1.38157,3.15332,4.12375,6.27423,1.97942,1.55566,0.00486175,-0.0811115,-0.000161619,0.108849,0.0030296,0.0529391,-1.05821e-05,0.404283,-9.77255,-0.145943,-1.23962,1.69876,-37.0541,1.23394,0.00790844,-20,-0.455862,0.154959,-0.0334828,-0.820517,0.0294929,-8.36704e-05,0.00787312,0.000224768,0.495529,0.00106882,0.074412,0.0483702,-0.00113804,0.0360254,1.9714,0.00249922,0.005,1.73073,0.00327353,-0.0279229,-0.311438,28.5426,0.606711,0.170311,9.27349,-0.0359094,3.72973,0.631649,1.95587,-0.0683995,0.588135,-1.45825,-0.0332184,-0.00805664,0.0127387,-0.0565402,-0.181274,23.479,23.3229,23.1669,23.2804,23.1952,23.2946,23.1243,
51,6.27373,1.38148,3.15332,4.12387,6.27423,1.97947,1.55566,0.00485929,-0.0821747,-0.000164267,0.111487,0.00303629,0.0511568,-1.05821e-05,0.404326,-9.77035,-0.146112,-1.24067,1.69877,-37.0509,1.2338,0.00789968,-20,-0.455889,0.156782,-0.0334738,-0.820782,0.0294741,-8.36704e-05,0.00787312,0.000224768,0.495529,0.00106882,0.074412,0.0493513,-0.00113187,0.0362266,1.9714,0.00249922,0.005,1.73073,0.00327353,-0.0279229,-0.311438,28.5426,0.606711,0.111773,9.48485,-0.0633469,3.63076,0.623655,1.80349,-0.049506,0.596246,-1.48244,-0.0332184,-0.0161133,0.0245033,-0.0404841,-0.189331,23.4506,23.3371,23.1385,23.2946,23.2094,23.2804,23.1243,
52,6.27373,1.38148,3.15332,4.12387,6.27423,1.97947,1.55566,0.00485929,-0.0821747,-0.000164267,0.111487,0.00303629,0.0511568,-1.05821e-05,0.406778,-9.97859,-0.148792,-1.40099,1.71328,-37.8578,1.25382,0.00855101,-20,-0.458861,0.128552,-0.033449,-0.901544,0.0305769,-8.70435e-05,0.00813297,0.000223903,0.495529,0.00106882,0.074412,0.0493513,-0.00113187,0.0362266,1.97035,0.00251885,0.005,1.7289,0.00328565,-0.0281039,-0.321578,29.3017,0.603993,0.111773,9.48485,-0.0633469,3.63076,0.623655,1.80349,-0.049506,0.596246,-1.48244,-0.0332184,-0.0161133,0.0245033,-0.0404841,-0.189331,23.4506,23.3371,23.1385,23.2946,23.2094,23.2804,23.1243,
53,6.27374,1.3814,3.15332,4.12398,6.27423,1.97952,1.55566,0.00415916,-0.0821096,-0.000164394,0.113171,0.00298151,0.0491079,-1.059e-05,0.406732,-9.97654,-0.148691,-1.40171,1.71324,-37.8551,1.25363,0.00854755,-20,-0.458894,0.130458,-0.0334269,-0.901837,0.0305588,-8.70435e-05,0.00813297,0.000223903,0.495529,0.00106882,0.074412,0.0498207,-0.000859772,0.0359668,1.97035,0.00251885,0.005,1.7289,0.00328565,-0.0281039,-0.321578,29.3017,0.603993,0.129851,9.7846,-0.0579367,3.59105,0.642496,1.58273,-0.0594221,0.580134,-1.48297,-0.0402832,-0.0644531,0.0205405,-0.0090076,-0.185478,23.479,23.3229,23.1527,23.2946,23.1952,23.2946,23.1243,
54,6.27374,1.38132,3.15332,4.12409,6.27424,1.97957,1.55566,0.00364104,-0.0810292,-0.000169567,0.11074,0.0030296,0.0464568,-1.059e-05,0.409174,-10.1506,-0.158128,-1.53645,1.70359,-38.5322,1.2685,0.00919845,-20,-0.461942,0.109049,-0.033552,-0.970047,0.0314549,-9.01553e-05,0.00837393,0.000223068,0.495529,0.00106882,0.074412,0.0488908,-0.000659263,0.0353063,1.96937,0.0025313,0.005,1.7276,0.00305196,-0.0278701,-0.32971,29.9394,0.582588,0.0842731,10.017,-0.0769449,3.49684,0.667309,1.4043,-0.0736114,0.604302,-1.51467,-0.041081,-0.090076,0.0362549,0.0281982,-0.189374,23.4506,23.3371,23.1811,23.2946,23.2094,23.2804,23.1243,
55,6.27374,1.38132,3.15332,4.12409,6.27424,1.97957,1.55566,0.00364104,-0.0810292,-0.000169567,0.11074,0.0030296,0.0464568,-1.059e-05,0.411045,-10.2765,-0.167266,-1.62962,1.69023,-39.0138,1.28323,0.00969517,-20,-0.464278,0.09296,-0.0336939,-1.01765,0.0325338,-9.38681e-05,0.0086086,0.000220835,0.495529,0.00106882,0.074412,0.0488908,-0.000659263,0.0353063,1.96841,0.00254087,0.005,1.72757,0.00288012,-0.0272757,-0.339651,30.3882,0.561687,0.0842731,10.017,-0.0769449,3.49684,0.667309,1.4043,-0.0736114,0.604302,-1.51467,-0.041081,-0.090076,0.0362549,0.0281982,-0.189374,23.4506,23.3371,23.1811,23.2946,23.2094,23.2804,23.1243,
56,6.27374,1.38132,3.15332,4.12409,6.27424,1.97957,1.55566,0.00364104,-0.0810292,-0.000169567,0.11074,0.0030296,0.0464568,-1.059e-05,0.411045,-10.2765,-0.167266,-1.62962,1.69023,-39.0138,1.28323,0.00969517,-20,-0.464278,0.09296,-0.0336939,-1.01765,0.0325338,-9.38681e-05,0.0086086,0.000220835,0.495529,0.00106882,0.074412,0.0488908,-0.000659263,0.0353063,1.96841,0.00254087,0.005,1.72757,0.00288012,-0.0272757,-0.339651,30.3882,0.561687,0.0842731,10.017,-0.0769449,3.49684,0.667309,1.4043,-0.0736114,0.604302,-1.51467,-0.041081,-0.090076,0.0362549,0.0281982,-0.189374,23.4506,23.3371,23.1811,23.2946,23.2094,23.2804,23.1243,
57,6.27375,1.38124,3.15332,4.12419,6.27424,1.97961,1.55566,0.00405146,-0.0823797,-0.000174866,0.108039,0.0030296,0.0432156,-1.0582e-05,0.411156,-10.2743,-0.167525,-1.62998,1.69028,-39.0113,1.2832,0.00968816,-20,-0.46428,0.0949341,-0.0336929,-1.01803,0.0325205,-9.38681e-05,0.0086086,0.000220835,0.495529,0.00106882,0.074412,0.0483939,-0.000828788,0.0355527,1.96841,0.00254087,0.005,1.72757,0.00288012,-0.0272757,-0.339651,30.3882,0.561687,0.10411,10.2164,-0.0414683,3.38426,0.662567,1.22241,-0.0927409,0.604302,-1.55495,-0.041081,-0.0483398,0.0332184,0.0563965,-0.193401,23.4648,23.3229,23.1527,23.2662,23.2094,23.2804,23.1243,
58,6.27375,1.38124,3.15332,4.12419,6.27424,1.97961,1.55566,0.00405146,-0.0823797,-0.000174866,0.108039,0.0030296,0.0432156,-1.0582e-05,0.412372,-10.4079,-0.162969,-1.73032,1.71783,-39.5287,1.29879,0.0100109,-20,-0.465741,0.0775481,-0.0335513,-1.06955,0.0333848,-9.69458e-05,0.00883904,0.000220678,0.495529,0.00106882,0.074412,0.0483939,-0.000828788,0.0355527,1.96745,0.00255793,0.005,1.72715,0.00304805,-0.0274975,-0.347963,30.8726,0.575937,0.10411,10.2164,-0.0414683,3.38426,0.662567,1.22241,-0.0927409,0.604302,-1.55495,-0.041081,-0.0483398,0.0332184,0.0563965,-0.193401,23.4648,23.3229,23.1527,23.2662,23.2094,23.2804,23.1243,
59,6.27375,1.38115,3.15332,4.1243,6.27424,1.97965,1.55566,0.00378136,-0.0842582,-0.000179411,0.10432,0.00300211,0.0403737,-1.0582e-05,0.412381,-10.4057,-0.162976,-1.73073,1.71782,-39.526,1.29857,0.0100015,-20,-0.465751,0.0796126,-0.0335395,-1.06996,0.0333636,-9.69458e-05,0.00883904,0.000220678,0.495529,0.00106882,0.074412,0.0477122,-0.000731154,0.036068,1.96745,0.00255793,0.005,1.72715,0.00304805,-0.0274975,-0.347963,30.8726,0.575937,0.0951608,10.4932,-0.0406606,3.20976,0.664653,1.07021,-0.0862043,0.58819,-1.53916,-0.0483398,0.00805664,0.0404841,0.0927389,-0.185303,23.4506,23.3229,23.1527,23.2804,23.2236,23.2804,23.1385,
60,6.27375,1.38115,3.15332,4.1243,6.27424,1.97965,1.55566,0.00378136,-0.0842582,-0.000179411,0.10432,0.00300211,0.0403737,-1.0582e-05,0.41424,-10.5473,-0.16826,-1.83659,1.71755,-40.078,1.3134,0.0104951,-20,-0.46802,0.0612686,-0.0335953,-1.12495,0.0343021,-0.000100294,0.00908225,0.000218475,0.495529,0.00106882,0.074412,0.0477122,-0.000731154,0.036068,1.96644,0.00256546,0.005,1.72685,0.00296696,-0.0279612,-0.356589,31.3888,0.565178,0.0951608,10.4932,-0.0406606,3.20976,0.664653,1.07021,-0.0862043,0.58819,-1.53916,-0.0483398,0.00805664,0.0404841,0.0927389,-0.185303,23.4506,23.3229,23.1527,23.2804,23.2236,23.2804,23.1385,
61,6.27375,1.38106,3.15332,4.12441,6.27425,1.97969,1.55566,0.00350993,-0.0863436,-0.000177717,0.102803,0.00317415,0.0393943,-1.05898e-05,0.414217,-10.5454,-0.168281,-1.83738,1.7175,-40.0753,1.31315,0.0104842,-20,-0.468039,0.0629598,-0.0335813,-1.12526,0.0342824,-0.000100294,0.00908225,0.000218475,0.495529,0.00106882,0.074412,0.0477078,-0.000607753,0.0368263,1.96644,0.00256546,0.005,1.72685,0.00296696,-0.0279612,-0.356589,31.3888,0.565178,0.123566,10.8144,-0.0388325,3.10373,0.676441,0.867277,-0.0993659,0.58819,-1.5229,-0.0322266,0.076432,0.036478,0.124878,-0.185347,23.4648,23.3229,23.1669,23.2804,23.2094,23.2804,23.1243,
62,6.27375,1.38106,3.15332,4.12441,6.27425,1.97969,1.55566,0.00350993,-0.0863436,-0.000177717,0.102803,0.00317415,0.0393943,-1.05898e-05,0.416481,-10.7082,-0.176462,-1.96085,1.7116,-40.712,1.33043,0.0110856,-20,-0.470797,0.0413897,-0.0336742,-1.18892,0.0354026,-0.000103273,0.00930802,0.000216486,0.495529,0.00106882,0.074412,0.0477078,-0.000607753,0.0368263,1.9655,0.00257514,0.005,1.72601,0.0028646,-0.0286436,-0.366835,31.986,0.547878,0.123566,10.8144,-0.0388325,3.10373,0.676441,0.867277,-0.0993659,0.58819,-1.5229,-0.0322266,0.076432,0.036478,0.124878,-0.185347,23.4648,23.3229,23.1669,23.2804,23.2094,23.2804,23.1243,
63,6.27375,1.38106,3.15332,4.12441,6.27425,1.97969,1.55566,0.00350993,-0.0863436,-0.000177717,0.102803,0.00317415,0.0393943,-1.05898e-05,0.416481,-10.7082,-0.176462,-1.96085,1.7116,-40.712,1.33043,0.0110856,-20,-0.470797,0.0413897,-0.0336742,-1.18892,0.0354026,-0.000103273,0.00930802,0.000216486,0.495529,0.00106882,0.074412,0.0477078,-0.000607753,0.0368263,1.9655,0.00257514,0.005,1.72601,0.0028646,-0.0286436,-0.366835,31.986,0.547878,0.123566,10.8144,-0.0388325,3.10373,0.676441,0.867277,-0.0993659,0.58819,-1.5229,-0.0322266,0.076432,0.036478,0.124878,-0.185347,23.4648,23.3229,23.1669,23.2804,23.2094,23.2804,23.1243,
64,6.27376,1.38098,3.15332,4.1245,6.27425,1.97973,1.55566,0.00298344,-0.0853508,-0.000183041,0.0991258,0.0031676,0.0367705,-1.05898e-05,0.41647,-10.7064,-0.176384,-1.96078,1.71157,-40.7102,1.33021,0.0110806,-20,-0.470809,0.0436157,-0.0336574,-1.18935,0.035382,-0.000103273,0.00930802,0.000216486,0.495529,0.00106882,0.074412,0.0464371,-0.000411133,0.0362219,1.9655,0.00257514,0.005,1.72601,0.0028646,-0.0286436,-0.366835,31.986,0.547878,0.0986322,11.0781,-0.0528329,2.99268,0.712165,0.681291,-0.0993659,0.588135,-1.51467,-0.0509547,0.105046,0.0443115,0.14502,-0.185347,23.479,23.3371,23.1385,23.2662,23.1952,23.2662,23.1243,
65,6.27376,1.38098,3.15332,4.1245,6.27425,1.97973,1.55566,0.00298344,-0.0853508,-0.000183041,0.0991258,0.0031676,0.0367705,-1.05898e-05,0.418069,-10.8105,-0.184982,-2.03665,1.69736,-41.1078,1.34238,0.0115052,-20,-0.472816,0.0306315,-0.0337989,-1.2285,0.0362985,-0.000106739,0.00952579,0.000213953,0.495529,0.00106882,0.074412,0.0464371,-0.000411133,0.0362219,1.96458,0.00257789,0.005,1.72633,0.00269012,-0.0280997,-0.375241,32.3552,0.527842,0.0986322,11.0781,-0.0528329,2.99268,0.712165,0.681291,-0.0993659,0.588135,-1.51467,-0.0509547,0.105046,0.0443115,0.14502,-0.185347,23.479,23.3371,23.1385,23.2662,23.1952,23.2662,23.1243,
66,6.27376,1.38098,3.15332,4.1245,6.27425,1.97973,1.55566,0.00298344,-0.0853508,-0.000183041,0.0991258,0.0031676,0.0367705,-1.05898e-05,0.418069,-10.8105,-0.184982,-2.03665,1.69736,-41.1078,1.34238,0.0115052,-20,-0.472816,0.0306315,-0.0337989,-1.2285,0.0362985,-0.000106739,0.00952579,0.000213953,0.495529,0.00106882,0.074412,0.0464371,-0.000411133,0.0362219,1.96458,0.00257789,0.005,1.72633,0.00269012,-0.0280997,-0.375241,32.3552,0.527842,0.0986322,11.0781,-0.0528329,2.99268,0.712165,0.681291,-0.0993659,0.588135,-1.51467,-0.0509547,0.105046,0.0443115,0.14502,-0.185347,23.479,23.3371,23.1385,23.2662,23.1952,23.2662,23.1243,
67,6.27376,1.38089,3.15332,4.1246,6.27425,1.97976,1.55566,0.00298344,-0.085891,-0.000192399,0.0983155,0.00324484,0.0356167,-1.05901e-05,0.418117,-10.8087,-0.185113,-2.03722,1.69736,-41.1054,1.34224,0.0114992,-20,-0.47283,0.0324375,-0.0337902,-1.22881,0.0362818,-0.000106739,0.00952579,0.000213953,0.495529,0.00106882,0.074412,0.0463136,-0.000403603,0.0363363,1.96458,0.00257789,0.005,1.72633,0.00269012,-0.0280997,-0.375241,32.3552,0.527842,0.157144,11.4531,-0.0339084,2.85935,0.70333,0.518598,-0.0849573,0.604248,-1.56307,-0.0490066,0.177246,0.0444942,0.173265,-0.185347,23.4648,23.3371,23.1527,23.2804,23.1811,23.2662,23.0959,
68,6.27376,1.38089,3.15332,4.1246,6.27425,1.97976,1.55566,0.00298344,-0.085891,-0.000192399,0.0983155,0.00324484,0.0356167,-1.05901e-05,0.419947,-10.958,-0.188465,-2.15028,1.70379,-41.6836,1.35914,0.0119851,-20,-0.475066,0.012734,-0.0337963,-1.28646,0.0373454,-0.000109992,0.00974238,0.000212465,0.495529,0.00106882,0.074412,0.0463136,-0.000403603,0.0363363,1.96367,0.00258595,0.005,1.72562,0.0026906,-0.0282026,-0.385172,32.8972,0.522434,0.157144,11.4531,-0.0339084,2.85935,0.70333,0.518598,-0.0849573,0.604248,-1.56307,-0.0490066,0.177246,0.0444942,0.173265,-0.185347,23.4648,23.3371,23.1527,23.2804,23.1811,23.2662,23.0959,
69,6.27376,1.38089,3.15332,4.1246,6.27425,1.97976,1.55566,0.00298344,-0.085891,-0.000192399,0.0983155,0.00324484,0.0356167,-1.05901e-05,0.419947,-10.958,-0.188465,-2.15028,1.70379,-41.6836,1.35914,0.0119851,-20,-0.475066,0.012734,-0.0337963,-1.28646,0.0373454,-0.000109992,0.00974238,0.000212465,0.495529,0.00106882,0.074412,0.0463136,-0.000403603,0.0363363,1.96367,0.00258595,0.005,1.72562,0.0026906,-0.0282026,-0.385172,32.8972,0.522434,0.157144,11.4531,-0.0339084,2.85935,0.70333,0.518598,-0.0849573,0.604248,-1.56307,-0.0490066,0.177246,0.0444942,0.173265,-0.185347,23.4648,23.3371,23.1527,23.2804,23.1811,23.2662,23.0959,
70,6.27376,1.3808,3.15332,4.1247,6.27426,1.9798,1.55566,0.00291418,-0.0852613,-0.000203214,0.0991258,0.00324451,0.0340323,-1.0582e-05,0.419985,-10.9561,-0.188565,-2.15078,1.70381,-41.6812,1.359,0.0119752,-20,-0.475081,0.0146901,-0.0337877,-1.28676,0.0373286,-0.000109992,0.00974238,0.000212465,0.495529,0.00106882,0.074412,0.0464134,-0.000375563,0.0359149,1.96367,0.00258595,0.005,1.72562,0.0026906,-0.0282026,-0.385172,32.8972,0.522434,0.159328,11.8246,-0.0342557,2.69617,0.701005,0.369437,-0.0974033,0.588135,-1.57107,-0.0490066,0.193359,0.0485074,0.193401,-0.197429,23.479,23.3371,23.1527,23.2662,23.1952,23.2662,23.1243,
71,6.27376,1.3808,3.15332,4.1247,6.27426,1.9798,1.55566,0.00291418,-0.0852613,-0.000203214,0.0991258,0.00324451,0.0340323,-1.0582e-05,0.421862,-11.1103,-0.191975,-2.26825,1.71029,-42.2739,1.37407,0.0124736,-20,-0.477387,-0.00584489,-0.0338,-1.34579,0.0382007,-0.000112839,0.00996389,0.000211001,0.495529,0.00106882,0.074412,0.0464134,-0.000375563,0.0359149,1.96273,0.00259211,0.005,1.72468,0.00267091,-0.0278234,-0.393183,33.4532,0.516778,0.159328,11.8246,-0.0342557,2.69617,0.701005,0.369437,-0.0974033,0.588135,-1.57107,-0.0490066,0.193359,0.0485074,0.193401,-0.197429,23.479,23.3371,23.1527,23.2662,23.1952,23.2662,23.1243,
72,6.27376,1.3808,3.15332,4.1247,6.27426,1.9798,1.55566,0.00291418,-0.0852613,-0.000203214,0.0991258,0.00324451,0.0340323,-1.0582e-05,0.421862,-11.1103,-0.191975,-2.26825,1.71029,-42.2739,1.37407,0.0124736,-20,-0.477387,-0.00584489,-0.0338,-1.34579,0.0382007,-0.000112839,0.00996389,0.000211001,0.495529,0.00106882,0.074412,0.0464134,-0.000375563,0.0359149,1.96273,0.00259211,0.005,1.72468,0.00267091,-0.0278234,-0.393183,33.4532,0.516778,0.159328,11.8246,-0.0342557,2.69617,0.701005,0.369437,-0.0974033,0.588135,-1.57107,-0.0490066,0.193359,0.0485074,0.193401,-0.197429,23.479,23.3371,23.1527,23.2662,23.1952,23.2662,23.1243,
73,6.27376,1.38072,3.15332,4.1248,6.27426,1.97983,1.55566,0.00278241,-0.0842704,-0.000215123,0.098552,0.00327286,0.0320984,-1.0582e-05,0.4219,-11.1084,-0.192055,-2.26864,1.7103,-42.2716,1.37393,0.0124674,-20,-0.477402,-0.00376334,-0.0337896,-1.34614,0.0381834,-0.000112839,0.00996389,0.000211001,0.495529,0.00106882,0.074412,0.0460388,-0.00032347,0.0353348,1.96273,0.00259211,0.005,1.72468,0.00267091,-0.0278234,-0.393183,33.4532,0.516778,0.171377,12.199,-0.038014,2.60509,0.714176,0.168601,-0.0841324,0.580302,-1.58716,-0.0490066,0.145243,0.0490066,0.209511,-0.185303,23.4364,23.3087,23.1527,23.2804,23.1952,23.2804,23.1101,
74,6.27376,1.38072,3.15332,4.1248,6.27426,1.97983,1.55566,0.00278241,-0.0842704,-0.000215123,0.098552,0.00327286,0.0320984,-1.0582e-05,0.423635,-11.2462,-0.196284,-2.37256,1.71261,-42.7997,1.3887,0.0129281,-20,-0.479548,-0.0218286,-0.0338253,-1.39857,0.0391165,-0.000115928,0.0101858,0.000209396,0.495529,0.00106882,0.074412,0.0460388,-0.00032347,0.0353348,1.96178,0.00259678,0.005,1.72416,0.00262823,-0.0273013,-0.401821,33.9474,0.508703,0.171377,12.199,-0.038014,2.60509,0.714176,0.168601,-0.0841324,0.580302,-1.58716,-0.0490066,0.145243,0.0490066,0.209511,-0.185303,23.4364,23.3087,23.1527,23.2804,23.1952,23.2804,23.1101,
75,6.27377,1.38064,3.15332,4.1249,6.27426,1.97986,1.55566,0.00278241,-0.0804891,-0.000232293,0.0993959,0.00322008,0.0289004,-1.0582e-05,0.423701,-11.2444,-0.196401,-2.37249,1.71263,-42.798,1.38858,0.0129219,-20,-0.47956,-0.0195261,-0.0338183,-1.39893,0.0390992,-0.000115928,0.0101858,0.000209396,0.495529,0.00106882,0.074412,0.0454917,-0.000334936,0.0334889,1.96178,0.00259678,0.005,1.72416,0.00262823,-0.0273013,-0.401821,33.9474,0.508703,0.128732,12.5318,-0.0367717,2.47893,0.721838,-0.0175525,-0.0972849,0.588135,-1.64373,-0.0563965,0.145243,0.0525229,0.237807,-0.193401,23.4506,23.3229,23.1527,23.2804,23.1952,23.2662,23.1101,
76,6.27377,1.38064,3.15332,4.1249,6.27426,1.97986,1.55566,0.00278241,-0.0804891,-0.000232293,0.0993959,0.00322008,0.0289004,-1.0582e-05,0.424937,-11.3516,-0.198295,-2.45299,1.71827,-43.1966,1.40122,0.0132501,-20,-0.481134,-0.033476,-0.0338204,-1.4381,0.0399217,-0.000119145,0.0103917,0.000207463,0.495529,0.00106882,0.074412,0.0454917,-0.000334936,0.0334889,1.96088,0.002601,0.005,1.72385,0.00264234,-0.02564,-0.409579,34.3194,0.505989,0.128732,12.5318,-0.0367717,2.47893,0.721838,-0.0175525,-0.0972849,0.588135,-1.64373,-0.0563965,0.145243,0.0525229,0.237807,-0.193401,23.4506,23.3229,23.1527,23.2804,23.1952,23.2662,23.1101,
77,6.27377,1.38064,3.15332,4.1249,6.27426,1.97986,1.55566,0.00278241,-0.0804891,-0.000232293,0.0993959,0.00322008,0.0289004,-1.0582e-05,0.424937,-11.3516,-0.198295,-2.45299,1.71827,-43.1966,1.40122,0.0132501,-20,-0.481134,-0.033476,-0.0338204,-1.4381,0.0399217,-0.000119145,0.0103917,0.000207463,0.495529,0.00106882,0.074412,0.0454917,-0.000334936,0.0334889,1.96088,0.002601,0.005,1.72385,0.00264234,-0.02564,-0.409579,34.3194,0.505989,0.128732,12.5318,-0.0367717,2.47893,0.721838,-0.0175525,-0.0972849,0.588135,-1.64373,-0.0563965,0.145243,0.0525229,0.237807,-0.193401,23.4506,23.3229,23.1527,23.2804,23.1952,23.2662,23.1101,
78,6.27377,1.38056,3.15332,4.125,6.27426,1.97989,1.55566,0.00276637,-0.0783283,-0.000250752,0.0985856,0.00324484,0.0280901,-1.059e-05,0.424971,-11.35,-0.198382,-2.45329,1.7183,-43.1947,1.4011,0.0132382,-20,-0.481144,-0.0314472,-0.0338129,-1.43844,0.0399067,-0.000119145,0.0103917,0.000207463,0.495529,0.00106882,0.074412,0.0448035,-0.000328292,0.0325654,1.96088,0.002601,0.005,1.72385,0.00264234,-0.02564,-0.409579,34.3194,0.505989,0.189627,12.8329,0.0111844,2.36748,0.715911,-0.192459,-0.119308,0.580134,-1.71606,-0.0490066,0.129909,0.0609595,0.269928,-0.185303,23.4648,23.3371,23.1385,23.252,23.1952,23.2662,23.1243,
79,6.27377,1.38056,3.15332,4.125,6.27426,1.97989,1.55566,0.00276637,-0.0783283,-0.000250752,0.0985856,0.00324484,0.0280901,-1.059e-05,0.426426,-11.4716,-0.200996,-2.54406,1.72358,-43.657,1.41334,0.0136244,-20,-0.48296,-0.0471213,-0.0338214,-1.48412,0.0406282,-0.000121602,0.0105936,0.000206142,0.495529,0.00106882,0.074412,0.0448035,-0.000328292,0.0325654,1.96,0.0026094,0.005,1.72367,0.00264392,-0.0248089,-0.416248,34.7509,0.501788,0.189627,12.8329,0.0111844,2.36748,0.715911,-0.192459,-0.119308,0.580134,-1.71606,-0.0490066,0.129909,0.0609595,0.269928,-0.185303,23.4648,23.3371,23.1385,23.252,23.1952,23.2662,23.1243,
80,6.27377,1.38056,3.15332,4.125,6.27426,1.97989,1.55566,0.00276637,-0.0783283,-0.000250752,0.0985856,0.00324484,0.0280901,-1.059e-05,0.426426,-11.4716,-0.200996,-2.54406,1.72358,-43.657,1.41334,0.0136244,-20,-0.48296,-0.0471213,-0.0338214,-1.48412,0.0406282,-0.000121602,0.0105936,0.000206142,0.495529,0.00106882,0.074412,0.0448035,-0.000328292,0.0325654,1.96,0.0026094,0.005,1.72367,0.00264392,-0.0248089,-0.416248,34.7509,0.501788,0.189627,12.8329,0.0111844,2.36748,0.715911,-0.192459,-0.119308,0.580134,-1.71606,-0.0490066,0.129909,0.0609595,0.269928,-0.185303,23.4648,23.3371,23.1385,23.252,23.1952,23.2662,23.1243,
81,6.27377,1.38048,3.15332,4.1251,6.27427,1.97991,1.55566,0.00265944,-0.0764124,-0.00025734,0.0992952,0.00308526,0.0260799,-1.05821e-05,0.426463,-11.4698,-0.201056,-2.54439,1.72362,-43.6548,1.41322,0.0136119,-20,-0.482972,-0.045088,-0.0338147,-1.48443,0.0406129,-0.000121602,0.0105936,0.000206142,0.495529,0.00106882,0.074412,0.0446069,-0.000305288,0.0315887,1.96,0.0026094,0.005,1.72367,0.00264392,-0.0248089,-0.416248,34.7509,0.501788,0.184176,13.1543,-0.00228068,2.10254,0.701124,-0.321274,-0.122729,0.572078,-1.74831,-0.072956,0.121118,0.0605589,0.273955,-0.181319,23.4506,23.2946,23.1527,23.2804,23.1952,23.252,23.1101,
82,6.27377,1.38048,3.15332,4.1251,6.27427,1.97991,1.55566,0.00265944,-0.0764124,-0.00025734,0.0992952,0.00308526,0.0260799,-1.05821e-05,0.427954,-11.5995,-0.202639,-2.64276,1.73235,-44.1478,1.4239,0.0140077,-20,-0.484822,-0.0622172,-0.0338096,-1.53333,0.0411389,-0.000124102,0.0108003,0.000204811,0.495529,0.00106882,0.074412,0.0446069,-0.000305288,0.0315887,1.95909,0.00261761,0.005,1.72304,0.0026306,-0.0239298,-0.420982,35.2127,0.500016,0.184176,13.1543,-0.00228068,2.10254,0.701124,-0.321274,-0.122729,0.572078,-1.74831,-0.072956,0.121118,0.0605589,0.273955,-0.181319,23.4506,23.2946,23.1527,23.2804,23.1952,23.252,23.1101,
83,6.27378,1.38041,3.15332,4.1252,6.27427,1.97994,1.55566,0.00276582,-0.0777881,-0.000273088,0.0957936,0.00311481,0.0242841,-1.05821e-05,0.428018,-11.5977,-0.20278,-2.64322,1.73236,-44.1455,1.42377,0.0140013,-20,-0.484829,-0.0603679,-0.033804,-1.53367,0.0411238,-0.000124102,0.0108003,0.000204811,0.495529,0.00106882,0.074412,0.0438834,-0.000347348,0.0320086,1.95909,0.00261761,0.005,1.72304,0.0026306,-0.0239298,-0.420982,35.2127,0.500016,0.176787,13.4753,0.00115755,1.93096,0.703235,-0.490856,-0.131297,0.580134,-1.78054,-0.0563965,0.113938,0.0644531,0.290151,-0.189502,23.4648,23.3087,23.1243,23.2804,23.1669,23.2662,23.0959,
84,6.27378,1.38041,3.15332,4.1252,6.27427,1.97994,1.55566,0.00276582,-0.0777881,-0.000273088,0.0957936,0.00311481,0.0242841,-1.05821e-05,0.429356,-11.7153,-0.203503,-2.73108,1.74302,-44.6035,1.43868,0.0143564,-20,-0.486454,-0.0755309,-0.0337707,-1.57928,0.0420863,-0.000127318,0.0110025,0.000203438,0.495529,0.00106882,0.074412,0.0438834,-0.000347348,0.0320086,1.95818,0.00262619,0.005,1.72287,0.00267618,-0.0243078,-0.430123,35.641,0.500605,0.176787,13.4753,0.00115755,1.93096,0.703235,-0.490856,-0.131297,0.580134,-1.78054,-0.0563965,0.113938,0.0644531,0.290151,-0.189502,23.4648,23.3087,23.1243,23.2804,23.1669,23.2662,23.0959,
85,6.27378,1.38041,3.15332,4.1252,6.27427,1.97994,1.55566,0.00276582,-0.0777881,-0.000273088,0.0957936,0.00311481,0.0242841,-1.05821e-05,0.429356,-11.7153,-0.203503,-2.73108,1.74302,-44.6035,1.43868,0.0143564,-20,-0.486454,-0.0755309,-0.0337707,-1.57928,0.0420863,-0.000127318,0.0110025,0.000203438,0.495529,0.00106882,0.074412,0.0438834,-0.000347348,0.0320086,1.95818,0.00262619,0.005,1.72287,0.00267618,-0.0243078,-0.430123,35.641,0.500605,0.176787,13.4753,0.00115755,1.93096,0.703235,-0.490856,-0.131297,0.580134,-1.78054,-0.0563965,0.113938,0.0644531,0.290151,-0.189502,23.4648,23.3087,23.1243,23.2804,23.1669,23.2662,23.0959,
86,6.27378,1.38033,3.15332,4.12529,6.27427,1.97996,1.55566,0.00280841,-0.0794087,-0.000286235,0.0918331,0.00307769,0.0202573,-1.05821e-05,0.429393,-11.7133,-0.203584,-2.73114,1.74303,-44.6015,1.43856,0.014344,-20,-0.486454,-0.0736693,-0.033766,-1.57962,0.0420748,-0.000127318,0.0110025,0.000203438,0.495529,0.00106882,0.074412,0.0430816,-0.00037518,0.0322962,1.95818,0.00262619,0.005,1.72287,0.00267618,-0.0243078,-0.430123,35.641,0.500605,0.135206,13.7364,0.000280589,1.73834,0.703044,-0.646093,-0.12998,0.572248,-1.7322,-0.0649547,0.169381,0.0725098,0.314235,-0.193359,23.4506,23.3229,23.1527,23.2662,23.1952,23.2662,23.1101,
87,6.27378,1.38033,3.15332,4.12529,6.27427,1.97996,1.55566,0.00280841,-0.0794087,-0.000286235,0.0918331,0.00307769,0.0202573,-1.05821e-05,0.430308,-11.8009,-0.202693,-2.79632,1.75478,-44.9421,1.44911,0.0145869,-20,-0.487562,-0.0848834,-0.0337212,-1.61351,0.0427223,-0.000129736,0.0111911,0.00020284,0.495529,0.00106882,0.074412,0.0430816,-0.00037518,0.0322962,1.95733,0.00263929,0.005,1.72283,0.00271302,-0.0245666,-0.436299,35.9593,0.504388,0.135206,13.7364,0.000280589,1.73834,0.703044,-0.646093,-0.12998,0.572248,-1.7322,-0.0649547,0.169381,0.0725098,0.314235,-0.193359,23.4506,23.3229,23.1527,23.2662,23.1952,23.2662,23.1101,
88,6.27378,1.38033,3.15332,4.12529,6.27427,1.97996,1.55566,0.00280841,-0.0794087,-0.000286235,0.0918331,0.00307769,0.0202573,-1.05821e-05,0.430308,-11.8009,-0.202693,-2.79632,1.75478,-44.9421,1.44911,0.0145869,-20,-0.487562,-0.0848834,-0.0337212,-1.61351,0.0427223,-0.000129736,0.0111911,0.00020284,0.495529,0.00106882,0.074412,0.0430816,-0.00037518,0.0322962,1.95733,0.00263929,0.005,1.72283,0.00271302,-0.0245666,-0.436299,35.9593,0.504388,0.135206,13.7364,0.000280589,1.73834,0.703044,-0.646093,-0.12998,0.572248,-1.7322,-0.0649547,0.169381,0.0725098,0.314235,-0.193359,23.4506,23.3229,23.1527,23.2662,23.1952,23.2662,23.1101,
89,6.27378,1.38025,3.15332,4.12538,6.27428,1.97998,1.55566,0.00275515,-0.0783283,-0.000287026,0.0902126,0.0030296,0.019447,-1.0582e-05,0.430353,-11.7994,-0.202772,-2.79663,1.75479,-44.9403,1.44895,0.0145779,-20,-0.487571,-0.0830243,-0.033715,-1.61382,0.0427048,-0.000129736,0.0111911,0.00020284,0.495529,0.00106882,0.074412,0.0423863,-0.000365138,0.0318135,1.95733,0.00263929,0.005,1.72283,0.00271302,-0.0245666,-0.436299,35.9593,0.504388,0.16537,14.015,0.0393107,1.5592,0.709259,-0.787949,-0.124429,0.572021,-1.69207,-0.0563965,0.233781,0.0685998,0.350487,-0.193359,23.4506,23.3087,23.1385,23.2804,23.1811,23.2662,23.1101,
90,6.27378,1.38025,3.15332,4.12538,6.27428,1.97998,1.55566,0.00275515,-0.0783283,-0.000287026,0.0902126,0.0030296,0.019447,-1.0582e-05,0.431712,-11.9097,-0.205719,-2.87889,1.75804,-45.3626,1.46054,0.0149388,-20,-0.489259,-0.0972163,-0.0337315,-1.65564,0.0434141,-0.000132608,0.0113762,0.000200669,0.495529,0.00106882,0.074412,0.0423863,-0.000365138,0.0318135,1.9565,0.00264152,0.005,1.7227,0.00270599,-0.0241322,-0.442862,36.3536,0.499175,0.16537,14.015,0.0393107,1.5592,0.709259,-0.787949,-0.124429,0.572021,-1.69207,-0.0563965,0.233781,0.0685998,0.350487,-0.193359,23.4506,23.3087,23.1385,23.2804,23.1811,23.2662,23.1101,
91,6.27378,1.38017,3.15332,4.12547,6.27428,1.97999,1.55566,0.00275515,-0.0783283,-0.000287026,0.0891322,0.00295369,0.0172862,-1.059e-05,0.431749,-11.908,-0.205803,-2.87919,1.75805,-45.3606,1.46042,0.0149266,-20,-0.489266,-0.0954401,-0.0337263,-1.65592,0.043401,-0.000132608,0.0113762,0.000200669,0.495529,0.00106882,0.074412,0.0420747,-0.000378215,0.031609,1.9565,0.00264152,0.005,1.7227,0.00270599,-0.0241322,-0.442862,36.3536,0.499175,0.15975,14.3422,0.0406685,1.31966,0.692893,-0.881767,-0.123651,0.572248,-1.71606,-0.0563965,0.249756,0.0725098,0.358543,-0.181319,23.4506,23.3229,23.1669,23.2662,23.1952,23.2804,23.1101,
92,6.27378,1.38017,3.15332,4.12547,6.27428,1.97999,1.55566,0.00275515,-0.0783283,-0.000287026,0.0891322,0.00295369,0.0172862,-1.059e-05,0.432977,-12.0174,-0.206379,-2.962,1.76789,-45.7815,1.47103,0.0152527,-20,-0.490771,-0.109829,-0.0337012,-1.69782,0.0439812,-0.000134999,0.0115583,0.000199611,0.495529,0.00106882,0.074412,0.0420747,-0.000378215,0.031609,1.95567,0.00265063,0.005,1.72224,0.00272596,-0.0239481,-0.448243,36.7481,0.499754,0.15975,14.3422,0.0406685,1.31966,0.692893,-0.881767,-0.123651,0.572248,-1.71606,-0.0563965,0.249756,0.0725098,0.358543,-0.181319,23.4506,23.3229,23.1669,23.2662,23.1952,23.2804,23.1101,
93,6.27378,1.38017,3.15332,4.12547,6.27428,1.97999,1.55566,0.00275515,-0.0783283,-0.000287026,0.0891322,0.00295369,0.0172862,-1.059e-05,0.432977,-12.0174,-0.206379,-2.962,1.76789,-45.7815,1.47103,0.0152527,-20,-0.490771,-0.109829,-0.0337012,-1.69782,0.0439812,-0.000134999,0.0115583,0.000199611,0.495529,0.00106882,0.074412,0.0420747,-0.000378215,0.031609,1.95567,0.00265063,0.005,1.72224,0.00272596,-0.0239481,-0.448243,36.7481,0.499754,0.15975,14.3422,0.0406685,1.31966,0.692893,-0.881767,-0.123651,0.572248,-1.71606,-0.0563965,0.249756,0.0725098,0.358543,-0.181319,23.4506,23.3229,23.1669,23.2662,23.1952,23.2804,23.1101,
94,6.27379,1.38009,3.15332,4.12556,6.27428,1.98001,1.55566,0.00266627,-0.0791683,-0.000287393,0.0860136,0.00293342,0.0142938,-1.0582e-05,0.433001,-12.0155,-0.206429,-2.96213,1.76787,-45.7796,1.4708,0.0152397,-20,-0.490776,-0.107904,-0.0336953,-1.69815,0.0439619,-0.000134999,0.0115583,0.000199611,0.495529,0.00106882,0.074412,0.0413514,-0.000353949,0.0316821,1.95567,0.00265063,0.005,1.72224,0.00272596,-0.0239481,-0.448243,36.7481,0.499754,0.156378,14.6755,0.0691438,1.20723,0.693385,-1.0121,-0.111316,0.547911,-1.70003,-0.0649547,0.265991,0.0846906,0.370605,-0.193401,23.4506,23.3229,23.1527,23.2662,23.1811,23.252,23.1243,
95,6.27379,1.38009,3.15332,4.12556,6.27428,1.98001,1.55566,0.00266627,-0.0791683,-0.000287393,0.0860136,0.00293342,0.0142938,-1.0582e-05,0.434272,-12.1139,-0.209879,-3.03565,1.76857,-46.1606,1.48249,0.0155771,-20,-0.492339,-0.120598,-0.0337227,-1.73604,0.044739,-0.000137902,0.0117488,0.000197029,0.495529,0.00106882,0.074412,0.0413514,-0.000353949,0.0316821,1.95479,0.00265309,0.005,1.7221,0.00270633,-0.0240139,-0.455487,37.1043,0.493089,0.156378,14.6755,0.0691438,1.20723,0.693385,-1.0121,-0.111316,0.547911,-1.70003,-0.0649547,0.265991,0.0846906,0.370605,-0.193401,23.4506,23.3229,23.1527,23.2662,23.1811,23.252,23.1243,
96,6.27379,1.38009,3.15332,4.12556,6.27428,1.98001,1.55566,0.00266627,-0.0791683,-0.000287393,0.0860136,0.00293342,0.0142938,-1.0582e-05,0.434272,-12.1139,-0.209879,-3.03565,1.76857,-46.1606,1.48249,0.0155771,-20,-0.492339,-0.120598,-0.0337227,-1.73604,0.044739,-0.000137902,0.0117488,0.000197029,0.495529,0.00106882,0.074412,0.0413514,-0.000353949,0.0316821,1.95479,0.00265309,0.005,1.7221,0.00270633,-0.0240139,-0.455487,37.1043,0.493089,0.156378,14.6755,0.0691438,1.20723,0.693385,-1.0121,-0.111316,0.547911,-1.70003,-0.0649547,0.265991,0.0846906,0.370605,-0.193401,23.4506,23.3229,23.1527,23.2662,23.1811,23.252,23.1243,
97,6.27379,1.38001,3.15332,4.12564,6.27429,1.98002,1.55566,0.00263288,-0.0783283,-0.00027855,0.0836454,0.00298151,0.0124245,-1.0582e-05,0.434299,-12.1124,-0.209952,-3.03573,1.76855,-46.1591,1.4823,0.0155652,-20,-0.492346,-0.118744,-0.033716,-1.73635,0.0447231,-0.000137902,0.0117488,0.000197029,0.495529,0.00106882,0.074412,0.0404924,-0.00034779,0.0311932,1.95479,0.00265309,0.005,1.7221,0.00270633,-0.0240139,-0.455487,37.1043,0.493089,0.0901309,14.9633,0.0691977,1.10311,0.692599,-1.1474,-0.107112,0.564022,-1.69191,-0.0644531,0.273926,0.088623,0.398804,-0.189331,23.4506,23.3087,23.1385,23.2804,23.1811,23.2378,23.1101,
98,6.27379,1.38001,3.15332,4.12564,6.27429,1.98002,1.55566,0.00263288,-0.0783283,-0.00027855,0.0836454,0.00298151,0.0124245,-1.0582e-05,0.435416,-12.2002,-0.213009,-3.10068,1.76926,-46.4943,1.49335,0.0158616,-20,-0.493741,-0.129897,-0.033738,-1.76946,0.0454756,-0.000140674,0.0119209,0.000195124,0.495529,0.00106882,0.074412,0.0404924,-0.00034779,0.0311932,1.95399,0.00266048,0.005,1.72215,0.00270744,-0.0235739,-0.462549,37.4167,0.487311,0.0901309,14.9633,0.0691977,1.10311,0.692599,-1.1474,-0.107112,0.564022,-1.69191,-0.0644531,0.273926,0.088623,0.398804,-0.189331,23.4506,23.3087,23.1385,23.2804,23.1811,23.2378,23.1101,
99,6.27379,1.38001,3.15332,4.12564,6.27429,1.98002,1.55566,0.00263288,-0.0783283,-0.00027855,0.0836454,0.00298151,0.0124245,-1.0582e-05,0.435416,-12.2002,-0.213009,-3.10068,1.76926,-46.4943,1.49335,0.0158616,-20,-0.493741,-0.129897,-0.033738,-1.76946,0.0454756,-0.000140674,0.0119209,0.000195124,0.495529,0.00106882,0.074412,0.0404924,-0.00034779,0.0311932,1.95399,0.00266048,0.005,1.72215,0.00270744,-0.0235739,-0.462549,37.4167,0.487311,0.0901309,14.9633,0.0691977,1.10311,0.692599,-1.1474,-0.107112,0.564022,-1.69191,-0.0644531,0.273926,0.088623,0.398804,-0.189331,23.4506,23.3087,23.1385,23.2804,23.1811,23.2378,23.1101,
100,6.27379,1.37994,3.15332,4.12572,6.27429,1.98003,1.55566,0.00236959,-0.0734665,-0.000278195,0.0834601,0.00307797,0.0105338,-1.05819e-05,0.43542,-12.1989,-0.213021,-3.10057,1.76922,-46.4931,1.49311,0.0158506,-20,-0.493753,-0.127799,-0.0337278,-1.76978,0.045456,-0.000140674,0.0119209,0.000195124,0.495529,0.00106882,0.074412,0.0394232,-0.000246797,0.0290682,1.95399,0.00266048,0.005,1.72215,0.00270744,-0.0235739,-0.462549,37.4167,0.487311,0.113428,15.2459,0.118721,1.02693,0.686384,-1.23833,-0.121551,0.556142,-1.69997,-0.0644531,0.314312,0.0927389,0.410908,-0.185303,23.4506,23.3087,23.1385,23.252,23.1669,23.2662,23.1101,
101,6.27379,1.37994,3.15332,4.12572,6.27429,1.98003,1.55566,0.00236959,-0.0734665,-0.000278195,0.0834601,0.00307797,0.0105338,-1.05819e-05,0.436566,-12.2699,-0.220626,-3.15224,1.75478,-46.75,1.50268,0.0161547,-20,-0.495252,-0.136614,-0.0338478,-1.79461,0.0462268,-0.000143406,0.0120859,0.000192185,0.495529,0.00106882,0.074412,0.0394232,-0.000246797,0.0290682,1.95322,0.00265966,0.005,1.72241,0.00261581,-0.0216614,-0.469656,37.6541,0.469716,0.113428,15.2459,0.118721,1.02693,0.686384,-1.23833,-0.121551,0.556142,-1.69997,-0.0644531,0.314312,0.0927389,0.410908,-0.185303,23.4506,23.3087,23.1385,23.252,23.1669,23.2662,23.1101,
102,6.27379,1.37987,3.15332,4.1258,6.2743,1.98004,1.55566,0.00222189,-0.069145,-0.000278195,0.0837302,0.00329293,0.0107729,-1.05821e-05,0.436574,-12.2687,-0.220684,-3.15248,1.75472,-46.7486,1.50241,0.0161445,-20,-0.495268,-0.134742,-0.0338381,-1.79489,0.0462058,-0.000143406,0.0120859,0.000192185,0.495529,0.00106882,0.074412,0.0385958,-0.00017488,0.027376,1.95322,0.00265966,0.005,1.72241,0.00261581,-0.0216614,-0.469656,37.6541,0.469716,0.10136,15.5846,0.145733,0.878515,0.665538,-1.31141,-0.0727368,0.564195,-1.80485,-0.0649547,0.306258,0.0967636,0.42305,-0.197429,23.4364,23.3087,23.1527,23.2662,23.2094,23.252,23.0959,
103,6.27379,1.37987,3.15332,4.1258,6.2743,1.98004,1.55566,0.00222189,-0.069145,-0.000278195,0.0837302,0.00329293,0.0107729,-1.05821e-05,0.438044,-12.3621,-0.229505,-3.22151,1.73973,-47.096,1.51571,0.0165347,-20,-0.497153,-0.146613,-0.0339594,-1.8289,0.0472474,-0.00014651,0.0122479,0.00018878,0.495529,0.00106882,0.074412,0.0385958,-0.00017488,0.027376,1.95246,0.00266114,0.005,1.72247,0.00255242,-0.0201384,-0.479329,37.977,0.449934,0.10136,15.5846,0.145733,0.878515,0.665538,-1.31141,-0.0727368,0.564195,-1.80485,-0.0649547,0.306258,0.0967636,0.42305,-0.197429,23.4364,23.3087,23.1527,23.2662,23.2094,23.252,23.0959,
104,6.27379,1.37987,3.15332,4.1258,6.2743,1.98004,1.55566,0.00222189,-0.069145,-0.000278195,0.0837302,0.00329293,0.0107729,-1.05821e-05,0.438044,-12.3621,-0.229505,-3.22151,1.73973,-47.096,1.51571,0.0165347,-20,-0.497153,-0.146613,-0.0339594,-1.8289,0.0472474,-0.00014651,0.0122479,0.00018878,0.495529,0.00106882,0.074412,0.0385958,-0.00017488,0.027376,1.95246,0.00266114,0.005,1.72247,0.00255242,-0.0201384,-0.479329,37.977,0.449934,0.10136,15.5846,0.145733,0.878515,0.665538,-1.31141,-0.0727368,0.564195,-1.80485,-0.0649547,0.306258,0.0967636,0.42305,-0.197429,23.4364,23.3087,23.1527,23.2662,23.2094,23.252,23.0959,
105,6.27379,1.3798,3.15332,4.12589,6.2743,1.98005,1.55566,0.00222189,-0.0636952,-0.00027372,0.0847597,0.00348402,0.00974803,-1.0582e-05,0.43807,-12.3608,-0.229605,-3.2216,1.73968,-47.0946,1.51547,0.0165238,-20,-0.497167,-0.144556,-0.033952,-1.82919,0.0472264,-0.00014651,0.0122479,0.00018878,0.495529,0.00106882,0.074412,0.0377542,-0.00016807,0.0250894,1.95246,0.00266114,0.005,1.72247,0.00255242,-0.0201384,-0.479329,37.977,0.449934,0.102432,15.8894,0.179117,0.815263,0.660789,-1.37182,-0.0490411,0.563965,-1.86916,-0.0809682,0.258316,0.10103,0.422974,-0.189502,23.4506,23.3087,23.1527,23.2662,23.1811,23.2662,23.1101,
106,6.27379,1.3798,3.15332,4.12589,6.2743,1.98005,1.55566,0.00222189,-0.0636952,-0.00027372,0.0847597,0.00348402,0.00974803,-1.0582e-05,0.439307,-12.4451,-0.236296,-3.28391,1.72989,-47.4014,1.52821,0.0168521,-20,-0.498779,-0.155267,-0.0340334,-1.85901,0.0482149,-0.000149664,0.0124139,0.000185333,0.495529,0.00106882,0.074412,0.0377542,-0.00016807,0.0250894,1.95165,0.00266245,0.005,1.72251,0.00254747,-0.0180805,-0.488614,38.2617,0.435459,0.102432,15.8894,0.179117,0.815263,0.660789,-1.37182,-0.0490411,0.563965,-1.86916,-0.0809682,0.258316,0.10103,0.422974,-0.189502,23.4506,23.3087,23.1527,23.2662,23.1811,23.2662,23.1101,
107,6.27379,1.3798,3.15332,4.12589,6.2743,1.98005,1.55566,0.00222189,-0.0636952,-0.00027372,0.0847597,0.00348402,0.00974803,-1.0582e-05,0.439307,-12.4451,-0.236296,-3.28391,1.72989,-47.4014,1.52821,0.0168521,-20,-0.498779,-0.155267,-0.0340334,-1.85901,0.0482149,-0.000149664,0.0124139,0.000185333,0.495529,0.00106882,0.074412,0.0377542,-0.00016807,0.0250894,1.95165,0.00266245,0.005,1.72251,0.00254747,-0.0180805,-0.488614,38.2617,0.435459,0.102432,15.8894,0.179117,0.815263,0.660789,-1.37182,-0.0490411,0.563965,-1.86916,-0.0809682,0.258316,0.10103,0.422974,-0.189502,23.4506,23.3087,23.1527,23.2662,23.1811,23.2662,23.1101,
108,6.2738,1.37974,3.15332,4.12598,6.27431,1.98006,1.55566,0.00218942,-0.0618523,-0.000274059,0.0821096,0.00380075,0.00769778,-1.0582e-05,0.439316,-12.4437,-0.236364,-3.28396,1.72978,-47.4,1.52787,0.0168425,-20,-0.498789,-0.15352,-0.0340266,-1.8593,0.0481916,-0.000149664,0.0124139,0.000185333,0.495529,0.00106882,0.074412,0.0366058,-0.000136298,0.0241844,1.95165,0.00266245,0.005,1.72251,0.00254747,-0.0180805,-0.488614,38.2617,0.435459,0.05671,16.1204,0.171036,0.762881,0.6463,-1.42815,-0.0180609,0.564022,-1.97388,-0.0649547,0.209473,0.100708,0.43103,-0.185303,23.4506,23.3087,23.1527,23.252,23.1669,23.252,23.1101,
109,6.2738,1.37974,3.15332,4.12598,6.27431,1.98006,1.55566,0.00218942,-0.0618523,-0.000274059,0.0821096,0.00380075,0.00769778,-1.0582e-05,0.440413,-12.5028,-0.244969,-3.32641,1.71238,-47.6214,1.54201,0.0171337,-20,-0.500198,-0.160719,-0.0341424,-1.88089,0.0494472,-0.000153108,0.0125624,0.000181037,0.495529,0.00106882,0.074412,0.0366058,-0.000136298,0.0241844,1.95093,0.00266236,0.005,1.72289,0.00251879,-0.0172659,-0.500529,38.4663,0.415943,0.05671,16.1204,0.171036,0.762881,0.6463,-1.42815,-0.0180609,0.564022,-1.97388,-0.0649547,0.209473,0.100708,0.43103,-0.185303,23.4506,23.3087,23.1527,23.252,23.1669,23.252,23.1101,
110,6.2738,1.37968,3.15332,4.12606,6.27431,1.98006,1.55566,0.00211362,-0.0609802,-0.000269386,0.0812993,0.0041303,0.0058071,-1.0582e-05,0.440412,-12.5014,-0.245036,-3.32666,1.71228,-47.6197,1.54171,0.0171245,-20,-0.500212,-0.159144,-0.0341343,-1.88112,0.0494281,-0.000153108,0.0125624,0.000181037,0.495529,0.00106882,0.074412,0.0361911,-8.17966e-05,0.0236543,1.95093,0.00266236,0.005,1.72289,0.00251879,-0.0172659,-0.500529,38.4663,0.415943,0.0567021,16.2994,0.236617,0.715067,0.631234,-1.48889,-0.00877833,0.564022,-1.97388,-0.0805664,0.249886,0.100708,0.443188,-0.189331,23.4364,23.3087,23.1385,23.2662,23.1527,23.252,23.1101,
111,6.2738,1.37968,3.15332,4.12606,6.27431,1.98006,1.55566,0.00211362,-0.0609802,-0.000269386,0.0812993,0.0041303,0.0058071,-1.0582e-05,0.441747,-12.581,-0.253562,-3.38666,1.69716,-47.9238,1.55631,0.0174788,-20,-0.501888,-0.169575,-0.034245,-1.91128,0.0506413,-0.000156121,0.0127075,0.000177759,0.495529,0.00106882,0.074412,0.0361911,-8.17966e-05,0.0236543,1.95022,0.00266446,0.005,1.72262,0.00247163,-0.0167889,-0.511947,38.7507,0.39684,0.0567021,16.2994,0.236617,0.715067,0.631234,-1.48889,-0.00877833,0.564022,-1.97388,-0.0805664,0.249886,0.100708,0.443188,-0.189331,23.4364,23.3087,23.1385,23.2662,23.1527,23.252,23.1101,
112,6.2738,1.37968,3.15332,4.12606,6.27431,1.98006,1.55566,0.00211362,-0.0609802,-0.000269386,0.0812993,0.0041303,0.0058071,-1.0582e-05,0.441747,-12.581,-0.253562,-3.38666,1.69716,-47.9238,1.55631,0.0174788,-20,-0.501888,-0.169575,-0.034245,-1.91128,0.0506413,-0.000156121,0.0127075,0.000177759,0.495529,0.00106882,0.074412,0.0361911,-8.17966e-05,0.0236543,1.95022,0.00266446,0.005,1.72262,0.00247163,-0.0167889,-0.511947,38.7507,0.39684,0.0567021,16.2994,0.236617,0.715067,0.631234,-1.48889,-0.00877833,0.564022,-1.97388,-0.0805664,0.249886,0.100708,0.443188,-0.189331,23.4364,23.3087,23.1385,23.2662,23.1527,23.252,23.1101,
113,6.2738,1.37962,3.15332,4.12615,6.27432,1.98007,1.55566,0.00196265,-0.0605633,-0.000269386,0.0823755,0.00465897,0.00468134,-1.0582e-05,0.441721,-12.5794,-0.253626,-3.38725,1.69699,-47.9216,1.55582,0.0174699,-20,-0.501913,-0.168002,-0.0342356,-1.91148,0.0506111,-0.000156121,0.0127075,0.000177759,0.495529,0.00106882,0.074412,0.0364148,2.90054e-05,0.0233582,1.95022,0.00266446,0.005,1.72262,0.00247163,-0.0167889,-0.511947,38.7507,0.39684,-0.000831962,16.4994,0.272829,0.678465,0.612072,-1.54818,-0.0193545,0.555967,-1.96584,-0.0649547,0.22573,0.104814,0.455218,-0.193401,23.4506,23.2946,23.1527,23.2662,23.1811,23.2662,23.1101,
114,6.2738,1.37962,3.15332,4.12615,6.27432,1.98007,1.55566,0.00196265,-0.0605633,-0.000269386,0.0823755,0.00465897,0.00468134,-1.0582e-05,0.443828,-12.6931,-0.269057,-3.47481,1.6665,-48.3608,1.57645,0.0180291,-20,-0.504538,-0.183415,-0.0344454,-1.95535,0.0523612,-0.00015986,0.0128656,0.000171788,0.495529,0.00106882,0.074412,0.0364148,2.90054e-05,0.0233582,1.94943,0.00265448,0.005,1.72171,0.00236292,-0.0165224,-0.528269,39.1633,0.361676,-0.000831962,16.4994,0.272829,0.678465,0.612072,-1.54818,-0.0193545,0.555967,-1.96584,-0.0649547,0.22573,0.104814,0.455218,-0.193401,23.4506,23.2946,23.1527,23.2662,23.1811,23.2662,23.1101,
115,6.2738,1.37962,3.15332,4.12615,6.27432,1.98007,1.55566,0.00196265,-0.0605633,-0.000269386,0.0823755,0.00465897,0.00468134,-1.0582e-05,0.443828,-12.6931,-0.269057,-3.47481,1.6665,-48.3608,1.57645,0.0180291,-20,-0.504538,-0.183415,-0.0344454,-1.95535,0.0523612,-0.00015986,0.0128656,0.000171788,0.495529,0.00106882,0.074412,0.0364148,2.90054e-05,0.0233582,1.94943,0.00265448,0.005,1.72171,0.00236292,-0.0165224,-0.528269,39.1633,0.361676,-0.000831962,16.4994,0.272829,0.678465,0.612072,-1.54818,-0.0193545,0.555967,-1.96584,-0.0649547,0.22573,0.104814,0.455218,-0.193401,23.4506,23.2946,23.1527,23.2662,23.1811,23.2662,23.1101,
116,6.2738,1.37956,3.15332,4.12624,6.27432,1.98007,1.55566,0.00190798,-0.0601278,-0.000265184,0.0825028,0.0051338,0.00325093,-1.05821e-05,0.443819,-12.6916,-0.269146,-3.47522,1.66635,-48.3588,1.57606,0.0180194,-20,-0.504558,-0.181811,-0.0344364,-1.95557,0.0523381,-0.00015986,0.0128656,0.000171788,0.495529,0.00106882,0.074412,0.0363613,9.27153e-05,0.0230368,1.94943,0.00265448,0.005,1.72171,0.00236292,-0.0165224,-0.528269,39.1633,0.361676,-0.004987,16.6927,0.309875,0.711678,0.591386,-1.67122,-0.0627267,0.547911,-1.94972,-0.072956,0.177977,0.10103,0.459229,-0.189331,23.4364,23.2946,23.1385,23.2662,23.1811,23.252,23.1101,
117,6.2738,1.37956,3.15332,4.12624,6.27432,1.98007,1.55566,0.00190798,-0.0601278,-0.000265184,0.0825028,0.0051338,0.00325093,-1.05821e-05,0.445553,-12.7916,-0.280649,-3.55172,1.6454,-48.7442,1.59485,0.0184795,-20,-0.506719,-0.195214,-0.0345833,-1.99399,0.0539102,-0.000163381,0.0130189,0.000167486,0.495529,0.00106882,0.074412,0.0363613,9.27153e-05,0.0230368,1.94865,0.00265417,0.005,1.72106,0.00230531,-0.0162331,-0.543048,39.5249,0.335886,-0.004987,16.6927,0.309875,0.711678,0.591386,-1.67122,-0.0627267,0.547911,-1.94972,-0.072956,0.177977,0.10103,0.459229,-0.189331,23.4364,23.2946,23.1385,23.2662,23.1811,23.252,23.1101,
118,6.2738,1.37956,3.15332,4.12624,6.27432,1.98007,1.55566,0.00190798,-0.0601278,-0.000265184,0.0825028,0.0051338,0.00325093,-1.05821e-05,0.445553,-12.7916,-0.280649,-3.55172,1.6454,-48.7442,1.59485,0.0184795,-20,-0.506719,-0.195214,-0.0345833,-1.99399,0.0539102,-0.000163381,0.0130189,0.000167486,0.495529,0.00106882,0.074412,0.0363613,9.27153e-05,0.0230368,1.94865,0.00265417,0.005,1.72106,0.00230531,-0.0162331,-0.543048,39.5249,0.335886,-0.004987,16.6927,0.309875,0.711678,0.591386,-1.67122,-0.0627267,0.547911,-1.94972,-0.072956,0.177977,0.10103,0.459229,-0.189331,23.4364,23.2946,23.1385,23.2662,23.1811,23.252,23.1101,
119,6.2738,1.3795,3.15332,4.12632,6.27433,1.98007,1.55566,0.00181193,-0.0586112,-0.000265188,0.081217,0.00570364,0.000539921,-1.05821e-05,0.445542,-12.7902,-0.280711,-3.55179,1.64522,-48.7427,1.59437,0.0184707,-20,-0.506735,-0.193563,-0.0345759,-1.99423,0.0538804,-0.000163381,0.0130189,0.000167486,0.495529,0.00106882,0.074412,0.0356763,0.000176551,0.0221698,1.94865,0.00265417,0.005,1.72106,0.00230531,-0.0162331,-0.543048,39.5249,0.335886,-0.0453321,16.8337,0.326302,0.756696,0.580825,-1.77186,-0.0478283,0.547911,-1.94977,-0.0725098,0.153288,0.0927389,0.471331,-0.181274,23.4506,23.2946,23.1385,23.2662,23.1811,23.252,23.1101,
120,6.2738,1.3795,3.15332,4.12632,6.27433,1.98007,1.55566,0.00181193,-0.0586112,-0.000265188,0.081217,0.00570364,0.000539921,-1.05821e-05,0.446966,-12.8485,-0.295222,-3.59499,1.61152,-48.9622,1.61239,0.0188484,-20,-0.508554,-0.201049,-0.034786,-2.0158,0.0556032,-0.000167213,0.0131558,0.000161267,0.495529,0.00106882,0.074412,0.0356763,0.000176551,0.0221698,1.94795,0.00264393,0.005,1.72105,0.00222064,-0.0154528,-0.559322,39.729,0.30208,-0.0453321,16.8337,0.326302,0.756696,0.580825,-1.77186,-0.0478283,0.547911,-1.94977,-0.0725098,0.153288,0.0927389,0.471331,-0.181274,23.4506,23.2946,23.1385,23.2662,23.1811,23.252,23.1101,
121,6.2738,1.37944,3.15332,4.12638,6.27434,1.98007,1.55566,0.00173643,-0.0591513,-0.00026081,0.0775957,0.00604355,-0.0013498,-1.059e-05,0.446971,-12.8473,-0.295263,-3.59503,1.61139,-48.961,1.612,0.0188394,-20,-0.508562,-0.199666,-0.0347816,-2.01603,0.0555792,-0.000167213,0.0131558,0.000161267,0.495529,0.00106882,0.074412,0.0347455,0.000229517,0.022243,1.94795,0.00264393,0.005,1.72105,0.00222064,-0.0154528,-0.559322,39.729,0.30208,-0.0611597,16.9078,0.38138,0.777039,0.52926,-1.87784,-0.0657625,0.555967,-1.94167,-0.0563965,0.161936,0.093001,0.491455,-0.189331,23.4506,23.3087,23.1385,23.252,23.1811,23.2662,23.1101,
122,6.2738,1.37944,3.15332,4.12638,6.27434,1.98007,1.55566,0.00173643,-0.0591513,-0.00026081,0.0775957,0.00604355,-0.0013498,-1.059e-05,0.448063,-12.8965,-0.305262,-3.63051,1.58927,-49.1526,1.6264,0.0191291,-20,-0.509935,-0.205709,-0.0349207,-2.03496,0.0569174,-0.000170725,0.0132769,0.000156262,0.495529,0.00106882,0.074412,0.0347455,0.000229517,0.022243,1.94733,0.00263956,0.005,1.72133,0.00216904,-0.0155187,-0.572,39.9066,0.279,-0.0611597,16.9078,0.38138,0.777039,0.52926,-1.87784,-0.0657625,0.555967,-1.94167,-0.0563965,0.161936,0.093001,0.491455,-0.189331,23.4506,23.3087,23.1385,23.252,23.1811,23.2662,23.1101,
123,6.2738,1.37944,3.15332,4.12638,6.27434,1.98007,1.55566,0.00173643,-0.0591513,-0.00026081,0.0775957,0.00604355,-0.0013498,-1.059e-05,0.448063,-12.8965,-0.305262,-3.63051,1.58927,-49.1526,1.6264,0.0191291,-20,-0.509935,-0.205709,-0.0349207,-2.03496,0.0569174,-0.000170725,0.0132769,0.000156262,0.495529,0.00106882,0.074412,0.0347455,0.000229517,0.022243,1.94733,0.00263956,0.005,1.72133,0.00216904,-0.0155187,-0.572,39.9066,0.279,-0.0611597,16.9078,0.38138,0.777039,0.52926,-1.87784,-0.0657625,0.555967,-1.94167,-0.0563965,0.161936,0.093001,0.491455,-0.189331,23.4506,23.3087,23.1385,23.252,23.1811,23.2662,23.1101,
124,6.27381,1.37939,3.15332,4.12647,6.27434,1.98006,1.55566,0.00158544,-0.0591513,-0.00025253,0.077695,0.00648903,-0.00193046,-1.059e-05,0.448034,-12.8951,-0.305302,-3.63103,1.58911,-49.1506,1.62589,0.0191167,-20,-0.509956,-0.20421,-0.0349136,-2.03516,0.0568878,-0.000170725,0.0132769,0.000156262,0.495529,0.00106882,0.074412,0.0347738,0.00032979,0.0221849,1.94733,0.00263956,0.005,1.72133,0.00216904,-0.0155187,-0.572,39.9066,0.279,-0.137152,17.0135,0.440446,0.818385,0.452112,-2.00849,-0.0150484,0.531738,-1.89333,-0.0569691,0.217678,0.0926514,0.4955,-0.197429,23.4506,23.3229,23.1385,23.252,23.1952,23.2662,23.1101,
125,6.27381,1.37939,3.15332,4.12647,6.27434,1.98006,1.55566,0.00158544,-0.0591513,-0.00025253,0.077695,0.00648903,-0.00193046,-1.059e-05,0.449979,-12.9976,-0.319962,-3.70959,1.55966,-49.5483,1.64448,0.0196327,-20,-0.512376,-0.217999,-0.0351127,-2.0749,0.05847,-0.00017436,0.0134206,0.000150025,0.495529,0.00106882,0.074412,0.0347738,0.00032979,0.0221849,1.94658,0.00263055,0.005,1.72063,0.00207068,-0.0154664,-0.586715,40.28,0.245555,-0.137152,17.0135,0.440446,0.818385,0.452112,-2.00849,-0.0150484,0.531738,-1.89333,-0.0569691,0.217678,0.0926514,0.4955,-0.197429,23.4506,23.3229,23.1385,23.252,23.1952,23.2662,23.1101,
126,6.27381,1.37932,3.15332,4.12655,6.27435,1.98006,1.55566,0.00135895,-0.0601278,-0.000252829,0.0774875,0.00670178,-0.0021194,-1.0582e-05,0.449966,-12.9962,-0.31998,-3.71014,1.55951,-49.5463,1.64395,0.0196227,-20,-0.512395,-0.216586,-0.0351075,-2.07508,0.0584365,-0.00017436,0.0134206,0.000150025,0.495529,0.00106882,0.074412,0.0349165,0.000441896,0.0225621,1.94658,0.00263055,0.005,1.72063,0.00207068,-0.0154664,-0.586715,40.28,0.245555,-0.142212,17.1776,0.456889,0.934604,0.443095,-2.18228,-0.017237,0.547852,-1.86115,-0.0649547,0.201416,0.0927389,0.503604,-0.185478,23.4506,23.3371,23.1385,23.2946,23.1669,23.2662,23.1243,
127,6.27381,1.37932,3.15332,4.12655,6.27435,1.98006,1.55566,0.00135895,-0.0601278,-0.000252829,0.0774875,0.00670178,-0.0021194,-1.0582e-05,0.451972,-13.1061,-0.334062,-3.79458,1.5323,-49.9763,1.66196,0.0201549,-20,-0.514873,-0.231412,-0.0352992,-2.11818,0.0599253,-0.000178476,0.0135639,0.000142785,0.495529,0.00106882,0.074412,0.0349165,0.000441896,0.0225621,1.94584,0.00261477,0.005,1.71983,0.00195558,-0.0158058,-0.600492,40.6843,0.213463,-0.142212,17.1776,0.456889,0.934604,0.443095,-2.18228,-0.017237,0.547852,-1.86115,-0.0649547,0.201416,0.0927389,0.503604,-0.185478,23.4506,23.3371,23.1385,23.2946,23.1669,23.2662,23.1243,
128,6.27381,1.37926,3.15332,4.12663,6.27436,1.98006,1.55566,0.00113246,-0.0583411,-0.000240844,0.0764376,0.00680816,-0.00228712,-1.0582e-05,0.451957,-13.105,-0.334045,-3.79485,1.53222,-49.9749,1.66154,0.0201389,-20,-0.514884,-0.229898,-0.0352961,-2.1184,0.0598973,-0.000178476,0.0135639,0.000142785,0.495529,0.00106882,0.074412,0.0342397,0.000533276,0.021853,1.94584,0.00261477,0.005,1.71983,0.00195558,-0.0158058,-0.600492,40.6843,0.213463,-0.145135,17.2967,0.469001,1.03996,0.440247,-2.31563,-0.0251304,0.539855,-1.84497,-0.0563965,0.193527,0.0966797,0.487427,-0.185347,23.4364,23.3229,23.1243,23.2662,23.1811,23.252,23.1243,
129,6.27381,1.37926,3.15332,4.12663,6.27436,1.98006,1.55566,0.00113246,-0.0583411,-0.000240844,0.0764376,0.00680816,-0.00228712,-1.0582e-05,0.453364,-13.1785,-0.345178,-3.84941,1.50902,-50.2543,1.67253,0.0205122,-20,-0.516666,-0.239307,-0.0354573,-2.14594,0.0608169,-0.000181538,0.0136936,0.000136704,0.495529,0.00106882,0.074412,0.0342397,0.000533276,0.021853,1.94516,0.00260457,0.005,1.71983,0.00186417,-0.0151677,-0.608882,40.9444,0.187798,-0.145135,17.2967,0.469001,1.03996,0.440247,-2.31563,-0.0251304,0.539855,-1.84497,-0.0563965,0.193527,0.0966797,0.487427,-0.185347,23.4364,23.3229,23.1243,23.2662,23.1811,23.252,23.1243,
130,6.27381,1.37926,3.15332,4.12663,6.27436,1.98006,1.55566,0.00113246,-0.0583411,-0.000240844,0.0764376,0.00680816,-0.00228712,-1.0582e-05,0.453364,-13.1785,-0.345178,-3.84941,1.50902,-50.2543,1.67253,0.0205122,-20,-0.516666,-0.239307,-0.0354573,-2.14594,0.0608169,-0.000181538,0.0136936,0.000136704,0.495529,0.00106882,0.074412,0.0342397,0.000533276,0.021853,1.94516,0.00260457,0.005,1.71983,0.00186417,-0.0151677,-0.608882,40.9444,0.187798,-0.145135,17.2967,0.469001,1.03996,0.440247,-2.31563,-0.0251304,0.539855,-1.84497,-0.0563965,0.193527,0.0966797,0.487427,-0.185347,23.4364,23.3229,23.1243,23.2662,23.1811,23.252,23.1243,
131,6.27381,1.37921,3.15332,4.1267,6.27436,1.98005,1.55566,0.00105696,-0.0540195,-0.000240564,0.0734665,0.00680952,-0.00253254,-1.05821e-05,0.45341,-13.1777,-0.345209,-3.84939,1.50898,-50.2534,1.67218,0.0205021,-20,-0.516671,-0.237622,-0.0354581,-2.14621,0.0607872,-0.000181538,0.0136936,0.000136704,0.495529,0.00106882,0.074412,0.0324797,0.000548903,0.0201543,1.94516,0.00260457,0.005,1.71983,0.00186417,-0.0151677,-0.608882,40.9444,0.187798,-0.176336,17.3339,0.526852,1.12662,0.394354,-2.43467,-0.0729108,0.523682,-1.85304,-0.0569691,0.201416,0.0927389,0.483466,-0.189374,23.4506,23.2946,23.1669,23.252,23.1952,23.252,23.0959,
132,6.27381,1.37921,3.15332,4.1267,6.27436,1.98005,1.55566,0.00105696,-0.0540195,-0.000240564,0.0734665,0.00680952,-0.00253254,-1.05821e-05,0.454178,-13.2111,-0.353422,-3.87064,1.48975,-50.3688,1.68136,0.0207059,-20,-0.517712,-0.240958,-0.0355797,-2.15682,0.0616607,-0.000185272,0.0138155,0.000130081,0.495529,0.00106882,0.074412,0.0324797,0.000548903,0.0201543,1.94452,0.00259065,0.005,1.72084,0.00183757,-0.0136389,-0.617097,41.0473,0.168738,-0.176336,17.3339,0.526852,1.12662,0.394354,-2.43467,-0.0729108,0.523682,-1.85304,-0.0569691,0.201416,0.0927389,0.483466,-0.189374,23.4506,23.2946,23.1669,23.252,23.1952,23.252,23.0959,
133,6.27381,1.37916,3.15332,4.12678,6.27437,1.98005,1.55566,0.000830468,-0.0502381,-0.000224251,0.0704659,0.00680952,-0.00286156,-1.05901e-05,0.454186,-13.2102,-0.353395,-3.8707,1.48971,-50.3678,1.681,0.0206901,-20,-0.517716,-0.239343,-0.0355795,-2.15708,0.0616336,-0.000185272,0.0138155,0.000130081,0.495529,0.00106882,0.074412,0.0308243,0.000620918,0.0186618,1.94452,0.00259065,0.005,1.72084,0.00183757,-0.0136389,-0.617097,41.0473,0.168738,-0.243144,17.4391,0.591443,1.26898,0.323713,-2.56004,-0.0589807,0.531799,-1.94172,-0.0490066,0.265991,0.0887145,0.475359,-0.185303,23.4506,23.3087,23.1385,23.2662,23.1811,23.2662,23.1243,
134,6.27381,1.37911,3.15332,4.12685,6.27438,1.98004,1.55566,0.000686873,-0.0471445,-0.000224251,0.0707655,0.00649679,-0.00331157,-1.0582e-05,0.455071,-13.2438,-0.362668,-3.89332,1.46737,-50.4883,1.68734,0.0209051,-20,-0.518855,-0.241493,-0.0357279,-2.1686,0.0622489,-0.000188257,0.013935,0.000124035,0.495529,0.00106882,0.074412,0.0302654,0.000641539,0.0173817,1.94388,0.00258084,0.005,1.72175,0.00176393,-0.0122956,-0.622949,41.1566,0.14688,-0.230165,17.5694,0.579727,1.41693,0.334703,-2.66834,-0.0713456,0.547911,-1.9904,-0.0490066,0.306152,0.0887145,0.463257,-0.193401,23.4506,23.3087,23.1385,23.2662,23.1811,23.2804,23.1101,
135,6.27381,1.37911,3.15332,4.12685,6.27438,1.98004,1.55566,0.000686873,-0.0471445,-0.000224251,0.0707655,0.00649679,-0.00331157,-1.0582e-05,0.456004,-13.3044,-0.368082,-3.93844,1.45852,-50.712,1.69414,0.0211525,-20,-0.520057,-0.249267,-0.0358007,-2.19049,0.0627366,-0.000191529,0.0140481,0.000117934,0.495529,0.00106882,0.074412,0.0302654,0.000641539,0.0173817,1.94327,0.00256507,0.005,1.72171,0.00173118,-0.0111435,-0.627369,41.3648,0.134849,-0.230165,17.5694,0.579727,1.41693,0.334703,-2.66834,-0.0713456,0.547911,-1.9904,-0.0490066,0.306152,0.0887145,0.463257,-0.193401,23.4506,23.3087,23.1385,23.2662,23.1811,23.2804,23.1101,
136,6.27381,1.37911,3.15332,4.12685,6.27438,1.98004,1.55566,0.000686873,-0.0471445,-0.000224251,0.0707655,0.00649679,-0.00331157,-1.0582e-05,0.456004,-13.3044,-0.368082,-3.93844,1.45852,-50.712,1.69414,0.0211525,-20,-0.520057,-0.249267,-0.0358007,-2.19049,0.0627366,-0.000191529,0.0140481,0.000117934,0.495529,0.00106882,0.074412,0.0302654,0.000641539,0.0173817,1.94327,0.00256507,0.005,1.72171,0.00173118,-0.0111435,-0.627369,41.3648,0.134849,-0.230165,17.5694,0.579727,1.41693,0.334703,-2.66834,-0.0713456,0.547911,-1.9904,-0.0490066,0.306152,0.0887145,0.463257,-0.193401,23.4506,23.3087,23.1385,23.2662,23.1811,23.2804,23.1101,
137,6.27381,1.37907,3.15332,4.12692,6.27438,1.98004,1.55566,0.00052848,-0.044296,-0.000212883,0.0717731,0.00627627,-0.00377586,-1.0582e-05,0.456007,-13.3033,-0.368073,-3.9387,1.45847,-50.7107,1.69381,0.0211378,-20,-0.520067,-0.247934,-0.0358011,-2.19065,0.0627122,-0.000191529,0.0140481,0.000117934,0.495529,0.00106882,0.074412,0.0299623,0.000675617,0.0161869,1.94327,0.00256507,0.005,1.72171,0.00173118,-0.0111435,-0.627369,41.3648,0.134849,-0.231152,17.6617,0.604408,1.52707,0.350045,-2.73959,-0.0796405,0.539795,-2.02222,-0.0563965,0.265991,0.0927389,0.45119,-0.185303,23.4648,23.3229,23.1385,23.2662,23.1952,23.252,23.0959,
138,6.27381,1.37907,3.15332,4.12692,6.27438,1.98004,1.55566,0.00052848,-0.044296,-0.000212883,0.0717731,0.00627627,-0.00377586,-1.0582e-05,0.45701,-13.3665,-0.374127,-3.98654,1.44818,-50.9456,1.70009,0.0214037,-20,-0.521349,-0.256249,-0.0358823,-2.21376,0.0631418,-0.000194222,0.0141549,0.000112465,0.495529,0.00106882,0.074412,0.0299623,0.000675617,0.0161869,1.94268,0.00255677,0.005,1.72145,0.00169303,-0.0100682,-0.631172,41.5842,0.121354,-0.231152,17.6617,0.604408,1.52707,0.350045,-2.73959,-0.0796405,0.539795,-2.02222,-0.0563965,0.265991,0.0927389,0.45119,-0.185303,23.4648,23.3229,23.1385,23.2662,23.1952,23.252,23.0959,
139,6.27381,1.37902,3.15332,4.12699,6.27439,1.98003,1.55566,0.000452983,-0.0442511,-0.000208869,0.0726562,0.00627627,-0.00454333,-1.0582e-05,0.457007,-13.3653,-0.374148,-3.98696,1.44808,-50.944,1.69967,0.0213927,-20,-0.521364,-0.255072,-0.0358815,-2.21389,0.063115,-0.000194222,0.0141549,0.000112465,0.495529,0.00106882,0.074412,0.0302086,0.000704929,0.0160784,1.94268,0.00255677,0.005,1.72145,0.00169303,-0.0100682,-0.631172,41.5842,0.121354,-0.222109,17.6719,0.626071,1.57504,0.314591,-2.79005,-0.0456864,0.531799,-2.0464,-0.0360304,0.241699,0.0927389,0.443134,-0.185347,23.4506,23.3229,23.1385,23.2662,23.1811,23.2662,23.0959,
140,6.27381,1.37902,3.15332,4.12699,6.27439,1.98003,1.55566,0.000452983,-0.0442511,-0.000208869,0.0726562,0.00627627,-0.00454333,-1.0582e-05,0.458355,-13.4456,-0.382481,-4.04926,1.43381,-51.2544,1.71159,0.0217503,-20,-0.523034,-0.266049,-0.0359831,-2.24499,0.0640452,-0.000197389,0.0142624,0.000106447,0.495529,0.00106882,0.074412,0.0302086,0.000704929,0.0160784,1.94208,0.00254591,0.005,1.72069,0.00165688,-0.0099706,-0.639779,41.8766,0.102893,-0.222109,17.6719,0.626071,1.57504,0.314591,-2.79005,-0.0456864,0.531799,-2.0464,-0.0360304,0.241699,0.0927389,0.443134,-0.185347,23.4506,23.3229,23.1385,23.2662,23.1811,23.2662,23.0959,
141,6.27381,1.37898,3.15332,4.12706,6.27439,1.98002,1.55566,0.000381596,-0.0437558,-0.000200836,0.0712182,0.00585076,-0.00587658,-1.059e-05,0.458396,-13.4444,-0.382486,-4.04956,1.4338,-51.2529,1.71131,0.0217408,-20,-0.523039,-0.264732,-0.0359867,-2.24517,0.0640223,-0.000197389,0.0142624,0.000106447,0.495529,0.00106882,0.074412,0.029692,0.000683979,0.0157652,1.94208,0.00254591,0.005,1.72069,0.00165688,-0.0099706,-0.639779,41.8766,0.102893,-0.24074,17.7296,0.66931,1.64246,0.291626,-2.84436,-0.0383113,0.539855,-2.01418,-0.0332184,0.210091,0.100708,0.422993,-0.193401,23.4506,23.3229,23.1101,23.2804,23.1811,23.2378,23.0959,
142,6.27381,1.37898,3.15332,4.12706,6.27439,1.98002,1.55566,0.000381596,-0.0437558,-0.000200836,0.0712182,0.00585076,-0.00587658,-1.059e-05,0.459108,-13.501,-0.38427,-4.09202,1.43484,-51.4693,1.71598,0.0219295,-20,-0.523926,-0.272048,-0.0359964,-2.26661,0.064257,-0.000200222,0.0143735,0.000101273,0.495529,0.00106882,0.074412,0.029692,0.000683979,0.0157652,1.94147,0.00253228,0.005,1.7206,0.00166347,-0.00968872,-0.641868,42.0788,0.0996969,-0.24074,17.7296,0.66931,1.64246,0.291626,-2.84436,-0.0383113,0.539855,-2.01418,-0.0332184,0.210091,0.100708,0.422993,-0.193401,23.4506,23.3229,23.1101,23.2804,23.1811,23.2378,23.0959,
143,6.27381,1.37898,3.15332,4.12706,6.27439,1.98002,1.55566,0.000381596,-0.0437558,-0.000200836,0.0712182,0.00585076,-0.00587658,-1.059e-05,0.459108,-13.501,-0.38427,-4.09202,1.43484,-51.4693,1.71598,0.0219295,-20,-0.523926,-0.272048,-0.0359964,-2.26661,0.064257,-0.000200222,0.0143735,0.000101273,0.495529,0.00106882,0.074412,0.029692,0.000683979,0.0157652,1.94147,0.00253228,0.005,1.7206,0.00166347,-0.00968872,-0.641868,42.0788,0.0996969,-0.24074,17.7296,0.66931,1.64246,0.291626,-2.84436,-0.0383113,0.539855,-2.01418,-0.0332184,0.210091,0.100708,0.422993,-0.193401,23.4506,23.3229,23.1101,23.2804,23.1811,23.2378,23.0959,
144,6.27381,1.37894,3.15332,4.12713,6.2744,1.98001,1.55566,0.000381596,-0.0431322,-0.000188783,0.0718459,0.0056585,-0.00765095,-1.05821e-05,0.459114,-13.4998,-0.384286,-4.09229,1.43477,-51.4678,1.71562,0.0219142,-20,-0.523935,-0.270782,-0.0359985,-2.26676,0.0642328,-0.000200222,0.0143735,0.000101273,0.495529,0.00106882,0.074412,0.0297458,0.000659075,0.0153236,1.94147,0.00253228,0.005,1.7206,0.00166347,-0.00968872,-0.641868,42.0788,0.0996969,-0.196012,17.8295,0.666939,1.69946,0.299141,-2.89464,-0.0207593,0.523682,-2.02228,-0.0180152,0.233643,0.100708,0.427078,-0.185303,23.4506,23.3087,23.1385,23.2662,23.1669,23.252,23.1101,
145,6.27381,1.37894,3.15332,4.12713,6.2744,1.98001,1.55566,0.000381596,-0.0431322,-0.000188783,0.0718459,0.0056585,-0.00765095,-1.05821e-05,0.460065,-13.5655,-0.388541,-4.14324,1.43029,-51.7188,1.72332,0.0221667,-20,-0.525121,-0.279732,-0.0360363,-2.29179,0.0647493,-0.000202936,0.0144806,9.5833e-05,0.495529,0.00106882,0.074412,0.0297458,0.000659075,0.0153236,1.94087,0.00252395,0.005,1.72001,0.00167839,-0.0092912,-0.646617,42.315,0.0909704,-0.196012,17.8295,0.666939,1.69946,0.299141,-2.89464,-0.0207593,0.523682,-2.02228,-0.0180152,0.233643,0.100708,0.427078,-0.185303,23.4506,23.3087,23.1385,23.2662,23.1669,23.252,23.1101,
146,6.27381,1.37889,3.15332,4.12721,6.2744,1.98,1.55566,0.000331198,-0.041595,-0.000180749,0.072116,0.00574553,-0.00808022,-1.05821e-05,0.460056,-13.5644,-0.388553,-4.14359,1.43021,-51.7174,1.72291,0.0221524,-20,-0.525131,-0.278493,-0.0360364,-2.29195,0.0647225,-0.000202936,0.0144806,9.5833e-05,0.495529,0.00106882,0.074412,0.0295035,0.000682203,0.014665,1.94087,0.00252395,0.005,1.72001,0.00167839,-0.0092912,-0.646617,42.315,0.0909704,-0.183471,17.9262,0.682767,1.70915,0.310843,-2.89979,-0.0226543,0.515688,-2.01418,-0.041081,0.226161,0.104814,0.431049,-0.177246,23.4506,23.3087,23.1101,23.2662,23.1669,23.2662,23.0959,
147,6.27381,1.37889,3.15332,4.12721,6.2744,1.98,1.55566,0.000331198,-0.041595,-0.000180749,0.072116,0.00574553,-0.00808022,-1.05821e-05,0.461248,-13.6294,-0.397436,-4.1929,1.41276,-51.9639,1.73303,0.0224686,-20,-0.526639,-0.287088,-0.0361521,-2.31637,0.0655477,-0.000205605,0.0145849,8.98273e-05,0.495529,0.00106882,0.074412,0.0295035,0.000682203,0.014665,1.94029,0.0025115,0.005,1.7197,0.00164637,-0.00869849,-0.654207,42.5457,0.0709661,-0.183471,17.9262,0.682767,1.70915,0.310843,-2.89979,-0.0226543,0.515688,-2.01418,-0.041081,0.226161,0.104814,0.431049,-0.177246,23.4506,23.3087,23.1101,23.2662,23.1669,23.2662,23.0959,
148,6.27381,1.37886,3.15332,4.12728,6.27441,1.98,1.55566,0.000264958,-0.0391641,-0.000172716,0.075011,0.00560011,-0.00781529,-1.0582e-05,0.461265,-13.6283,-0.397471,-4.19338,1.41271,-51.9624,1.73272,0.0224608,-20,-0.526654,-0.285873,-0.0361512,-2.3165,0.0655245,-0.000205605,0.0145849,8.98273e-05,0.495529,0.00106882,0.074412,0.0298316,0.000693389,0.0136859,1.94029,0.0025115,0.005,1.7197,0.00164637,-0.00869849,-0.654207,42.5457,0.0709661,-0.178397,17.9284,0.703411,1.71213,0.335598,-2.91375,-0.0403638,0.507632,-2.03034,-0.0180152,0.217678,0.100708,0.414937,-0.189374,23.4648,23.3229,23.1385,23.2662,23.1952,23.2662,23.0959,
149,6.27381,1.37886,3.15332,4.12728,6.27441,1.98,1.55566,0.000264958,-0.0391641,-0.000172716,0.075011,0.00560011,-0.00781529,-1.0582e-05,0.462536,-13.7149,-0.403548,-4.26064,1.40503,-52.2897,1.74189,0.0227981,-20,-0.528251,-0.297704,-0.0362198,-2.34906,0.0661316,-0.000208382,0.0146909,8.46568e-05,0.495529,0.00106882,0.074412,0.0298316,0.000693389,0.0136859,1.9397,0.00249808,0.005,1.71888,0.00162422,-0.00781733,-0.659705,42.8536,0.0579679,-0.178397,17.9284,0.703411,1.71213,0.335598,-2.91375,-0.0403638,0.507632,-2.03034,-0.0180152,0.217678,0.100708,0.414937,-0.189374,23.4648,23.3229,23.1385,23.2662,23.1952,23.2662,23.0959,
150,6.27381,1.37882,3.15332,4.12728,6.27441,1.97999,1.55566,0.000198719,-0.0367333,-0.000160666,0.075011,0.0055103,-0.00741031,-1.059e-05,0.462547,-13.7149,-0.403551,-4.26032,1.40494,-52.29,1.74162,0.0227902,-20,-0.528251,-0.297205,-0.0362223,-2.34913,0.0661108,-0.000208382,0.0146909,8.46568e-05,0.495529,0.00106882,0.074412,0.0293236,0.000703571,0.0127611,1.9397,0.00249808,0.005,1.71888,0.00162422,-0.00781733,-0.659705,42.8536,0.0579679,-0.175876,17.9874,0.725277,1.71213,0.320886,-2.90638,-0.0705989,0.515877,-2.05451,-0.0180152,0.217678,0.112793,0.398824,-0.189502,23.4506,23.3229,23.1527,23.2662,23.1811,23.2804,23.1101,
151,6.27381,1.37882,3.15332,4.12728,6.27441,1.97999,1.55566,0.000198719,-0.0367333,-0.000160666,0.075011,0.0055103,-0.00741031,-1.059e-05,0.462898,-13.7226,-0.408836,-4.2648,1.39122,-52.3122,1.74536,0.0228834,-20,-0.528734,-0.297886,-0.0363025,-2.35096,0.0665147,-0.000210542,0.0147204,7.98999e-05,0.495529,0.00106882,0.074412,0.0293236,0.000703571,0.0127611,1.93955,0.00248802,0.005,1.7192,0.00160601,-0.00698499,-0.663449,42.8725,0.04551,-0.175876,17.9874,0.725277,1.71213,0.320886,-2.90638,-0.0705989,0.515877,-2.05451,-0.0180152,0.217678,0.112793,0.398824,-0.189502,23.4506,23.3229,23.1527,23.2662,23.1811,23.2804,23.1101,
152,6.27381,1.37878,3.15332,4.12735,6.27442,1.97998,1.55566,0.000198719,-0.0351076,-0.000152635,0.074817,0.00552905,-0.00708675,-1.0582e-05,0.462918,-13.7215,-0.408877,-4.26522,1.39112,-52.3108,1.74493,0.0228757,-20,-0.528747,-0.296665,-0.0363037,-2.35112,0.0664833,-0.000210542,0.0147204,7.98999e-05,0.495529,0.00106882,0.074412,0.0289279,0.000700125,0.0121536,1.93955,0.00248802,0.005,1.7192,0.00160601,-0.00698499,-0.663449,42.8725,0.04551,-0.129214,18.0189,0.731787,1.67591,0.343699,-2.90605,-0.054057,0.515625,-2.08669,-0.0180152,0.14502,0.116821,0.370605,-0.189374,23.4648,23.3229,23.1527,23.2662,23.1952,23.252,23.0959,
153,6.27381,1.37878,3.15332,4.12735,6.27442,1.97998,1.55566,0.000198719,-0.0351076,-0.000152635,0.074817,0.00552905,-0.00708675,-1.0582e-05,0.464117,-13.7874,-0.417731,-4.31473,1.37404,-52.5611,1.75673,0.0231938,-20,-0.530265,-0.305245,-0.0364139,-2.37588,0.067465,-0.000214133,0.0148236,7.27841e-05,0.495529,0.00106882,0.074412,0.0289279,0.000700125,0.0121536,1.93896,0.00247056,0.005,1.71903,0.00159339,-0.00643824,-0.672596,43.1063,0.0257378,-0.129214,18.0189,0.731787,1.67591,0.343699,-2.90605,-0.054057,0.515625,-2.08669,-0.0180152,0.14502,0.116821,0.370605,-0.189374,23.4648,23.3229,23.1527,23.2662,23.1952,23.252,23.0959,
154,6.27381,1.37875,3.15332,4.12743,6.27443,1.97997,1.55566,0.000175516,-0.0334582,-0.000140585,0.0739767,0.00570458,-0.00708851,-1.0582e-05,0.464106,-13.7863,-0.417744,-4.31517,1.37396,-52.5596,1.75632,0.02318,-20,-0.530276,-0.303993,-0.0364142,-2.37605,0.0674382,-0.000214133,0.0148236,7.27841e-05,0.495529,0.00106882,0.074412,0.0283413,0.000718248,0.0115112,1.93896,0.00247056,0.005,1.71903,0.00159339,-0.00643824,-0.672596,43.1063,0.0257378,-0.111574,18.0699,0.754176,1.653,0.33377,-2.9072,-0.0474321,0.499577,-2.09474,-0.0227876,0.161334,0.112865,0.346529,-0.185347,23.4648,23.3229,23.1527,23.2804,23.1952,23.252,23.1101,
155,6.27381,1.37875,3.15332,4.12743,6.27443,1.97997,1.55566,0.000175516,-0.0334582,-0.000140585,0.0739767,0.00570458,-0.00708851,-1.0582e-05,0.46526,-13.8447,-0.427299,-4.35857,1.35408,-52.7809,1.76668,0.0234862,-20,-0.531744,-0.311474,-0.0365405,-2.39786,0.068321,-0.000216782,0.0149276,6.66914e-05,0.495529,0.00106882,0.074412,0.0283413,0.000718248,0.0115112,1.93837,0.00245813,0.005,1.71903,0.00156589,-0.00586008,-0.680745,43.3125,0.00407768,-0.111574,18.0699,0.754176,1.653,0.33377,-2.9072,-0.0474321,0.499577,-2.09474,-0.0227876,0.161334,0.112865,0.346529,-0.185347,23.4648,23.3229,23.1527,23.2804,23.1952,23.252,23.1101,
156,6.27381,1.37872,3.15332,4.1275,6.27443,1.97996,1.55566,0.000117996,-0.0324117,-0.000116483,0.0713057,0.00568805,-0.00808223,-1.0582e-05,0.465261,-13.8437,-0.427289,-4.35883,1.35403,-52.7797,1.76632,0.0234722,-20,-0.531748,-0.310285,-0.0365431,-2.39804,0.0682972,-0.000216782,0.0149276,6.66914e-05,0.495529,0.00106882,0.074412,0.0273538,0.000724146,0.0110302,1.93837,0.00245813,0.005,1.71903,0.00156589,-0.00586008,-0.680745,43.3125,0.00407768,-0.0668174,18.124,0.760729,1.64093,0.354634,-2.90497,-0.025482,0.491521,-2.11891,-0.0322266,0.177246,0.11308,0.330322,-0.185347,23.4506,23.3087,23.1385,23.2662,23.1811,23.2662,23.1101,
157,6.27381,1.37872,3.15332,4.1275,6.27443,1.97996,1.55566,0.000117996,-0.0324117,-0.000116483,0.0713057,0.00568805,-0.00808223,-1.0582e-05,0.465936,-13.8747,-0.433645,-4.38041,1.33996,-52.8958,1.77207,0.0236512,-20,-0.53262,-0.313874,-0.0366299,-2.40929,0.0688044,-0.000219155,0.0150194,6.12283e-05,0.495529,0.00106882,0.074412,0.0273538,0.000724146,0.0110302,1.93783,0.00244718,0.005,1.71943,0.00155073,-0.00542719,-0.685395,43.419,-0.0104465,-0.0668174,18.124,0.760729,1.64093,0.354634,-2.90497,-0.025482,0.491521,-2.11891,-0.0322266,0.177246,0.11308,0.330322,-0.185347,23.4506,23.3087,23.1385,23.2662,23.1811,23.2662,23.1101,
