LWingKi/MAS_RnD/log/us2/contactless/49/grasp_log_12_08_2023_16_24_44.csv
Index,joint_angle_0,joint_angle_1,joint_angle_2,joint_angle_3,joint_angle_4,joint_angle_5,joint_angle_6,joint_velocity_0,joint_velocity_1,joint_velocity_2,joint_velocity_3,joint_velocity_4,joint_velocity_5,joint_velocity_6,joint_accel_0,joint_accel_1,joint_accel_2,joint_accel_3,joint_accel_4,joint_accel_5,joint_accel_6,constraint_tau_0,constraint_tau_1,constraint_tau_2,constraint_tau_3,constraint_tau_4,constraint_tau_5,constraint_tau_6,current_pos_x,current_pos_y,current_pos_z,target_pos_x,target_pos_y,target_pos_z,current_vel_x,current_vel_y,current_vel_z,target_vel_x,target_vel_y,target_vel_z,control_signal_linear_x,control_signal_linear_y,control_signal_linear_z,control_signal_angular_x,control_signal_angular_y,control_signal_angular_z,joint_torque_0,joint_torque_1,joint_torque_2,joint_torque_3,joint_torque_4,joint_torque_5,joint_torque_6,actuar_current_0,actuar_current_1,actuar_current_2,actuar_current_3,actuar_current_4,actuar_current_5,actuar_current_6,actuar_voltage_0,actuar_voltage_1,actuar_voltage_2,actuar_voltage_3,actuar_voltage_4,actuar_voltage_5,actuar_voltage_6
0,6.27284,1.38046,3.15338,4.11408,6.27428,1.97443,1.55579,0.00218942,0.0261995,0.000160528,0.0926434,1.58969e-05,0.0202368,2.1212e-05,0.36351,-5.12974,-0.400217,2.50698,0.447602,-18.6354,0.889776,-0.00284414,-20,-0.408961,0.732668,-0.0411169,1.06571,0.0210806,-9.07649e-05,0.00407685,-4.64779e-05,0.494399,0.00126163,0.075271,0.0212981,-0.00073389,-0.00993152,1.9868,-0.00108752,0.005,1.78812,-0.000978772,0.0045,-0.245065,11.0075,-0.12549,1.70119,0.375531,0.069412,5.309,0.217868,5.83294,0.161683,0.257812,0.298096,0.193359,-0.0809682,-0.109063,-0.4955,-0.117099,23.4932,23.3797,23.1952,23.3229,23.2378,23.3087,23.1385,
1,6.27284,1.38049,3.15338,4.11417,6.27428,1.97445,1.55579,0.00228958,0.0251191,0.000160524,0.0945341,2.64949e-05,0.0240738,2.11959e-05,0.334069,-2.79122,-0.32588,4.16176,0.425864,-9.5444,0.561078,-0.0106604,-18.8975,-0.37276,1.0194,-0.0402147,1.96141,-0.00293562,0,0,0,0.494399,0.00126163,0.075271,0.0220721,-0.000759946,-0.00913324,2,0,0.005,1.78083,0.000660501,0.0134384,-0.0092394,2.60016,0.0248547,1.69015,0.398246,0.0497001,5.29471,0.236181,5.84638,0.154081,0.241699,0.315137,0.201577,-0.0966797,-0.108765,-0.47541,-0.116821,23.479,23.3797,23.1811,23.3087,23.2378,23.3087,23.1527,
2,6.27284,1.38051,3.15338,4.11427,6.27428,1.97448,1.55579,0.00218942,0.0250768,0.000146565,0.0958846,2.64749e-05,0.0259294,2.11799e-05,0.335475,-2.91604,-0.326513,4.06802,0.437498,-10.0333,0.570253,-0.0102851,-18.9733,-0.374482,1.0034,-0.0401739,1.91246,-0.00258106,-9.22058e-07,9.39839e-05,2.21794e-07,0.494399,0.00126163,0.075271,0.0224712,-0.000710666,-0.00894394,1.99956,1.52147e-05,0.005,1.77974,0.000697645,0.0127199,-0.01264,3.05813,0.0257745,1.68539,0.404973,0.0416638,5.30072,0.222777,5.84113,0.142221,0.257812,0.322366,0.201416,-0.112793,-0.108765,-0.487493,-0.128969,23.4932,23.3797,23.1952,23.3229,23.2236,23.2946,23.1527,
3,6.27285,1.38054,3.15338,4.11436,6.27428,1.97451,1.55579,0.00218942,0.024849,0.000132607,0.0936289,2.64949e-05,0.0299808,0,0.336622,-3.01247,-0.328202,3.99577,0.442615,-10.4076,0.576419,-0.00998067,-19.0319,-0.375898,0.991272,-0.0401758,1.87506,-0.00236267,-1.41295e-06,0.000187583,8.71314e-07,0.494399,0.00126163,0.075271,0.0218681,-0.000704657,-0.00838121,1.99913,2.83244e-05,0.005,1.77899,0.000665091,0.0125495,-0.0147108,3.40829,0.0231364,1.64061,0.449625,0.028925,5.32684,0.216004,5.83819,0.132466,0.265991,0.298205,0.201577,-0.145243,-0.108839,-0.471313,-0.128906,23.479,23.3797,23.1811,23.3229,23.2236,23.3087,23.1669,
4,6.27285,1.38056,3.15338,4.11446,6.27428,1.97454,1.55579,0.00211392,0.0250936,0.000125627,0.0948798,2.64949e-05,0.0307911,0,0.337611,-3.10165,-0.328598,3.93183,0.450773,-10.757,0.584859,-0.00971627,-19.0864,-0.377134,0.980973,-0.0401543,1.84037,-0.00190932,-2.84167e-06,0.000285177,1.49103e-06,0.494399,0.00126163,0.075271,0.0221778,-0.00066955,-0.00841377,1.9987,4.13048e-05,0.005,1.77915,0.000671366,0.0120431,-0.0191243,3.73248,0.0236809,1.65428,0.495659,0.0277141,5.34254,0.228699,5.81124,0.124808,0.257938,0.281982,0.201416,-0.090076,-0.104814,-0.487443,-0.141049,23.479,23.3939,23.2094,23.3371,23.2378,23.2946,23.1669,
5,6.27285,1.38056,3.15338,4.11446,6.27428,1.97454,1.55579,0.00211392,0.0250936,0.000125627,0.0948798,2.64949e-05,0.0307911,0,0.338747,-3.19647,-0.330519,3.86116,0.455035,-11.1225,0.590802,-0.00941467,-19.1433,-0.378526,0.968432,-0.0401625,1.80407,-0.00170436,-3.40107e-06,0.000391425,1.46677e-06,0.494399,0.00126163,0.075271,0.0221778,-0.00066955,-0.00841377,1.99822,4.97244e-05,0.005,1.77844,0.000647347,0.0120724,-0.0210636,4.07384,0.0205105,1.65428,0.495659,0.0277141,5.34254,0.228699,5.81124,0.124808,0.257938,0.281982,0.201416,-0.090076,-0.104814,-0.487443,-0.141049,23.479,23.3939,23.2094,23.3371,23.2378,23.2946,23.1669,
6,6.27285,1.38059,3.15338,4.11456,6.27428,1.97457,1.55579,0.00211362,0.0259294,0.000125627,0.097946,2.64952e-05,0.0330703,0,0.33874,-3.19629,-0.330537,3.86125,0.455079,-11.1224,0.590809,-0.00941496,-19.1442,-0.37855,0.969169,-0.0401598,1.80398,-0.00170451,-3.40107e-06,0.000391425,1.46677e-06,0.494399,0.00126163,0.075271,0.0228889,-0.000661137,-0.00855799,1.99822,4.97244e-05,0.005,1.77844,0.000647347,0.0120724,-0.0210636,4.07384,0.0205105,1.64029,0.542274,0.0595177,5.39064,0.197409,5.77091,0.124961,0.265991,0.265869,0.193527,-0.072956,-0.0927389,-0.463327,-0.120917,23.4932,23.3797,23.1811,23.3371,23.2236,23.2946,23.1527,
7,6.27285,1.38062,3.15338,4.11466,6.27428,1.9746,1.55579,0.00213694,0.0260799,0.000122463,0.099666,3.70648e-05,0.0329853,0,0.34007,-3.31314,-0.331716,3.77312,0.463948,-11.5732,0.597839,-0.00905978,-19.2153,-0.380209,0.954223,-0.0401419,1.759,-0.001505,-3.91786e-06,0.000497673,1.94698e-06,0.494399,0.00126163,0.075271,0.0233536,-0.000665293,-0.00865706,1.99777,6.24005e-05,0.005,1.77739,0.000651184,0.0122022,-0.0229366,4.49599,0.0197029,1.6527,0.613456,0.0431341,5.42366,0.161771,5.72873,0.132118,0.257812,0.104736,0.19403,-0.112793,-0.100789,-0.459246,-0.124943,23.479,23.3797,23.1952,23.3229,23.252,23.3087,23.1669,
8,6.27285,1.38064,3.15338,4.11476,6.27428,1.97464,1.55579,0.00213694,0.0232284,0.000108642,0.100746,3.70648e-05,0.0345374,0,0.341117,-3.40217,-0.333027,3.70529,0.469791,-11.917,0.60489,-0.00878339,-19.2698,-0.381508,0.942888,-0.0401326,1.72461,-0.0011847,-4.85073e-06,0.00060071,1.47508e-06,0.494399,0.00126163,0.075271,0.0242632,-0.000650499,-0.00738604,1.99731,7.3109e-05,0.005,1.77657,0.000664562,0.0122914,-0.0260415,4.81871,0.0182619,1.6527,0.684049,0.0435264,5.47335,0.168217,5.67414,0.127549,0.257812,-0.136963,0.193527,-0.121118,-0.0967636,-0.418945,-0.120917,23.479,23.408,23.1952,23.3371,23.2236,23.3229,23.1669,
9,6.27285,1.38064,3.15338,4.11476,6.27428,1.97464,1.55579,0.00213694,0.0232284,0.000108642,0.100746,3.70648e-05,0.0345374,0,0.342694,-3.52735,-0.336306,3.61087,0.473954,-12.411,0.613401,-0.00836491,-19.345,-0.383395,0.926036,-0.0401433,1.67508,-0.000860598,-5.41845e-06,0.000711352,-1.89897e-07,0.494399,0.00126163,0.075271,0.0242632,-0.000650499,-0.00738604,1.99684,6.87755e-05,0.005,1.77532,0.000647347,0.0111474,-0.0291262,5.28195,0.0126122,1.6527,0.684049,0.0435264,5.47335,0.168217,5.67414,0.127549,0.257812,-0.136963,0.193527,-0.121118,-0.0967636,-0.418945,-0.120917,23.479,23.408,23.1952,23.3371,23.2236,23.3229,23.1669,
10,6.27285,1.38066,3.15338,4.11486,6.27428,1.97468,1.55579,0.00205343,0.0178264,0.000108645,0.102815,3.70929e-05,0.0367333,0,0.342701,-3.5266,-0.336347,3.61006,0.474007,-12.4094,0.613399,-0.00836634,-19.3459,-0.383422,0.926717,-0.0401403,1.67502,-0.000861107,-5.41845e-06,0.000711352,-1.89897e-07,0.494399,0.00126163,0.075271,0.0259931,-0.000598023,-0.00505847,1.99684,6.87755e-05,0.005,1.77532,0.000647347,0.0111474,-0.0291262,5.28195,0.0126122,1.6413,0.74903,0.0667162,5.47971,0.158145,5.60735,0.117213,0.257812,-0.403154,0.169381,-0.129158,-0.0927389,-0.398804,-0.124943,23.4932,23.3655,23.1811,23.3087,23.252,23.3229,23.1669,
11,6.27285,1.38066,3.15338,4.11486,6.27428,1.97468,1.55579,0.00205343,0.0178264,0.000108645,0.102815,3.70929e-05,0.0367333,0,0.344789,-3.69645,-0.3395,3.48063,0.483114,-13.0849,0.624917,-0.0078122,-19.4479,-0.385889,0.903514,-0.0401379,1.607,-0.000432525,-6.12179e-06,0.00083917,-3.98937e-07,0.494399,0.00126163,0.075271,0.0259931,-0.000598023,-0.00505847,1.99628,7.63363e-05,0.005,1.77326,0.000606924,0.00905262,-0.033194,5.91703,0.0078327,1.6413,0.74903,0.0667162,5.47971,0.158145,5.60735,0.117213,0.257812,-0.403154,0.169381,-0.129158,-0.0927389,-0.398804,-0.124943,23.4932,23.3655,23.1811,23.3087,23.252,23.3229,23.1669,
12,6.27286,1.38066,3.15338,4.11497,6.27428,1.97472,1.55579,0.00198719,0.00756273,0.000105981,0.104798,3.70929e-05,0.0403737,0,0.34481,-3.69549,-0.339575,3.47905,0.483178,-13.0823,0.624921,-0.00781412,-19.4488,-0.385919,0.90392,-0.0401352,1.607,-0.000433132,-6.12179e-06,0.00083917,-3.98937e-07,0.494399,0.00126163,0.075271,0.0287177,-0.000538991,-0.000657255,1.99628,7.63363e-05,0.005,1.77326,0.000606924,0.00905262,-0.033194,5.91703,0.0078327,1.64204,0.852117,0.0862954,5.50773,0.149058,5.56702,0.125516,0.281982,-0.523744,0.177246,-0.136963,-0.0927389,-0.382775,-0.12085,23.4932,23.3797,23.1811,23.3087,23.2378,23.3087,23.1811,
13,6.27286,1.38066,3.15338,4.11507,6.27429,1.97476,1.55579,0.00185471,-0.00400852,9.29087e-05,0.104152,4.76553e-05,0.0464568,0,0.347597,-3.91897,-0.343309,3.3052,0.497026,-13.9833,0.640725,-0.00708258,-19.5845,-0.38917,0.873325,-0.0401132,1.51553,0.000173342,-6.88156e-06,0.000978039,-6.42569e-07,0.494399,0.00126163,0.075271,0.0309571,-0.00044875,0.00456858,1.99571,8.34932e-05,0.005,1.77029,0.000560236,0.00509153,-0.038974,6.76855,0.00284157,1.61764,0.978491,0.0998347,5.51387,0.151061,5.5437,0.120876,0.273926,-0.531982,0.169381,-0.145912,-0.088623,-0.386719,-0.112865,23.479,23.3939,23.2094,23.3371,23.2236,23.3229,23.1811,
14,6.27286,1.38065,3.15337,4.11517,6.27429,1.97481,1.55579,0.00178847,-0.00831832,6.62379e-05,0.103988,4.76553e-05,0.0480286,0,0.35073,-4.16064,-0.34933,3.12073,0.506452,-14.9626,0.658808,-0.0062574,-19.7308,-0.392816,0.841367,-0.0401232,1.41625,0.000948832,-8.17719e-06,0.00113061,-1.89993e-06,0.494399,0.00126163,0.075271,0.0318119,-0.000403739,0.00644289,1.9951,8.80149e-05,0.005,1.76773,0.000483089,0.000388282,-0.0463928,7.69069,-0.00741605,1.63262,1.181,0.0999078,5.53804,0.142117,5.52909,0.123477,0.290151,-0.507568,0.177429,-0.121118,-0.100708,-0.418965,-0.12085,23.479,23.3655,23.1811,23.3087,23.2236,23.2946,23.1669,
15,6.27286,1.38065,3.15337,4.11517,6.27429,1.97481,1.55579,0.00178847,-0.00831832,6.62379e-05,0.103988,4.76553e-05,0.0480286,0,0.352721,-4.32564,-0.352043,2.99714,0.516069,-15.6151,0.672098,-0.00572879,-19.8299,-0.395191,0.819422,-0.0401196,1.35089,0.0015788,-9.66038e-06,0.00129344,-2.30465e-06,0.494399,0.00126163,0.075271,0.0318119,-0.000403739,0.00644289,1.99445,9.12041e-05,0.005,1.76638,0.000445449,-0.0012986,-0.0524668,8.30183,-0.0112962,1.63262,1.181,0.0999078,5.53804,0.142117,5.52909,0.123477,0.290151,-0.507568,0.177429,-0.121118,-0.100708,-0.418965,-0.12085,23.479,23.3655,23.1811,23.3087,23.2236,23.2946,23.1669,
16,6.27286,1.38063,3.15337,4.11528,6.27429,1.97486,1.55579,0.00172223,-0.0156657,5.96141e-05,0.10457,4.76908e-05,0.0502891,0,0.352736,-4.32446,-0.352105,2.99577,0.516135,-15.6125,0.672099,-0.00573319,-19.8307,-0.395217,0.820123,-0.0401153,1.35079,0.00157835,-9.66038e-06,0.00129344,-2.30465e-06,0.494399,0.00126163,0.075271,0.0335194,-0.000355099,0.0095758,1.99445,9.12041e-05,0.005,1.76638,0.000445449,-0.0012986,-0.0524668,8.30183,-0.0112962,1.59557,1.35465,0.118985,5.50264,0.158206,5.52459,0.123932,0.298096,-0.644531,0.153288,-0.0970148,-0.0887145,-0.398824,-0.108765,23.479,23.3655,23.1811,23.3087,23.2378,23.3087,23.1669,
17,6.27286,1.38063,3.15337,4.11528,6.27429,1.97486,1.55579,0.00172223,-0.0156657,5.96141e-05,0.10457,4.76908e-05,0.0502891,0,0.355289,-4.53483,-0.3554,2.83656,0.529168,-16.451,0.686953,-0.0050553,-19.957,-0.398231,0.791712,-0.0401013,1.26642,0.00215787,-1.07428e-05,0.00147185,-2.73552e-06,0.494399,0.00126163,0.075271,0.0335194,-0.000355099,0.0095758,1.99374,9.67349e-05,0.005,1.76419,0.000406651,-0.00411822,-0.0579883,9.08925,-0.0157061,1.59557,1.35465,0.118985,5.50264,0.158206,5.52459,0.123932,0.298096,-0.644531,0.153288,-0.0970148,-0.0887145,-0.398824,-0.108765,23.479,23.3655,23.1811,23.3087,23.2378,23.3087,23.1669,
18,6.27286,1.38061,3.15337,4.11539,6.27429,1.97492,1.55579,0.00178825,-0.0232284,4.64532e-05,0.105878,4.76908e-05,0.0528624,0,0.355317,-4.53369,-0.3555,2.83505,0.529244,-16.4483,0.686975,-0.00505986,-19.9578,-0.398257,0.792287,-0.0400982,1.26634,0.00215796,-1.07428e-05,0.00147185,-2.73552e-06,0.494399,0.00126163,0.075271,0.0354813,-0.000354354,0.012814,1.99374,9.67349e-05,0.005,1.76419,0.000406651,-0.00411822,-0.0579883,9.08925,-0.0157061,1.64659,1.57633,0.128728,5.44723,0.165967,5.50041,0.103731,0.298205,-0.668895,0.161334,-0.0649547,-0.093001,-0.390747,-0.116821,23.479,23.3655,23.1811,23.3371,23.2236,23.3371,23.1669,
19,6.27286,1.38061,3.15337,4.11539,6.27429,1.97492,1.55579,0.00178825,-0.0232284,4.64532e-05,0.105878,4.76908e-05,0.0528624,0,0.357923,-4.75793,-0.356958,2.66503,0.549083,-17.341,0.703195,-0.00436793,-20,-0.401325,0.761939,-0.0400424,1.1765,0.00277985,-1.1821e-05,0.00165533,-2.65913e-06,0.494399,0.00126163,0.075271,0.0354813,-0.000354354,0.012814,1.99304,0.000106326,0.005,1.7618,0.000414612,-0.00703264,-0.0639283,9.92791,-0.0152074,1.64659,1.57633,0.128728,5.44723,0.165967,5.50041,0.103731,0.298205,-0.668895,0.161334,-0.0649547,-0.093001,-0.390747,-0.116821,23.479,23.3655,23.1811,23.3371,23.2236,23.3371,23.1669,
20,6.27286,1.38058,3.15337,4.11549,6.27429,1.97497,1.55579,0.00176993,-0.0280901,4.64532e-05,0.104798,5.29498e-05,0.0550999,0,0.357942,-4.75682,-0.357024,2.66399,0.549149,-17.3389,0.703199,-0.00437301,-20,-0.401344,0.762803,-0.0400383,1.17634,0.00277905,-1.1821e-05,0.00165533,-2.65913e-06,0.494399,0.00126163,0.075271,0.0361867,-0.000334942,0.0149951,1.99304,0.000106326,0.005,1.7618,0.000414612,-0.00703264,-0.0639283,9.92791,-0.0152074,1.61504,1.83586,0.116163,5.38252,0.163965,5.47185,0.104851,0.306152,-0.692918,0.153076,-0.072956,-0.0967636,-0.390747,-0.108765,23.4932,23.3797,23.1669,23.3229,23.2378,23.2946,23.1669,
21,6.27287,1.38054,3.15337,4.1156,6.27429,1.97503,1.55579,0.00177013,-0.0328507,3.23254e-05,0.106148,5.29898e-05,0.0550999,0,0.360188,-4.93914,-0.360008,2.52609,0.560559,-18.0634,0.716278,-0.00378736,-20,-0.404003,0.739511,-0.0400201,1.10342,0.00329018,-1.31498e-05,0.00184039,-3.56177e-06,0.494399,0.00126163,0.075271,0.0375724,-0.000318029,0.0168552,1.99232,0.000110585,0.005,1.76052,0.000400974,-0.00899555,-0.068806,10.6081,-0.0189723,1.63859,2.14251,0.11896,5.35636,0.172811,5.45184,0.105688,0.314312,-0.773438,0.161133,-0.041081,-0.0887145,-0.378684,-0.116891,23.479,23.3655,23.1952,23.3087,23.2236,23.3087,23.1385,
22,6.27287,1.38054,3.15337,4.1156,6.27429,1.97503,1.55579,0.00177013,-0.0328507,3.23254e-05,0.106148,5.29898e-05,0.0550999,0,0.362403,-5.13013,-0.36157,2.38159,0.576215,-18.8161,0.731724,-0.00319929,-20,-0.406642,0.71376,-0.0399852,1.02793,0.00400165,-1.4876e-05,0.00203411,-3.55822e-06,0.494399,0.00126163,0.075271,0.0375724,-0.000318029,0.0168552,1.99157,0.000116729,0.005,1.7586,0.000391282,-0.0106697,-0.0756709,11.3145,-0.0195001,1.63859,2.14251,0.11896,5.35636,0.172811,5.45184,0.105688,0.314312,-0.773438,0.161133,-0.041081,-0.0887145,-0.378684,-0.116891,23.479,23.3655,23.1952,23.3087,23.2236,23.3087,23.1385,
23,6.27287,1.3805,3.15337,4.11571,6.27429,1.97508,1.55579,0.00181386,-0.038315,1.93952e-05,0.108834,5.29898e-05,0.0556706,0,0.362428,-5.12873,-0.361671,2.3803,0.576291,-18.8134,0.731754,-0.00320545,-20,-0.40667,0.71467,-0.0399807,1.02782,0.00400227,-1.4876e-05,0.00203411,-3.55822e-06,0.494399,0.00126163,0.075271,0.039491,-0.00031341,0.0190302,1.99157,0.000116729,0.005,1.7586,0.000391282,-0.0106697,-0.0756709,11.3145,-0.0195001,1.54605,2.3378,0.146978,5.30452,0.175883,5.3712,0.0991345,0.322366,-0.829834,0.14502,-0.0322266,-0.0846906,-0.362638,-0.116891,23.479,23.3655,23.1952,23.3087,23.2236,23.3087,23.1527,
24,6.27287,1.3805,3.15337,4.11571,6.27429,1.97508,1.55579,0.00181386,-0.038315,1.93952e-05,0.108834,5.29898e-05,0.0556706,0,0.365005,-5.35421,-0.362788,2.20895,0.596921,-19.702,0.74828,-0.00252127,-20,-0.409735,0.684077,-0.039924,0.938626,0.00465631,-1.61951e-05,0.00224634,-3.12021e-06,0.494399,0.00126163,0.075271,0.039491,-0.00031341,0.0190302,1.99074,0.000129331,0.005,1.75613,0.000398467,-0.0126272,-0.0819365,12.1491,-0.0182639,1.54605,2.3378,0.146978,5.30452,0.175883,5.3712,0.0991345,0.322366,-0.829834,0.14502,-0.0322266,-0.0846906,-0.362638,-0.116891,23.479,23.3655,23.1952,23.3087,23.2236,23.3087,23.1527,
25,6.27287,1.38046,3.15337,4.11582,6.27429,1.97514,1.55579,0.00188814,-0.0437558,1.29305e-05,0.112361,6.35884e-05,0.0588813,0,0.365038,-5.3531,-0.362911,2.20736,0.596998,-19.6993,0.748288,-0.00252791,-20,-0.409767,0.684812,-0.039921,0.938561,0.00465505,-1.61951e-05,0.00224634,-3.12021e-06,0.494399,0.00126163,0.075271,0.0416482,-0.000315674,0.0214608,1.99074,0.000129331,0.005,1.75613,0.000398467,-0.0126272,-0.0819365,12.1491,-0.0182639,1.58753,2.59319,0.171953,5.23455,0.184641,5.29524,0.118567,0.322266,-0.862098,0.145243,-0.0644531,-0.0926514,-0.342431,-0.108765,23.4932,23.3655,23.1811,23.3229,23.2236,23.3087,23.1527,
26,6.27287,1.38041,3.15337,4.11594,6.27429,1.9752,1.55579,0.00194714,-0.0507783,1.29305e-05,0.113866,6.35397e-05,0.0588216,0,0.368078,-5.60478,-0.366386,2.01354,0.61464,-20.6946,0.767269,-0.00173609,-20,-0.413384,0.651323,-0.0398831,0.838244,0.00544542,-1.79538e-05,0.0024583,-4.12319e-06,0.494399,0.00126163,0.075271,0.0435514,-0.000320888,0.0242076,1.98992,0.000135654,0.005,1.75345,0.000406196,-0.0148147,-0.0895177,13.0867,-0.0217424,1.55386,2.87402,0.171995,5.16817,0.195148,5.23386,0.129542,0.33042,-0.894432,0.14502,-0.11308,-0.0809682,-0.366599,-0.116891,23.4932,23.3655,23.1952,23.3229,23.2236,23.3087,23.1527,
27,6.27287,1.38041,3.15337,4.11594,6.27429,1.9752,1.55579,0.00194714,-0.0507783,1.29305e-05,0.113866,6.35397e-05,0.0588216,0,0.370703,-5.83296,-0.367588,1.84008,0.635506,-21.5985,0.784072,-0.0010392,-20,-0.41649,0.620365,-0.0398233,0.747371,0.00610879,-1.93741e-05,0.00267879,-4.16647e-06,0.494399,0.00126163,0.075271,0.0435514,-0.000320888,0.0242076,1.98906,0.000143688,0.005,1.75096,0.000418118,-0.0172869,-0.0958719,13.936,-0.0205776,1.55386,2.87402,0.171995,5.16817,0.195148,5.23386,0.129542,0.33042,-0.894432,0.14502,-0.11308,-0.0809682,-0.366599,-0.116891,23.4932,23.3655,23.1952,23.3229,23.2236,23.3087,23.1527,
28,6.27288,1.38035,3.15337,4.11605,6.27429,1.97526,1.55579,0.00213962,-0.0571752,1.26052e-05,0.117492,6.35397e-05,0.0599616,0,0.370754,-5.83136,-0.367766,1.83833,0.635594,-21.5951,0.784121,-0.00104806,-20,-0.41652,0.621188,-0.0398216,0.747297,0.00610958,-1.93741e-05,0.00267879,-4.16647e-06,0.494399,0.00126163,0.075271,0.0459362,-0.000373696,0.0267972,1.98906,0.000143688,0.005,1.75096,0.000418118,-0.0172869,-0.0958719,13.936,-0.0205776,1.56028,3.17349,0.171995,5.08253,0.199185,5.19588,0.125381,0.314312,-0.886377,0.14502,-0.136963,-0.080667,-0.342407,-0.108765,23.4932,23.3655,23.1669,23.2946,23.2378,23.3087,23.1527,
29,6.27288,1.38029,3.15337,4.11618,6.27429,1.97532,1.55579,0.00218591,-0.0621224,-1.26279e-05,0.117109,7.41857e-05,0.0609367,0,0.373725,-6.09152,-0.367782,1.63741,0.663943,-22.6246,0.803402,-0.000277244,-20,-0.420003,0.586763,-0.0397174,0.643358,0.00684171,-2.09295e-05,0.00291419,-3.73093e-06,0.494399,0.00126163,0.075271,0.0468578,-0.000372655,0.0288711,1.98814,0.000155302,0.005,1.74798,0.000476099,-0.0196175,-0.102913,14.9065,-0.0153969,1.43986,3.42803,0.202717,4.9484,0.217718,5.13071,0.113345,0.322366,-0.88656,0.136963,-0.193359,-0.076644,-0.346459,-0.109063,23.479,23.3655,23.1811,23.3087,23.2236,23.2946,23.1385,
30,6.27288,1.38029,3.15337,4.11618,6.27429,1.97532,1.55579,0.00218591,-0.0621224,-1.26279e-05,0.117109,7.41857e-05,0.0609367,0,0.376423,-6.31993,-0.370716,1.46638,0.679861,-23.5234,0.822854,0.000438761,-20,-0.423237,0.556484,-0.0396896,0.553452,0.00779628,-2.3504e-05,0.00316435,-5.09084e-06,0.494399,0.00126163,0.075271,0.0468578,-0.000372655,0.0288711,1.98717,0.000157084,0.005,1.74628,0.000476765,-0.021484,-0.11215,15.7481,-0.0184162,1.43986,3.42803,0.202717,4.9484,0.217718,5.13071,0.113345,0.322366,-0.88656,0.136963,-0.193359,-0.076644,-0.346459,-0.109063,23.479,23.3655,23.1811,23.3087,23.2236,23.2946,23.1385,
31,6.27288,1.38022,3.15337,4.11629,6.27429,1.97539,1.55579,0.00226491,-0.0663767,-1.23394e-05,0.115602,7.41857e-05,0.063743,1.0598e-05,0.376469,-6.31853,-0.370849,1.46507,0.679964,-23.5207,0.822905,0.000429291,-20,-0.423255,0.557669,-0.0396852,0.553218,0.00779654,-2.3504e-05,0.00316435,-5.09084e-06,0.494399,0.00126163,0.075271,0.0473095,-0.000393706,0.0308853,1.98717,0.000157084,0.005,1.74628,0.000476765,-0.021484,-0.11215,15.7481,-0.0184162,1.4789,3.75733,0.2293,4.75462,0.215976,5.05053,0.105211,0.33042,-0.894287,0.145912,-0.161334,-0.0765381,-0.338379,-0.116821,23.4932,23.3655,23.1811,23.3087,23.2236,23.2946,23.1385,
32,6.27288,1.38015,3.15337,4.1164,6.27429,1.97545,1.55579,0.00226491,-0.0721892,-1.23394e-05,0.113441,7.41297e-05,0.0648234,1.0598e-05,0.379036,-6.54009,-0.372078,1.29787,0.700432,-24.3957,0.835499,0.0010924,-20,-0.426309,0.529581,-0.0396236,0.465297,0.00805743,-2.41633e-05,0.00340668,-5.22465e-06,0.494399,0.00126163,0.075271,0.0478978,-0.00038427,0.0333446,1.98623,0.000164241,0.005,1.74503,0.000502152,-0.0232968,-0.114524,16.569,-0.0171471,1.4209,4.09757,0.246862,4.62057,0.233284,4.97645,0.106889,0.322266,-0.926654,0.145243,-0.121118,-0.0809682,-0.346459,-0.116821,23.4932,23.3513,23.1669,23.2946,23.2236,23.2946,23.1385,
33,6.27288,1.38015,3.15337,4.1164,6.27429,1.97545,1.55579,0.00226491,-0.0721892,-1.23394e-05,0.113441,7.41297e-05,0.0648234,1.0598e-05,0.381557,-6.75857,-0.373654,1.13502,0.718981,-25.2593,0.851027,0.00176151,-20,-0.429316,0.500845,-0.0395801,0.378882,0.00864876,-2.5793e-05,0.0036534,-5.34724e-06,0.494399,0.00126163,0.075271,0.0478978,-0.00038427,0.0333446,1.98529,0.000171223,0.005,1.74365,0.000499944,-0.0255102,-0.120172,17.3771,-0.0172101,1.4209,4.09757,0.246862,4.62057,0.233284,4.97645,0.106889,0.322266,-0.926654,0.145243,-0.121118,-0.0809682,-0.346459,-0.116821,23.4932,23.3513,23.1669,23.2946,23.2236,23.2946,23.1385,
34,6.27288,1.38007,3.15337,4.11651,6.27429,1.97552,1.55579,0.00213694,-0.0781662,-1.20431e-05,0.11182,8.47196e-05,0.066444,1.0598e-05,0.381572,-6.75684,-0.373723,1.1335,0.719044,-25.256,0.851002,0.00175107,-20,-0.429335,0.501964,-0.0395725,0.378649,0.008646,-2.5793e-05,0.0036534,-5.34724e-06,0.494399,0.00126163,0.075271,0.0486755,-0.000320938,0.0359172,1.98529,0.000171223,0.005,1.74365,0.000499944,-0.0255102,-0.120172,17.3771,-0.0172101,1.45925,4.4998,0.22742,4.51444,0.22558,4.90497,0.105073,0.330322,-0.910436,0.1372,-0.0644531,-0.088623,-0.362571,-0.104736,23.479,23.3655,23.1669,23.2946,23.2236,23.2946,23.1385,
35,6.27288,1.38007,3.15337,4.11651,6.27429,1.97552,1.55579,0.00213694,-0.0781662,-1.20431e-05,0.11182,8.47196e-05,0.066444,1.0598e-05,0.384508,-6.9945,-0.37897,0.956051,0.729278,-26.195,0.868688,0.00253049,-20,-0.432855,0.470608,-0.0395877,0.284676,0.00941853,-2.79564e-05,0.00391248,-6.98991e-06,0.494399,0.00126163,0.075271,0.0486755,-0.000320938,0.0359172,1.9843,0.000171412,0.005,1.74206,0.000443116,-0.0278255,-0.127562,18.2559,-0.0259385,1.45925,4.4998,0.22742,4.51444,0.22558,4.90497,0.105073,0.330322,-0.910436,0.1372,-0.0644531,-0.088623,-0.362571,-0.104736,23.479,23.3655,23.1669,23.2946,23.2236,23.2946,23.1385,
36,6.27289,1.37999,3.15337,4.11663,6.27429,1.97558,1.55579,0.00211392,-0.0815694,-2.40868e-05,0.109232,8.47845e-05,0.066444,1.0598e-05,0.384539,-6.99267,-0.37906,0.955208,0.729365,-26.1923,0.868727,0.00251954,-20,-0.432867,0.472227,-0.0395806,0.284339,0.0094188,-2.79564e-05,0.00391248,-6.98991e-06,0.494399,0.00126163,0.075271,0.0486346,-0.00030685,0.0373191,1.9843,0.000171412,0.005,1.74206,0.000443116,-0.0278255,-0.127562,18.2559,-0.0259385,1.32455,4.79438,0.260005,4.3766,0.232149,4.80085,0.105712,0.338475,-0.9104,0.129158,-0.0322266,-0.0726216,-0.362549,-0.104814,23.4932,23.3655,23.1811,23.3087,23.2236,23.3087,23.1527,
37,6.27289,1.37999,3.15337,4.11663,6.27429,1.97558,1.55579,0.00211392,-0.0815694,-2.40868e-05,0.109232,8.47845e-05,0.066444,1.0598e-05,0.386829,-7.19291,-0.380597,0.807224,0.745819,-26.9763,0.883169,0.00312738,-20,-0.435632,0.446245,-0.0395481,0.206241,0.0099931,-2.97135e-05,0.00417452,-7.18945e-06,0.494399,0.00126163,0.075271,0.0486346,-0.00030685,0.0373191,1.98329,0.000177766,0.005,1.74119,0.000436154,-0.0290871,-0.133064,18.9878,-0.0263357,1.32455,4.79438,0.260005,4.3766,0.232149,4.80085,0.105712,0.338475,-0.9104,0.129158,-0.0322266,-0.0726216,-0.362549,-0.104814,23.4932,23.3655,23.1811,23.3087,23.2236,23.3087,23.1527,
38,6.27289,1.37991,3.15337,4.11674,6.27429,1.97565,1.55579,0.00203813,-0.0829199,-2.94513e-05,0.10993,9.53826e-05,0.0651385,1.0598e-05,0.386859,-7.19111,-0.380677,0.806591,0.745887,-26.9739,0.883174,0.00311977,-20,-0.435652,0.447969,-0.0395407,0.205941,0.00999023,-2.97135e-05,0.00417452,-7.18945e-06,0.494399,0.00126163,0.075271,0.0491133,-0.000272243,0.0377121,1.98329,0.000177766,0.005,1.74119,0.000436154,-0.0290871,-0.133064,18.9878,-0.0263357,1.38601,5.13768,0.272393,4.24772,0.232962,4.65345,0.0968955,0.346436,-0.942937,0.153922,0.0180152,-0.0726216,-0.358543,-0.108765,23.479,23.3513,23.1811,23.3229,23.2236,23.3087,23.1527,
39,6.27289,1.37983,3.15337,4.11685,6.27429,1.97571,1.55579,0.00196293,-0.0823797,-2.88227e-05,0.11128,9.53096e-05,0.0648234,1.059e-05,0.389298,-7.38906,-0.384988,0.657119,0.754762,-27.7452,0.899099,0.00374957,-20,-0.43862,0.423555,-0.0395454,0.128687,0.0107503,-3.21065e-05,0.004434,-8.91657e-06,0.494399,0.00126163,0.075271,0.0493852,-0.000241698,0.0374512,1.98233,0.000176492,0.005,1.73989,0.000403862,-0.0294409,-0.140381,19.7107,-0.0332407,1.33001,5.5238,0.285148,4.16308,0.226208,4.54756,0.10949,0.338762,-0.991098,0.129158,0.0161133,-0.0685998,-0.338403,-0.108839,23.479,23.3513,23.1811,23.3087,23.2236,23.2946,23.1385,
40,6.27289,1.37983,3.15337,4.11685,6.27429,1.97571,1.55579,0.00196293,-0.0823797,-2.88227e-05,0.11128,9.53096e-05,0.0648234,1.059e-05,0.391554,-7.5847,-0.387453,0.511513,0.767787,-28.4977,0.912314,0.00434821,-20,-0.441394,0.397904,-0.039536,0.0540389,0.0112481,-3.38201e-05,0.00468871,-9.01388e-06,0.494399,0.00126163,0.075271,0.0493852,-0.000241698,0.0374512,1.98135,0.000183146,0.005,1.73877,0.000382359,-0.0292061,-0.145127,20.4133,-0.0360764,1.33001,5.5238,0.285148,4.16308,0.226208,4.54756,0.10949,0.338762,-0.991098,0.129158,0.0161133,-0.0685998,-0.338403,-0.108839,23.479,23.3513,23.1811,23.3087,23.2236,23.2946,23.1385,
41,6.27289,1.37974,3.15337,4.11696,6.27429,1.97578,1.55579,0.00190771,-0.0835059,-2.87748e-05,0.11128,0.000100605,0.0615822,1.0598e-05,0.391577,-7.58262,-0.387524,0.511221,0.767849,-28.4953,0.912325,0.00433662,-20,-0.441408,0.399891,-0.0395291,0.0536935,0.0112468,-3.38201e-05,0.00468871,-9.01388e-06,0.494399,0.00126163,0.075271,0.0496156,-0.0002223,0.0375637,1.98135,0.000183146,0.005,1.73877,0.000382359,-0.0292061,-0.145127,20.4133,-0.0360764,1.3562,5.86012,0.245513,4.10692,0.225283,4.44072,0.0988381,0.362549,-1.08777,0.1372,0.0254773,-0.0726216,-0.334375,-0.100789,23.479,23.3655,23.1669,23.2946,23.1952,23.2946,23.1385,
42,6.27289,1.37965,3.15337,4.11708,6.27429,1.97584,1.55579,0.00181193,-0.0860738,-2.88227e-05,0.112093,0.000111279,0.0591814,1.0598e-05,0.393649,-7.75671,-0.390126,0.378832,0.778919,-29.1734,0.925763,0.00487202,-20,-0.443949,0.37843,-0.0395152,-0.0142971,0.0118473,-3.58221e-05,0.00494794,-1.00885e-05,0.494399,0.00126163,0.075271,0.0503824,-0.000180143,0.0383213,1.98035,0.000184327,0.005,1.73766,0.000365965,-0.0293073,-0.150933,21.0498,-0.0393115,1.25581,6.14784,0.247312,3.98481,0.235416,4.31111,0.0987163,0.354492,-1.1361,0.128906,-0.00805664,-0.0726216,-0.294095,-0.100708,23.479,23.3513,23.1811,23.3087,23.2378,23.2946,23.1385,
43,6.27289,1.37965,3.15337,4.11708,6.27429,1.97584,1.55579,0.00181193,-0.0860738,-2.88227e-05,0.112093,0.000111279,0.0591814,1.0598e-05,0.396146,-7.96247,-0.39442,0.224051,0.788258,-29.9741,0.941792,0.00553474,-20,-0.446984,0.351016,-0.0395267,-0.0941857,0.0125942,-3.80708e-05,0.00521475,-1.17901e-05,0.494399,0.00126163,0.075271,0.0503824,-0.000180143,0.0383213,1.9793,0.000184175,0.005,1.73603,0.000327886,-0.0299892,-0.158112,21.7996,-0.046266,1.25581,6.14784,0.247312,3.98481,0.235416,4.31111,0.0987163,0.354492,-1.1361,0.128906,-0.00805664,-0.0726216,-0.294095,-0.100708,23.479,23.3513,23.1811,23.3087,23.2378,23.2946,23.1385,
44,6.27289,1.37965,3.15337,4.11708,6.27429,1.97584,1.55579,0.00181193,-0.0860738,-2.88227e-05,0.112093,0.000111279,0.0591814,1.0598e-05,0.396146,-7.96247,-0.39442,0.224051,0.788258,-29.9741,0.941792,0.00553474,-20,-0.446984,0.351016,-0.0395267,-0.0941857,0.0125942,-3.80708e-05,0.00521475,-1.17901e-05,0.494399,0.00126163,0.075271,0.0503824,-0.000180143,0.0383213,1.9793,0.000184175,0.005,1.73603,0.000327886,-0.0299892,-0.158112,21.7996,-0.046266,1.25581,6.14784,0.247312,3.98481,0.235416,4.31111,0.0987163,0.354492,-1.1361,0.128906,-0.00805664,-0.0726216,-0.294095,-0.100708,23.479,23.3513,23.1811,23.3087,23.2378,23.2946,23.1385,
45,6.27289,1.37956,3.15337,4.11719,6.27429,1.9759,1.55579,0.00181193,-0.0894023,-2.82204e-05,0.113056,0.000121877,0.0578009,1.0598e-05,0.396174,-7.96041,-0.394525,0.223022,0.788315,-29.971,0.941792,0.00552309,-20,-0.447004,0.352546,-0.0395209,-0.0944313,0.012593,-3.80708e-05,0.00521475,-1.17901e-05,0.494399,0.00126163,0.075271,0.0513514,-0.000172497,0.0394853,1.9793,0.000184175,0.005,1.73603,0.000327886,-0.0299892,-0.158112,21.7996,-0.046266,1.26716,6.35605,0.255459,3.8085,0.226986,4.18265,0.0953653,0.354858,-1.13644,0.1372,-0.0161133,-0.0684814,-0.282011,-0.100789,23.4648,23.3655,23.1527,23.3229,23.2236,23.2804,23.1385,
46,6.2729,1.37947,3.15337,4.1173,6.27429,1.97595,1.55579,0.00178847,-0.0926434,-2.82204e-05,0.11128,0.000121786,0.0578009,1.0598e-05,0.398703,-8.17172,-0.397269,0.0613137,0.803327,-30.8008,0.958633,0.00617349,-20,-0.450033,0.325672,-0.0394901,-0.17796,0.0133547,-4.02904e-05,0.00547144,-1.27844e-05,0.494399,0.00126163,0.075271,0.0515103,-0.000160224,0.0408096,1.97829,0.000188607,0.005,1.73425,0.000324993,-0.0310368,-0.165456,22.5799,-0.0489445,1.15913,6.57876,0.278408,3.6842,0.243862,4.06523,0.104251,0.362638,-1.12819,0.129158,-0.0322266,-0.0655763,-0.261841,-0.100708,23.4648,23.3513,23.1669,23.3087,23.2094,23.3087,23.1243,
47,6.2729,1.37947,3.15337,4.1173,6.27429,1.97595,1.55579,0.00178847,-0.0926434,-2.82204e-05,0.11128,0.000121786,0.0578009,1.0598e-05,0.401048,-8.37433,-0.399302,-0.089334,0.81871,-31.5937,0.973094,0.00679558,-20,-0.452866,0.299182,-0.0394637,-0.257012,0.0139249,-4.21071e-05,0.00572961,-1.33133e-05,0.494399,0.00126163,0.075271,0.0515103,-0.000160224,0.0408096,1.97727,0.000190841,0.005,1.73319,0.000315958,-0.0322286,-0.170911,23.321,-0.0504537,1.15913,6.57876,0.278408,3.6842,0.243862,4.06523,0.104251,0.362638,-1.12819,0.129158,-0.0322266,-0.0655763,-0.261841,-0.100708,23.4648,23.3513,23.1669,23.3087,23.2094,23.3087,23.1243,
48,6.2729,1.37938,3.15337,4.1174,6.27429,1.97601,1.55579,0.00172201,-0.0964248,-3.86381e-05,0.108579,0.000132474,0.0569328,1.0598e-05,0.401089,-8.37233,-0.399394,-0.0901422,0.818765,-31.5909,0.973081,0.00678857,-20,-0.452878,0.300836,-0.0394565,-0.257348,0.0139211,-4.21071e-05,0.00572961,-1.33133e-05,0.494399,0.00126163,0.075271,0.0515145,-0.000129143,0.0422721,1.97727,0.000190841,0.005,1.73319,0.000315958,-0.0322286,-0.170911,23.321,-0.0504537,1.21361,6.86409,0.278408,3.58596,0.250116,3.94341,0.0977415,0.354584,-1.1361,0.136963,-0.0113938,-0.0645789,-0.261841,-0.104814,23.4648,23.3513,23.1811,23.2946,23.2236,23.2946,23.1243,
49,6.2729,1.37938,3.15337,4.1174,6.27429,1.97601,1.55579,0.00172201,-0.0964248,-3.86381e-05,0.108579,0.000132474,0.0569328,1.0598e-05,0.403434,-8.5643,-0.403486,-0.232603,0.827366,-32.344,0.989835,0.00741086,-20,-0.455715,0.275805,-0.0394673,-0.332471,0.0147942,-4.48861e-05,0.0059879,-1.54081e-05,0.494399,0.00126163,0.075271,0.0515145,-0.000129143,0.0422721,1.97626,0.000183786,0.005,1.73227,0.000281636,-0.0335448,-0.179351,24.0247,-0.057121,1.21361,6.86409,0.278408,3.58596,0.250116,3.94341,0.0977415,0.354584,-1.1361,0.136963,-0.0113938,-0.0645789,-0.261841,-0.104814,23.4648,23.3513,23.1811,23.2946,23.2236,23.2946,23.1243,
50,6.2729,1.37927,3.15337,4.11751,6.27429,1.97606,1.55579,0.00172201,-0.100809,-3.78643e-05,0.106689,0.000143072,0.0559102,1.05981e-05,0.403468,-8.5622,-0.403598,-0.233526,0.827423,-32.341,0.989844,0.00739699,-20,-0.455726,0.27743,-0.039461,-0.332784,0.0147934,-4.48861e-05,0.0059879,-1.54081e-05,0.494399,0.00126163,0.075271,0.0518782,-0.000124795,0.0439429,1.97626,0.000183786,0.005,1.73227,0.000281636,-0.0335448,-0.179351,24.0247,-0.057121,1.12043,7.09328,0.306332,3.44101,0.277919,3.78699,0.0991605,0.354584,-1.10379,0.128906,0.041081,-0.0604248,-0.257812,-0.100708,23.479,23.3513,23.1527,23.3087,23.2236,23.2804,23.1527,
51,6.2729,1.37927,3.15337,4.11751,6.27429,1.97606,1.55579,0.00172201,-0.100809,-3.78643e-05,0.106689,0.000143072,0.0559102,1.05981e-05,0.405892,-8.77056,-0.405748,-0.389203,0.843281,-33.1591,1.00652,0.0080402,-20,-0.458644,0.250001,-0.0394303,-0.414521,0.0155547,-4.72447e-05,0.00625511,-1.62998e-05,0.494399,0.00126163,0.075271,0.0518782,-0.000124795,0.0439429,1.9752,0.000187755,0.005,1.73099,0.000281295,-0.0350487,-0.186698,24.7903,-0.058694,1.12043,7.09328,0.306332,3.44101,0.277919,3.78699,0.0991605,0.354584,-1.10379,0.128906,0.041081,-0.0604248,-0.257812,-0.100708,23.479,23.3513,23.1527,23.3087,23.2236,23.2804,23.1527,
52,6.2729,1.37927,3.15337,4.11751,6.27429,1.97606,1.55579,0.00172201,-0.100809,-3.78643e-05,0.106689,0.000143072,0.0559102,1.05981e-05,0.405892,-8.77056,-0.405748,-0.389203,0.843281,-33.1591,1.00652,0.0080402,-20,-0.458644,0.250001,-0.0394303,-0.414521,0.0155547,-4.72447e-05,0.00625511,-1.62998e-05,0.494399,0.00126163,0.075271,0.0518782,-0.000124795,0.0439429,1.9752,0.000187755,0.005,1.73099,0.000281295,-0.0350487,-0.186698,24.7903,-0.058694,1.12043,7.09328,0.306332,3.44101,0.277919,3.78699,0.0991605,0.354584,-1.10379,0.128906,0.041081,-0.0604248,-0.257812,-0.100708,23.479,23.3513,23.1527,23.3087,23.2236,23.2804,23.1527,
53,6.2729,1.37917,3.15337,4.11762,6.27429,1.97612,1.55579,0.00165194,-0.103177,-3.78643e-05,0.104069,0.000143072,0.0546675,1.0598e-05,0.405918,-8.76852,-0.405821,-0.389761,0.843361,-33.1565,1.00654,0.0080264,-20,-0.458652,0.251968,-0.0394229,-0.414907,0.0155536,-4.72447e-05,0.00625511,-1.62998e-05,0.494399,0.00126163,0.075271,0.05161,-9.97005e-05,0.0448059,1.9752,0.000187755,0.005,1.73099,0.000281295,-0.0350487,-0.186698,24.7903,-0.058694,1.14515,7.34011,0.312267,3.35523,0.278686,3.61235,0.0862494,0.354492,-1.07181,0.129158,0.0980133,-0.0649547,-0.253784,-0.0927389,23.479,23.3513,23.1527,23.3087,23.2094,23.2804,23.1385,
54,6.2729,1.37917,3.15337,4.11762,6.27429,1.97612,1.55579,0.00165194,-0.103177,-3.78643e-05,0.104069,0.000143072,0.0546675,1.0598e-05,0.408132,-8.95679,-0.408559,-0.528937,0.855115,-33.8901,1.02004,0.0086137,-20,-0.461347,0.227587,-0.0394166,-0.487867,0.016107,-4.91729e-05,0.00652526,-1.73842e-05,0.494399,0.00126163,0.075271,0.05161,-9.97005e-05,0.0448059,1.97414,0.000185281,0.005,1.73028,0.000256483,-0.0358253,-0.191991,25.4749,-0.0622507,1.14515,7.34011,0.312267,3.35523,0.278686,3.61235,0.0862494,0.354492,-1.07181,0.129158,0.0980133,-0.0649547,-0.253784,-0.0927389,23.479,23.3513,23.1527,23.3087,23.2094,23.2804,23.1385,
55,6.2729,1.37907,3.15337,4.11772,6.2743,1.97617,1.55579,0.00159312,-0.102097,-4.77269e-05,0.102637,0.000148259,0.0529391,1.0598e-05,0.408187,-8.95498,-0.408658,-0.528939,0.855187,-33.8883,1.02008,0.00860576,-20,-0.461356,0.229908,-0.0394082,-0.48828,0.0161047,-4.91729e-05,0.00652526,-1.73842e-05,0.494399,0.00126163,0.075271,0.0509648,-8.14247e-05,0.0442314,1.97414,0.000185281,0.005,1.73028,0.000256483,-0.0358253,-0.191991,25.4749,-0.0622507,1.0624,7.59706,0.342751,3.31263,0.260177,3.42755,0.100856,0.346436,-1.08765,0.112793,0.145243,-0.0604248,-0.233677,-0.10103,23.479,23.3371,23.1669,23.3087,23.2094,23.2804,23.1385,
56,6.2729,1.37907,3.15337,4.11772,6.2743,1.97617,1.55579,0.00159312,-0.102097,-4.77269e-05,0.102637,0.000148259,0.0529391,1.0598e-05,0.410036,-9.11192,-0.411631,-0.644024,0.862799,-34.4888,1.03337,0.00909626,-20,-0.463654,0.209835,-0.0394189,-0.547559,0.0167888,-5.17485e-05,0.00677929,-1.88634e-05,0.494399,0.00126163,0.075271,0.0509648,-8.14247e-05,0.0442314,1.97314,0.00017941,0.005,1.72995,0.000234751,-0.0353083,-0.19861,26.0336,-0.0669267,1.0624,7.59706,0.342751,3.31263,0.260177,3.42755,0.100856,0.346436,-1.08765,0.112793,0.145243,-0.0604248,-0.233677,-0.10103,23.479,23.3371,23.1669,23.3087,23.2094,23.2804,23.1385,
57,6.2729,1.37897,3.15337,4.11782,6.2743,1.97622,1.55579,0.00147511,-0.101454,-4.67385e-05,0.101827,0.000148259,0.0510484,1.0598e-05,0.410059,-9.11005,-0.411686,-0.644151,0.862871,-34.4868,1.0334,0.00908279,-20,-0.463664,0.212052,-0.0394101,-0.547942,0.0167882,-5.17485e-05,0.00677929,-1.88634e-05,0.494399,0.00126163,0.075271,0.0505909,-4.12626e-05,0.0438017,1.97314,0.00017941,0.005,1.72995,0.000234751,-0.0353083,-0.19861,26.0336,-0.0669267,1.10665,7.88472,0.325043,3.27677,0.272685,3.22173,0.0835094,0.354492,-1.16824,0.129158,0.169955,-0.0605589,-0.225586,-0.10103,23.4648,23.3513,23.1669,23.2946,23.2236,23.2804,23.1385,
58,6.2729,1.37897,3.15337,4.11782,6.2743,1.97622,1.55579,0.00147511,-0.101454,-4.67385e-05,0.101827,0.000148259,0.0510484,1.0598e-05,0.411962,-9.27148,-0.414646,-0.763356,0.870877,-35.1059,1.04474,0.00958776,-20,-0.466021,0.191188,-0.0394222,-0.609201,0.0172608,-5.35795e-05,0.00703014,-1.97142e-05,0.494399,0.00126163,0.075271,0.0505909,-4.12626e-05,0.0438017,1.97214,0.00017768,0.005,1.72939,0.000197049,-0.0349215,-0.203123,26.6105,-0.0716218,1.10665,7.88472,0.325043,3.27677,0.272685,3.22173,0.0835094,0.354492,-1.16824,0.129158,0.169955,-0.0605589,-0.225586,-0.10103,23.4648,23.3513,23.1669,23.2946,23.2236,23.2804,23.1385,
59,6.2729,1.37886,3.15337,4.11792,6.2743,1.97627,1.55579,0.00140428,-0.102314,-5.71249e-05,0.103447,0.000158969,0.0466429,1.0598e-05,0.411983,-9.26911,-0.414715,-0.763617,0.870915,-35.1033,1.04471,0.0095736,-20,-0.466036,0.193309,-0.0394158,-0.609522,0.0172576,-5.35795e-05,0.00703014,-1.97142e-05,0.494399,0.00126163,0.075271,0.0512336,-1.11617e-05,0.043659,1.97214,0.00017768,0.005,1.72939,0.000197049,-0.0349215,-0.203123,26.6105,-0.0716218,1.01466,8.15323,0.320338,3.23249,0.306417,2.96619,0.0647113,0.370605,-1.22485,0.128906,0.161334,-0.0525229,-0.201416,-0.104814,23.479,23.3513,23.1527,23.2946,23.1952,23.2946,23.1385,
60,6.2729,1.37886,3.15337,4.11792,6.2743,1.97627,1.55579,0.00140428,-0.102314,-5.71249e-05,0.103447,0.000158969,0.0466429,1.0598e-05,0.414132,-9.44775,-0.418418,-0.898666,0.878956,-35.7918,1.05978,0.0101438,-20,-0.468673,0.169381,-0.0394274,-0.678089,0.0180284,-5.59328e-05,0.00729043,-2.15497e-05,0.494399,0.00126163,0.075271,0.0512336,-1.11617e-05,0.043659,1.9711,0.000173466,0.005,1.72788,0.000166165,-0.0347931,-0.210569,27.2556,-0.0776279,1.01466,8.15323,0.320338,3.23249,0.306417,2.96619,0.0647113,0.370605,-1.22485,0.128906,0.161334,-0.0525229,-0.201416,-0.104814,23.479,23.3513,23.1527,23.2946,23.1952,23.2946,23.1385,
61,6.2729,1.37876,3.15337,4.11803,6.2743,1.97632,1.55579,0.0012981,-0.102367,-5.60462e-05,0.104472,0.000158971,0.0423623,1.85466e-05,0.414149,-9.44539,-0.418468,-0.898799,0.879009,-35.7894,1.05977,0.0101297,-20,-0.468687,0.171662,-0.0394204,-0.678435,0.0180266,-5.59328e-05,0.00729043,-2.15497e-05,0.494399,0.00126163,0.075271,0.0515365,2.59314e-05,0.043221,1.9711,0.000173466,0.005,1.72788,0.000166165,-0.0347931,-0.210569,27.2556,-0.0776279,1.00027,8.30021,0.349258,3.2098,0.274344,2.72288,0.0511024,0.370605,-1.24888,0.121118,0.11308,-0.0485074,-0.157104,-0.0926514,23.4648,23.3513,23.1669,23.2946,23.1952,23.2804,23.1385,
62,6.2729,1.37876,3.15337,4.11803,6.2743,1.97632,1.55579,0.0012981,-0.102367,-5.60462e-05,0.104472,0.000158971,0.0423623,1.85466e-05,0.416106,-9.60945,-0.421733,-1.02229,0.886549,-36.419,1.06939,0.0106489,-20,-0.4711,0.149838,-0.0394338,-0.740996,0.018316,-5.69277e-05,0.00754421,-2.29281e-05,0.494399,0.00126163,0.075271,0.0515365,2.59314e-05,0.043221,1.97003,0.000167309,0.005,1.72665,0.00012724,-0.0343989,-0.213255,27.8447,-0.0829498,1.00027,8.30021,0.349258,3.2098,0.274344,2.72288,0.0511024,0.370605,-1.24888,0.121118,0.11308,-0.0485074,-0.157104,-0.0926514,23.4648,23.3513,23.1669,23.2946,23.1952,23.2804,23.1385,
63,6.27291,1.37866,3.15337,4.11814,6.2743,1.97635,1.55579,0.00118009,-0.103447,-5.61289e-05,0.105878,0.000158849,0.0378136,1.85466e-05,0.416117,-9.60704,-0.421779,-1.02251,0.886586,-36.4164,1.06938,0.0106349,-20,-0.471114,0.151917,-0.0394262,-0.7413,0.0183159,-5.69277e-05,0.00754421,-2.29281e-05,0.494399,0.00126163,0.075271,0.0521643,7.05875e-05,0.0431544,1.97003,0.000167309,0.005,1.72665,0.00012724,-0.0343989,-0.213255,27.8447,-0.0829498,0.879301,8.5347,0.342526,3.21407,0.236473,2.50137,0.0685529,0.354584,-1.30528,0.129909,0.0966797,-0.0525229,-0.120917,-0.100708,23.4648,23.3371,23.1527,23.2804,23.2236,23.2804,23.1385,
64,6.27291,1.37866,3.15337,4.11814,6.2743,1.97635,1.55579,0.00118009,-0.103447,-5.61289e-05,0.105878,0.000158849,0.0378136,1.85466e-05,0.418059,-9.77174,-0.424416,-1.14742,0.895958,-37.0517,1.08218,0.0111501,-20,-0.473491,0.129766,-0.0394291,-0.804631,0.0189144,-5.881e-05,0.00778773,-2.3626e-05,0.494399,0.00126163,0.075271,0.0521643,7.05875e-05,0.0431544,1.969,0.000165757,0.005,1.72516,8.56524e-05,-0.034339,-0.219015,28.4404,-0.0868048,0.879301,8.5347,0.342526,3.21407,0.236473,2.50137,0.0685529,0.354584,-1.30528,0.129909,0.0966797,-0.0525229,-0.120917,-0.100708,23.4648,23.3371,23.1527,23.2804,23.2236,23.2804,23.1385,
65,6.27291,1.37855,3.15337,4.11824,6.2743,1.97639,1.55579,0.00106208,-0.105338,-5.50085e-05,0.106959,0.000169439,0.0337622,1.85324e-05,0.418066,-9.76933,-0.42446,-1.14778,0.895971,-37.049,1.0821,0.0111358,-20,-0.473506,0.131753,-0.0394226,-0.80492,0.0189101,-5.881e-05,0.00778773,-2.3626e-05,0.494399,0.00126163,0.075271,0.052867,0.000117822,0.0434673,1.969,0.000165757,0.005,1.72516,8.56524e-05,-0.034339,-0.219015,28.4404,-0.0868048,0.889449,8.79982,0.320114,3.19292,0.261754,2.27552,0.0523313,0.362638,-1.32944,0.128906,0.072956,-0.0523682,-0.076644,-0.0967636,23.4648,23.3371,23.1527,23.2662,23.2094,23.2804,23.1385,
66,6.27291,1.37855,3.15337,4.11824,6.2743,1.97639,1.55579,0.00106208,-0.105338,-5.50085e-05,0.106959,0.000169439,0.0337622,1.85324e-05,0.420192,-9.94039,-0.429005,-1.27761,0.90094,-37.7124,1.09656,0.0116997,-20,-0.476101,0.108716,-0.0394504,-0.871156,0.0196616,-6.11412e-05,0.00803018,-2.57893e-05,0.494399,0.00126163,0.075271,0.052867,0.000117822,0.0434673,1.96796,0.000157919,0.005,1.72359,3.60874e-05,-0.0346206,-0.226252,29.0626,-0.095016,0.889449,8.79982,0.320114,3.19292,0.261754,2.27552,0.0523313,0.362638,-1.32944,0.128906,0.072956,-0.0523682,-0.076644,-0.0967636,23.4648,23.3371,23.1527,23.2662,23.2094,23.2804,23.1385,
67,6.27291,1.37844,3.15337,4.11835,6.2743,1.97642,1.55579,0.000936188,-0.105574,-5.50095e-05,0.109119,0.000169567,0.0297107,1.85464e-05,0.420207,-9.93796,-0.429051,-1.27781,0.900975,-37.7097,1.09651,0.0116839,-20,-0.476116,0.110976,-0.0394433,-0.87146,0.0196588,-6.11412e-05,0.00803018,-2.57893e-05,0.494399,0.00126163,0.075271,0.0535363,0.000166266,0.0431073,1.96796,0.000157919,0.005,1.72359,3.60874e-05,-0.0346206,-0.226252,29.0626,-0.095016,0.854534,9.03051,0.37622,3.11272,0.320488,2.00695,0.0640401,0.370693,-1.31326,0.129158,0.0490066,-0.0490066,-0.0443115,-0.0926514,23.4648,23.3655,23.1811,23.2804,23.2094,23.2804,23.1243,
68,6.27291,1.37844,3.15337,4.11835,6.2743,1.97642,1.55579,0.000936188,-0.105574,-5.50095e-05,0.109119,0.000169567,0.0297107,1.85464e-05,0.422313,-10.1108,-0.43316,-1.40902,0.907094,-38.3743,1.10981,0.0122424,-20,-0.478706,0.0877022,-0.0394682,-0.937641,0.0202898,-6.31574e-05,0.0082793,-2.74727e-05,0.494399,0.00126163,0.075271,0.0535363,0.000166266,0.0431073,1.96687,0.00014761,0.005,1.722,-1.67904e-05,-0.0342966,-0.232301,29.6855,-0.102262,0.854534,9.03051,0.37622,3.11272,0.320488,2.00695,0.0640401,0.370693,-1.31326,0.129158,0.0490066,-0.0490066,-0.0443115,-0.0926514,23.4648,23.3655,23.1811,23.2804,23.2094,23.2804,23.1243,
69,6.27291,1.37834,3.15337,4.11847,6.2743,1.97645,1.55579,0.000826061,-0.104152,-5.40095e-05,0.108332,0.000180165,0.0278353,1.85464e-05,0.422341,-10.1088,-0.433228,-1.40911,0.907137,-38.3722,1.10979,0.012227,-20,-0.478717,0.0902044,-0.0394595,-0.938037,0.0202872,-6.31574e-05,0.0082793,-2.74727e-05,0.494399,0.00126163,0.075271,0.0530079,0.000202821,0.0423716,1.96687,0.00014761,0.005,1.722,-1.67904e-05,-0.0342966,-0.232301,29.6855,-0.102262,0.867268,9.23412,0.375802,3.11012,0.293852,1.7834,0.0334501,0.378748,-1.34584,0.113938,-0.0113938,-0.0523682,-0.00805664,-0.0926514,23.4648,23.3371,23.1385,23.2946,23.2236,23.2946,23.1243,
70,6.27291,1.37834,3.15337,4.11847,6.2743,1.97645,1.55579,0.000826061,-0.104152,-5.40095e-05,0.108332,0.000180165,0.0278353,1.85464e-05,0.424201,-10.2621,-0.437134,-1.52239,0.911754,-38.9576,1.12211,0.0127203,-20,-0.481035,0.0703978,-0.0394873,-0.995878,0.0209039,-6.55536e-05,0.00852667,-2.91579e-05,0.494399,0.00126163,0.075271,0.0530079,0.000202821,0.0423716,1.96578,0.000143745,0.005,1.72149,-5.31689e-05,-0.0336344,-0.238232,30.2309,-0.109282,0.867268,9.23412,0.375802,3.11012,0.293852,1.7834,0.0334501,0.378748,-1.34584,0.113938,-0.0113938,-0.0523682,-0.00805664,-0.0926514,23.4648,23.3371,23.1385,23.2946,23.2236,23.2946,23.1243,
71,6.27291,1.37824,3.15337,4.11857,6.2743,1.97647,1.55579,0.000766971,-0.103717,-5.89195e-05,0.10793,0.000185326,0.0240387,1.85464e-05,0.42424,-10.2599,-0.437216,-1.5223,0.911787,-38.9555,1.12209,0.0127079,-20,-0.481044,0.0727764,-0.0394807,-0.996244,0.0209016,-6.55536e-05,0.00852667,-2.91579e-05,0.494399,0.00126163,0.075271,0.0527979,0.000220203,0.0418161,1.96578,0.000143745,0.005,1.72149,-5.31689e-05,-0.0336344,-0.238232,30.2309,-0.109282,0.816895,9.50094,0.352487,3.14247,0.276446,1.57886,0.0509058,0.362549,-1.41799,0.121118,0.00805664,-0.0483398,0.0241699,-0.0927389,23.479,23.3513,23.1669,23.2804,23.1952,23.2804,23.1385,
72,6.27291,1.37824,3.15337,4.11857,6.2743,1.97647,1.55579,0.000766971,-0.103717,-5.89195e-05,0.10793,0.000185326,0.0240387,1.85464e-05,0.425864,-10.3968,-0.439937,-1.6245,0.918109,-39.4791,1.1343,0.0131387,-20,-0.483059,0.0548155,-0.0394911,-1.04813,0.021562,-6.79308e-05,0.00875927,-3.07495e-05,0.494399,0.00126163,0.075271,0.0527979,0.000220203,0.0418161,1.96474,0.000135771,0.005,1.72075,-7.59885e-05,-0.0331345,-0.244632,30.7199,-0.11367,0.816895,9.50094,0.352487,3.14247,0.276446,1.57886,0.0509058,0.362549,-1.41799,0.121118,0.00805664,-0.0483398,0.0241699,-0.0927389,23.479,23.3513,23.1669,23.2804,23.1952,23.2804,23.1385,
73,6.27291,1.37813,3.15337,4.11868,6.2743,1.97649,1.55579,0.000708052,-0.104798,-5.7787e-05,0.109119,0.000195912,0.0210463,1.85324e-05,0.425885,-10.3945,-0.440008,-1.62489,0.918123,-39.4764,1.13423,0.0131235,-20,-0.483074,0.0568719,-0.0394853,-1.04841,0.0215582,-6.79308e-05,0.00875927,-3.07495e-05,0.494399,0.00126163,0.075271,0.0533636,0.00024426,0.0419192,1.96474,0.000135771,0.005,1.72075,-7.59885e-05,-0.0331345,-0.244632,30.7199,-0.11367,0.85189,9.81094,0.347121,3.12435,0.299854,1.37763,0.0469942,0.354584,-1.44216,0.11308,-0.0113938,-0.045038,0.0563965,-0.088623,23.4506,23.3513,23.1669,23.2946,23.1811,23.2804,23.1243,
74,6.27291,1.37813,3.15337,4.11868,6.2743,1.97649,1.55579,0.000708052,-0.104798,-5.7787e-05,0.109119,0.000195912,0.0210463,1.85324e-05,0.427918,-10.5611,-0.443867,-1.75122,0.924623,-40.1209,1.14839,0.0136628,-20,-0.485563,0.0344942,-0.0395004,-1.11268,0.0222883,-7.02745e-05,0.00899107,-3.27509e-05,0.494399,0.00126163,0.075271,0.0533636,0.00024426,0.0419192,1.96368,0.000128259,0.005,1.71929,-0.000104401,-0.0332273,-0.251675,31.3241,-0.120188,0.85189,9.81094,0.347121,3.12435,0.299854,1.37763,0.0469942,0.354584,-1.44216,0.11308,-0.0113938,-0.045038,0.0563965,-0.088623,23.4506,23.3513,23.1669,23.2946,23.1811,23.2804,23.1243,
75,6.27291,1.37802,3.15337,4.11879,6.2743,1.97651,1.55579,0.000643558,-0.105824,-5.7787e-05,0.108579,0.000196062,0.019447,1.85326e-05,0.427947,-10.559,-0.443948,-1.75159,0.924667,-40.1184,1.14839,0.0136459,-20,-0.485573,0.0366584,-0.0394935,-1.113,0.0222879,-7.02745e-05,0.00899107,-3.27509e-05,0.494399,0.00126163,0.075271,0.0534172,0.000268255,0.0421782,1.96368,0.000128259,0.005,1.71929,-0.000104401,-0.0332273,-0.251675,31.3241,-0.120188,0.802756,10.1225,0.359279,3.05426,0.334676,1.14362,0.0413807,0.346529,-1.43408,0.121118,-0.0254773,-0.0402832,0.088623,-0.0974321,23.4648,23.3229,23.1527,23.2804,23.2094,23.2804,23.1385,
76,6.27291,1.37802,3.15337,4.11879,6.2743,1.97651,1.55579,0.000643558,-0.105824,-5.7787e-05,0.108579,0.000196062,0.019447,1.85326e-05,0.429933,-10.7276,-0.446601,-1.87792,0.934565,-40.7714,1.16129,0.0141727,-20,-0.488004,0.0144317,-0.0394922,-1.178,0.0228725,-7.22878e-05,0.00922967,-3.3739e-05,0.494399,0.00126163,0.075271,0.0534172,0.000268255,0.0421782,1.9626,0.000122511,0.005,1.71826,-0.000131169,-0.0334604,-0.257296,31.935,-0.123886,0.802756,10.1225,0.359279,3.05426,0.334676,1.14362,0.0413807,0.346529,-1.43408,0.121118,-0.0254773,-0.0402832,0.088623,-0.0974321,23.4648,23.3229,23.1527,23.2804,23.2094,23.2804,23.1385,
77,6.27291,1.37802,3.15337,4.11879,6.2743,1.97651,1.55579,0.000643558,-0.105824,-5.7787e-05,0.108579,0.000196062,0.019447,1.85326e-05,0.429933,-10.7276,-0.446601,-1.87792,0.934565,-40.7714,1.16129,0.0141727,-20,-0.488004,0.0144317,-0.0394922,-1.178,0.0228725,-7.22878e-05,0.00922967,-3.3739e-05,0.494399,0.00126163,0.075271,0.0534172,0.000268255,0.0421782,1.9626,0.000122511,0.005,1.71826,-0.000131169,-0.0334604,-0.257296,31.935,-0.123886,0.802756,10.1225,0.359279,3.05426,0.334676,1.14362,0.0413807,0.346529,-1.43408,0.121118,-0.0254773,-0.0402832,0.088623,-0.0974321,23.4648,23.3229,23.1527,23.2804,23.2094,23.2804,23.1385,
78,6.27291,1.37792,3.15337,4.1189,6.2743,1.97652,1.55579,0.000589978,-0.106148,-5.67747e-05,0.10457,0.00020666,0.0156657,1.85464e-05,0.429965,-10.7255,-0.446676,-1.87756,0.934588,-40.7697,1.16125,0.0141561,-20,-0.488004,0.0169914,-0.0394862,-1.17845,0.0228692,-7.22878e-05,0.00922967,-3.3739e-05,0.494399,0.00126163,0.075271,0.0523239,0.000276321,0.0419854,1.9626,0.000122511,0.005,1.71826,-0.000131169,-0.0334604,-0.257296,31.935,-0.123886,0.806579,10.3358,0.354406,2.99416,0.321639,0.932528,0.0201121,0.354492,-1.45028,0.105969,-0.0113938,-0.0420569,0.120917,-0.0887145,23.4506,23.3513,23.1669,23.2804,23.1952,23.2804,23.1243,
79,6.27291,1.37792,3.15337,4.1189,6.2743,1.97652,1.55579,0.000589978,-0.106148,-5.67747e-05,0.10457,0.00020666,0.0156657,1.85464e-05,0.431304,-10.8375,-0.449123,-1.95903,0.939194,-41.1998,1.17169,0.0145111,-20,-0.489669,0.00288189,-0.0394978,-1.22091,0.0234544,-7.46728e-05,0.00946066,-3.56961e-05,0.494399,0.00126163,0.075271,0.0523239,0.000276321,0.0419854,1.96152,0.000114976,0.005,1.71828,-0.000145211,-0.0332868,-0.262973,32.3347,-0.12797,0.806579,10.3358,0.354406,2.99416,0.321639,0.932528,0.0201121,0.354492,-1.45028,0.105969,-0.0113938,-0.0420569,0.120917,-0.0887145,23.4506,23.3513,23.1669,23.2804,23.1952,23.2804,23.1243,
80,6.27291,1.37792,3.15337,4.1189,6.2743,1.97652,1.55579,0.000589978,-0.106148,-5.67747e-05,0.10457,0.00020666,0.0156657,1.85464e-05,0.431304,-10.8375,-0.449123,-1.95903,0.939194,-41.1998,1.17169,0.0145111,-20,-0.489669,0.00288189,-0.0394978,-1.22091,0.0234544,-7.46728e-05,0.00946066,-3.56961e-05,0.494399,0.00126163,0.075271,0.0523239,0.000276321,0.0419854,1.96152,0.000114976,0.005,1.71828,-0.000145211,-0.0332868,-0.262973,32.3347,-0.12797,0.806579,10.3358,0.354406,2.99416,0.321639,0.932528,0.0201121,0.354492,-1.45028,0.105969,-0.0113938,-0.0420569,0.120917,-0.0887145,23.4506,23.3513,23.1669,23.2804,23.1952,23.2804,23.1243,
81,6.27291,1.37781,3.15337,4.119,6.2743,1.97654,1.55579,0.000589978,-0.10966,-5.68515e-05,0.103447,0.000217258,0.0125384,1.85324e-05,0.431326,-10.8352,-0.449208,-1.95934,0.939196,-41.1972,1.17162,0.0144949,-20,-0.489677,0.00476339,-0.0394939,-1.22119,0.0234512,-7.46728e-05,0.00946066,-3.56961e-05,0.494399,0.00126163,0.075271,0.0527281,0.000277444,0.0430764,1.96152,0.000114976,0.005,1.71828,-0.000145211,-0.0332868,-0.262973,32.3347,-0.12797,0.739912,10.6321,0.363621,2.97452,0.31101,0.744855,0.0418143,0.354492,-1.49057,0.112793,0.0563965,-0.0404841,0.157104,-0.088623,23.4648,23.3513,23.1669,23.2804,23.2094,23.3087,23.1243,
82,6.27291,1.37781,3.15337,4.119,6.2743,1.97654,1.55579,0.000589978,-0.10966,-5.68515e-05,0.103447,0.000217258,0.0125384,1.85324e-05,0.433215,-10.9931,-0.451772,-2.07888,0.948682,-41.8162,1.18587,0.0149957,-20,-0.491957,-0.0163723,-0.0394845,-1.28315,0.0242018,-7.70186e-05,0.00968394,-3.75185e-05,0.494399,0.00126163,0.075271,0.0527281,0.000277444,0.0430764,1.96048,0.000107748,0.005,1.71698,-0.000152726,-0.0342687,-0.270251,32.9154,-0.131384,0.739912,10.6321,0.363621,2.97452,0.31101,0.744855,0.0418143,0.354492,-1.49057,0.112793,0.0563965,-0.0404841,0.157104,-0.088623,23.4648,23.3513,23.1669,23.2804,23.2094,23.3087,23.1243,
83,6.27291,1.3777,3.15337,4.1191,6.2743,1.97655,1.55579,0.000531888,-0.11074,-5.57974e-05,0.103177,0.000227684,0.0105338,1.85324e-05,0.43324,-10.991,-0.451846,-2.07914,0.948692,-41.8139,1.18579,0.0149791,-20,-0.491967,-0.0142787,-0.0394792,-1.28345,0.0241969,-7.70186e-05,0.00968394,-3.75185e-05,0.494399,0.00126163,0.075271,0.0528715,0.000299693,0.0433088,1.96048,0.000107748,0.005,1.71698,-0.000152726,-0.0342687,-0.270251,32.9154,-0.131384,0.734156,10.9642,0.35499,2.92882,0.338007,0.542757,0.0184963,0.362638,-1.42612,0.113938,0.072956,-0.0362549,0.197552,-0.0809682,23.4506,23.3513,23.1527,23.2804,23.1811,23.2662,23.1243,
84,6.27291,1.3777,3.15337,4.1191,6.2743,1.97655,1.55579,0.000531888,-0.11074,-5.57974e-05,0.103177,0.000227684,0.0105338,1.85324e-05,0.435156,-11.1458,-0.455931,-2.19564,0.953364,-42.4138,1.1991,0.0154873,-20,-0.494316,-0.0348144,-0.0395015,-1.34322,0.0248954,-7.93771e-05,0.00990521,-3.98264e-05,0.494399,0.00126163,0.075271,0.0528715,0.000299693,0.0433088,1.95944,9.63523e-05,0.005,1.71591,-0.000183007,-0.0344779,-0.276981,33.477,-0.138642,0.734156,10.9642,0.35499,2.92882,0.338007,0.542757,0.0184963,0.362638,-1.42612,0.113938,0.072956,-0.0362549,0.197552,-0.0809682,23.4506,23.3513,23.1527,23.2804,23.1811,23.2662,23.1243,
85,6.27291,1.37758,3.15337,4.1192,6.2743,1.97656,1.55579,0.000478699,-0.109733,-5.57974e-05,0.102907,0.000243753,0.00864312,1.85324e-05,0.435195,-11.1439,-0.456026,-2.19566,0.953374,-42.4118,1.19904,0.0154696,-20,-0.494326,-0.0323832,-0.039495,-1.34356,0.0248909,-7.93771e-05,0.00990521,-3.98264e-05,0.494399,0.00126163,0.075271,0.0525799,0.000316541,0.0427263,1.95944,9.63523e-05,0.005,1.71591,-0.000183007,-0.0344779,-0.276981,33.477,-0.138642,0.688324,11.2878,0.407938,2.8035,0.362675,0.326429,0.0186479,0.362638,-1.40223,0.121118,0.0966797,-0.036478,0.221704,-0.0809682,23.479,23.3513,23.1669,23.3087,23.1952,23.2804,23.1101,
86,6.27291,1.37758,3.15337,4.1192,6.2743,1.97656,1.55579,0.000478699,-0.109733,-5.57974e-05,0.102907,0.000243753,0.00864312,1.85324e-05,0.436971,-11.2887,-0.459984,-2.30357,0.957201,-42.9658,1.21206,0.0159406,-20,-0.496534,-0.0513057,-0.0395206,-1.39844,0.025609,-8.20169e-05,0.0101319,-4.20619e-05,0.494399,0.00126163,0.075271,0.0525799,0.000316541,0.0427263,1.95837,8.78913e-05,0.005,1.71521,-0.000205785,-0.0339537,-0.283921,33.9941,-0.145772,0.688324,11.2878,0.407938,2.8035,0.362675,0.326429,0.0186479,0.362638,-1.40223,0.121118,0.0966797,-0.036478,0.221704,-0.0809682,23.479,23.3513,23.1669,23.3087,23.1952,23.2804,23.1101,
87,6.27291,1.37758,3.15337,4.1192,6.2743,1.97656,1.55579,0.000478699,-0.109733,-5.57974e-05,0.102907,0.000243753,0.00864312,1.85324e-05,0.436971,-11.2887,-0.459984,-2.30357,0.957201,-42.9658,1.21206,0.0159406,-20,-0.496534,-0.0513057,-0.0395206,-1.39844,0.025609,-8.20169e-05,0.0101319,-4.20619e-05,0.494399,0.00126163,0.075271,0.0525799,0.000316541,0.0427263,1.95837,8.78913e-05,0.005,1.71521,-0.000205785,-0.0339537,-0.283921,33.9941,-0.145772,0.688324,11.2878,0.407938,2.8035,0.362675,0.326429,0.0186479,0.362638,-1.40223,0.121118,0.0966797,-0.036478,0.221704,-0.0809682,23.479,23.3513,23.1669,23.3087,23.1952,23.2804,23.1101,
88,6.27291,1.37747,3.15337,4.11931,6.27431,1.97656,1.55579,0.000475093,-0.109119,-6.39952e-05,0.102468,0.000254354,0.00756273,2.64949e-05,0.437035,-11.2867,-0.460117,-2.30384,0.957224,-42.9636,1.21205,0.0159295,-20,-0.496547,-0.0489816,-0.0395142,-1.39876,0.0256057,-8.20169e-05,0.0101319,-4.20619e-05,0.494399,0.00126163,0.075271,0.0523214,0.000317281,0.042388,1.95837,8.78913e-05,0.005,1.71521,-0.000205785,-0.0339537,-0.283921,33.9941,-0.145772,0.734966,11.6,0.415359,2.70868,0.35646,0.138875,-0.00679789,0.346436,-1.4502,0.12085,0.072956,-0.0245033,0.241699,-0.0926514,23.4506,23.3371,23.1669,23.2946,23.2094,23.2662,23.1101,
89,6.27291,1.37747,3.15337,4.11931,6.27431,1.97656,1.55579,0.000475093,-0.109119,-6.39952e-05,0.102468,0.000254354,0.00756273,2.64949e-05,0.438836,-11.4374,-0.463248,-2.41623,0.96404,-43.5424,1.2237,0.016407,-20,-0.498776,-0.0686844,-0.0395226,-1.45618,0.0261459,-8.40034e-05,0.0103559,-4.3977e-05,0.494399,0.00126163,0.075271,0.0523214,0.000317281,0.042388,1.95729,7.75895e-05,0.005,1.71447,-0.000215722,-0.0336492,-0.289112,34.5347,-0.150749,0.734966,11.6,0.415359,2.70868,0.35646,0.138875,-0.00679789,0.346436,-1.4502,0.12085,0.072956,-0.0245033,0.241699,-0.0926514,23.4506,23.3371,23.1669,23.2946,23.2094,23.2662,23.1101,
90,6.27291,1.37747,3.15337,4.11931,6.27431,1.97656,1.55579,0.000475093,-0.109119,-6.39952e-05,0.102468,0.000254354,0.00756273,2.64949e-05,0.438836,-11.4374,-0.463248,-2.41623,0.96404,-43.5424,1.2237,0.016407,-20,-0.498776,-0.0686844,-0.0395226,-1.45618,0.0261459,-8.40034e-05,0.0103559,-4.3977e-05,0.494399,0.00126163,0.075271,0.0523214,0.000317281,0.042388,1.95729,7.75895e-05,0.005,1.71447,-0.000215722,-0.0336492,-0.289112,34.5347,-0.150749,0.734966,11.6,0.415359,2.70868,0.35646,0.138875,-0.00679789,0.346436,-1.4502,0.12085,0.072956,-0.0245033,0.241699,-0.0926514,23.4506,23.3371,23.1669,23.2946,23.2094,23.2662,23.1101,
91,6.27291,1.37737,3.15337,4.11942,6.27431,1.97657,1.55579,0.000478747,-0.109119,-6.29302e-05,0.103988,0.000264949,0.00626331,2.64949e-05,0.438872,-11.4354,-0.463349,-2.41669,0.964056,-43.54,1.22363,0.0163901,-20,-0.498789,-0.066601,-0.0395182,-1.45643,0.0261411,-8.40034e-05,0.0103559,-4.3977e-05,0.494399,0.00126163,0.075271,0.0527569,0.000317697,0.0422374,1.95729,7.75895e-05,0.005,1.71447,-0.000215722,-0.0336492,-0.289112,34.5347,-0.150749,0.719541,12.0099,0.394832,2.6222,0.34413,-0.0320772,0.0108557,0.346529,-1.49048,0.128906,0.0649547,-0.0324774,0.249756,-0.0887145,23.4506,23.3513,23.1527,23.2804,23.1952,23.2804,23.1243,
92,6.27291,1.37737,3.15337,4.11942,6.27431,1.97657,1.55579,0.000478747,-0.109119,-6.29302e-05,0.103988,0.000264949,0.00626331,2.64949e-05,0.440861,-11.5991,-0.467124,-2.54067,0.970603,-44.1711,1.23747,0.0169176,-20,-0.501237,-0.0885058,-0.0395294,-1.5193,0.0268453,-8.63497e-05,0.0105725,-4.62381e-05,0.494399,0.00126163,0.075271,0.0527569,0.000317697,0.0422374,1.95625,6.63538e-05,0.005,1.71314,-0.000226209,-0.0335137,-0.295906,35.1262,-0.156972,0.719541,12.0099,0.394832,2.6222,0.34413,-0.0320772,0.0108557,0.346529,-1.49048,0.128906,0.0649547,-0.0324774,0.249756,-0.0887145,23.4506,23.3513,23.1527,23.2804,23.1952,23.2804,23.1243,
93,6.27291,1.37726,3.15337,4.11952,6.27431,1.97658,1.55579,0.000484211,-0.106148,-6.28485e-05,0.103717,0.000280846,0.00486175,2.64749e-05,0.440913,-11.5974,-0.467241,-2.54062,0.970626,-44.1695,1.23743,0.0169006,-20,-0.501245,-0.0859664,-0.0395237,-1.51966,0.0268409,-8.63497e-05,0.0105725,-4.62381e-05,0.494399,0.00126163,0.075271,0.0520572,0.000307851,0.0409268,1.95625,6.63538e-05,0.005,1.71314,-0.000226209,-0.0335137,-0.295906,35.1262,-0.156972,0.740936,12.3839,0.403713,2.54548,0.355948,-0.155145,0.00554781,0.338475,-1.49888,0.129158,0.0322266,-0.0332184,0.273955,-0.0845947,23.4648,23.3371,23.1527,23.2804,23.1952,23.2662,23.0959,
94,6.27291,1.37726,3.15337,4.11952,6.27431,1.97658,1.55579,0.000484211,-0.106148,-6.28485e-05,0.103717,0.000280846,0.00486175,2.64749e-05,0.442388,-11.7206,-0.470395,-2.63142,0.97443,-44.6337,1.24863,0.0172918,-20,-0.503112,-0.101781,-0.0395414,-1.56532,0.0274613,-8.88719e-05,0.010784,-4.84231e-05,0.494399,0.00126163,0.075271,0.0520572,0.000307851,0.0409268,1.95522,5.8501e-05,0.005,1.71285,-0.000224415,-0.0323341,-0.301917,35.5581,-0.162423,0.740936,12.3839,0.403713,2.54548,0.355948,-0.155145,0.00554781,0.338475,-1.49888,0.129158,0.0322266,-0.0332184,0.273955,-0.0845947,23.4648,23.3371,23.1527,23.2804,23.1952,23.2662,23.0959,
95,6.27291,1.37715,3.15337,4.11962,6.27431,1.97658,1.55579,0.000444379,-0.102564,-6.28496e-05,0.101016,0.000291444,0.00378136,2.64749e-05,0.442443,-11.7191,-0.470501,-2.63111,0.974472,-44.6326,1.24861,0.0172739,-20,-0.503113,-0.099049,-0.039535,-1.56575,0.027457,-8.88719e-05,0.010784,-4.84231e-05,0.494399,0.00126163,0.075271,0.0505275,0.000309538,0.0394462,1.95522,5.8501e-05,0.005,1.71285,-0.000224415,-0.0323341,-0.301917,35.5581,-0.162423,0.654122,12.761,0.457333,2.39273,0.369031,-0.317834,0.00619228,0.346436,-1.57912,0.11308,0.0402832,-0.0254773,0.290039,-0.0809682,23.4648,23.3371,23.1527,23.2946,23.1811,23.252,23.0959,
96,6.27291,1.37715,3.15337,4.11962,6.27431,1.97658,1.55579,0.000444379,-0.102564,-6.28496e-05,0.101016,0.000291444,0.00378136,2.64749e-05,0.443679,-11.8213,-0.473661,-2.70406,0.975871,-45.0142,1.25746,0.0176016,-20,-0.504703,-0.111526,-0.0395647,-1.60291,0.0279422,-9.12092e-05,0.0109964,-5.06084e-05,0.494399,0.00126163,0.075271,0.0505275,0.000309538,0.0394462,1.95419,4.74173e-05,0.005,1.7133,-0.000235908,-0.0310015,-0.306596,35.9105,-0.16839,0.654122,12.761,0.457333,2.39273,0.369031,-0.317834,0.00619228,0.346436,-1.57912,0.11308,0.0402832,-0.0254773,0.290039,-0.0809682,23.4648,23.3371,23.1527,23.2946,23.1811,23.252,23.0959,
97,6.27291,1.37715,3.15337,4.11962,6.27431,1.97658,1.55579,0.000444379,-0.102564,-6.28496e-05,0.101016,0.000291444,0.00378136,2.64749e-05,0.443679,-11.8213,-0.473661,-2.70406,0.975871,-45.0142,1.25746,0.0176016,-20,-0.504703,-0.111526,-0.0395647,-1.60291,0.0279422,-9.12092e-05,0.0109964,-5.06084e-05,0.494399,0.00126163,0.075271,0.0505275,0.000309538,0.0394462,1.95419,4.74173e-05,0.005,1.7133,-0.000235908,-0.0310015,-0.306596,35.9105,-0.16839,0.654122,12.761,0.457333,2.39273,0.369031,-0.317834,0.00619228,0.346436,-1.57912,0.11308,0.0402832,-0.0254773,0.290039,-0.0809682,23.4648,23.3371,23.1527,23.2946,23.1811,23.252,23.0959,
98,6.27291,1.37705,3.15337,4.11972,6.27431,1.97658,1.55579,0.000353263,-0.102263,-6.1822e-05,0.0977997,0.00031264,0.00108039,2.64949e-05,0.443706,-11.8195,-0.473724,-2.70385,0.97586,-45.0126,1.25733,0.017585,-20,-0.504707,-0.109115,-0.0395592,-1.60329,0.0279342,-9.12092e-05,0.0109964,-5.06084e-05,0.494399,0.00126163,0.075271,0.0495336,0.000335656,0.0391038,1.95419,4.74173e-05,0.005,1.7133,-0.000235908,-0.0310015,-0.306596,35.9105,-0.16839,0.695566,13.0537,0.446018,2.20882,0.394276,-0.479712,0.00308613,0.346529,-1.68386,0.136963,0.0805664,-0.0245033,0.302231,-0.080667,23.4364,23.3087,23.1385,23.2662,23.1952,23.2804,23.0959,
99,6.27291,1.37705,3.15337,4.11972,6.27431,1.97658,1.55579,0.000353263,-0.102263,-6.1822e-05,0.0977997,0.00031264,0.00108039,2.64949e-05,0.445073,-11.923,-0.478384,-2.77942,0.973501,-45.4094,1.26819,0.0179474,-20,-0.506417,-0.122209,-0.0396089,-1.64244,0.0286252,-9.39181e-05,0.0112021,-5.37783e-05,0.494399,0.00126163,0.075271,0.0495336,0.000335656,0.0391038,1.95317,3.45129e-05,0.005,1.71328,-0.000271029,-0.0306935,-0.313269,36.2793,-0.177932,0.695566,13.0537,0.446018,2.20882,0.394276,-0.479712,0.00308613,0.346529,-1.68386,0.136963,0.0805664,-0.0245033,0.302231,-0.080667,23.4364,23.3087,23.1385,23.2662,23.1952,23.2804,23.0959,
100,6.27291,1.37695,3.15337,4.11981,6.27431,1.97658,1.55579,0.000353292,-0.102637,-6.1821e-05,0.0953444,0.000317939,0,2.64949e-05,0.445112,-11.9214,-0.478482,-2.77949,0.973528,-45.4077,1.26818,0.0179309,-20,-0.506422,-0.12011,-0.0396038,-1.64276,0.0286249,-9.39181e-05,0.0112021,-5.37783e-05,0.494399,0.00126163,0.075271,0.048899,0.000329964,0.0391877,1.95317,3.45129e-05,0.005,1.71328,-0.000271029,-0.0306935,-0.313269,36.2793,-0.177932,0.669117,13.442,0.473319,2.04101,0.3943,-0.612354,0.0100423,0.338379,-1.67586,0.112793,0.161133,-0.0161133,0.326294,-0.0849775,23.4364,23.3229,23.1385,23.2662,23.1952,23.2662,23.1101,
101,6.27291,1.37695,3.15337,4.11981,6.27431,1.97658,1.55579,0.000353292,-0.102637,-6.1821e-05,0.0953444,0.000317939,0,2.64949e-05,0.446494,-12.0412,-0.479993,-2.86797,0.981679,-45.8708,1.27841,0.0182973,-20,-0.508125,-0.13551,-0.0395946,-1.68868,0.0291379,-9.5917e-05,0.0113971,-5.4819e-05,0.494399,0.00126163,0.075271,0.048899,0.000329964,0.0391877,1.95221,2.9389e-05,0.005,1.71298,-0.000270517,-0.030769,-0.318249,36.7111,-0.179551,0.669117,13.442,0.473319,2.04101,0.3943,-0.612354,0.0100423,0.338379,-1.67586,0.112793,0.161133,-0.0161133,0.326294,-0.0849775,23.4364,23.3229,23.1385,23.2662,23.1952,23.2662,23.1101,
102,6.27291,1.37695,3.15337,4.11981,6.27431,1.97658,1.55579,0.000353292,-0.102637,-6.1821e-05,0.0953444,0.000317939,0,2.64949e-05,0.446494,-12.0412,-0.479993,-2.86797,0.981679,-45.8708,1.27841,0.0182973,-20,-0.508125,-0.13551,-0.0395946,-1.68868,0.0291379,-9.5917e-05,0.0113971,-5.4819e-05,0.494399,0.00126163,0.075271,0.048899,0.000329964,0.0391877,1.95221,2.9389e-05,0.005,1.71298,-0.000270517,-0.030769,-0.318249,36.7111,-0.179551,0.669117,13.442,0.473319,2.04101,0.3943,-0.612354,0.0100423,0.338379,-1.67586,0.112793,0.161133,-0.0161133,0.326294,-0.0849775,23.4364,23.3229,23.1385,23.2662,23.1952,23.2662,23.1101,
103,6.27291,1.37685,3.15337,4.11991,6.27431,1.97658,1.55579,0.000326593,-0.102097,-6.1822e-05,0.0928194,0.000339138,0,2.64751e-05,0.446533,-12.0398,-0.480087,-2.8681,0.981679,-45.8692,1.27831,0.0182809,-20,-0.508131,-0.133393,-0.03959,-1.689,0.0291301,-9.5917e-05,0.0113971,-5.4819e-05,0.494399,0.00126163,0.075271,0.0480534,0.000336069,0.0390241,1.95221,2.9389e-05,0.005,1.71298,-0.000270517,-0.030769,-0.318249,36.7111,-0.179551,0.68259,13.8038,0.477839,1.88618,0.406781,-0.714983,0.00470705,0.330322,-1.64452,0.121118,0.218868,-0.0166092,0.330347,-0.0887145,23.4506,23.3229,23.1243,23.2662,23.1952,23.252,23.1101,
104,6.27291,1.37685,3.15337,4.11991,6.27431,1.97658,1.55579,0.000326593,-0.102097,-6.1822e-05,0.0928194,0.000339138,0,2.64751e-05,0.448062,-12.159,-0.48455,-2.95536,0.981664,-46.3278,1.28979,0.0186865,-20,-0.510035,-0.148526,-0.0396275,-1.73434,0.0298043,-9.85223e-05,0.0115892,-5.78336e-05,0.494399,0.00126163,0.075271,0.0480534,0.000336069,0.0390241,1.95126,1.70536e-05,0.005,1.71289,-0.000287114,-0.0306217,-0.324753,37.1378,-0.188203,0.68259,13.8038,0.477839,1.88618,0.406781,-0.714983,0.00470705,0.330322,-1.64452,0.121118,0.218868,-0.0166092,0.330347,-0.0887145,23.4506,23.3229,23.1243,23.2662,23.1952,23.252,23.1101,
105,6.27291,1.37674,3.15337,4.11999,6.27432,1.97658,1.55579,0.000326568,-0.102815,-6.08266e-05,0.0894023,0.000349208,-0.000350993,2.64749e-05,0.448104,-12.1575,-0.484656,-2.95541,0.981682,-46.3263,1.28977,0.018669,-20,-0.510038,-0.146435,-0.0396225,-1.73466,0.0298026,-9.85223e-05,0.0115892,-5.78336e-05,0.494399,0.00126163,0.075271,0.0472117,0.000330423,0.0393368,1.95126,1.70536e-05,0.005,1.71289,-0.000287114,-0.0306217,-0.324753,37.1378,-0.188203,0.62484,14.1375,0.522325,1.70789,0.4197,-0.846763,-0.00818244,0.330715,-1.64357,0.105046,0.241833,-0.0180152,0.338379,-0.0809682,23.4506,23.3087,23.1385,23.2662,23.1952,23.2662,23.1101,
106,6.27291,1.37674,3.15337,4.11999,6.27432,1.97658,1.55579,0.000326568,-0.102815,-6.08266e-05,0.0894023,0.000349208,-0.000350993,2.64749e-05,0.449537,-12.279,-0.486704,-3.04449,0.988597,-46.7978,1.30061,0.0190488,-20,-0.511801,-0.161877,-0.0396203,-1.78141,0.0303738,-0.000100767,0.0117858,-5.92822e-05,0.494399,0.00126163,0.075271,0.0472117,0.000330423,0.0393368,1.9503,1.0822e-05,0.005,1.71278,-0.000287641,-0.0309031,-0.330296,37.5769,-0.191046,0.62484,14.1375,0.522325,1.70789,0.4197,-0.846763,-0.00818244,0.330715,-1.64357,0.105046,0.241833,-0.0180152,0.338379,-0.0809682,23.4506,23.3087,23.1385,23.2662,23.1952,23.2662,23.1101,
107,6.27291,1.37664,3.15337,4.12009,6.27432,1.97658,1.55579,0.000285747,-0.102097,-6.08266e-05,0.0885213,0.000385016,-0.000662313,2.64949e-05,0.44957,-12.2774,-0.486792,-3.04475,0.988608,-46.7959,1.30055,0.0190323,-20,-0.51181,-0.159782,-0.0396147,-1.78169,0.0303697,-0.000100767,0.0117858,-5.92822e-05,0.494399,0.00126163,0.075271,0.0468044,0.000346185,0.0390427,1.9503,1.0822e-05,0.005,1.71278,-0.000287641,-0.0309031,-0.330296,37.5769,-0.191046,0.665096,14.4461,0.527741,1.48176,0.42065,-0.98314,-0.00417048,0.330322,-1.61946,0.121118,0.306152,-0.0113938,0.342431,-0.0809682,23.4506,23.3087,23.1385,23.2662,23.1811,23.2662,23.1101,
108,6.27291,1.37664,3.15337,4.12009,6.27432,1.97658,1.55579,0.000285747,-0.102097,-6.08266e-05,0.0885213,0.000385016,-0.000662313,2.64949e-05,0.451178,-12.4065,-0.490704,-3.14069,0.991015,-47.2919,1.31189,0.0194586,-20,-0.513808,-0.176545,-0.0396431,-1.83085,0.0309858,-0.000102973,0.0119784,-6.13173e-05,0.494399,0.00126163,0.075271,0.0468044,0.000346185,0.0390427,1.94934,5.18063e-07,0.005,1.71228,-0.0003111,-0.0306385,-0.336229,38.0398,-0.198311,0.665096,14.4461,0.527741,1.48176,0.42065,-0.98314,-0.00417048,0.330322,-1.61946,0.121118,0.306152,-0.0113938,0.342431,-0.0809682,23.4506,23.3087,23.1385,23.2662,23.1811,23.2662,23.1101,
109,6.27291,1.37654,3.15337,4.12018,6.27432,1.97658,1.55579,0.000285747,-0.0977753,-5.98636e-05,0.088592,0.000429267,-0.000943083,2.64352e-05,0.45123,-12.4051,-0.490821,-3.14071,0.991052,-47.2905,1.31192,0.0194426,-20,-0.513815,-0.174207,-0.0396365,-1.83117,0.0309858,-0.000102973,0.0119784,-6.13173e-05,0.494399,0.00126163,0.075271,0.0459233,0.00034067,0.0373056,1.94934,5.18063e-07,0.005,1.71228,-0.0003111,-0.0306385,-0.336229,38.0398,-0.198311,0.650977,14.9029,0.560666,1.33875,0.417768,-1.0847,0.0107039,0.338379,-1.63558,0.128906,0.298531,-0.0090076,0.350464,-0.076644,23.4506,23.3229,23.1527,23.2662,23.1811,23.2662,23.1101,
110,6.27291,1.37654,3.15337,4.12018,6.27432,1.97658,1.55579,0.000285747,-0.0977753,-5.98636e-05,0.088592,0.000429267,-0.000943083,2.64352e-05,0.452421,-12.5081,-0.493035,-3.21591,0.995165,-47.6729,1.32049,0.0197584,-20,-0.515349,-0.187213,-0.039649,-1.86853,0.0314287,-0.000104869,0.0121601,-6.22513e-05,0.494399,0.00126163,0.075271,0.0459233,0.00034067,0.0373056,1.94843,-4.05639e-06,0.005,1.71226,-0.000310254,-0.0290751,-0.340516,38.3945,-0.201951,0.650977,14.9029,0.560666,1.33875,0.417768,-1.0847,0.0107039,0.338379,-1.63558,0.128906,0.298531,-0.0090076,0.350464,-0.076644,23.4506,23.3229,23.1527,23.2662,23.1811,23.2662,23.1101,
111,6.27291,1.37654,3.15337,4.12018,6.27432,1.97658,1.55579,0.000285747,-0.0977753,-5.98636e-05,0.088592,0.000429267,-0.000943083,2.64352e-05,0.452421,-12.5081,-0.493035,-3.21591,0.995165,-47.6729,1.32049,0.0197584,-20,-0.515349,-0.187213,-0.039649,-1.86853,0.0314287,-0.000104869,0.0121601,-6.22513e-05,0.494399,0.00126163,0.075271,0.0459233,0.00034067,0.0373056,1.94843,-4.05639e-06,0.005,1.71226,-0.000310254,-0.0290751,-0.340516,38.3945,-0.201951,0.650977,14.9029,0.560666,1.33875,0.417768,-1.0847,0.0107039,0.338379,-1.63558,0.128906,0.298531,-0.0090076,0.350464,-0.076644,23.4506,23.3229,23.1527,23.2662,23.1811,23.2662,23.1101,
112,6.27291,1.37645,3.15337,4.12026,6.27432,1.97657,1.55579,0.000265671,-0.0934537,-5.97906e-05,0.088772,0.000489846,-0.00122868,2.64352e-05,0.452466,-12.5067,-0.493139,-3.21596,0.995186,-47.6716,1.32045,0.0197428,-20,-0.515357,-0.184932,-0.039643,-1.86883,0.0314247,-0.000104869,0.0121601,-6.22513e-05,0.494399,0.00126163,0.075271,0.0450743,0.00034522,0.0355657,1.94843,-4.05639e-06,0.005,1.71226,-0.000310254,-0.0290751,-0.340516,38.3945,-0.201951,0.639133,15.2721,0.542869,1.2545,0.415433,-1.16339,0.0011467,0.330322,-1.74023,0.12085,0.265991,-0.00805664,0.350464,-0.0846906,23.4506,23.3371,23.1527,23.2804,23.1811,23.2804,23.0959,
113,6.27291,1.37645,3.15337,4.12026,6.27432,1.97657,1.55579,0.000265671,-0.0934537,-5.97906e-05,0.088772,0.000489846,-0.00122868,2.64352e-05,0.453716,-12.607,-0.496935,-3.28923,0.99469,-48.0438,1.32949,0.0200741,-20,-0.516966,-0.197616,-0.0396813,-1.90519,0.0319436,-0.000106938,0.0123372,-6.41989e-05,0.494399,0.00126163,0.075271,0.0450743,0.00034522,0.0355657,1.94754,-1.37059e-05,0.005,1.71222,-0.000323033,-0.0275091,-0.345511,38.7398,-0.209422,0.639133,15.2721,0.542869,1.2545,0.415433,-1.16339,0.0011467,0.330322,-1.74023,0.12085,0.265991,-0.00805664,0.350464,-0.0846906,23.4506,23.3371,23.1527,23.2804,23.1811,23.2804,23.0959,
114,6.27291,1.37645,3.15337,4.12026,6.27432,1.97657,1.55579,0.000265671,-0.0934537,-5.97906e-05,0.088772,0.000489846,-0.00122868,2.64352e-05,0.453716,-12.607,-0.496935,-3.28923,0.99469,-48.0438,1.32949,0.0200741,-20,-0.516966,-0.197616,-0.0396813,-1.90519,0.0319436,-0.000106938,0.0123372,-6.41989e-05,0.494399,0.00126163,0.075271,0.0450743,0.00034522,0.0355657,1.94754,-1.37059e-05,0.005,1.71222,-0.000323033,-0.0275091,-0.345511,38.7398,-0.209422,0.639133,15.2721,0.542869,1.2545,0.415433,-1.16339,0.0011467,0.330322,-1.74023,0.12085,0.265991,-0.00805664,0.350464,-0.0846906,23.4506,23.3371,23.1527,23.2804,23.1811,23.2804,23.0959,
115,6.27291,1.37636,3.15337,4.12035,6.27432,1.97657,1.55579,0.000227718,-0.0906928,-5.97906e-05,0.0870597,0.000543525,-0.00162319,2.64349e-05,0.453757,-12.6057,-0.49703,-3.28921,0.994707,-48.0425,1.32945,0.020058,-20,-0.516971,-0.195392,-0.0396755,-1.90552,0.0319398,-0.000106938,0.0123372,-6.41989e-05,0.494399,0.00126163,0.075271,0.044003,0.00035534,0.0344635,1.94754,-1.37059e-05,0.005,1.71222,-0.000323033,-0.0275091,-0.345511,38.7398,-0.209422,0.585437,15.6182,0.573744,1.16249,0.417882,-1.27732,-0.0147594,0.33042,-1.82087,0.129158,0.226161,-0.0090076,0.330347,-0.076644,23.4364,23.3229,23.1385,23.2804,23.1811,23.252,23.0959,
116,6.27291,1.37636,3.15337,4.12035,6.27432,1.97657,1.55579,0.000227718,-0.0906928,-5.97906e-05,0.0870597,0.000543525,-0.00162319,2.64349e-05,0.454964,-12.7019,-0.500592,-3.35893,0.994504,-48.4047,1.33838,0.020378,-20,-0.51851,-0.207398,-0.0397111,-1.94098,0.0324609,-0.000109035,0.0125156,-6.61088e-05,0.494399,0.00126163,0.075271,0.044003,0.00035534,0.0344635,1.94664,-2.34235e-05,0.005,1.71238,-0.000340887,-0.0265171,-0.350532,39.0754,-0.216434,0.585437,15.6182,0.573744,1.16249,0.417882,-1.27732,-0.0147594,0.33042,-1.82087,0.129158,0.226161,-0.0090076,0.330347,-0.076644,23.4364,23.3229,23.1385,23.2804,23.1811,23.252,23.0959,
117,6.27291,1.37636,3.15337,4.12035,6.27432,1.97657,1.55579,0.000227718,-0.0906928,-5.97906e-05,0.0870597,0.000543525,-0.00162319,2.64349e-05,0.454964,-12.7019,-0.500592,-3.35893,0.994504,-48.4047,1.33838,0.020378,-20,-0.51851,-0.207398,-0.0397111,-1.94098,0.0324609,-0.000109035,0.0125156,-6.61088e-05,0.494399,0.00126163,0.075271,0.044003,0.00035534,0.0344635,1.94664,-2.34235e-05,0.005,1.71238,-0.000340887,-0.0265171,-0.350532,39.0754,-0.216434,0.585437,15.6182,0.573744,1.16249,0.417882,-1.27732,-0.0147594,0.33042,-1.82087,0.129158,0.226161,-0.0090076,0.330347,-0.076644,23.4364,23.3229,23.1385,23.2804,23.1811,23.252,23.0959,
118,6.27291,1.37627,3.15337,4.12044,6.27432,1.97657,1.55579,0.000227718,-0.0869714,-5.886e-05,0.0856821,0.000594732,-0.00187015,2.64549e-05,0.45501,-12.7006,-0.500695,-3.35897,0.99453,-48.4034,1.33834,0.0203628,-20,-0.518516,-0.205161,-0.039706,-1.9413,0.0324569,-0.000109035,0.0125156,-6.61088e-05,0.494399,0.00126163,0.075271,0.0428294,0.000348799,0.0329896,1.94664,-2.34235e-05,0.005,1.71238,-0.000340887,-0.0265171,-0.350532,39.0754,-0.216434,0.603636,15.9513,0.584112,1.04427,0.414707,-1.37886,-0.0255926,0.338475,-1.86916,0.11308,0.249756,-0.00569691,0.342407,-0.0845947,23.4648,23.2946,23.1243,23.2662,23.1811,23.2378,23.0959,
119,6.27291,1.37627,3.15337,4.12044,6.27432,1.97657,1.55579,0.000227718,-0.0869714,-5.886e-05,0.0856821,0.000594732,-0.00187015,2.64549e-05,0.456111,-12.79,-0.503889,-3.4233,0.99466,-48.7357,1.34655,0.0206548,-20,-0.519938,-0.216195,-0.039736,-1.97367,0.0329304,-0.000111066,0.0126888,-6.80826e-05,0.494399,0.00126163,0.075271,0.0428294,0.000348799,0.0329896,1.94576,-3.29185e-05,0.005,1.71264,-0.000343546,-0.0251906,-0.3551,39.3827,-0.222588,0.603636,15.9513,0.584112,1.04427,0.414707,-1.37886,-0.0255926,0.338475,-1.86916,0.11308,0.249756,-0.00569691,0.342407,-0.0845947,23.4648,23.2946,23.1243,23.2662,23.1811,23.2378,23.0959,
120,6.27291,1.37619,3.15337,4.12053,6.27432,1.97656,1.55579,0.000211698,-0.0810292,-5.89307e-05,0.0875116,0.000655671,-0.00219419,2.64349e-05,0.456155,-12.7887,-0.503987,-3.42339,0.994681,-48.7344,1.34651,0.0206407,-20,-0.519948,-0.213999,-0.0397303,-1.97394,0.0329263,-0.000111066,0.0126888,-6.80826e-05,0.494399,0.00126163,0.075271,0.0421217,0.000351834,0.0305743,1.94576,-3.29185e-05,0.005,1.71264,-0.000343546,-0.0251906,-0.3551,39.3827,-0.222588,0.577815,16.3225,0.581513,0.996181,0.39832,-1.47785,-0.0383397,0.338379,-1.93359,0.113938,0.265869,-0.0090076,0.338403,-0.0846906,23.4506,23.3087,23.1385,23.2662,23.1952,23.2378,23.0959,
121,6.27291,1.37619,3.15337,4.12053,6.27432,1.97656,1.55579,0.000211698,-0.0810292,-5.89307e-05,0.0875116,0.000655671,-0.00219419,2.64349e-05,0.457281,-12.8786,-0.507844,-3.48933,0.992844,-49.0608,1.35456,0.0209391,-20,-0.521426,-0.225436,-0.0397738,-2.00563,0.0333975,-0.000112996,0.0128502,-6.99852e-05,0.494399,0.00126163,0.075271,0.0421217,0.000351834,0.0305743,1.94493,-4.19202e-05,0.005,1.71253,-0.000354379,-0.0230169,-0.359627,39.6853,-0.230382,0.577815,16.3225,0.581513,0.996181,0.39832,-1.47785,-0.0383397,0.338379,-1.93359,0.113938,0.265869,-0.0090076,0.338403,-0.0846906,23.4506,23.3087,23.1385,23.2662,23.1952,23.2378,23.0959,
122,6.27291,1.37612,3.15337,4.12061,6.27432,1.97656,1.55579,0.000176403,-0.0758974,-5.79569e-05,0.0869714,0.000688155,-0.00245465,2.64352e-05,0.457323,-12.8774,-0.507929,-3.48933,0.992882,-49.0597,1.35456,0.0209254,-20,-0.521432,-0.223297,-0.0397683,-2.00593,0.0333955,-0.000112996,0.0128502,-6.99852e-05,0.494399,0.00126163,0.075271,0.040898,0.000356247,0.0285242,1.94493,-4.19202e-05,0.005,1.71253,-0.000354379,-0.0230169,-0.359627,39.6853,-0.230382,0.583662,16.6301,0.58279,0.936245,0.415891,-1.57762,-0.0472672,0.322366,-2.03873,0.129158,0.20206,-0.0090076,0.330322,-0.0887145,23.4648,23.3087,23.1385,23.252,23.1811,23.252,23.0959,
123,6.27291,1.37612,3.15337,4.12061,6.27432,1.97656,1.55579,0.000176403,-0.0758974,-5.79569e-05,0.0869714,0.000688155,-0.00245465,2.64352e-05,0.458205,-12.9503,-0.510657,-3.54118,0.992345,-49.3233,1.36054,0.0211593,-20,-0.522602,-0.232133,-0.0398008,-2.03131,0.0337219,-0.000114661,0.013006,-7.1392e-05,0.494399,0.00126163,0.075271,0.040898,0.000356247,0.0285242,1.94412,-4.96471e-05,0.005,1.7129,-0.000365304,-0.0211718,-0.362756,39.9279,-0.235831,0.583662,16.6301,0.58279,0.936245,0.415891,-1.57762,-0.0472672,0.322366,-2.03873,0.129158,0.20206,-0.0090076,0.330322,-0.0887145,23.4648,23.3087,23.1385,23.252,23.1811,23.252,23.0959,
124,6.27291,1.37604,3.15337,4.1207,6.27432,1.97655,1.55579,0.000141837,-0.0734752,-5.79569e-05,0.0853508,0.000719045,-0.00283724,1.85046e-05,0.458239,-12.949,-0.510734,-3.54127,0.99238,-49.322,1.36054,0.0211452,-20,-0.522607,-0.230192,-0.0397956,-2.03158,0.0337221,-0.000114661,0.013006,-7.1392e-05,0.494399,0.00126163,0.075271,0.0399251,0.000363764,0.0275539,1.94412,-4.96471e-05,0.005,1.7129,-0.000365304,-0.0211718,-0.362756,39.9279,-0.235831,0.513726,16.9013,0.630539,0.850534,0.417163,-1.70641,-0.0507279,0.330322,-2.09479,0.121118,0.209473,0,0.334375,-0.076644,23.4364,23.3087,23.1385,23.2662,23.1811,23.2378,23.0959,
125,6.27291,1.37604,3.15337,4.1207,6.27432,1.97655,1.55579,0.000141837,-0.0734752,-5.79569e-05,0.0853508,0.000719045,-0.00283724,1.85046e-05,0.459213,-13.0314,-0.512719,-3.60099,0.995056,-49.6318,1.36739,0.0214032,-20,-0.523849,-0.240459,-0.039811,-2.06191,0.034079,-0.000116137,0.0131615,-7.22625e-05,0.494399,0.00126163,0.075271,0.0399251,0.000363764,0.0275539,1.94331,-5.63462e-05,0.005,1.71305,-0.000378099,-0.0202985,-0.366199,40.215,-0.239343,0.513726,16.9013,0.630539,0.850534,0.417163,-1.70641,-0.0507279,0.330322,-2.09479,0.121118,0.209473,0,0.334375,-0.076644,23.4364,23.3087,23.1385,23.2662,23.1811,23.2378,23.0959,
126,6.27291,1.37596,3.15337,4.12078,6.27432,1.97654,1.55579,0.000141837,-0.0740067,-5.7082e-05,0.0825028,0.000726317,-0.00322352,1.85046e-05,0.459241,-13.0301,-0.512791,-3.60127,0.995086,-49.6301,1.36738,0.0213896,-20,-0.523854,-0.238751,-0.0398073,-2.06216,0.034079,-0.000116137,0.0131615,-7.22625e-05,0.494399,0.00126163,0.075271,0.0392112,0.000358675,0.0277753,1.94331,-5.63462e-05,0.005,1.71305,-0.000378099,-0.0202985,-0.366199,40.215,-0.239343,0.512331,17.0353,0.644932,0.820315,0.400203,-1.85803,-0.0405312,0.314312,-2.11896,0.128906,0.193359,0,0.330322,-0.0845947,23.4506,23.3229,23.1385,23.2662,23.1811,23.252,23.0959,
127,6.27291,1.37596,3.15337,4.12078,6.27432,1.97654,1.55579,0.000141837,-0.0740067,-5.7082e-05,0.0825028,0.000726317,-0.00322352,1.85046e-05,0.460307,-13.1219,-0.514039,-3.66873,1.0011,-49.9865,1.37485,0.0216722,-20,-0.525167,-0.250431,-0.0398017,-2.09749,0.0344358,-0.00011759,0.0133145,-7.3159e-05,0.494399,0.00126163,0.075271,0.0392112,0.000358675,0.0277753,1.9425,-6.2948e-05,0.005,1.71296,-0.000379461,-0.0204978,-0.369655,40.547,-0.240801,0.512331,17.0353,0.644932,0.820315,0.400203,-1.85803,-0.0405312,0.314312,-2.11896,0.128906,0.193359,0,0.330322,-0.0845947,23.4506,23.3229,23.1385,23.2662,23.1811,23.252,23.0959,
128,6.27291,1.37589,3.15337,4.12087,6.27432,1.97653,1.55579,0.000132471,-0.0744714,-5.70829e-05,0.0820264,0.000727459,-0.00490978,1.85045e-05,0.46033,-13.1204,-0.514103,-3.66892,1.00112,-49.9847,1.37482,0.0216589,-20,-0.525174,-0.248808,-0.0397982,-2.0977,0.0344361,-0.00011759,0.0133145,-7.3159e-05,0.494399,0.00126163,0.075271,0.03917,0.000359807,0.0277953,1.9425,-6.2948e-05,0.005,1.71296,-0.000379461,-0.0204978,-0.369655,40.547,-0.240801,0.444532,17.2476,0.653516,0.820702,0.371643,-1.98163,-0.0238664,0.314209,-2.06264,0.123243,0.257812,0,0.318263,-0.076644,23.4364,23.3229,23.1385,23.252,23.1811,23.2236,23.0818,
129,6.27291,1.37582,3.15337,4.12095,6.27432,1.97652,1.55579,9.93593e-05,-0.0729263,-4.81454e-05,0.0818395,0.000718969,-0.00739872,1.85045e-05,0.461411,-13.2116,-0.515377,-3.73896,1.00724,-50.3414,1.38266,0.0219247,-20,-0.526502,-0.259319,-0.0397891,-2.13361,0.0348323,-0.000118994,0.0134576,-7.39226e-05,0.494399,0.00126163,0.075271,0.0387961,0.000361995,0.0269271,1.94173,-6.91705e-05,0.005,1.7123,-0.00038608,-0.0205158,-0.373493,40.8825,-0.242254,0.438207,17.4212,0.646066,0.818579,0.370044,-2.11657,-0.0278146,0.314622,-2.03847,0.137907,0.22573,0,0.326319,-0.076644,23.4506,23.3229,23.1243,23.252,23.1811,23.252,23.0959,
130,6.27291,1.37582,3.15337,4.12095,6.27432,1.97652,1.55579,9.93593e-05,-0.0729263,-4.81454e-05,0.0818395,0.000718969,-0.00739872,1.85045e-05,0.462217,-13.2828,-0.516356,-3.79226,1.01164,-50.6091,1.38713,0.0221383,-20,-0.527523,-0.268638,-0.0397889,-2.15999,0.0349856,-0.000119858,0.013597,-7.45534e-05,0.494399,0.00126163,0.075271,0.0387961,0.000361995,0.0269271,1.94096,-7.22668e-05,0.005,1.71195,-0.000390835,-0.0197343,-0.374952,41.1323,-0.243484,0.438207,17.4212,0.646066,0.818579,0.370044,-2.11657,-0.0278146,0.314622,-2.03847,0.137907,0.22573,0,0.326319,-0.076644,23.4506,23.3229,23.1243,23.252,23.1811,23.252,23.0959,
131,6.27291,1.37574,3.15337,4.12103,6.27432,1.9765,1.55579,9.93531e-05,-0.0709675,-4.81454e-05,0.0816523,0.000741436,-0.0120541,1.85045e-05,0.462246,-13.2812,-0.516426,-3.79196,1.01162,-50.6077,1.38705,0.0221246,-20,-0.527527,-0.266681,-0.0397858,-2.16025,0.0349821,-0.000119858,0.013597,-7.45534e-05,0.494399,0.00126163,0.075271,0.0383386,0.000352238,0.025665,1.94096,-7.22668e-05,0.005,1.71195,-0.000390835,-0.0197343,-0.374952,41.1323,-0.243484,0.410595,17.5792,0.682388,0.809419,0.380095,-2.29278,-0.0443679,0.306258,-2.03029,0.121118,0.209473,0.0161133,0.346529,-0.0805664,23.4506,23.3371,23.1385,23.2662,23.1811,23.252,23.1101,
132,6.27291,1.37574,3.15337,4.12103,6.27432,1.9765,1.55579,9.93531e-05,-0.0709675,-4.81454e-05,0.0816523,0.000741436,-0.0120541,1.85045e-05,0.462855,-13.332,-0.518012,-3.83003,1.01229,-50.7931,1.39371,0.0222858,-20,-0.528319,-0.273351,-0.039799,-2.17835,0.0354517,-0.000121696,0.0137365,-7.62166e-05,0.494399,0.00126163,0.075271,0.0383386,0.000352238,0.025665,1.94019,-8.04634e-05,0.005,1.71166,-0.000389431,-0.0185985,-0.379545,41.305,-0.246444,0.410595,17.5792,0.682388,0.809419,0.380095,-2.29278,-0.0443679,0.306258,-2.03029,0.121118,0.209473,0.0161133,0.346529,-0.0805664,23.4506,23.3371,23.1385,23.2662,23.1811,23.252,23.1101,
133,6.27291,1.37567,3.15337,4.1211,6.27432,1.97648,1.55579,9.98311e-05,-0.0707655,-4.74407e-05,0.0790584,0.000742627,-0.0170075,1.85045e-05,0.462881,-13.3304,-0.518071,-3.82966,1.01229,-50.7919,1.39369,0.0222725,-20,-0.528319,-0.271527,-0.0397962,-2.17861,0.0354524,-0.000121696,0.0137365,-7.62166e-05,0.494399,0.00126163,0.075271,0.0375509,0.000338156,0.0251061,1.94019,-8.04634e-05,0.005,1.71166,-0.000389431,-0.0185985,-0.379545,41.305,-0.246444,0.412404,17.6928,0.722202,0.836593,0.356506,-2.41385,-0.0419931,0.298096,-2.0464,0.136963,0.201577,0.0145243,0.386908,-0.0805664,23.4506,23.2946,23.1385,23.252,23.1669,23.2662,23.1101,
134,6.27291,1.37567,3.15337,4.1211,6.27432,1.97648,1.55579,9.98311e-05,-0.0707655,-4.74407e-05,0.0790584,0.000742627,-0.0170075,1.85045e-05,0.463223,-13.3653,-0.517717,-3.85501,1.01669,-50.9216,1.39818,0.0223632,-20,-0.528761,-0.275884,-0.0397835,-2.19128,0.0357506,-0.000123039,0.0138672,-7.68584e-05,0.494399,0.00126163,0.075271,0.0375509,0.000338156,0.0251061,1.93944,-8.62167e-05,0.005,1.7117,-0.000381935,-0.0180955,-0.382503,41.4252,-0.24507,0.412404,17.6928,0.722202,0.836593,0.356506,-2.41385,-0.0419931,0.298096,-2.0464,0.136963,0.201577,0.0145243,0.386908,-0.0805664,23.4506,23.2946,23.1385,23.252,23.1669,23.2662,23.1101,
135,6.27291,1.37567,3.15337,4.1211,6.27432,1.97648,1.55579,9.98311e-05,-0.0707655,-4.74407e-05,0.0790584,0.000742627,-0.0170075,1.85045e-05,0.463223,-13.3653,-0.517717,-3.85501,1.01669,-50.9216,1.39818,0.0223632,-20,-0.528761,-0.275884,-0.0397835,-2.19128,0.0357506,-0.000123039,0.0138672,-7.68584e-05,0.494399,0.00126163,0.075271,0.0375509,0.000338156,0.0251061,1.93944,-8.62167e-05,0.005,1.7117,-0.000381935,-0.0180955,-0.382503,41.4252,-0.24507,0.412404,17.6928,0.722202,0.836593,0.356506,-2.41385,-0.0419931,0.298096,-2.0464,0.136963,0.201577,0.0145243,0.386908,-0.0805664,23.4506,23.2946,23.1385,23.252,23.1669,23.2662,23.1101,
136,6.27291,1.3756,3.15337,4.12119,6.27432,1.97647,1.55579,9.3614e-05,-0.0702253,-4.35358e-05,0.0799951,0.000742611,-0.0172862,2.64352e-05,0.463235,-13.3638,-0.517772,-3.85539,1.01669,-50.9198,1.39809,0.0223471,-20,-0.528772,-0.274278,-0.0397806,-2.19145,0.0357471,-0.000123039,0.0138672,-7.68584e-05,0.494399,0.00126163,0.075271,0.0377087,0.000339943,0.0248537,1.93944,-8.62167e-05,0.005,1.7117,-0.000381935,-0.0180955,-0.382503,41.4252,-0.24507,0.341976,17.8571,0.719826,0.904799,0.32702,-2.52595,-0.04241,0.298096,-2.00612,0.1372,0.225586,0.0127387,0.414937,-0.0805664,23.4364,23.3229,23.1101,23.2662,23.1811,23.2378,23.1101,
137,6.27291,1.37554,3.15337,4.12127,6.27432,1.97645,1.55579,6.24093e-05,-0.0686048,-4.34866e-05,0.0815694,0.000763888,-0.0171649,2.64349e-05,0.464535,-13.4664,-0.520614,-3.9346,1.01977,-51.3172,1.4038,0.0226731,-20,-0.530366,-0.286585,-0.0397897,-2.23135,0.0358952,-0.000123658,0.0140044,-7.85097e-05,0.494399,0.00126163,0.075271,0.0378261,0.000354516,0.0242044,1.93867,-9.28317e-05,0.005,1.71086,-0.000389497,-0.0178684,-0.383875,41.7994,-0.249892,0.344305,18.028,0.70678,0.968744,0.350658,-2.63327,-0.053263,0.306152,-2.00612,0.136963,0.185478,0.0241699,0.418965,-0.076961,23.4364,23.3229,23.1527,23.252,23.1527,23.2662,23.1243,
138,6.27291,1.37554,3.15337,4.12127,6.27432,1.97645,1.55579,6.24093e-05,-0.0686048,-4.34866e-05,0.0815694,0.000763888,-0.0171649,2.64349e-05,0.465785,-13.5652,-0.52402,-4.00958,1.02046,-51.6938,1.41276,0.0230041,-20,-0.531928,-0.299793,-0.0398177,-2.26873,0.0364007,-0.000125414,0.0141342,-8.01451e-05,0.494399,0.00126163,0.075271,0.0378261,0.000354516,0.0242044,1.93792,-0.000100635,0.005,1.71008,-0.000409636,-0.0172839,-0.388735,42.1521,-0.256434,0.344305,18.028,0.70678,0.968744,0.350658,-2.63327,-0.053263,0.306152,-2.00612,0.136963,0.185478,0.0241699,0.418965,-0.076961,23.4364,23.3229,23.1527,23.252,23.1527,23.2662,23.1243,
139,6.27291,1.37554,3.15337,4.12127,6.27432,1.97645,1.55579,6.24093e-05,-0.0686048,-4.34866e-05,0.0815694,0.000763888,-0.0171649,2.64349e-05,0.465785,-13.5652,-0.52402,-4.00958,1.02046,-51.6938,1.41276,0.0230041,-20,-0.531928,-0.299793,-0.0398177,-2.26873,0.0364007,-0.000125414,0.0141342,-8.01451e-05,0.494399,0.00126163,0.075271,0.0378261,0.000354516,0.0242044,1.93792,-0.000100635,0.005,1.71008,-0.000409636,-0.0172839,-0.388735,42.1521,-0.256434,0.344305,18.028,0.70678,0.968744,0.350658,-2.63327,-0.053263,0.306152,-2.00612,0.136963,0.185478,0.0241699,0.418965,-0.076961,23.4364,23.3229,23.1527,23.252,23.1527,23.2662,23.1243,
140,6.27291,1.37547,3.15337,4.12135,6.27432,1.97643,1.55579,6.24093e-05,-0.063743,-4.34866e-05,0.0822963,0.000763167,-0.0166448,2.64349e-05,0.465823,-13.5642,-0.524103,-4.00978,1.02049,-51.6926,1.41277,0.0229915,-20,-0.531936,-0.297981,-0.0398134,-2.26895,0.036401,-0.000125414,0.0141342,-8.01451e-05,0.494399,0.00126163,0.075271,0.037026,0.000346491,0.0223216,1.93792,-0.000100635,0.005,1.71008,-0.000409636,-0.0172839,-0.388735,42.1521,-0.256434,0.307549,18.2082,0.713249,0.974268,0.36607,-2.74485,-0.0487706,0.298096,-2.00617,0.14502,0.14502,0.0127387,0.402852,-0.0805664,23.4364,23.3229,23.1527,23.2662,23.1811,23.2662,23.1101,
141,6.27291,1.37547,3.15337,4.12135,6.27432,1.97643,1.55579,6.24093e-05,-0.063743,-4.34866e-05,0.0822963,0.000763167,-0.0166448,2.64349e-05,0.466617,-13.6347,-0.525543,-4.06112,1.02336,-51.9488,1.41781,0.0232019,-20,-0.532984,-0.306815,-0.0398235,-2.29377,0.0366261,-0.000126712,0.0142622,-8.084e-05,0.494399,0.00126163,0.075271,0.037026,0.000346491,0.0223216,1.93719,-0.000106265,0.005,1.71015,-0.000407481,-0.0155894,-0.3909,42.3891,-0.258779,0.307549,18.2082,0.713249,0.974268,0.36607,-2.74485,-0.0487706,0.298096,-2.00617,0.14502,0.14502,0.0127387,0.402852,-0.0805664,23.4364,23.3229,23.1527,23.2662,23.1811,23.2662,23.1101,
142,6.27291,1.37541,3.15337,4.12143,6.27433,1.97642,1.55579,5.90011e-05,-0.0586246,-4.28593e-05,0.0816523,0.000751426,-0.0168725,2.64349e-05,0.466657,-13.6338,-0.525623,-4.06114,1.02339,-51.9478,1.4178,0.0231892,-20,-0.53299,-0.30494,-0.0398198,-2.29402,0.0366244,-0.000126712,0.0142622,-8.084e-05,0.494399,0.00126163,0.075271,0.0357775,0.000333919,0.0202781,1.93719,-0.000106265,0.005,1.71015,-0.000407481,-0.0155894,-0.3909,42.3891,-0.258779,0.300777,18.285,0.726543,1.01352,0.34744,-2.81533,-0.0639861,0.306258,-2.11086,0.1372,0.121118,0.0166092,0.38269,-0.0726216,23.4364,23.3087,23.1385,23.2662,23.1811,23.2662,23.1101,
143,6.27291,1.37541,3.15337,4.12143,6.27433,1.97642,1.55579,5.90011e-05,-0.0586246,-4.28593e-05,0.0816523,0.000751426,-0.0168725,2.64349e-05,0.467216,-13.6836,-0.527021,-4.09589,1.02421,-52.1225,1.42191,0.0233373,-20,-0.533759,-0.310775,-0.0398356,-2.31057,0.0368468,-0.000128208,0.0143879,-8.19997e-05,0.494399,0.00126163,0.075271,0.0357775,0.000333919,0.0202781,1.93646,-0.000112847,0.005,1.71062,-0.000402089,-0.0137502,-0.393049,42.5488,-0.261362,0.300777,18.285,0.726543,1.01352,0.34744,-2.81533,-0.0639861,0.306258,-2.11086,0.1372,0.121118,0.0166092,0.38269,-0.0726216,23.4364,23.3087,23.1385,23.2662,23.1811,23.2662,23.1101,
144,6.27291,1.37536,3.15337,4.12151,6.27433,1.9764,1.55579,2.93769e-05,-0.0567205,-4.28593e-05,0.0781662,0.000751426,-0.0174213,2.64349e-05,0.467245,-13.6825,-0.527081,-4.09598,1.02421,-52.1214,1.42184,0.0233255,-20,-0.533764,-0.309082,-0.0398326,-2.31081,0.0368428,-0.000128208,0.0143879,-8.19997e-05,0.494399,0.00126163,0.075271,0.034375,0.000333353,0.0195211,1.93646,-0.000112847,0.005,1.71062,-0.000402089,-0.0137502,-0.393049,42.5488,-0.261362,0.245126,18.4172,0.703686,1.08822,0.332043,-2.86527,-0.0414047,0.282442,-2.15126,0.14502,0.11308,0.0166092,0.386719,-0.0725098,23.4506,23.3229,23.1385,23.2804,23.1811,23.2662,23.0818,
145,6.27291,1.37536,3.15337,4.12151,6.27433,1.9764,1.55579,2.93769e-05,-0.0567205,-4.28593e-05,0.0781662,0.000751426,-0.0174213,2.64349e-05,0.467806,-13.727,-0.529027,-4.12638,1.02322,-52.2866,1.42667,0.0234743,-20,-0.534499,-0.314123,-0.0398556,-2.32672,0.0371594,-0.000129868,0.0145098,-8.36804e-05,0.494399,0.00126163,0.075271,0.034375,0.000333353,0.0195211,1.93575,-0.000120307,0.005,1.71124,-0.000408294,-0.013069,-0.396109,42.6999,-0.265337,0.245126,18.4172,0.703686,1.08822,0.332043,-2.86527,-0.0414047,0.282442,-2.15126,0.14502,0.11308,0.0166092,0.386719,-0.0725098,23.4506,23.3229,23.1385,23.2804,23.1811,23.2662,23.0818,
146,6.27291,1.3753,3.15337,4.12159,6.27433,1.97638,1.55579,2.95005e-05,-0.0567205,-4.2203e-05,0.0777881,0.000751426,-0.0185953,2.64349e-05,0.467825,-13.7258,-0.529082,-4.12658,1.02322,-52.2852,1.42664,0.0234628,-20,-0.534507,-0.312693,-0.0398526,-2.32688,0.0371598,-0.000129868,0.0145098,-8.36804e-05,0.494399,0.00126163,0.075271,0.0342665,0.000330466,0.0194074,1.93575,-0.000120307,0.005,1.71124,-0.000408294,-0.013069,-0.396109,42.6999,-0.265337,0.257472,18.5466,0.685928,1.12973,0.332043,-2.9057,-0.0414047,0.265991,-2.15924,0.145243,0.169189,0.0166092,0.370605,-0.0725098,23.479,23.2946,23.1527,23.2804,23.1811,23.252,23.0818,
147,6.27291,1.3753,3.15337,4.12159,6.27433,1.97638,1.55579,2.95005e-05,-0.0567205,-4.2203e-05,0.0777881,0.000751426,-0.0185953,2.64349e-05,0.46864,-13.7966,-0.529936,-4.18019,1.02813,-52.5577,1.43283,0.0236787,-20,-0.535512,-0.32211,-0.0398465,-2.35402,0.0374793,-0.00013106,0.0146217,-8.42512e-05,0.494399,0.00126163,0.075271,0.0342665,0.000330466,0.0194074,1.93508,-0.000125304,0.005,1.71073,-0.000410193,-0.0129666,-0.39922,42.9553,-0.266214,0.257472,18.5466,0.685928,1.12973,0.332043,-2.9057,-0.0414047,0.265991,-2.15924,0.145243,0.169189,0.0166092,0.370605,-0.0725098,23.479,23.2946,23.1527,23.2804,23.1811,23.252,23.0818,
148,6.27291,1.37524,3.15337,4.12167,6.27433,1.97636,1.55579,2.79729e-05,-0.0578009,-4.22498e-05,0.0780582,0.000758424,-0.022148,2.64349e-05,0.468652,-13.795,-0.529983,-4.18027,1.02809,-52.5561,1.43272,0.0236674,-20,-0.535521,-0.320681,-0.0398444,-2.35417,0.0374756,-0.00013106,0.0146217,-8.42512e-05,0.494399,0.00126163,0.075271,0.034572,0.000329029,0.0194616,1.93508,-0.000125304,0.005,1.71073,-0.000410193,-0.0129666,-0.39922,42.9553,-0.266214,0.246268,18.6659,0.712271,1.16619,0.350439,-2.95275,-0.0419035,0.265869,-2.10284,0.153076,0.169381,0.0245033,0.370627,-0.0805664,23.4506,23.3229,23.1385,23.2662,23.1811,23.2662,23.0959,
149,6.27291,1.37524,3.15337,4.12167,6.27433,1.97636,1.55579,2.79729e-05,-0.0578009,-4.22498e-05,0.0780582,0.000758424,-0.022148,2.64349e-05,0.469455,-13.8596,-0.531664,-4.23066,1.03024,-52.8066,1.44038,0.0238801,-20,-0.536501,-0.329674,-0.0398497,-2.37931,0.0379748,-0.00013268,0.0147336,-8.57912e-05,0.494399,0.00126163,0.075271,0.034572,0.000329029,0.0194616,1.93439,-0.00013239,0.005,1.70984,-0.000415277,-0.0130154,-0.404089,43.1916,-0.269113,0.246268,18.6659,0.712271,1.16619,0.350439,-2.95275,-0.0419035,0.265869,-2.10284,0.153076,0.169381,0.0245033,0.370627,-0.0805664,23.4506,23.3229,23.1385,23.2662,23.1811,23.2662,23.0959,
150,6.27291,1.37518,3.15337,4.12174,6.27433,1.97633,1.55579,0,-0.0583741,-3.40834e-05,0.0764376,0.000758408,-0.0232284,2.64352e-05,0.46945,-13.8584,-0.53169,-4.23078,1.03025,-52.8052,1.44033,0.0238613,-20,-0.536506,-0.328198,-0.0398472,-2.37949,0.0379761,-0.00013268,0.0147336,-8.57912e-05,0.494399,0.00126163,0.075271,0.0342231,0.000333915,0.0196046,1.93439,-0.00013239,0.005,1.70984,-0.000415277,-0.0130154,-0.404089,43.1916,-0.269113,0.228189,18.7126,0.734274,1.22608,0.357534,-2.96207,-0.0439696,0.273926,-2.03835,0.145243,0.153288,0.0245033,0.394858,-0.0846906,23.4506,23.3229,23.1243,23.2804,23.1952,23.2662,23.0818,
151,6.27291,1.37518,3.15337,4.12174,6.27433,1.97633,1.55579,0,-0.0583741,-3.40834e-05,0.0764376,0.000758408,-0.0232284,2.64352e-05,0.470234,-13.9261,-0.532525,-4.28145,1.03489,-53.0679,1.44477,0.024069,-20,-0.537468,-0.337039,-0.0398424,-2.40564,0.0381324,-0.0001334,0.0148483,-8.62189e-05,0.494399,0.00126163,0.075271,0.0342231,0.000333915,0.0196046,1.9337,-0.000134536,0.005,1.70953,-0.000421606,-0.0131441,-0.405581,43.4373,-0.270016,0.228189,18.7126,0.734274,1.22608,0.357534,-2.96207,-0.0439696,0.273926,-2.03835,0.145243,0.153288,0.0245033,0.394858,-0.0846906,23.4506,23.3229,23.1243,23.2804,23.1952,23.2662,23.0818,
152,6.27291,1.37512,3.15337,4.12182,6.27433,1.97631,1.55579,0,-0.0573188,-3.40834e-05,0.0744782,0.000758424,-0.0240738,2.64153e-05,0.470258,-13.925,-0.532587,-4.28153,1.03487,-53.0668,1.44469,0.0240571,-20,-0.537475,-0.335466,-0.03984,-2.40583,0.0381288,-0.0001334,0.0148483,-8.62189e-05,0.494399,0.00126163,0.075271,0.0334385,0.000326167,0.0191297,1.9337,-0.000134536,0.005,1.70953,-0.000421606,-0.0131441,-0.405581,43.4373,-0.270016,0.195142,18.8313,0.730339,1.28081,0.364515,-2.95605,-0.0549589,0.274399,-2.03042,0.14502,0.177429,0.0284845,0.398804,-0.0726216,23.4506,23.3371,23.1385,23.2804,23.1811,23.252,23.1101,
153,6.27291,1.37507,3.15337,4.12189,6.27433,1.97628,1.55579,0,-0.0545044,-3.35763e-05,0.0702253,0.000757183,-0.0243088,2.64349e-05,0.470924,-13.9758,-0.53428,-4.31883,1.03564,-53.261,1.45041,0.0242133,-20,-0.538281,-0.340303,-0.0398497,-2.42518,0.0384971,-0.000135032,0.0149581,-8.77256e-05,0.494399,0.00126163,0.075271,0.0316256,0.000310479,0.0180535,1.93301,-0.000141574,0.005,1.70961,-0.000420967,-0.0127168,-0.409197,43.618,-0.273029,0.19796,18.9493,0.732254,1.32795,0.372404,-2.95615,-0.0439542,0.273926,-2.02228,0.145243,0.202861,0.0322266,0.390768,-0.0725098,23.4364,23.3371,23.1527,23.2662,23.1811,23.2662,23.1101,
154,6.27291,1.37507,3.15337,4.12189,6.27433,1.97628,1.55579,0,-0.0545044,-3.35763e-05,0.0702253,0.000757183,-0.0243088,2.64349e-05,0.471127,-13.993,-0.53532,-4.32767,1.03429,-53.3178,1.45323,0.024267,-20,-0.538588,-0.341467,-0.039866,-2.43009,0.0387222,-0.000136557,0.0150572,-8.91466e-05,0.494399,0.00126163,0.075271,0.0316256,0.000310479,0.0180535,1.93238,-0.000148132,0.005,1.71068,-0.00041275,-0.0117481,-0.411395,43.6664,-0.275253,0.19796,18.9493,0.732254,1.32795,0.372404,-2.95615,-0.0439542,0.273926,-2.02228,0.145243,0.202861,0.0322266,0.390768,-0.0725098,23.4364,23.3371,23.1527,23.2662,23.1811,23.2662,23.1101,
155,6.27291,1.37507,3.15337,4.12189,6.27433,1.97628,1.55579,0,-0.0545044,-3.35763e-05,0.0702253,0.000757183,-0.0243088,2.64349e-05,0.471127,-13.993,-0.53532,-4.32767,1.03429,-53.3178,1.45323,0.024267,-20,-0.538588,-0.341467,-0.039866,-2.43009,0.0387222,-0.000136557,0.0150572,-8.91466e-05,0.494399,0.00126163,0.075271,0.0316256,0.000310479,0.0180535,1.93238,-0.000148132,0.005,1.71068,-0.00041275,-0.0117481,-0.411395,43.6664,-0.275253,0.19796,18.9493,0.732254,1.32795,0.372404,-2.95615,-0.0439542,0.273926,-2.02228,0.145243,0.202861,0.0322266,0.390768,-0.0725098,23.4364,23.3371,23.1527,23.2662,23.1811,23.2662,23.1101,
156,6.27291,1.37502,3.15337,4.12196,6.27433,1.97626,1.55579,0,-0.0540195,-3.35763e-05,0.0712335,0.0007916,-0.0232284,2.64349e-05,0.471143,-13.992,-0.535379,-4.32803,1.03425,-53.3164,1.45311,0.0242565,-20,-0.538601,-0.340203,-0.0398635,-2.43021,0.0387163,-0.000136557,0.0150572,-8.91466e-05,0.494399,0.00126163,0.075271,0.0318148,0.000316678,0.0179641,1.93238,-0.000148132,0.005,1.71068,-0.00041275,-0.0117481,-0.411395,43.6664,-0.275253,0.182654,19.0489,0.744956,1.33512,0.375476,-2.94065,-0.0551357,0.265991,-2.05444,0.145243,0.298096,0.036478,0.378662,-0.076644,23.4648,23.3371,23.1385,23.2804,23.1811,23.2662,23.1101,
