LWingKi/MAS_RnD/log/us2/contactless/47/grasp_log_12_08_2023_16_23_30.csv
Index,joint_angle_0,joint_angle_1,joint_angle_2,joint_angle_3,joint_angle_4,joint_angle_5,joint_angle_6,joint_velocity_0,joint_velocity_1,joint_velocity_2,joint_velocity_3,joint_velocity_4,joint_velocity_5,joint_velocity_6,joint_accel_0,joint_accel_1,joint_accel_2,joint_accel_3,joint_accel_4,joint_accel_5,joint_accel_6,constraint_tau_0,constraint_tau_1,constraint_tau_2,constraint_tau_3,constraint_tau_4,constraint_tau_5,constraint_tau_6,current_pos_x,current_pos_y,current_pos_z,target_pos_x,target_pos_y,target_pos_z,current_vel_x,current_vel_y,current_vel_z,target_vel_x,target_vel_y,target_vel_z,control_signal_linear_x,control_signal_linear_y,control_signal_linear_z,control_signal_angular_x,control_signal_angular_y,control_signal_angular_z,joint_torque_0,joint_torque_1,joint_torque_2,joint_torque_3,joint_torque_4,joint_torque_5,joint_torque_6,actuar_current_0,actuar_current_1,actuar_current_2,actuar_current_3,actuar_current_4,actuar_current_5,actuar_current_6,actuar_voltage_0,actuar_voltage_1,actuar_voltage_2,actuar_voltage_3,actuar_voltage_4,actuar_voltage_5,actuar_voltage_6
0,6.27284,1.38005,3.15331,4.11466,6.27432,1.974,1.55582,0.00175535,0.0313313,9.53105e-05,0.115602,0.000132374,0.0140451,1.0598e-05,0.357199,-4.63645,-0.341392,2.87672,0.565864,-16.7453,0.795582,-0.00459662,-20,-0.398446,0.80836,-0.0401862,1.25312,0.0129179,-6.11177e-05,0.00342299,4.39125e-06,0.494653,0.00128343,0.07538,0.0268643,-0.000504983,-0.0130169,1.99217,-0.000678335,0.005,1.79295,-0.000610502,0.0045,-0.165018,9.24209,0.0118564,1.70625,0.531741,0.0597522,5.05261,0.260878,5.64997,0.134242,0.201577,0.249886,0.12085,-0.0980133,-0.153129,-0.632459,-0.140991,23.479,23.3797,23.1952,23.3087,23.2094,23.2946,23.1527,
1,6.27285,1.38007,3.15331,4.11477,6.27432,1.97402,1.55582,0.00182913,0.0288711,9.53096e-05,0.115602,0.000142856,0.0176764,1.0598e-05,0.337925,-2.88502,-0.33767,4.07633,0.410486,-9.90187,0.573794,-0.00971384,-18.9591,-0.374988,1.01217,-0.0402382,1.92426,-0.00217491,0,0,0,0.494653,0.00128343,0.07538,0.0273804,-0.000522062,-0.0116594,2,0,0.005,1.77582,0.000454484,0.0162153,-0.0169019,2.9491,0.00336265,1.65763,0.527472,0.0686562,5.06517,0.260778,5.65867,0.138098,0.20206,0.257812,0.1372,-0.129158,-0.157311,-0.628418,-0.128969,23.4648,23.3797,23.1952,23.3229,23.2236,23.3087,23.1527,
2,6.27285,1.3801,3.15331,4.1149,6.27432,1.97405,1.55582,0.00176993,0.0268232,9.54538e-05,0.1175,0.000142858,0.022148,1.0606e-05,0.339428,-3.012,-0.339144,3.98122,0.420164,-10.4039,0.583299,-0.00931679,-19.0366,-0.376805,0.996286,-0.0402102,1.8739,-0.00178937,-1.05267e-06,0.0001065,-4.7371e-07,0.494653,0.00128343,0.07538,0.028359,-0.000483209,-0.0104099,1.99946,1.04337e-05,0.005,1.77487,0.000479246,0.0149934,-0.0206246,3.41937,0.00237495,1.65888,0.541364,0.0802373,5.07632,0.252096,5.65901,0.123351,0.209628,0.314312,0.12085,-0.12085,-0.145075,-0.624442,-0.153129,23.4932,23.3655,23.1952,23.3229,23.2236,23.3087,23.1669,
3,6.27285,1.38012,3.15331,4.11502,6.27432,1.97407,1.55582,0.00177013,0.0243382,9.55261e-05,0.118573,0.000142856,0.0251191,0,0.341383,-3.17141,-0.342325,3.86079,0.428084,-11.0308,0.593392,-0.00879906,-19.1336,-0.37917,0.975711,-0.0402111,1.81104,-0.00145319,-1.83429e-06,0.000230722,-6.39268e-07,0.494653,0.00128343,0.07538,0.02919,-0.00047098,-0.0091318,1.99883,1.79892e-05,0.005,1.77343,0.000451078,0.0138689,-0.023821,4.00728,-0.00251332,1.66407,0.541781,0.0975653,5.07553,0.251151,5.64561,0.110513,0.209473,0.338475,0.137907,-0.145243,-0.145075,-0.64856,-0.157311,23.479,23.3797,23.1952,23.3087,23.2378,23.2946,23.1527,
4,6.27285,1.38015,3.15331,4.11513,6.27432,1.97409,1.55582,0.00175516,0.0230707,9.53096e-05,0.117492,0.000142858,0.024849,0,0.343006,-3.30715,-0.344186,3.75789,0.437354,-11.5674,0.602573,-0.00836822,-19.2162,-0.381126,0.958342,-0.0401924,1.75704,-0.00112514,-2.49848e-06,0.000344826,-7.56991e-07,0.494653,0.00128343,0.07538,0.0291425,-0.00046508,-0.00863773,1.99827,2.60125e-05,0.005,1.77217,0.000447293,0.0127186,-0.0269559,4.51121,-0.00452989,1.66571,0.554367,0.116665,5.15707,0.218911,5.60956,0.122428,0.209473,0.378748,0.121118,-0.145243,-0.153129,-0.644544,-0.153076,23.4932,23.3939,23.1952,23.2946,23.2236,23.3087,23.1527,
5,6.27285,1.38015,3.15331,4.11513,6.27432,1.97409,1.55582,0.00175516,0.0230707,9.53096e-05,0.117492,0.000142858,0.024849,0,0.343954,-3.39251,-0.344287,3.69482,0.445887,-11.9006,0.608412,-0.00811656,-19.2674,-0.382265,0.947226,-0.040169,1.72388,-0.000917789,-3.18679e-06,0.000460927,-3.27793e-07,0.494653,0.00128343,0.07538,0.0291425,-0.00046508,-0.00863773,1.9977,3.81539e-05,0.005,1.7717,0.000452911,0.012274,-0.0289436,4.8222,-0.00332687,1.66571,0.554367,0.116665,5.15707,0.218911,5.60956,0.122428,0.209473,0.378748,0.121118,-0.145243,-0.153129,-0.644544,-0.153076,23.4932,23.3939,23.1952,23.2946,23.2236,23.3087,23.1527,
6,6.27285,1.38017,3.15331,4.11526,6.27432,1.97412,1.55581,0.00171113,0.0218779,9.53096e-05,0.11761,0.000142856,0.0225692,-1.0598e-05,0.343947,-3.39141,-0.34429,3.69458,0.445913,-11.8993,0.608371,-0.00811858,-19.268,-0.382283,0.948247,-0.0401666,1.72372,-0.000918809,-3.18679e-06,0.000460927,-3.27793e-07,0.494653,0.00128343,0.07538,0.029425,-0.000448534,-0.00840767,1.9977,3.81539e-05,0.005,1.7717,0.000452911,0.012274,-0.0289436,4.8222,-0.00332687,1.62796,0.630058,0.111259,5.21744,0.219931,5.57543,0.110448,0.217678,0.394775,0.128906,-0.121118,-0.14502,-0.60829,-0.149102,23.4932,23.3797,23.1952,23.3087,23.2236,23.3087,23.1527,
7,6.27285,1.38019,3.15331,4.11537,6.27432,1.97414,1.55581,0.00165212,0.0210676,9.53096e-05,0.117763,0.000142856,0.0232284,-1.0606e-05,0.345042,-3.47711,-0.346996,3.62933,0.447486,-12.2339,0.618852,-0.007828,-19.3206,-0.38364,0.937588,-0.0401796,1.69012,-0.000219366,-5.46427e-06,0.000588064,-2.0306e-06,0.494653,0.00128343,0.07538,0.0296383,-0.000422172,-0.00801811,1.99707,3.93278e-05,0.005,1.77088,0.000439076,0.0120669,-0.035808,5.1364,-0.00825844,1.64402,0.69087,0.0990627,5.26919,0.211774,5.55442,0.132751,0.233781,0.241699,0.129909,-0.0980133,-0.136963,-0.555908,-0.153076,23.479,23.3797,23.1952,23.3087,23.2236,23.3087,23.1527,
8,6.27286,1.38021,3.15331,4.11549,6.27432,1.97416,1.55581,0.00165212,0.017303,9.52367e-05,0.116952,0.000142856,0.0221256,-1.0606e-05,0.346249,-3.57714,-0.348672,3.55336,0.453306,-12.6258,0.625433,-0.00750982,-19.3819,-0.385115,0.925088,-0.0401769,1.65079,1.59677e-05,-6.19306e-06,0.000706296,-2.10914e-06,0.494653,0.00128343,0.07538,0.0301919,-0.000417544,-0.00663096,1.99649,4.71528e-05,0.005,1.77016,0.000422392,0.0117163,-0.0380584,5.50427,-0.0105893,1.60068,0.753387,0.108092,5.30662,0.180433,5.49329,0.133553,0.22573,0.0161133,0.128906,-0.0809682,-0.137022,-0.535767,-0.149102,23.479,23.3513,23.1811,23.3087,23.2094,23.3229,23.1385,
9,6.27286,1.38021,3.15331,4.11549,6.27432,1.97416,1.55581,0.00165212,0.017303,9.52367e-05,0.116952,0.000142856,0.0221256,-1.0606e-05,0.34745,-3.67805,-0.349769,3.4771,0.46098,-13.027,0.632959,-0.00719114,-19.4425,-0.386527,0.911498,-0.0401596,1.61047,0.000325496,-6.93881e-06,0.000825193,-2.69911e-06,0.494653,0.00128343,0.07538,0.0301919,-0.000417544,-0.00663096,1.9959,5.07342e-05,0.005,1.76913,0.00042145,0.0104679,-0.0410407,5.88084,-0.0114057,1.60068,0.753387,0.108092,5.30662,0.180433,5.49329,0.133553,0.22573,0.0161133,0.128906,-0.0809682,-0.137022,-0.535767,-0.149102,23.479,23.3513,23.1811,23.3087,23.2094,23.3229,23.1385,
10,6.27286,1.38022,3.15331,4.11561,6.27432,1.97419,1.55581,0.00159582,0.0102533,9.00146e-05,0.118183,0.000148259,0.0251191,-1.06061e-05,0.347458,-3.67707,-0.349811,3.47603,0.461025,-13.0249,0.632933,-0.00719373,-19.4435,-0.386555,0.91219,-0.0401571,1.61043,0.000324656,-6.93881e-06,0.000825193,-2.69911e-06,0.494653,0.00128343,0.07538,0.0320247,-0.000370757,-0.00354948,1.9959,5.07342e-05,0.005,1.76913,0.00042145,0.0104679,-0.0410407,5.88084,-0.0114057,1.59488,0.863808,0.135175,5.37118,0.172779,5.43321,0.112659,0.22573,-0.153922,0.11308,-0.0332184,-0.136963,-0.479387,-0.149102,23.4932,23.3797,23.1952,23.3087,23.2094,23.3229,23.1385,
11,6.27286,1.38022,3.15331,4.11561,6.27432,1.97419,1.55581,0.00159582,0.0102533,9.00146e-05,0.118183,0.000148259,0.0251191,-1.06061e-05,0.349782,-3.86099,-0.353942,3.33586,0.469142,-13.7612,0.646514,-0.0065768,-19.554,-0.389278,0.887094,-0.0401612,1.53614,0.000900429,-7.9911e-06,0.000956466,-3.83537e-06,0.494653,0.00128343,0.07538,0.0320247,-0.000370757,-0.00354948,1.99526,5.27761e-05,0.005,1.76692,0.00038118,0.00769453,-0.0465776,6.57346,-0.0181095,1.59488,0.863808,0.135175,5.37118,0.172779,5.43321,0.112659,0.22573,-0.153922,0.11308,-0.0332184,-0.136963,-0.479387,-0.149102,23.4932,23.3797,23.1952,23.3087,23.2094,23.3229,23.1385,
12,6.27286,1.38022,3.15331,4.11573,6.27432,1.97422,1.55581,0.00147807,0.000540195,9.00146e-05,0.121667,0.000148149,0.0285876,-1.0598e-05,0.349789,-3.85983,-0.353989,3.33431,0.469191,-13.7585,0.646487,-0.00658,-19.5552,-0.389314,0.887645,-0.0401578,1.53616,0.000899685,-7.9911e-06,0.000956466,-3.83537e-06,0.494653,0.00128343,0.07538,0.035067,-0.000290384,0.000593932,1.99526,5.27761e-05,0.005,1.76692,0.00038118,0.00769453,-0.0465776,6.57346,-0.0181095,1.56744,1.02079,0.132488,5.43787,0.179398,5.40824,0.112683,0.233781,-0.282442,0.121118,-0.0490066,-0.136963,-0.475359,-0.153288,23.4932,23.3797,23.1952,23.3087,23.2378,23.3229,23.1385,
13,6.27286,1.38021,3.15331,4.11586,6.27432,1.97425,1.55581,0.0014361,-0.00918331,8.73671e-05,0.124765,0.000158731,0.0318715,-1.0598e-05,0.352831,-4.09779,-0.359226,3.14852,0.480289,-14.715,0.663348,-0.00577977,-19.7001,-0.392879,0.855196,-0.0401594,1.43914,0.00157275,-8.9588e-06,0.00110625,-4.60297e-06,0.494653,0.00128343,0.07538,0.0379995,-0.000239255,0.00473071,1.99457,5.51222e-05,0.005,1.76356,0.000310956,0.00396546,-0.0530385,7.47783,-0.0264697,1.58186,1.15997,0.118188,5.53723,0.195642,5.374,0.113705,0.257812,-0.338475,0.105046,-0.0805664,-0.1372,-0.467355,-0.149048,23.4932,23.3797,23.1811,23.3087,23.2378,23.3087,23.1527,
14,6.27286,1.38021,3.15331,4.11586,6.27432,1.97425,1.55581,0.0014361,-0.00918331,8.73671e-05,0.124765,0.000158731,0.0318715,-1.0598e-05,0.356029,-4.35006,-0.365017,2.95503,0.491195,-15.7244,0.683368,-0.00493107,-19.8517,-0.396624,0.820463,-0.0401638,1.33717,0.00250052,-1.08117e-05,0.00127946,-6.56196e-06,0.494653,0.00128343,0.07538,0.0379995,-0.000239255,0.00473071,1.99377,5.29056e-05,0.005,1.76019,0.000262944,0.000242361,-0.0620031,8.4286,-0.0358645,1.58186,1.15997,0.118188,5.53723,0.195642,5.374,0.113705,0.257812,-0.338475,0.105046,-0.0805664,-0.1372,-0.467355,-0.149048,23.4932,23.3797,23.1811,23.3087,23.2378,23.3087,23.1527,
15,6.27286,1.38019,3.15331,4.11598,6.27432,1.97428,1.55581,0.00132972,-0.0165507,8.20102e-05,0.129107,0.000158729,0.0345725,-1.0606e-05,0.356031,-4.34881,-0.36506,2.95355,0.491247,-15.7217,0.683339,-0.00493604,-19.8529,-0.396662,0.821189,-0.0401595,1.33717,0.00249982,-1.08117e-05,0.00127946,-6.56196e-06,0.494653,0.00128343,0.07538,0.0407974,-0.000166317,0.0078537,1.99377,5.29056e-05,0.005,1.76019,0.000262944,0.000242361,-0.0620031,8.4286,-0.0358645,1.5377,1.35519,0.160925,5.55247,0.187459,5.36112,0.116632,0.241833,-0.338475,0.105046,-0.104736,-0.14502,-0.455218,-0.149048,23.479,23.3655,23.2094,23.3229,23.2236,23.3087,23.1527,
16,6.27286,1.38017,3.15331,4.11612,6.27432,1.97432,1.55581,0.00132985,-0.0210676,8.20721e-05,0.133158,0.000158849,0.0358599,-1.0606e-05,0.359101,-4.59244,-0.370329,2.76464,0.502611,-16.6917,0.700698,-0.0041294,-20,-0.400305,0.788491,-0.0401625,1.23911,0.00320434,-1.20236e-05,0.0014584,-7.47289e-06,0.494653,0.00128343,0.07538,0.0429139,-0.000146,0.00970738,1.99296,5.40413e-05,0.005,1.75695,0.000198322,-0.00256833,-0.0687622,9.34402,-0.0442539,1.59528,1.62591,0.185971,5.61599,0.182839,5.33573,0.120869,0.241699,-0.394858,0.11308,-0.161334,-0.129158,-0.447162,-0.145243,23.479,23.3655,23.1952,23.3229,23.2378,23.3229,23.1811,
17,6.27286,1.38015,3.15331,4.11625,6.27432,1.97436,1.55581,0.00134661,-0.0248238,7.94246e-05,0.132078,0.000169311,0.036696,-1.0598e-05,0.361731,-4.80977,-0.373357,2.59678,0.517428,-17.5497,0.716165,-0.00344183,-20,-0.403432,0.759833,-0.0401349,1.15254,0.00380907,-1.33002e-05,0.0016484,-7.95492e-06,0.494653,0.00128343,0.07538,0.0433874,-0.000143813,0.0113063,1.99211,5.89548e-05,0.005,1.75428,0.000184459,-0.00423664,-0.0745809,10.1527,-0.0475276,1.55651,1.92832,0.169861,5.59959,0.176685,5.30164,0.123967,0.257938,-0.523929,0.0725098,-0.233781,-0.132996,-0.42305,-0.14502,23.479,23.3939,23.1952,23.3229,23.2236,23.3087,23.1669,
18,6.27286,1.38015,3.15331,4.11625,6.27432,1.97436,1.55581,0.00134661,-0.0248238,7.94246e-05,0.132078,0.000169311,0.036696,-1.0598e-05,0.363763,-4.97802,-0.376146,2.47122,0.52747,-18.2124,0.729359,-0.00290257,-20,-0.405858,0.737635,-0.0401232,1.08627,0.00440354,-1.50272e-05,0.00183905,-9.37309e-06,0.494653,0.00128343,0.07538,0.0433874,-0.000143813,0.0113063,1.99126,6.17428e-05,0.005,1.75308,0.000185,-0.0056757,-0.0803342,10.7728,-0.0511578,1.55651,1.92832,0.169861,5.59959,0.176685,5.30164,0.123967,0.257938,-0.523929,0.0725098,-0.233781,-0.132996,-0.42305,-0.14502,23.479,23.3939,23.1952,23.3229,23.2236,23.3087,23.1669,
19,6.27286,1.38012,3.15331,4.11639,6.27432,1.9744,1.55581,0.00136901,-0.0289004,7.94254e-05,0.131904,0.000179895,0.0386239,-1.06059e-05,0.363781,-4.97662,-0.376222,2.47022,0.527531,-18.21,0.729342,-0.00290959,-20,-0.405884,0.738899,-0.0401193,1.0861,0.00440266,-1.50272e-05,0.00183905,-9.37309e-06,0.494653,0.00128343,0.07538,0.0441902,-0.00014023,0.013132,1.99126,6.17428e-05,0.005,1.75308,0.000185,-0.0056757,-0.0803342,10.7728,-0.0511578,1.58955,2.1281,0.173099,5.60898,0.182349,5.2832,0.10966,0.249756,-0.628624,0.105969,-0.185303,-0.129471,-0.402832,-0.14502,23.4932,23.3797,23.1952,23.3229,23.2378,23.3087,23.1527,
20,6.27287,1.38012,3.15331,4.11652,6.27432,1.97444,1.55582,0.00136878,-0.0289004,7.94254e-05,0.130865,0.000179895,0.0394342,0,0.366197,-5.17439,-0.379696,2.32098,0.539066,-18.9913,0.744447,-0.00227411,-20,-0.408781,0.713835,-0.0401035,1.00757,0.00505795,-1.68762e-05,0.00204568,-1.09344e-05,0.494653,0.00128343,0.07538,0.0438888,-0.000141148,0.0132426,1.99033,6.387e-05,0.005,1.75152,0.00018369,-0.00731883,-0.0866586,11.5056,-0.0557969,1.47648,2.1281,0.173099,5.55629,0.193205,5.26636,0.122952,0.265869,-0.628624,0.105969,-0.153288,-0.132935,-0.390747,-0.132996,23.4648,23.3797,23.1952,23.3087,23.2236,23.3087,23.1669,
21,6.27287,1.38012,3.15331,4.11652,6.27432,1.97444,1.55582,0.00136878,-0.0289004,7.94254e-05,0.130865,0.000179895,0.0394342,0,0.367632,-5.2987,-0.381131,2.2298,0.54789,-19.4715,0.749258,-0.00189328,-20,-0.410533,0.697879,-0.0400909,0.96001,0.0050035,-1.68561e-05,0.00221384,-1.14088e-05,0.494653,0.00128343,0.07538,0.0438888,-0.000141148,0.0132426,1.98958,6.97406e-05,0.005,1.75112,0.0001898,-0.00741831,-0.0860217,11.9527,-0.0570899,1.47648,2.1281,0.173099,5.55629,0.193205,5.26636,0.122952,0.265869,-0.628624,0.105969,-0.153288,-0.132935,-0.390747,-0.132996,23.4648,23.3797,23.1952,23.3087,23.2236,23.3087,23.1669,
22,6.27287,1.38009,3.15331,4.11664,6.27433,1.97448,1.55582,0.00137757,-0.0340323,7.41297e-05,0.128836,0.000185326,0.0405146,0,0.367651,-5.29714,-0.381204,2.22871,0.54795,-19.4688,0.74926,-0.00190023,-20,-0.410552,0.699031,-0.0400859,0.95981,0.00500399,-1.68561e-05,0.00221384,-1.14088e-05,0.494653,0.00128343,0.07538,0.044376,-0.000134272,0.0154289,1.98958,6.97406e-05,0.005,1.75112,0.0001898,-0.00741831,-0.0860217,11.9527,-0.0570899,1.52534,2.3957,0.165201,5.45021,0.205362,5.2163,0.127439,0.274044,-0.701113,0.0889885,-0.129909,-0.129158,-0.362549,-0.140991,23.479,23.3655,23.1952,23.3087,23.2378,23.3087,23.1669,
23,6.27287,1.38004,3.15331,4.11677,6.27433,1.97452,1.55582,0.00141305,-0.0391199,6.35397e-05,0.129647,0.000185184,0.0431322,0,0.369804,-5.47553,-0.382986,2.09324,0.562358,-20.1781,0.762941,-0.00134275,-20,-0.413081,0.676418,-0.0400487,0.888365,0.0055806,-1.84381e-05,0.00241422,-1.1826e-05,0.494653,0.00128343,0.07538,0.045674,-0.000128577,0.0177105,1.98871,7.74051e-05,0.005,1.7499,0.000190509,-0.00938603,-0.0915916,12.6193,-0.0579151,1.47655,2.6729,0.178019,5.37513,0.218787,5.16895,0.110089,0.274044,-0.76555,0.105969,-0.0509547,-0.12085,-0.350464,-0.145075,23.479,23.3655,23.1952,23.3371,23.2378,23.3087,23.1669,
24,6.27287,1.38004,3.15331,4.11677,6.27433,1.97452,1.55582,0.00141305,-0.0391199,6.35397e-05,0.129647,0.000185184,0.0431322,0,0.372478,-5.70146,-0.385573,1.92307,0.578966,-21.0694,0.780432,-0.000633113,-20,-0.416258,0.646235,-0.0400163,0.799044,0.0063477,-2.04215e-05,0.00262911,-1.24817e-05,0.494653,0.00128343,0.07538,0.045674,-0.000128577,0.0177105,1.98779,7.83509e-05,0.005,1.74791,0.000186235,-0.0114395,-0.0990118,13.4549,-0.0601272,1.47655,2.6729,0.178019,5.37513,0.218787,5.16895,0.110089,0.274044,-0.76555,0.105969,-0.0509547,-0.12085,-0.350464,-0.145075,23.479,23.3655,23.1952,23.3371,23.2378,23.3087,23.1669,
25,6.27287,1.38,3.15331,4.11691,6.27433,1.97457,1.55582,0.00145721,-0.0437558,6.08922e-05,0.131403,0.000195766,0.0453764,0,0.372502,-5.69995,-0.385675,1.92169,0.579033,-21.0665,0.780425,-0.00064124,-20,-0.41629,0.647423,-0.0400118,0.798909,0.00634718,-2.04215e-05,0.00262911,-1.24817e-05,0.494653,0.00128343,0.07538,0.0471505,-0.000127082,0.0197583,1.98779,7.83509e-05,0.005,1.74791,0.000186235,-0.0114395,-0.0990118,13.4549,-0.0601272,1.49937,2.98249,0.181234,5.31522,0.233601,5.10881,0.112902,0.274044,-0.805704,0.0970148,-0.0241699,-0.125138,-0.346436,-0.132935,23.479,23.3655,23.1811,23.3229,23.2236,23.3087,23.1385,
26,6.27287,1.37996,3.15331,4.11704,6.27433,1.97461,1.55582,0.00153884,-0.0464568,5.55973e-05,0.132618,0.000195766,0.0453764,0,0.375358,-5.93497,-0.389078,1.74206,0.594956,-21.9948,0.798385,0.000100454,-20,-0.419684,0.617103,-0.0399813,0.705456,0.0071161,-2.24143e-05,0.00285651,-1.36036e-05,0.494653,0.00128343,0.07538,0.0480651,-0.000149563,0.0208133,1.98681,8.38773e-05,0.005,1.74569,0.000189864,-0.0132825,-0.106436,14.3279,-0.0637482,1.38881,3.22476,0.184031,5.20191,0.234267,5.08172,0.111146,0.282097,-0.854042,0.090076,-0.0490066,-0.124943,-0.346529,-0.141221,23.479,23.3655,23.1811,23.3229,23.2236,23.2946,23.1669,
27,6.27287,1.37996,3.15331,4.11704,6.27433,1.97461,1.55582,0.00153884,-0.0464568,5.55973e-05,0.132618,0.000195766,0.0453764,0,0.377597,-6.1305,-0.390376,1.59483,0.611888,-22.7582,0.812584,0.000694768,-20,-0.42237,0.591015,-0.0399369,0.629184,0.00767547,-2.3944e-05,0.00307793,-1.41785e-05,0.494653,0.00128343,0.07538,0.0480651,-0.000149563,0.0208133,1.98586,8.75256e-05,0.005,1.74401,0.000213379,-0.014232,-0.111838,15.0433,-0.0632974,1.38881,3.22476,0.184031,5.20191,0.234267,5.08172,0.111146,0.282097,-0.854042,0.090076,-0.0490066,-0.124943,-0.346529,-0.141221,23.479,23.3655,23.1811,23.3229,23.2236,23.2946,23.1669,
28,6.27288,1.37991,3.15331,4.11717,6.27433,1.97466,1.55582,0.0015979,-0.0496979,5.02643e-05,0.134779,0.000195766,0.0480774,0,0.377628,-6.12914,-0.390485,1.59352,0.611977,-22.7556,0.812607,0.000685955,-20,-0.4224,0.592261,-0.0399329,0.629041,0.00767564,-2.3944e-05,0.00307793,-1.41785e-05,0.494653,0.00128343,0.07538,0.049366,-0.000155648,0.022352,1.98586,8.75256e-05,0.005,1.74401,0.000213379,-0.014232,-0.111838,15.0433,-0.0632974,1.41756,3.49203,0.23853,5.0228,0.23815,5.03435,0.10575,0.281982,-0.95082,0.0725098,-0.0644531,-0.121118,-0.314235,-0.141221,23.479,23.3655,23.1952,23.3087,23.2236,23.3087,23.1385,
29,6.27288,1.37985,3.15331,4.11731,6.27433,1.97471,1.55582,0.00170204,-0.053614,5.03028e-05,0.134509,0.000206348,0.0501065,0,0.380424,-6.3627,-0.393181,1.41501,0.629622,-23.6733,0.829004,0.00140774,-20,-0.425724,0.5622,-0.0398942,0.536766,0.00829106,-2.55234e-05,0.00330747,-1.48196e-05,0.494653,0.00128343,0.07538,0.0501049,-0.000184865,0.0241301,1.98488,9.08587e-05,0.005,1.74197,0.000221856,-0.0156168,-0.117767,15.9061,-0.0652424,1.37642,3.77594,0.259284,4.86292,0.213445,4.94424,0.111466,0.290151,-0.98291,0.090076,-0.0970148,-0.116891,-0.314235,-0.141049,23.4932,23.3655,23.1952,23.3229,23.2378,23.2946,23.1527,
30,6.27288,1.37985,3.15331,4.11731,6.27433,1.97471,1.55582,0.00170204,-0.053614,5.03028e-05,0.134509,0.000206348,0.0501065,0,0.383081,-6.58738,-0.39602,1.24696,0.645589,-24.5553,0.845929,0.00211276,-20,-0.428906,0.532543,-0.0398608,0.448626,0.00900053,-2.76e-05,0.00355018,-1.6522e-05,0.494653,0.00128343,0.07538,0.0501049,-0.000184865,0.0241301,1.98388,9.16161e-05,0.005,1.7404,0.000248833,-0.0172171,-0.124625,16.7316,-0.0678201,1.37642,3.77594,0.259284,4.86292,0.213445,4.94424,0.111466,0.290151,-0.98291,0.090076,-0.0970148,-0.116891,-0.314235,-0.141049,23.4932,23.3655,23.1952,23.3229,23.2378,23.2946,23.1527,
31,6.27288,1.37979,3.15331,4.11745,6.27433,1.97476,1.55582,0.00168922,-0.0588813,3.97123e-05,0.132281,0.00020635,0.0529391,0,0.383127,-6.58568,-0.396131,1.24539,0.645685,-24.5521,0.845959,0.0021081,-20,-0.428929,0.533847,-0.039854,0.448387,0.00900046,-2.76e-05,0.00355018,-1.6522e-05,0.494653,0.00128343,0.07538,0.0505604,-0.000165879,0.0265633,1.98388,9.16161e-05,0.005,1.7404,0.000248833,-0.0172171,-0.124625,16.7316,-0.0678201,1.41444,4.09184,0.274382,4.72367,0.212605,4.87039,0.1118,0.282097,-1.03128,0.0821619,-0.0649547,-0.116891,-0.310285,-0.132935,23.4648,23.3655,23.1811,23.2946,23.2236,23.3087,23.1385,
32,6.27288,1.37973,3.15331,4.11758,6.27433,1.97482,1.55582,0.00164885,-0.0626626,3.70648e-05,0.130187,0.00021693,0.0540195,0,0.385902,-6.81505,-0.399263,1.07222,0.661459,-25.4616,0.863614,0.00282881,-20,-0.432228,0.505034,-0.0398265,0.356876,0.00977074,-2.98543e-05,0.00380102,-1.74235e-05,0.494653,0.00128343,0.07538,0.0507429,-0.000142872,0.0282205,1.98282,9.11052e-05,0.005,1.73904,0.000231286,-0.0194069,-0.13209,17.5851,-0.0711964,1.34428,4.34117,0.250809,4.58382,0.221724,4.82099,0.109451,0.281982,-1.00708,0.0725098,-0.0161133,-0.120917,-0.314235,-0.132935,23.479,23.3797,23.1669,23.3087,23.2236,23.2946,23.1527,
33,6.27288,1.37973,3.15331,4.11758,6.27433,1.97482,1.55582,0.00164885,-0.0626626,3.70648e-05,0.130187,0.00021693,0.0540195,0,0.38839,-7.01673,-0.403717,0.922482,0.670218,-26.2539,0.878843,0.00348906,-20,-0.43522,0.478717,-0.0398361,0.277803,0.0104453,-3.19482e-05,0.00404453,-1.96093e-05,0.494653,0.00128343,0.07538,0.0507429,-0.000142872,0.0282205,1.98182,8.76183e-05,0.005,1.73797,0.000207442,-0.0208984,-0.138593,18.3256,-0.0783744,1.34428,4.34117,0.250809,4.58382,0.221724,4.82099,0.109451,0.281982,-1.00708,0.0725098,-0.0161133,-0.120917,-0.314235,-0.132935,23.479,23.3797,23.1669,23.3087,23.2236,23.2946,23.1527,
34,6.27288,1.37966,3.15331,4.1177,6.27433,1.97487,1.55582,0.00164885,-0.0680646,3.70369e-05,0.129107,0.000217094,0.0529391,0,0.388412,-7.01456,-0.403803,0.921208,0.670289,-26.2505,0.878847,0.0034788,-20,-0.435237,0.48007,-0.0398311,0.277561,0.0104459,-3.19482e-05,0.00404453,-1.96093e-05,0.494653,0.00128343,0.07538,0.0515574,-0.000135388,0.0302725,1.98182,8.76183e-05,0.005,1.73797,0.000207442,-0.0208984,-0.138593,18.3256,-0.0783744,1.39401,4.6335,0.253359,4.43192,0.240728,4.69827,0.0993249,0.281982,-1.03981,0.072956,0.041081,-0.108765,-0.302124,-0.132996,23.479,23.3513,23.1811,23.2946,23.2094,23.2804,23.1527,
35,6.27288,1.37966,3.15331,4.1177,6.27433,1.97487,1.55582,0.00164885,-0.0680646,3.70369e-05,0.129107,0.000217094,0.0529391,0,0.390827,-7.22107,-0.405673,0.765864,0.686768,-27.0649,0.894104,0.00411962,-20,-0.438109,0.452605,-0.0397954,0.195977,0.0110704,-3.36651e-05,0.00429125,-2.02574e-05,0.494653,0.00128343,0.07538,0.0515574,-0.000135388,0.0302725,1.98081,9.02741e-05,0.005,1.73632,0.000203095,-0.0227452,-0.144622,19.0889,-0.0792665,1.39401,4.6335,0.253359,4.43192,0.240728,4.69827,0.0993249,0.281982,-1.03981,0.072956,0.041081,-0.108765,-0.302124,-0.132996,23.479,23.3513,23.1811,23.2946,23.2094,23.2804,23.1527,
36,6.27288,1.37959,3.15331,4.11795,6.27433,1.97498,1.55582,0.00159582,-0.072116,2.64751e-05,0.128436,0.000227512,0.0513185,0,0.390846,-7.21759,-0.405757,0.764129,0.686907,-27.0596,0.894029,0.0041055,-20,-0.438147,0.4554,-0.039788,0.195474,0.0110652,-3.36651e-05,0.00429125,-2.02574e-05,0.494653,0.00128343,0.07538,0.0522057,-0.000105853,0.0317338,1.98081,9.02741e-05,0.005,1.73632,0.000203095,-0.0227452,-0.144622,19.0889,-0.0792665,1.36281,4.9477,0.272618,4.2758,0.271829,4.4607,0.0732796,0.290151,-1.01526,0.0644531,0.105046,-0.104814,-0.257938,-0.132935,23.479,23.3797,23.1811,23.2946,23.2236,23.3087,23.1669,
37,6.27288,1.37951,3.15331,4.11795,6.27433,1.97498,1.55582,0.00147807,-0.0752305,2.64751e-05,0.128436,0.000227512,0.0513185,0,0.394959,-7.54981,-0.413568,0.515072,0.700004,-28.3559,0.91846,0.005187,-20,-0.44312,0.41195,-0.0398067,0.0661348,0.0121193,-3.68532e-05,0.00472103,-2.46639e-05,0.494653,0.00128343,0.07538,0.0528545,-5.26661e-05,0.0329704,1.97905,7.9416e-05,0.005,1.73416,0.000166742,-0.0240604,-0.154742,20.3022,-0.0921378,1.38413,5.29052,0.272618,4.2758,0.271829,4.4607,0.0732796,0.290151,-1.03934,0.0644531,0.105046,-0.104814,-0.257938,-0.132935,23.4648,23.3513,23.1811,23.2946,23.2236,23.3087,23.1669,
38,6.27288,1.37943,3.15331,4.11809,6.27433,1.97502,1.55582,0.00148943,-0.0793282,2.11801e-05,0.1304,0.000232803,0.0491577,0,0.395957,-7.62977,-0.414386,0.451039,0.70641,-28.6809,0.925165,0.00543418,-20,-0.444289,0.402389,-0.0397957,0.0327934,0.0124453,-3.76728e-05,0.00480092,-2.35973e-05,0.494653,0.00128343,0.07538,0.0542751,-4.57328e-05,0.0343415,1.97872,8.44099e-05,0.005,1.73328,0.000123368,-0.0251733,-0.157904,20.6113,-0.0927878,1.25318,5.57642,0.246068,4.17144,0.260812,4.34946,0.0975045,0.306258,-1.05545,0.0809682,0.090076,-0.109063,-0.237705,-0.132996,23.479,23.3513,23.1811,23.3087,23.2094,23.2804,23.1527,
39,6.27288,1.37943,3.15331,4.11809,6.27433,1.97502,1.55582,0.00148943,-0.0793282,2.11801e-05,0.1304,0.000232803,0.0491577,0,0.398636,-7.85646,-0.417214,0.278678,0.722306,-29.5678,0.94287,0.00614505,-20,-0.447499,0.371771,-0.0397687,-0.0560388,0.0132396,-3.98024e-05,0.00506601,-2.4805e-05,0.494653,0.00128343,0.07538,0.0542751,-4.57328e-05,0.0343415,1.97759,8.52052e-05,0.005,1.73098,0.000117844,-0.0264074,-0.1656,21.444,-0.0955858,1.25318,5.57642,0.246068,4.17144,0.260812,4.34946,0.0975045,0.306258,-1.05545,0.0809682,0.090076,-0.109063,-0.237705,-0.132996,23.479,23.3513,23.1811,23.3087,23.2094,23.2804,23.1527,
40,6.27289,1.37935,3.15331,4.11822,6.27433,1.97508,1.55582,0.00145263,-0.0842704,1.32274e-05,0.132348,0.000232979,0.0483983,0,0.398671,-7.85414,-0.417316,0.27713,0.722374,-29.564,0.942869,0.00613861,-20,-0.447527,0.373137,-0.0397625,-0.0562168,0.0132389,-3.98024e-05,0.00506601,-2.4805e-05,0.494653,0.00128343,0.07538,0.0558672,-1.54596e-05,0.0361962,1.97759,8.52052e-05,0.005,1.73098,0.000117844,-0.0264074,-0.1656,21.444,-0.0955858,1.29201,5.88993,0.256565,4.04267,0.253492,4.18952,0.0902286,0.306258,-1.05545,0.072956,0.0490066,-0.100708,-0.197388,-0.140991,23.479,23.3655,23.1669,23.3087,23.2236,23.2804,23.1527,
41,6.27289,1.37926,3.15331,4.11836,6.27433,1.97512,1.55582,0.00135579,-0.0882705,7.94246e-06,0.135049,0.000232805,0.0491577,0,0.401618,-8.09593,-0.421193,0.0900842,0.737346,-30.5179,0.962288,0.00690393,-20,-0.451066,0.341691,-0.0397418,-0.152394,0.0141452,-4.22318e-05,0.00533097,-2.61077e-05,0.494653,0.00128343,0.07538,0.0574789,3.97817e-05,0.0378273,1.97649,7.98723e-05,0.005,1.72856,8.57987e-05,-0.0280765,-0.17438,22.3433,-0.100581,1.21767,6.23642,0.277729,3.99582,0.267694,4.03666,0.0862724,0.306258,-1.01517,0.0821619,0.0322266,-0.100789,-0.181319,-0.128969,23.479,23.3655,23.1669,23.3087,23.2094,23.2946,23.1527,
42,6.27289,1.37917,3.15331,4.11849,6.27433,1.97517,1.55582,0.0012984,-0.0899425,7.94246e-06,0.135859,0.000243387,0.0483474,0,0.404839,-8.35696,-0.426166,-0.110507,0.751106,-31.5451,0.981121,0.00773973,-20,-0.454931,0.308231,-0.0397381,-0.255841,0.0149256,-4.42673e-05,0.00560618,-2.72969e-05,0.494653,0.00128343,0.07538,0.0580577,6.74479e-05,0.0384033,1.97533,7.70572e-05,0.005,1.72606,3.3548e-05,-0.0295446,-0.181902,23.3102,-0.107989,1.24593,6.58297,0.263484,3.96904,0.313058,3.88996,0.0858471,0.314209,-1.00737,0.0725098,-0.0254773,-0.108839,-0.173265,-0.120917,23.4932,23.3655,23.1811,23.3087,23.2094,23.2946,23.1385,
43,6.27289,1.37908,3.15331,4.11862,6.27433,1.97522,1.55582,0.00129852,-0.0894023,0,0.135589,0.000233155,0.0472671,0,0.407516,-8.56947,-0.431038,-0.272034,0.760222,-32.3759,0.99769,0.00842545,-20,-0.458135,0.282153,-0.0397452,-0.339273,0.0156865,-4.6678e-05,0.00587645,-2.94621e-05,0.494653,0.00128343,0.07538,0.0578621,6.50335e-05,0.0380935,1.97418,7.23725e-05,0.005,1.72451,4.43219e-06,-0.030063,-0.189234,24.0901,-0.115761,1.16062,6.86573,0.237172,3.85767,0.305384,3.72723,0.106691,0.322366,-1.05542,0.072956,-0.0483398,-0.0966797,-0.153129,-0.128969,23.479,23.3655,23.1811,23.2946,23.2378,23.2946,23.1385,
44,6.27289,1.37908,3.15331,4.11862,6.27433,1.97522,1.55582,0.00129852,-0.0894023,0,0.135589,0.000233155,0.0472671,0,0.409636,-8.75571,-0.432769,-0.410255,0.774453,-33.0918,1.01173,0.0089881,-20,-0.460737,0.257947,-0.0397226,-0.410232,0.0162964,-4.89207e-05,0.00614487,-3.01467e-05,0.494653,0.00128343,0.07538,0.0578621,6.50335e-05,0.0380935,1.97304,7.25567e-05,0.005,1.72366,6.7709e-06,-0.0297841,-0.195152,24.7581,-0.116786,1.16062,6.86573,0.237172,3.85767,0.305384,3.72723,0.106691,0.322366,-1.05542,0.072956,-0.0483398,-0.0966797,-0.153129,-0.128969,23.479,23.3655,23.1811,23.2946,23.2378,23.2946,23.1385,
45,6.27289,1.37899,3.15331,4.11877,6.27433,1.97526,1.55582,0.00123652,-0.0896724,-2.64549e-06,0.135917,0.000233332,0.0453764,0,0.409661,-8.75337,-0.432836,-0.41083,0.774534,-33.0889,1.01172,0.00897394,-20,-0.460755,0.260301,-0.0397157,-0.410598,0.0162951,-4.89207e-05,0.00614487,-3.01467e-05,0.494653,0.00128343,0.07538,0.0580089,8.8542e-05,0.0380092,1.97304,7.25567e-05,0.005,1.72366,6.7709e-06,-0.0297841,-0.195152,24.7581,-0.116786,1.18293,7.08133,0.24251,3.77345,0.29455,3.52724,0.092377,0.306258,-1.1361,0.0644531,-0.0649547,-0.0966797,-0.132935,-0.128906,23.479,23.3655,23.1811,23.3087,23.2094,23.3087,23.1385,
46,6.27289,1.37889,3.15331,4.1189,6.27433,1.97531,1.55582,0.00119236,-0.0917813,-2.64749e-06,0.133293,0.000243753,0.0440937,0,0.412056,-8.94814,-0.436764,-0.558861,0.784106,-33.8459,1.02593,0.00958694,-20,-0.46366,0.236561,-0.0397183,-0.486523,0.0168991,-5.09949e-05,0.00642235,-3.19389e-05,0.494653,0.00128343,0.07538,0.0576863,0.000103813,0.0387673,1.97184,6.53914e-05,0.005,1.72244,-2.08355e-05,-0.0297082,-0.200987,25.4685,-0.122767,1.07306,7.2908,0.240009,3.67216,0.303794,3.33096,0.0868231,0.314312,-1.19249,0.0569691,-0.0664368,-0.0966797,-0.10103,-0.120917,23.479,23.3513,23.1669,23.2804,23.2236,23.3087,23.1385,
47,6.27289,1.37889,3.15331,4.1189,6.27433,1.97531,1.55582,0.00119236,-0.0917813,-2.64749e-06,0.133293,0.000243753,0.0440937,0,0.414355,-9.13806,-0.440558,-0.699517,0.793266,-34.5853,1.04093,0.010197,-20,-0.466454,0.211961,-0.0397245,-0.560061,0.0176039,-5.34733e-05,0.00669795,-3.40622e-05,0.494653,0.00128343,0.07538,0.0576863,0.000103813,0.0387673,1.97067,6.04738e-05,0.005,1.72168,-3.90053e-05,-0.0303906,-0.207805,26.1587,-0.128629,1.07306,7.2908,0.240009,3.67216,0.303794,3.33096,0.0868231,0.314312,-1.19249,0.0569691,-0.0664368,-0.0966797,-0.10103,-0.120917,23.479,23.3513,23.1669,23.2804,23.2236,23.3087,23.1385,
48,6.27289,1.3788,3.15331,4.11903,6.27433,1.97535,1.55582,0.00111104,-0.0930892,-2.64746e-06,0.131808,0.000243753,0.0432156,0,0.414378,-9.13592,-0.44062,-0.700201,0.793345,-34.5825,1.04093,0.0101828,-20,-0.466467,0.214094,-0.0397173,-0.560428,0.0176031,-5.34733e-05,0.00669795,-3.40622e-05,0.494653,0.00128343,0.07538,0.0575255,0.000134185,0.0392313,1.97067,6.04738e-05,0.005,1.72168,-3.90053e-05,-0.0303906,-0.207805,26.1587,-0.128629,1.12598,7.50899,0.294212,3.55641,0.313785,3.12397,0.0650832,0.314209,-1.20087,0.0483398,-0.0180152,-0.0927389,-0.0846906,-0.120917,23.479,23.3513,23.1527,23.2946,23.2094,23.2946,23.1385,
49,6.27289,1.37871,3.15331,4.11916,6.27433,1.97539,1.55582,0.00110395,-0.0934537,-7.94246e-06,0.130997,0.000243753,0.0394342,0,0.416683,-9.32179,-0.444417,-0.840351,0.802429,-35.3108,1.05439,0.0107713,-20,-0.469245,0.191988,-0.0397215,-0.633507,0.018167,-5.54646e-05,0.00696251,-3.5661e-05,0.494653,0.00128343,0.07538,0.057364,0.00013143,0.0390026,1.96953,5.38419e-05,0.005,1.72081,-7.23085e-05,-0.0308082,-0.213216,26.8414,-0.134476,1.05775,7.69205,0.30489,3.38812,0.30035,2.93253,0.0674483,0.314209,-1.21666,0.0483398,0.0180152,-0.0967636,-0.0689537,-0.128906,23.4932,23.3371,23.1669,23.2804,23.2236,23.2804,23.1243,
50,6.27289,1.37871,3.15331,4.11916,6.27433,1.97539,1.55582,0.00110395,-0.0934537,-7.94246e-06,0.130997,0.000243753,0.0394342,0,0.418514,-9.48216,-0.445944,-0.960019,0.814609,-35.9278,1.06682,0.011257,-20,-0.471489,0.170999,-0.0397022,-0.694741,0.0187258,-5.74515e-05,0.00722295,-3.66621e-05,0.494653,0.00128343,0.07538,0.057364,0.00013143,0.0390026,1.9684,5.1567e-05,0.005,1.71993,-7.1877e-05,-0.0306023,-0.218646,27.4177,-0.135445,1.05775,7.69205,0.30489,3.38812,0.30035,2.93253,0.0674483,0.314209,-1.21666,0.0483398,0.0180152,-0.0967636,-0.0689537,-0.128906,23.4932,23.3371,23.1669,23.2804,23.2236,23.2804,23.1243,
51,6.27289,1.37861,3.15331,4.1193,6.27433,1.97543,1.55582,0.000971473,-0.0964248,-7.93647e-06,0.129647,0.000254541,0.0386239,1.0606e-05,0.418522,-9.47978,-0.445984,-0.96105,0.814657,-35.9244,1.06672,0.0112424,-20,-0.471507,0.172997,-0.0396952,-0.695071,0.0187207,-5.74515e-05,0.00722295,-3.66621e-05,0.494653,0.00128343,0.07538,0.0575894,0.000187126,0.0401311,1.9684,5.1567e-05,0.005,1.71993,-7.1877e-05,-0.0306023,-0.218646,27.4177,-0.135445,1.04794,7.81641,0.348487,3.29341,0.270018,2.67871,0.0618119,0.314312,-1.27305,0.0664368,0.0332184,-0.088623,-0.0284845,-0.121118,23.4506,23.3371,23.1669,23.2946,23.2236,23.2662,23.1385,
52,6.27289,1.37852,3.15331,4.11943,6.27433,1.97547,1.55582,0.000927315,-0.0983155,-1.32374e-05,0.130997,0.000254351,0.0366122,1.059e-05,0.421182,-9.68386,-0.452425,-1.11664,0.818448,-36.7283,1.08,0.0119277,-20,-0.474724,0.147798,-0.0397346,-0.775924,0.0192128,-5.90267e-05,0.00749375,-3.97913e-05,0.494653,0.00128343,0.07538,0.05837,0.000209774,0.0406589,1.96721,3.83219e-05,0.005,1.71866,-0.000133924,-0.031618,-0.223293,28.1732,-0.147332,0.968122,8.01258,0.35217,3.21933,0.264042,2.45038,0.0615953,0.314312,-1.25694,0.041081,0.0649547,-0.0887145,-0.0205405,-0.124878,23.4648,23.3371,23.1669,23.2804,23.2094,23.2946,23.1385,
53,6.27289,1.37852,3.15331,4.11943,6.27433,1.97547,1.55582,0.000927315,-0.0983155,-1.32374e-05,0.130997,0.000254351,0.0366122,1.059e-05,0.423658,-9.89057,-0.455971,-1.2731,0.829965,-37.5311,1.09547,0.0125844,-20,-0.477725,0.120158,-0.0397327,-0.856065,0.0198917,-6.10625e-05,0.00775885,-4.13246e-05,0.494653,0.00128343,0.07538,0.05837,0.000209774,0.0406589,1.96606,3.16282e-05,0.005,1.71692,-0.000160331,-0.0320931,-0.229847,28.9259,-0.152382,0.968122,8.01258,0.35217,3.21933,0.264042,2.45038,0.0615953,0.314312,-1.25694,0.041081,0.0649547,-0.0887145,-0.0205405,-0.124878,23.4648,23.3371,23.1669,23.2804,23.2094,23.2946,23.1385,
54,6.27289,1.37841,3.15331,4.11956,6.27433,1.9755,1.55582,0.000888831,-0.0983012,-1.85324e-05,0.130727,0.000254543,0.0345374,1.0582e-05,0.423714,-9.88825,-0.456081,-1.2735,0.830035,-37.5284,1.0955,0.0125741,-20,-0.47774,0.122603,-0.0397252,-0.856446,0.0198912,-6.10625e-05,0.00775885,-4.13246e-05,0.494653,0.00128343,0.07538,0.0582847,0.000222565,0.0404527,1.96606,3.16282e-05,0.005,1.71692,-0.000160331,-0.0320931,-0.229847,28.9259,-0.152382,0.990648,8.26255,0.354054,3.15211,0.299632,2.24659,0.0385181,0.314622,-1.26553,0.0569691,0.0290486,-0.0889885,0.00402832,-0.117099,23.4648,23.3371,23.1527,23.2804,23.2094,23.2946,23.1101,
55,6.27289,1.37832,3.15331,4.11968,6.27433,1.97554,1.55582,0.000794842,-0.0977753,-1.85324e-05,0.129647,0.000254351,0.0329519,1.0598e-05,0.425882,-10.0671,-0.4592,-1.40898,0.840117,-38.2227,1.11043,0.0131268,-20,-0.480378,0.101352,-0.0397188,-0.926031,0.0206311,-6.36945e-05,0.0080262,-4.28825e-05,0.494653,0.00128343,0.07538,0.0578585,0.00025379,0.0401082,1.96488,2.17954e-05,0.005,1.71593,-0.000180692,-0.0319074,-0.237036,29.577,-0.15675,0.947116,8.51029,0.341142,3.06565,0.27773,2.05529,0.0531332,0.314312,-1.31323,0.0586532,0.0241699,-0.0805664,0.0332184,-0.124878,23.4506,23.3371,23.1527,23.2946,23.2094,23.2946,23.1385,
56,6.27289,1.37832,3.15331,4.11968,6.27433,1.97554,1.55582,0.000794842,-0.0977753,-1.85324e-05,0.129647,0.000254351,0.0329519,1.0598e-05,0.427879,-10.2336,-0.462608,-1.53248,0.847524,-38.8627,1.12246,0.0136565,-20,-0.482838,0.0797819,-0.039734,-0.989437,0.0211527,-6.57138e-05,0.00828278,-4.43006e-05,0.494653,0.00128343,0.07538,0.0578585,0.00025379,0.0401082,1.96374,1.53944e-05,0.005,1.71529,-0.000214556,-0.0315974,-0.242054,30.174,-0.162309,0.947116,8.51029,0.341142,3.06565,0.27773,2.05529,0.0531332,0.314312,-1.31323,0.0586532,0.0241699,-0.0805664,0.0332184,-0.124878,23.4506,23.3371,23.1527,23.2946,23.2094,23.2946,23.1385,
57,6.27289,1.37822,3.15331,4.11982,6.27433,1.97556,1.55582,0.000750684,-0.0982159,-1.85184e-05,0.127271,0.000265149,0.0289004,1.05901e-05,0.427907,-10.231,-0.462679,-1.53254,0.847566,-38.86,1.12241,0.0136406,-20,-0.482845,0.0824045,-0.0397281,-0.989887,0.0211497,-6.57138e-05,0.00828278,-4.43006e-05,0.494653,0.00128343,0.07538,0.057261,0.000261733,0.0399074,1.96374,1.53944e-05,0.005,1.71529,-0.000214556,-0.0315974,-0.242054,30.174,-0.162309,0.944637,8.72718,0.352786,3.03657,0.261668,1.82506,0.0449813,0.314209,-1.35352,0.0644531,0.0586532,-0.0726216,0.0483398,-0.112865,23.479,23.3513,23.1527,23.2946,23.2236,23.2946,23.1385,
58,6.2729,1.37812,3.15331,4.11994,6.27433,1.97559,1.55582,0.000706526,-0.0993959,-1.85324e-05,0.124515,0.000265149,0.0268322,1.059e-05,0.429708,-10.3747,-0.466087,-1.64101,0.853378,-39.4191,1.13505,0.0140946,-20,-0.485031,0.065832,-0.0397357,-1.04595,0.0218138,-6.82162e-05,0.00854333,-4.67258e-05,0.494653,0.00128343,0.07538,0.0567072,0.000272544,0.0402152,1.96255,6.70608e-06,0.005,1.71476,-0.000229524,-0.0314167,-0.248499,30.6979,-0.167843,0.882722,8.97917,0.348057,3.04849,0.291133,1.62217,0.0490215,0.322366,-1.39401,0.0490066,0.090076,-0.0726216,0.0845947,-0.112793,23.4648,23.3513,23.1527,23.2946,23.1952,23.2804,23.1385,
59,6.2729,1.37812,3.15331,4.11994,6.27433,1.97559,1.55582,0.000706526,-0.0993959,-1.85324e-05,0.124515,0.000265149,0.0268322,1.059e-05,0.431541,-10.5305,-0.468388,-1.75627,0.862964,-40.0229,1.14685,0.0145805,-20,-0.487269,0.0457432,-0.0397313,-1.1059,0.0223381,-7.02091e-05,0.00879245,-4.80279e-05,0.494653,0.00128343,0.07538,0.0567072,0.000272544,0.0402152,1.96143,5.82994e-07,0.005,1.71425,-0.000244765,-0.0316937,-0.253573,31.2612,-0.170805,0.882722,8.97917,0.348057,3.04849,0.291133,1.62217,0.0490215,0.322366,-1.39401,0.0490066,0.090076,-0.0726216,0.0845947,-0.112793,23.4648,23.3513,23.1527,23.2946,23.1952,23.2804,23.1385,
60,6.2729,1.37801,3.15331,4.12006,6.27433,1.97562,1.55582,0.000666568,-0.10131,-1.85324e-05,0.121814,0.000264946,0.0232284,1.0582e-05,0.431569,-10.528,-0.468464,-1.75642,0.863013,-40.0202,1.14684,0.0145637,-20,-0.487273,0.0481099,-0.0397254,-1.10631,0.0223388,-7.02091e-05,0.00879245,-4.80279e-05,0.494653,0.00128343,0.07538,0.056323,0.000280925,0.0406509,1.96143,5.82994e-07,0.005,1.71425,-0.000244765,-0.0316937,-0.253573,31.2612,-0.170805,0.898528,9.29169,0.338002,3.04955,0.339858,1.43449,0.0256443,0.314312,-1.39382,0.0563965,0.145243,-0.076644,0.112793,-0.120917,23.4648,23.3229,23.1527,23.2804,23.1952,23.2804,23.1243,
61,6.2729,1.37801,3.15331,4.12006,6.27433,1.97562,1.55582,0.000666568,-0.10131,-1.85324e-05,0.121814,0.000264946,0.0232284,1.0582e-05,0.433317,-10.678,-0.470262,-1.86813,0.873435,-40.603,1.15889,0.0150271,-20,-0.489397,0.0285797,-0.0397138,-1.16429,0.0229071,-7.22789e-05,0.0090429,-4.92153e-05,0.494653,0.00128343,0.07538,0.056323,0.000280925,0.0406509,1.96029,-5.65877e-06,0.005,1.71357,-0.000257926,-0.0320858,-0.259097,31.8057,-0.172657,0.898528,9.29169,0.338002,3.04955,0.339858,1.43449,0.0256443,0.314312,-1.39382,0.0563965,0.145243,-0.076644,0.112793,-0.120917,23.4648,23.3229,23.1527,23.2804,23.1952,23.2804,23.1243,
62,6.2729,1.37791,3.15331,4.12018,6.27434,1.97564,1.55582,0.000574052,-0.102097,-1.85324e-05,0.122084,0.000270248,0.0202573,1.059e-05,0.433334,-10.6756,-0.470318,-1.86852,0.873467,-40.6002,1.15885,0.0150114,-20,-0.489412,0.0308275,-0.0397068,-1.16461,0.0229059,-7.22789e-05,0.0090429,-4.92153e-05,0.494653,0.00128343,0.07538,0.0565622,0.000315642,0.0406572,1.96029,-5.65877e-06,0.005,1.71357,-0.000257926,-0.0320858,-0.259097,31.8057,-0.172657,0.837735,9.59692,0.313779,2.96433,0.325676,1.22884,0.0482311,0.322266,-1.40188,0.0563965,0.177429,-0.076644,0.145075,-0.116891,23.4506,23.3229,23.1527,23.2804,23.2094,23.2662,23.1385,
63,6.2729,1.37791,3.15331,4.12018,6.27434,1.97564,1.55582,0.000574052,-0.102097,-1.85324e-05,0.122084,0.000270248,0.0202573,1.059e-05,0.435331,-10.8395,-0.473953,-1.99219,0.880136,-41.2332,1.1721,0.0155409,-20,-0.491852,0.00904791,-0.0397229,-1.22766,0.023561,-7.44889e-05,0.00928376,-5.08518e-05,0.494653,0.00128343,0.07538,0.0565622,0.000315642,0.0406572,1.95918,-1.25586e-05,0.005,1.71235,-0.00029538,-0.0320914,-0.265433,32.3986,-0.178758,0.837735,9.59692,0.313779,2.96433,0.325676,1.22884,0.0482311,0.322266,-1.40188,0.0563965,0.177429,-0.076644,0.145075,-0.116891,23.4506,23.3229,23.1527,23.2804,23.2094,23.2662,23.1385,
64,6.2729,1.37781,3.15331,4.12031,6.27434,1.97565,1.55582,0.000529894,-0.104798,-1.85324e-05,0.123127,0.000270248,0.0183666,1.059e-05,0.435348,-10.8369,-0.474024,-1.99314,0.880176,-41.2296,1.17204,0.0155242,-20,-0.491871,0.0110553,-0.0397175,-1.22792,0.0235595,-7.44889e-05,0.00928376,-5.08518e-05,0.494653,0.00128343,0.07538,0.0574234,0.00033816,0.0415259,1.95918,-1.25586e-05,0.005,1.71235,-0.00029538,-0.0320914,-0.265433,32.3986,-0.178758,0.866891,9.84962,0.357395,2.94244,0.305224,0.994007,0.0260476,0.314209,-1.41806,0.0483398,0.169189,-0.0765381,0.177292,-0.116821,23.479,23.3229,23.1527,23.252,23.1952,23.2804,23.1385,
65,6.2729,1.37771,3.15331,4.12043,6.27434,1.97567,1.55582,0.000441542,-0.10658,-2.38274e-05,0.1225,0.000281058,0.015032,1.05901e-05,0.437821,-11.0355,-0.477854,-2.14658,0.890667,-42.0112,1.18743,0.0161598,-20,-0.494827,-0.0137631,-0.0397121,-1.30675,0.0242586,-7.66045e-05,0.00953594,-5.26225e-05,0.494653,0.00128343,0.07538,0.057611,0.000372935,0.0419042,1.95799,-2.31521e-05,0.005,1.71051,-0.000325181,-0.0328733,-0.272229,33.1351,-0.184375,0.825411,10.2019,0.363927,2.93825,0.333276,0.779994,0.0159852,0.314209,-1.38584,0.0483398,0.1372,-0.0645789,0.201456,-0.108765,23.4648,23.3371,23.1527,23.2662,23.1952,23.2662,23.1243,
66,6.2729,1.37771,3.15331,4.12043,6.27434,1.97567,1.55582,0.000441542,-0.10658,-2.38274e-05,0.1225,0.000281058,0.015032,1.05901e-05,0.43986,-11.1972,-0.482516,-2.26867,0.894402,-42.6393,1.20298,0.0167005,-20,-0.497312,-0.0352593,-0.0397434,-1.36941,0.0251624,-7.96011e-05,0.00977811,-5.53292e-05,0.494653,0.00128343,0.07538,0.057611,0.000372935,0.0419042,1.95685,-3.84046e-05,0.005,1.70932,-0.000370205,-0.0332138,-0.281005,33.7236,-0.192949,0.825411,10.2019,0.363927,2.93825,0.333276,0.779994,0.0159852,0.314209,-1.38584,0.0483398,0.1372,-0.0645789,0.201456,-0.108765,23.4648,23.3371,23.1527,23.2662,23.1952,23.2662,23.1243,
67,6.2729,1.3776,3.15331,4.12056,6.27434,1.97568,1.55582,0.000441542,-0.105608,-2.38274e-05,0.124245,0.000280846,0.0124245,1.0582e-05,0.439898,-11.1948,-0.482617,-2.26902,0.894453,-42.6366,1.20299,0.0166834,-20,-0.497327,-0.0328117,-0.0397375,-1.36972,0.0251633,-7.96011e-05,0.00977811,-5.53292e-05,0.494653,0.00128343,0.07538,0.0579101,0.000370397,0.0412282,1.95685,-3.84046e-05,0.005,1.70932,-0.000370205,-0.0332138,-0.281005,33.7236,-0.192949,0.813578,10.563,0.360591,2.88992,0.359738,0.598355,0.00380543,0.322366,-1.37806,0.041081,0.153288,-0.076644,0.233677,-0.129158,23.4648,23.3371,23.1527,23.2946,23.1811,23.2804,23.1385,
68,6.2729,1.37749,3.15331,4.12068,6.27434,1.97569,1.55582,0.000405815,-0.105574,-2.38274e-05,0.124515,0.000291444,0.0116142,1.05821e-05,0.441839,-11.3573,-0.484826,-2.39422,0.905482,-43.264,1.21569,0.0171704,-20,-0.499687,-0.0523886,-0.0397201,-1.43267,0.025742,-8.16555e-05,0.0100171,-5.63866e-05,0.494653,0.00128343,0.07538,0.0579769,0.000384811,0.041139,1.95571,-4.42704e-05,0.005,1.70802,-0.000373201,-0.0326054,-0.286668,34.3138,-0.195232,0.740666,10.9244,0.35446,2.78136,0.347207,0.438578,0.023514,0.306152,-1.40994,0.0649547,0.121919,-0.0649547,0.245761,-0.120917,23.4648,23.3371,23.1527,23.2804,23.2094,23.2946,23.1243,
69,6.2729,1.37749,3.15331,4.12068,6.27434,1.97569,1.55582,0.000405815,-0.105574,-2.38274e-05,0.124515,0.000291444,0.0116142,1.05821e-05,0.444054,-11.5367,-0.489437,-2.52903,0.911235,-43.9564,1.23037,0.0177578,-20,-0.502405,-0.0760463,-0.0397431,-1.50154,0.0264752,-8.42146e-05,0.0102634,-5.89452e-05,0.494653,0.00128343,0.07538,0.0579769,0.000384811,0.041139,1.95453,-5.67614e-05,0.005,1.7069,-0.000397415,-0.0325251,-0.293751,34.9616,-0.203234,0.740666,10.9244,0.35446,2.78136,0.347207,0.438578,0.023514,0.306152,-1.40994,0.0649547,0.121919,-0.0649547,0.245761,-0.120917,23.4648,23.3371,23.1527,23.2804,23.2094,23.2946,23.1243,
70,6.2729,1.37738,3.15331,4.12081,6.27434,1.9757,1.55582,0.000367389,-0.106148,-2.38274e-05,0.123629,0.000302273,0.00972351,1.059e-05,0.444085,-11.5344,-0.489524,-2.5295,0.911263,-43.9535,1.23031,0.0177401,-20,-0.502418,-0.0736035,-0.0397368,-1.5019,0.0264728,-8.42146e-05,0.0102634,-5.89452e-05,0.494653,0.00128343,0.07538,0.0578376,0.00039742,0.0411958,1.95453,-5.67614e-05,0.005,1.7069,-0.000397415,-0.0325251,-0.293751,34.9616,-0.203234,0.762492,11.2408,0.413433,2.64406,0.340167,0.257169,0.0122109,0.306152,-1.43417,0.0649547,0.0821619,-0.0645789,0.269897,-0.112793,23.4506,23.3371,23.1811,23.2804,23.1952,23.2804,23.1243,
71,6.2729,1.37728,3.15331,4.12093,6.27434,1.97571,1.55582,0.000367389,-0.104258,-2.38274e-05,0.123435,0.00030227,0.00864312,1.059e-05,0.446139,-11.6973,-0.493279,-2.6535,0.918251,-44.5889,1.24432,0.0182544,-20,-0.504886,-0.0927122,-0.039743,-1.5657,0.0271906,-8.6763e-05,0.0105088,-6.10394e-05,0.494653,0.00128343,0.07538,0.0573843,0.00039124,0.0403478,1.95334,-6.50065e-05,0.005,1.70595,-0.000416183,-0.0325762,-0.300717,35.5581,-0.209189,0.705644,11.6444,0.402016,2.5099,0.351817,0.0748404,0.00664077,0.306258,-1.45022,0.0433863,0.0966797,-0.0645789,0.294178,-0.120917,23.4648,23.3229,23.1527,23.2804,23.2236,23.2804,23.0959,
72,6.2729,1.37718,3.15331,4.12105,6.27434,1.97572,1.55582,0.000341577,-0.101016,-2.38274e-05,0.122354,0.000307341,0.00726544,1.0582e-05,0.447948,-11.8457,-0.495925,-2.76532,0.926574,-45.16,1.25559,0.0187033,-20,-0.507079,-0.109446,-0.0397379,-1.62277,0.0276912,-8.88006e-05,0.0107419,-6.25625e-05,0.494653,0.00128343,0.07538,0.0563943,0.000390553,0.0389456,1.95221,-7.48917e-05,0.005,1.70534,-0.000419519,-0.031813,-0.305585,36.0926,-0.21275,0.720607,12.0157,0.416725,2.37502,0.360924,-0.0580943,0.00242684,0.306576,-1.51467,0.0563965,0.0970148,-0.0609595,0.294067,-0.120917,23.479,23.3371,23.1527,23.2946,23.1952,23.2662,23.1101,
73,6.2729,1.37718,3.15331,4.12105,6.27434,1.97572,1.55582,0.000341577,-0.101016,-2.38274e-05,0.122354,0.000307341,0.00726544,1.0582e-05,0.449465,-11.9727,-0.499005,-2.85842,0.930808,-45.6383,1.26561,0.0191055,-20,-0.508994,-0.12555,-0.0397574,-1.66974,0.0281822,-9.10044e-05,0.0109699,-6.45514e-05,0.494653,0.00128343,0.07538,0.0563943,0.000390553,0.0389456,1.9511,-8.56009e-05,0.005,1.70523,-0.000428539,-0.0305511,-0.310331,36.5371,-0.218047,0.720607,12.0157,0.416725,2.37502,0.360924,-0.0580943,0.00242684,0.306576,-1.51467,0.0563965,0.0970148,-0.0609595,0.294067,-0.120917,23.479,23.3371,23.1527,23.2946,23.1952,23.2662,23.1101,
74,6.2729,1.37708,3.15331,4.12117,6.27434,1.97572,1.55582,0.000339713,-0.0999361,-2.38274e-05,0.120072,0.000317939,0.00378136,1.0582e-05,0.449506,-11.9705,-0.499102,-2.85825,0.930834,-45.6363,1.26557,0.0190882,-20,-0.508998,-0.122905,-0.0397523,-1.67016,0.0281803,-9.10044e-05,0.0109699,-6.45514e-05,0.494653,0.00128343,0.07538,0.0555088,0.000379585,0.0381967,1.9511,-8.56009e-05,0.005,1.70523,-0.000428539,-0.0305511,-0.310331,36.5371,-0.218047,0.642313,12.3875,0.428786,2.19658,0.381167,-0.16673,0.00740544,0.314209,-1.60335,0.0563965,0.0970148,-0.0616214,0.302124,-0.108765,23.4648,23.3229,23.1527,23.2804,23.1952,23.2662,23.1243,
75,6.2729,1.37698,3.15331,4.1213,6.27434,1.97573,1.55582,0.000301967,-0.100714,-2.38276e-05,0.12062,0.000318179,0.00297107,1.85326e-05,0.450832,-12.0787,-0.501245,-2.94036,0.936459,-46.0532,1.27592,0.0194138,-20,-0.510636,-0.134731,-0.0397495,-1.71186,0.0287612,-9.33872e-05,0.0111908,-6.64133e-05,0.494653,0.00128343,0.07538,0.055826,0.000396151,0.0384254,1.95,-9.28594e-05,0.005,1.70504,-0.0004252,-0.029877,-0.316007,36.9281,-0.221078,0.667579,12.6735,0.487285,1.96484,0.38615,-0.298743,0.00742064,0.306258,-1.62744,0.0563965,0.145243,-0.0537445,0.342502,-0.104736,23.4506,23.3371,23.1669,23.2804,23.1811,23.2804,23.1385,
76,6.2729,1.37688,3.15331,4.12142,6.27434,1.97573,1.55582,0.000265652,-0.100476,-2.38096e-05,0.121544,0.000328785,0.00108039,1.85326e-05,0.453038,-12.2577,-0.504698,-3.07801,0.945817,-46.7528,1.28698,0.0199741,-20,-0.513307,-0.156561,-0.0397475,-1.78219,0.0291133,-9.45864e-05,0.0114288,-6.79241e-05,0.494653,0.00128343,0.07538,0.0560418,0.000410089,0.0381294,1.94881,-0.000103018,0.005,1.70369,-0.000449252,-0.0300829,-0.319377,37.5863,-0.226121,0.641791,13.0849,0.500477,1.79834,0.397319,-0.440921,0.00600442,0.298205,-1.58749,0.0490066,0.128906,-0.0444942,0.346529,-0.108839,23.4648,23.3229,23.1527,23.2804,23.1952,23.2804,23.1101,
77,6.2729,1.37678,3.15331,4.12154,6.27434,1.97573,1.55582,0.000227718,-0.101016,-2.38274e-05,0.118843,0.000349997,0,1.85326e-05,0.454984,-12.4104,-0.508899,-3.19549,0.950408,-47.3457,1.30023,0.0204643,-20,-0.515669,-0.174854,-0.0397638,-1.8418,0.0298117,-9.6988e-05,0.0116488,-7.02921e-05,0.494653,0.00128343,0.07538,0.0553709,0.000420885,0.0382847,1.94771,-0.000114499,0.005,1.7025,-0.000472129,-0.0298165,-0.326134,38.144,-0.23337,0.642906,13.4721,0.528655,1.62511,0.392374,-0.571726,0.00600442,0.298205,-1.57912,0.0483398,0.088623,-0.0609595,0.366577,-0.108839,23.4506,23.3371,23.1527,23.2804,23.1952,23.2662,23.1101,
78,6.2729,1.37678,3.15331,4.12154,6.27434,1.97573,1.55582,0.000227718,-0.101016,-2.38274e-05,0.118843,0.000349997,0,1.85326e-05,0.456601,-12.5455,-0.511463,-3.29558,0.957149,-47.8687,1.31107,0.020893,-20,-0.517653,-0.192243,-0.0397695,-1.89372,0.0303351,-9.89545e-05,0.0118655,-7.16357e-05,0.494653,0.00128343,0.07538,0.0553709,0.000420885,0.0382847,1.94662,-0.000123779,0.005,1.70212,-0.000490198,-0.0299563,-0.331203,38.6321,-0.237309,0.642906,13.4721,0.528655,1.62511,0.392374,-0.571726,0.00600442,0.298205,-1.57912,0.0483398,0.088623,-0.0609595,0.366577,-0.108839,23.4506,23.3371,23.1527,23.2804,23.1952,23.2662,23.1101,
79,6.2729,1.37668,3.15331,4.12165,6.27434,1.97573,1.55582,0.000188743,-0.102097,-2.38274e-05,0.118303,0.000374889,-0.000520149,1.85184e-05,0.456626,-12.5435,-0.511546,-3.29626,0.957179,-47.8659,1.31104,0.0208756,-20,-0.517666,-0.190139,-0.0397634,-1.894,0.0303349,-9.89545e-05,0.0118655,-7.16357e-05,0.494653,0.00128343,0.07538,0.0554364,0.000439122,0.0386803,1.94662,-0.000123779,0.005,1.70212,-0.000490198,-0.0299563,-0.331203,38.6321,-0.237309,0.583009,13.8239,0.526963,1.49056,0.405356,-0.680929,-0.00639868,0.290039,-1.57929,0.0569691,0.113938,-0.0485074,0.378662,-0.112865,23.4648,23.3371,23.1385,23.2804,23.1811,23.2662,23.1243,
80,6.2729,1.37657,3.15331,4.12177,6.27434,1.97572,1.55582,0.000188743,-0.0983012,-2.38274e-05,0.115332,0.000416025,-0.00096555,1.85184e-05,0.458629,-12.7026,-0.514878,-3.41722,0.96493,-48.4885,1.32373,0.0213722,-20,-0.520038,-0.208523,-0.0397632,-1.95667,0.0309347,-0.000100926,0.0120818,-7.29592e-05,0.494653,0.00128343,0.07538,0.053785,0.000427915,0.0371835,1.94552,-0.000133047,0.005,1.70108,-0.000514952,-0.0303123,-0.337014,39.2165,-0.242321,0.631604,14.1635,0.559128,1.27248,0.393842,-0.835144,0.00612929,0.290039,-1.56318,0.0563965,0.129158,-0.0459299,0.37472,-0.109063,23.4648,23.3513,23.1669,23.2804,23.1811,23.252,23.1101,
81,6.2729,1.37648,3.15331,4.12188,6.27434,1.97572,1.55582,0.000176415,-0.0930892,-2.38094e-05,0.111592,0.000459986,-0.00145709,1.85324e-05,0.459945,-12.8074,-0.517647,-3.49288,0.96831,-48.8843,1.33324,0.0216875,-20,-0.521649,-0.218479,-0.0397741,-1.99582,0.0314555,-0.000103326,0.0122977,-7.46804e-05,0.494653,0.00128343,0.07538,0.0516176,0.00041717,0.0351295,1.94443,-0.000140155,0.005,1.70158,-0.000511263,-0.0289652,-0.342076,39.5832,-0.246886,0.62281,14.6471,0.559011,1.19354,0.399406,-1.00399,-0.00765589,0.290039,-1.65169,0.0563965,0.161334,-0.0402832,0.378662,-0.104814,23.4506,23.3371,23.1385,23.2662,23.1811,23.2804,23.1101,
82,6.2729,1.37648,3.15331,4.12188,6.27434,1.97572,1.55582,0.000176415,-0.0930892,-2.38094e-05,0.111592,0.000459986,-0.00145709,1.85324e-05,0.460899,-12.8905,-0.519704,-3.5502,0.970638,-49.1872,1.3397,0.0219403,-20,-0.52291,-0.228024,-0.0397939,-2.02486,0.0317776,-0.000105224,0.0125053,-7.59976e-05,0.494653,0.00128343,0.07538,0.0516176,0.00041717,0.0351295,1.94336,-0.000149075,0.005,1.70257,-0.00050962,-0.0271166,-0.345194,39.8604,-0.250523,0.62281,14.6471,0.559011,1.19354,0.399406,-1.00399,-0.00765589,0.290039,-1.65169,0.0563965,0.161334,-0.0402832,0.378662,-0.104814,23.4506,23.3371,23.1385,23.2662,23.1811,23.2804,23.1101,
83,6.2729,1.37639,3.15331,4.12199,6.27434,1.97572,1.55582,0.000141837,-0.0903041,-2.38274e-05,0.109279,0.000494946,-0.00167659,1.85324e-05,0.460941,-12.889,-0.519799,-3.55034,0.970669,-49.1856,1.33966,0.021924,-20,-0.522917,-0.225597,-0.0397881,-2.02523,0.0317738,-0.000105224,0.0125053,-7.59976e-05,0.494653,0.00128343,0.07538,0.0503672,0.000423073,0.0340455,1.94336,-0.000149075,0.005,1.70257,-0.00050962,-0.0271166,-0.345194,39.8604,-0.250523,0.611123,15.0563,0.563855,1.1522,0.425021,-1.12039,-0.0330666,0.273926,-1.75642,0.0569691,0.209473,-0.0404841,0.378684,-0.112793,23.4506,23.3229,23.1527,23.252,23.1811,23.2662,23.1243,
84,6.2729,1.37639,3.15331,4.12199,6.27434,1.97572,1.55582,0.000141837,-0.0903041,-2.38274e-05,0.109279,0.000494946,-0.00167659,1.85324e-05,0.462243,-12.9932,-0.523423,-3.62572,0.971131,-49.5786,1.34883,0.0222692,-20,-0.524568,-0.238516,-0.0398219,-2.06373,0.0322841,-0.000107424,0.0126993,-7.81707e-05,0.494653,0.00128343,0.07538,0.0503672,0.000423073,0.0340455,1.94237,-0.000159488,0.005,1.7028,-0.000524304,-0.026141,-0.350117,40.2246,-0.257502,0.611123,15.0563,0.563855,1.1522,0.425021,-1.12039,-0.0330666,0.273926,-1.75642,0.0569691,0.209473,-0.0404841,0.378684,-0.112793,23.4506,23.3229,23.1527,23.252,23.1811,23.2662,23.1243,
85,6.2729,1.37631,3.15331,4.1221,6.27434,1.97571,1.55582,0.000141123,-0.0875116,-2.91227e-05,0.107229,0.000477167,-0.00219407,1.85186e-05,0.462292,-12.9917,-0.523522,-3.62584,0.971191,-49.577,1.34886,0.0222529,-20,-0.524572,-0.236144,-0.0398171,-2.06408,0.0322845,-0.000107424,0.0126993,-7.81707e-05,0.494653,0.00128343,0.07538,0.0491921,0.000411943,0.0329223,1.94237,-0.000159488,0.005,1.7028,-0.000524304,-0.026141,-0.350117,40.2246,-0.257502,0.568895,15.4473,0.535308,1.08891,0.413394,-1.23919,-0.0169086,0.281982,-1.82087,0.0649547,0.265869,-0.038216,0.374829,-0.104736,23.4364,23.3229,23.1527,23.2804,23.1952,23.2662,23.1243,
86,6.2729,1.37622,3.15331,4.1222,6.27434,1.97571,1.55582,0.000141132,-0.0826757,-2.91224e-05,0.104258,0.000462019,-0.0025669,1.85184e-05,0.463472,-13.0894,-0.525019,-3.69743,0.97731,-49.9481,1.35637,0.0225332,-20,-0.525995,-0.245841,-0.0398117,-2.10093,0.0326225,-0.000109161,0.0128866,-7.93133e-05,0.494653,0.00128343,0.07538,0.047326,0.000393185,0.0310153,1.9414,-0.000167561,0.005,1.70299,-0.000521554,-0.02513,-0.353398,40.5696,-0.259211,0.614744,15.7907,0.587169,1.0141,0.400339,-1.38534,-0.00355482,0.290039,-1.85303,0.0563965,0.274044,-0.036478,0.370627,-0.108839,23.4506,23.3371,23.1385,23.2662,23.1669,23.2662,23.1101,
87,6.2729,1.37622,3.15331,4.1222,6.27434,1.97571,1.55582,0.000141132,-0.0826757,-2.91224e-05,0.104258,0.000462019,-0.0025669,1.85184e-05,0.464308,-13.1661,-0.526102,-3.75072,0.981722,-50.2276,1.36181,0.0227548,-20,-0.527102,-0.254741,-0.0398164,-2.12776,0.0328569,-0.00011089,0.0130724,-8.04203e-05,0.494653,0.00128343,0.07538,0.047326,0.000393185,0.0310153,1.94044,-0.000175568,0.005,1.7038,-0.000511877,-0.0234137,-0.355678,40.8257,-0.260592,0.614744,15.7907,0.587169,1.0141,0.400339,-1.38534,-0.00355482,0.290039,-1.85303,0.0563965,0.274044,-0.036478,0.370627,-0.108839,23.4506,23.3371,23.1385,23.2662,23.1669,23.2662,23.1101,
88,6.2729,1.37614,3.15331,4.12231,6.27434,1.9757,1.55582,0.000132479,-0.0758974,-2.91004e-05,0.102564,0.000454438,-0.00295287,1.85324e-05,0.464365,-13.1649,-0.526206,-3.75061,0.981785,-50.2265,1.36182,0.0227395,-20,-0.527107,-0.252102,-0.0398111,-2.12816,0.0328549,-0.00011089,0.0130724,-8.04203e-05,0.494653,0.00128343,0.07538,0.0454263,0.000377187,0.028314,1.94044,-0.000175568,0.005,1.7038,-0.000511877,-0.0234137,-0.355678,40.8257,-0.260592,0.587454,16.2043,0.624685,1.04524,0.423312,-1.49068,-0.0212487,0.274044,-1.94986,0.0563965,0.322366,-0.0205405,0.366577,-0.108765,23.4506,23.3371,23.1385,23.2662,23.1811,23.252,23.1243,
89,6.2729,1.37607,3.15331,4.12241,6.27434,1.9757,1.55582,9.93593e-05,-0.072116,-2.91224e-05,0.102367,0.000446865,-0.0033348,1.85324e-05,0.465166,-13.2306,-0.528291,-3.79694,0.982597,-50.4608,1.36685,0.0229279,-20,-0.528163,-0.257614,-0.0398296,-2.15074,0.0331052,-0.000112743,0.0132504,-8.20741e-05,0.494653,0.00128343,0.07538,0.0445823,0.000380548,0.026781,1.9395,-0.000184294,0.005,1.70467,-0.000505333,-0.0209826,-0.358091,41.0407,-0.264354,0.586742,16.5473,0.625956,1.09778,0.435506,-1.58682,-0.0244385,0.266357,-2.06252,0.0649547,0.322366,-0.0324774,0.358521,-0.108765,23.4648,23.3229,23.1527,23.2662,23.1669,23.2378,23.1101,
90,6.2729,1.376,3.15331,4.12251,6.27434,1.97569,1.55582,9.98311e-05,-0.0718459,-2.91224e-05,0.101557,0.000431723,-0.00369554,1.85184e-05,0.466262,-13.3204,-0.530381,-3.86448,0.986046,-50.7988,1.37339,0.0231972,-20,-0.529542,-0.26736,-0.0398406,-2.18423,0.0333981,-0.000114286,0.0134157,-8.31322e-05,0.494653,0.00128343,0.07538,0.0442908,0.000376016,0.0266558,1.93862,-0.000191452,0.005,1.70463,-0.0005148,-0.0196029,-0.360953,41.3563,-0.267759,0.499448,16.8004,0.610044,1.09289,0.423063,-1.67919,-0.0556101,0.274044,-2.1028,0.0664368,0.290151,-0.0245033,0.358543,-0.100789,23.4506,23.3229,23.1243,23.2804,23.1669,23.252,23.0959,
91,6.2729,1.37592,3.15331,4.12261,6.27434,1.97568,1.55582,9.3614e-05,-0.0722213,-2.91227e-05,0.100206,0.000416575,-0.00507381,1.85186e-05,0.46765,-13.4297,-0.533191,-3.94797,0.990019,-51.2245,1.38291,0.023543,-20,-0.531227,-0.279989,-0.0398474,-2.22699,0.0338947,-0.000116235,0.0135799,-8.51615e-05,0.494653,0.00128343,0.07538,0.0439782,0.000372754,0.0266878,1.93775,-0.000200633,0.005,1.70411,-0.000518984,-0.0194902,-0.365758,41.7563,-0.272365,0.466406,16.9425,0.662078,1.13216,0.402005,-1.81045,-0.0575369,0.281982,-2.07062,0.0563965,0.298205,-0.0216932,0.346459,-0.104736,23.4364,23.3087,23.1385,23.252,23.1527,23.2662,23.0959,
92,6.2729,1.37592,3.15331,4.12261,6.27434,1.97568,1.55582,9.3614e-05,-0.0722213,-2.91227e-05,0.100206,0.000416575,-0.00507381,1.85186e-05,0.468863,-13.5342,-0.534494,-4.02631,0.99716,-51.6283,1.39133,0.0238645,-20,-0.532714,-0.293649,-0.0398391,-2.26716,0.034294,-0.000117818,0.0137459,-8.61533e-05,0.494653,0.00128343,0.07538,0.0439782,0.000372754,0.0266878,1.93686,-0.000207851,0.005,1.70359,-0.000522544,-0.019519,-0.369649,42.134,-0.273729,0.466406,16.9425,0.662078,1.13216,0.402005,-1.81045,-0.0575369,0.281982,-2.07062,0.0563965,0.298205,-0.0216932,0.346459,-0.104736,23.4364,23.3087,23.1385,23.252,23.1527,23.2662,23.0959,
93,6.2729,1.37585,3.15331,4.12272,6.27434,1.97567,1.55582,6.24093e-05,-0.0717731,-2.91227e-05,0.100714,0.000401426,-0.00746556,1.85324e-05,0.468885,-13.5322,-0.534554,-4.02671,0.99718,-51.6259,1.39129,0.0238505,-20,-0.532726,-0.29171,-0.0398348,-2.26739,0.034294,-0.000117818,0.0137459,-8.61533e-05,0.494653,0.00128343,0.07538,0.0440332,0.000380076,0.0262571,1.93686,-0.000207851,0.005,1.70359,-0.000522544,-0.019519,-0.369649,42.134,-0.273729,0.369491,17.1468,0.688391,1.19857,0.41145,-1.92319,-0.0607581,0.273926,-2.03029,0.0644531,0.306576,-0.0281982,0.350464,-0.104814,23.4506,23.3087,23.1385,23.252,23.1952,23.252,23.1101,
94,6.2729,1.37585,3.15331,4.12272,6.27434,1.97567,1.55582,6.24093e-05,-0.0717731,-2.91227e-05,0.100714,0.000401426,-0.00746556,1.85324e-05,0.470128,-13.6378,-0.536303,-4.10705,1.00309,-52.0302,1.39987,0.0241799,-20,-0.53426,-0.30583,-0.0398354,-2.30762,0.0347162,-0.000119406,0.0139122,-8.72101e-05,0.494653,0.00128343,0.07538,0.0440332,0.000380076,0.0262571,1.93594,-0.000215105,0.005,1.70272,-0.000535663,-0.0191314,-0.373751,42.5131,-0.276208,0.369491,17.1468,0.688391,1.19857,0.41145,-1.92319,-0.0607581,0.273926,-2.03029,0.0644531,0.306576,-0.0281982,0.350464,-0.104814,23.4506,23.3087,23.1385,23.252,23.1952,23.252,23.1101,
95,6.2729,1.37578,3.15331,4.12282,6.27435,1.97565,1.55582,6.24093e-05,-0.0699552,-2.91004e-05,0.101287,0.000409,-0.0108646,1.85324e-05,0.470155,-13.6359,-0.536373,-4.10712,1.00307,-52.0282,1.39978,0.0241661,-20,-0.53427,-0.303807,-0.039832,-2.30787,0.0347124,-0.000119406,0.0139122,-8.72101e-05,0.494653,0.00128343,0.07538,0.0438237,0.000372823,0.0251732,1.93594,-0.000215105,0.005,1.70272,-0.000535663,-0.0191314,-0.373751,42.5131,-0.276208,0.371131,17.3082,0.674272,1.2312,0.437748,-2.03861,-0.0618141,0.273926,-1.98999,0.072956,0.282097,-0.0205405,0.362549,-0.108839,23.4506,23.3229,23.1385,23.2662,23.1952,23.2662,23.0959,
96,6.2729,1.37578,3.15331,4.12282,6.27435,1.97565,1.55582,6.24093e-05,-0.0699552,-2.91004e-05,0.101287,0.000409,-0.0108646,1.85324e-05,0.471103,-13.7137,-0.538592,-4.1661,1.00485,-52.3196,1.40789,0.0244174,-20,-0.535468,-0.314158,-0.0398462,-2.33664,0.0352133,-0.000121335,0.0140648,-8.90933e-05,0.494653,0.00128343,0.07538,0.0438237,0.000372823,0.0251732,1.93508,-0.0002239,0.005,1.70213,-0.000537051,-0.0181559,-0.378633,42.7857,-0.280183,0.371131,17.3082,0.674272,1.2312,0.437748,-2.03861,-0.0618141,0.273926,-1.98999,0.072956,0.282097,-0.0205405,0.362549,-0.108839,23.4506,23.3229,23.1385,23.2662,23.1952,23.2662,23.0959,
97,6.2729,1.37572,3.15331,4.12292,6.27435,1.97563,1.55582,5.90011e-05,-0.0683347,-2.64749e-05,0.100206,0.000403345,-0.0150977,1.85184e-05,0.471107,-13.7118,-0.53863,-4.166,1.00487,-52.3179,1.40785,0.024397,-20,-0.535471,-0.312087,-0.0398435,-2.33692,0.0352143,-0.000121335,0.0140648,-8.90933e-05,0.494653,0.00128343,0.07538,0.0431785,0.000360458,0.0241039,1.93508,-0.0002239,0.005,1.70213,-0.000537051,-0.0181559,-0.378633,42.7857,-0.280183,0.340701,17.4711,0.655314,1.24399,0.400109,-2.18019,-0.0450135,0.257938,-2.0061,0.0563965,0.257812,-0.0180152,0.382712,-0.108839,23.4506,23.3371,23.1385,23.252,23.1811,23.252,23.0959,
98,6.2729,1.37564,3.15331,4.12301,6.27435,1.97562,1.55582,5.87538e-05,-0.068209,-2.64749e-05,0.0983155,0.000388401,-0.0187718,1.85184e-05,0.471731,-13.7658,-0.538972,-4.20751,1.00965,-52.5224,1.41191,0.0245407,-20,-0.536242,-0.317313,-0.039832,-2.3574,0.0353897,-0.000122299,0.014213,-8.98585e-05,0.494653,0.00128343,0.07538,0.0426089,0.000348999,0.0237006,1.93423,-0.000227461,0.005,1.70194,-0.000529128,-0.0171935,-0.380348,42.9779,-0.279921,0.325356,17.5368,0.667487,1.3248,0.357157,-2.3359,-0.0265048,0.265991,-2.02223,0.0649547,0.274044,-0.012085,0.414917,-0.104736,23.4506,23.3087,23.1385,23.2662,23.1952,23.252,23.0959,
99,6.2729,1.37564,3.15331,4.12301,6.27435,1.97562,1.55582,5.87538e-05,-0.068209,-2.64749e-05,0.0983155,0.000388401,-0.0187718,1.85184e-05,0.472457,-13.832,-0.539233,-4.25696,1.01563,-52.7747,1.41825,0.0247332,-20,-0.537146,-0.325905,-0.0398192,-2.38236,0.0357413,-0.000123825,0.0143635,-9.06857e-05,0.494653,0.00128343,0.07538,0.0426089,0.000348999,0.0237006,1.93337,-0.000234122,0.005,1.70168,-0.000524809,-0.0168306,-0.383814,43.2134,-0.279458,0.325356,17.5368,0.667487,1.3248,0.357157,-2.3359,-0.0265048,0.265991,-2.02223,0.0649547,0.274044,-0.012085,0.414917,-0.104736,23.4506,23.3087,23.1385,23.2662,23.1952,23.252,23.0959,
100,6.2729,1.37558,3.15331,4.12311,6.27435,1.97559,1.55582,2.95022e-05,-0.0686048,-2.64749e-05,0.0977753,0.000403339,-0.0210463,1.85324e-05,0.472474,-13.8303,-0.53929,-4.2572,1.01561,-52.7727,1.41814,0.0247197,-20,-0.537156,-0.324133,-0.0398157,-2.38257,0.0357375,-0.000123825,0.0143635,-9.06857e-05,0.494653,0.00128343,0.07538,0.0425367,0.000358216,0.0236327,1.93337,-0.000234122,0.005,1.70168,-0.000524809,-0.0168306,-0.383814,43.2134,-0.279458,0.24727,17.6243,0.685388,1.39679,0.378154,-2.45373,-0.0243633,0.225586,-1.98193,0.072956,0.282097,-0.012085,0.443134,-0.11308,23.4506,23.3229,23.1385,23.252,23.1811,23.2378,23.1101,
101,6.2729,1.37551,3.15331,4.12321,6.27435,1.97557,1.55582,2.95005e-05,-0.0652974,-2.64549e-05,0.0989604,0.000397839,-0.020563,1.85324e-05,0.4736,-13.9155,-0.542014,-4.32352,1.01728,-53.1051,1.42702,0.0249954,-20,-0.538515,-0.333732,-0.0398285,-2.41612,0.0362795,-0.000125711,0.0145064,-9.24597e-05,0.494653,0.00128343,0.07538,0.0421914,0.000353961,0.0223577,1.93253,-0.00024256,0.005,1.70099,-0.000540698,-0.0167695,-0.389076,43.5269,-0.284339,0.265036,17.7481,0.68343,1.43683,0.389947,-2.55683,-0.02572,0.265991,-1.96589,0.072956,0.273926,-0.0090076,0.447162,-0.108839,23.4506,23.3229,23.1385,23.2662,23.1669,23.2662,23.1101,
102,6.2729,1.37545,3.15331,4.12331,6.27435,1.97555,1.55582,2.95022e-05,-0.061042,-2.64751e-05,0.0985856,0.000397844,-0.0210676,1.85184e-05,0.474796,-14.0138,-0.543974,-4.39835,1.02211,-53.4777,1.4344,0.0252897,-20,-0.539992,-0.344729,-0.0398305,-2.45324,0.0366132,-0.000127219,0.014654,-9.33383e-05,0.494653,0.00128343,0.07538,0.0411998,0.000343324,0.0206229,1.93165,-0.000249132,0.005,1.70051,-0.000542785,-0.015622,-0.392342,43.8761,-0.287185,0.255547,17.8759,0.694031,1.44733,0.364881,-2.65906,-0.0402714,0.249886,-2.00612,0.0725098,0.241833,0,0.435059,-0.104814,23.4506,23.3229,23.1527,23.2804,23.1811,23.252,23.1101,
103,6.2729,1.37545,3.15331,4.12331,6.27435,1.97555,1.55582,2.95022e-05,-0.061042,-2.64751e-05,0.0985856,0.000397844,-0.0210676,1.85184e-05,0.475574,-14.0778,-0.546287,-4.44459,1.02202,-53.7098,1.44045,0.0254958,-20,-0.541015,-0.352627,-0.0398537,-2.47568,0.0369749,-0.000129036,0.0147904,-9.51218e-05,0.494653,0.00128343,0.07538,0.0411998,0.000343324,0.0206229,1.93084,-0.000257294,0.005,1.70068,-0.000540556,-0.0140606,-0.395845,44.0905,-0.29165,0.255547,17.8759,0.694031,1.44733,0.364881,-2.65906,-0.0402714,0.249886,-2.00612,0.0725098,0.241833,0,0.435059,-0.104814,23.4506,23.3229,23.1527,23.2804,23.1811,23.252,23.1101,
104,6.2729,1.37539,3.15331,4.12341,6.27435,1.97553,1.55582,2.76434e-05,-0.0566737,-2.11799e-05,0.0964248,0.000392079,-0.0232284,1.85326e-05,0.475587,-14.0765,-0.546336,-4.44448,1.02206,-53.7087,1.44044,0.0254758,-20,-0.541016,-0.350537,-0.0398506,-2.47598,0.0369761,-0.000129036,0.0147904,-9.51218e-05,0.494653,0.00128343,0.07538,0.0396704,0.000324676,0.0186933,1.93084,-0.000257294,0.005,1.70068,-0.000540556,-0.0140606,-0.395845,44.0905,-0.29165,0.228591,17.9034,0.702991,1.5087,0.356875,-2.76526,-0.0331469,0.233781,-2.07095,0.0725098,0.234198,-0.00402832,0.431049,-0.108765,23.4506,23.3371,23.1385,23.252,23.1952,23.2662,23.1101,
105,6.2729,1.37534,3.15331,4.12351,6.27435,1.9755,1.55582,0,-0.0556401,-2.11799e-05,0.100206,0.00039934,-0.0243088,1.85324e-05,0.475904,-14.107,-0.546556,-4.46638,1.02444,-53.8143,1.44183,0.0255445,-20,-0.541484,-0.35238,-0.0398485,-2.48602,0.036996,-0.000129897,0.0149229,-9.57729e-05,0.494653,0.00128343,0.07538,0.0405503,0.000340671,0.0181187,1.93004,-0.000260239,0.005,1.70133,-0.000526423,-0.0123239,-0.396085,44.1875,-0.291568,0.173734,17.9937,0.720756,1.54042,0.379902,-2.84405,-0.0495267,0.233781,-2.12697,0.0649547,0.274399,0,0.435059,-0.108839,23.4506,23.3229,23.1527,23.2662,23.1952,23.252,23.1101,
106,6.2729,1.37534,3.15331,4.12351,6.27435,1.97548,1.55582,0,-0.0556401,-2.11799e-05,0.100206,0.000394044,-0.0259294,2.64749e-05,0.477311,-14.2182,-0.550133,-4.55267,1.02594,-54.24,1.45135,0.0259173,-20,-0.543222,-0.367695,-0.0398744,-2.52853,0.0375089,-0.00013147,0.0150529,-9.75735e-05,0.494653,0.00128343,0.07538,0.0405526,0.000337607,0.017947,1.92924,-0.000271361,0.005,1.69982,-0.000550828,-0.0118068,-0.401009,44.5884,-0.298283,0.173734,17.9937,0.720756,1.54042,0.398076,-2.89753,-0.0432119,0.233781,-2.12697,0.0649547,0.274399,-0.00402832,0.435133,-0.104814,23.4506,23.3229,23.1527,23.2662,23.1811,23.2662,23.0959,
107,6.2729,1.37528,3.15331,4.12361,6.27435,1.97548,1.55582,0,-0.0564504,-2.11639e-05,0.100809,0.000394044,-0.0259294,2.64749e-05,0.476915,-14.1839,-0.549161,-4.5299,1.02544,-54.1106,1.44712,0.0257961,-20,-0.542732,-0.362043,-0.0398639,-2.51614,0.0372211,-0.00013054,0.0150272,-9.71861e-05,0.494653,0.00128343,0.07538,0.0408946,0.000340656,0.018268,1.92924,-0.000270551,0.005,1.69982,-0.000547342,-0.0116523,-0.398206,44.4704,-0.296365,0.189239,18.113,0.696164,1.5659,0.398076,-2.89753,-0.0432119,0.233781,-2.10284,0.0889885,0.185478,-0.00402832,0.435133,-0.104814,23.4364,23.3229,23.1243,23.2662,23.1811,23.2662,23.0959,
108,6.2729,1.37523,3.15331,4.12371,6.27435,1.97545,1.55582,0,-0.0578009,-2.11799e-05,0.101454,0.000394447,-0.0268322,2.64749e-05,0.478515,-14.3142,-0.551645,-4.63102,1.03243,-54.6214,1.45696,0.0262044,-20,-0.544683,-0.378136,-0.0398599,-2.56757,0.0376581,-0.000131972,0.0151899,-9.84145e-05,0.494653,0.00128343,0.07538,0.0413623,0.000343576,0.0187078,1.92839,-0.00027753,0.005,1.69874,-0.000556367,-0.0119412,-0.402465,44.9521,-0.29989,0.183316,18.2248,0.683976,1.55406,0.404113,-2.92305,-0.0433129,0.233643,-2.06275,0.0725098,0.153076,0,0.435077,-0.104814,23.4506,23.3229,23.1385,23.2662,23.1811,23.252,23.1101,
109,6.2729,1.37523,3.15331,4.12371,6.27435,1.97545,1.55582,0,-0.0578009,-2.11799e-05,0.101454,0.000394447,-0.0268322,2.64749e-05,0.479806,-14.4175,-0.554262,-4.7108,1.03609,-55.0245,1.46686,0.0265463,-20,-0.546247,-0.392242,-0.0398674,-2.60804,0.0382197,-0.000133779,0.0153184,-0.000100119,0.494653,0.00128343,0.07538,0.0413623,0.000343576,0.0187078,1.92757,-0.000285439,0.005,1.69759,-0.000566113,-0.012337,-0.40792,45.3318,-0.304323,0.183316,18.2248,0.683976,1.55406,0.404113,-2.92305,-0.0433129,0.233643,-2.06275,0.0725098,0.153076,0,0.435077,-0.104814,23.4506,23.3229,23.1385,23.2662,23.1811,23.252,23.1101,
110,6.2729,1.37517,3.15331,4.12381,6.27435,1.97542,1.55582,0,-0.0578009,-2.11799e-05,0.102907,0.000388886,-0.0269824,2.64549e-05,0.479822,-14.4158,-0.554322,-4.71139,1.03608,-55.0222,1.46681,0.0265335,-20,-0.546264,-0.390621,-0.0398639,-2.60818,0.0382201,-0.000133779,0.0153184,-0.000100119,0.494653,0.00128343,0.07538,0.0417825,0.000345958,0.018678,1.92757,-0.000285439,0.005,1.69759,-0.000566113,-0.012337,-0.40792,45.3318,-0.304323,0.194795,18.2949,0.687816,1.55627,0.395016,-2.93709,-0.0341654,0.22573,-2.01431,0.0889885,0.11308,0.00805664,0.4312,-0.109063,23.4506,23.3229,23.1243,23.252,23.1811,23.2662,23.1243,
111,6.2729,1.37511,3.15331,4.12392,6.27435,1.9754,1.55582,0,-0.0556182,-2.11801e-05,0.105608,0.000403027,-0.0289004,2.64749e-05,0.481132,-14.5227,-0.556145,-4.79539,1.04244,-55.4401,1.47545,0.0268621,-20,-0.547857,-0.403513,-0.0398562,-2.65036,0.0386351,-0.000135182,0.0154502,-0.000100885,0.494653,0.00128343,0.07538,0.042113,0.000345516,0.0175738,1.92675,-0.000291396,0.005,1.69647,-0.000573619,-0.0123102,-0.411992,45.7268,-0.306673,0.17991,18.4263,0.684617,1.56729,0.404136,-2.93945,-0.0356802,0.209628,-1.982,0.0809682,0.0809682,0.0127387,0.410908,-0.104736,23.4648,23.3229,23.1385,23.2804,23.1811,23.2662,23.1101,
112,6.2729,1.37506,3.15331,4.12403,6.27435,1.97536,1.55582,0,-0.0534793,-2.11639e-05,0.10457,0.000411779,-0.0295907,2.64751e-05,0.482287,-14.6122,-0.55904,-4.86617,1.04394,-55.7809,1.48429,0.0271486,-20,-0.549289,-0.414033,-0.0398718,-2.68463,0.039164,-0.000137045,0.015585,-0.000102635,0.494653,0.00128343,0.07538,0.0413702,0.000338529,0.0166708,1.9259,-0.000299581,0.005,1.69541,-0.000580587,-0.0113164,-0.417164,46.0489,-0.311868,0.17974,18.5223,0.679619,1.54822,0.400245,-2.91728,-0.0344482,0.217529,-2.01456,0.0889885,0.0332184,0.012085,0.418965,-0.104814,23.4648,23.3513,23.1527,23.2662,23.1811,23.2662,23.1243,
113,6.2729,1.37506,3.15331,4.12403,6.27435,1.97536,1.55582,0,-0.0534793,-2.11639e-05,0.10457,0.000411779,-0.0295907,2.64751e-05,0.483146,-14.6813,-0.561377,-4.91722,1.04451,-56.0403,1.49133,0.027376,-20,-0.550381,-0.422842,-0.0398907,-2.71011,0.0395958,-0.000138897,0.0157174,-0.000104421,0.494653,0.00128343,0.07538,0.0413702,0.000338529,0.0166708,1.92504,-0.000307694,0.005,1.6953,-0.000581601,-0.0105038,-0.421354,46.2902,-0.316271,0.17974,18.5223,0.679619,1.54822,0.400245,-2.91728,-0.0344482,0.217529,-2.01456,0.0889885,0.0332184,0.012085,0.418965,-0.104814,23.4648,23.3513,23.1527,23.2662,23.1811,23.2662,23.1243,
114,6.2729,1.375,3.15331,4.12413,6.27435,1.97533,1.55582,0,-0.052669,-2.11639e-05,0.101287,0.000413411,-0.0329519,2.64751e-05,0.483168,-14.6798,-0.561435,-4.91722,1.04449,-56.0387,1.49126,0.0273632,-20,-0.550385,-0.42097,-0.0398879,-2.71036,0.0395944,-0.000138897,0.0157174,-0.000104421,0.494653,0.00128343,0.07538,0.0402569,0.000324636,0.0160457,1.92504,-0.000307694,0.005,1.6953,-0.000581601,-0.0105038,-0.421354,46.2902,-0.316271,0.1696,18.6469,0.662577,1.53556,0.421862,-2.91415,-0.0517875,0.209473,-2.03833,0.0809682,0.0490066,0.0127387,0.40686,-0.104814,23.4506,23.3229,23.1385,23.2804,23.1952,23.2804,23.0959,
115,6.2729,1.37495,3.15331,4.12423,6.27435,1.9753,1.55582,0,-0.0529391,-2.11799e-05,0.0980454,0.000421402,-0.0337622,2.64549e-05,0.48351,-14.7077,-0.561916,-4.93794,1.04618,-56.1447,1.49554,0.0274358,-20,-0.550816,-0.422704,-0.0398859,-2.72095,0.0399113,-0.000140442,0.0158368,-0.000105575,0.494653,0.00128343,0.07538,0.0393769,0.000317772,0.0161201,1.92424,-0.000314226,0.005,1.69559,-0.000574976,-0.00994113,-0.424519,46.389,-0.316803,0.189952,18.7328,0.65887,1.47523,0.448269,-2.8919,-0.0425759,0.209473,-2.02222,0.105046,0.0966797,0.0201416,0.418965,-0.0926514,23.4506,23.3229,23.1527,23.2804,23.1811,23.2804,23.1243,
116,6.2729,1.37489,3.15331,4.12433,6.27435,1.97526,1.55582,0,-0.054166,-2.64749e-05,0.0955428,0.000429591,-0.0356529,2.64749e-05,0.484219,-14.7613,-0.563653,-4.97841,1.04726,-56.3568,1.50185,0.0276058,-20,-0.551684,-0.427845,-0.0398932,-2.74231,0.0403254,-0.000142174,0.0159525,-0.000107168,0.494653,0.00128343,0.07538,0.0389102,0.000314339,0.0164512,1.92347,-0.000321646,0.005,1.69568,-0.000575476,-0.0100081,-0.428592,46.5879,-0.319851,0.189952,18.8529,0.647344,1.44097,0.434849,-2.86927,-0.0578454,0.209473,-1.97389,0.072956,0.188084,0.0245033,0.418945,-0.100708,23.4506,23.3371,23.1243,23.2804,23.1811,23.2662,23.1101,
117,6.2729,1.37489,3.15331,4.12433,6.27435,1.97526,1.55582,0,-0.054166,-2.64749e-05,0.0955428,0.000429591,-0.0356529,2.64749e-05,0.485032,-14.8265,-0.56535,-5.02741,1.04943,-56.6115,1.50961,0.0278212,-20,-0.552675,-0.43637,-0.0398993,-2.76775,0.040832,-0.000143996,0.016076,-0.000108787,0.494653,0.00128343,0.07538,0.0389102,0.000314339,0.0164512,1.92264,-0.000329425,0.005,1.69536,-0.000579388,-0.010306,-0.433542,46.8265,-0.322777,0.189952,18.8529,0.647344,1.44097,0.434849,-2.86927,-0.0578454,0.209473,-1.97389,0.072956,0.188084,0.0245033,0.418945,-0.100708,23.4506,23.3371,23.1243,23.2804,23.1811,23.2662,23.1101,
118,6.2729,1.37484,3.15331,4.12442,6.27435,1.97523,1.55582,0,-0.0534793,-2.64549e-05,0.0937238,0.000424318,-0.0356529,2.64749e-05,0.485053,-14.8253,-0.565413,-5.02766,1.04943,-56.6101,1.50958,0.0278085,-20,-0.552685,-0.434723,-0.0398961,-2.76793,0.0408331,-0.000143996,0.016076,-0.000108787,0.494653,0.00128343,0.07538,0.0382419,0.000308469,0.0162093,1.92264,-0.000329425,0.005,1.69536,-0.000579388,-0.010306,-0.433542,46.8265,-0.322777,0.207203,18.9335,0.65564,1.39761,0.433866,-2.85187,-0.0618856,0.20206,-1.93366,0.0970148,0.233781,0.0245033,0.422974,-0.108765,23.4648,23.3371,23.1527,23.2662,23.2094,23.2662,23.1101,
119,6.2729,1.37484,3.15331,4.12442,6.27435,1.97523,1.55582,0,-0.0534793,-2.64549e-05,0.0937238,0.000424318,-0.0356529,2.64749e-05,0.485763,-14.8875,-0.566125,-5.07366,1.05379,-56.8485,1.51502,0.0279965,-20,-0.553569,-0.442642,-0.0398914,-2.7915,0.0411153,-0.000145284,0.0161861,-0.000109322,0.494653,0.00128343,0.07538,0.0382419,0.000308469,0.0162093,1.92189,-0.000334552,0.005,1.69528,-0.000578719,-0.0100884,-0.436307,47.0487,-0.323452,0.207203,18.9335,0.65564,1.39761,0.433866,-2.85187,-0.0618856,0.20206,-1.93366,0.0970148,0.233781,0.0245033,0.422974,-0.108765,23.4648,23.3371,23.1527,23.2662,23.2094,23.2662,23.1101,
120,6.2729,1.37479,3.15331,4.12451,6.27436,1.97519,1.55582,0,-0.0501872,-2.64549e-05,0.0917401,0.000437578,-0.038582,2.64749e-05,0.485789,-14.8863,-0.56619,-5.07348,1.05375,-56.8474,1.51492,0.027984,-20,-0.553574,-0.440784,-0.0398886,-2.79173,0.0411119,-0.000145284,0.0161861,-0.000109322,0.494653,0.00128343,0.07538,0.0369896,0.000293901,0.0146207,1.92189,-0.000334552,0.005,1.69528,-0.000578719,-0.0100884,-0.436307,47.0487,-0.323452,0.204839,19.0367,0.647563,1.36471,0.426685,-2.82004,-0.0483043,0.193359,-1.94972,0.0966797,0.265869,0.0245033,0.40688,-0.104814,23.4364,23.3371,23.1385,23.2662,23.1811,23.2662,23.0959,
121,6.2729,1.37479,3.15331,4.12451,6.27436,1.97519,1.55582,0,-0.0501872,-2.64549e-05,0.0917401,0.000437578,-0.038582,2.64749e-05,0.48591,-14.8966,-0.567159,-5.07934,1.05185,-56.8735,1.51834,0.028016,-20,-0.553785,-0.441629,-0.0399056,-2.7937,0.041431,-0.000146938,0.0162853,-0.000110732,0.494653,0.00128343,0.07538,0.0369896,0.000293901,0.0146207,1.92116,-0.000341352,0.005,1.69575,-0.000571728,-0.00865864,-0.439442,47.0703,-0.325642,0.204839,19.0367,0.647563,1.36471,0.426685,-2.82004,-0.0483043,0.193359,-1.94972,0.0966797,0.265869,0.0245033,0.40688,-0.104814,23.4364,23.3371,23.1385,23.2662,23.1811,23.2662,23.0959,
122,6.2729,1.37475,3.15331,4.1246,6.27436,1.97515,1.55582,-1.81427e-05,-0.0462336,-2.11799e-05,0.0912929,0.000429596,-0.0424053,2.64549e-05,0.485933,-14.8953,-0.567209,-5.07915,1.05183,-56.8724,1.51828,0.0280039,-20,-0.55379,-0.439816,-0.0399029,-2.79391,0.0414296,-0.000146938,0.0162853,-0.000110732,0.494653,0.00128343,0.07538,0.036046,0.000283529,0.0126514,1.92116,-0.000341352,0.005,1.69575,-0.000571728,-0.00865864,-0.439442,47.0703,-0.325642,0.174677,19.1109,0.659494,1.28161,0.439134,-2.80583,-0.0567355,0.185478,-1.99001,0.0966797,0.281982,0.0241699,0.422974,-0.104814,23.4506,23.3371,23.1527,23.2662,23.1952,23.2662,23.1101,
123,6.2729,1.3747,3.15331,4.12469,6.27436,1.9751,1.55582,-1.75526e-05,-0.0420895,-2.11801e-05,0.0926434,0.000443016,-0.0434857,2.64751e-05,0.485999,-14.9008,-0.567675,-5.08335,1.0509,-56.8801,1.51996,0.0280041,-20,-0.553925,-0.438743,-0.0399121,-2.79435,0.0415962,-0.000148137,0.0163791,-0.000111674,0.494653,0.00128343,0.07538,0.0355792,0.000277027,0.0108712,1.92045,-0.000350102,0.005,1.69596,-0.000570269,-0.00688627,-0.441121,47.0767,-0.326623,0.183238,19.1979,0.641842,1.2316,0.436093,-2.81987,-0.0465609,0.209628,-2.05451,0.0889885,0.265869,0.0281982,0.443188,-0.0967636,23.4648,23.3087,23.1385,23.2804,23.1952,23.252,23.1101,
124,6.2729,1.3747,3.15331,4.12469,6.27436,1.9751,1.55582,-1.75526e-05,-0.0420895,-2.11801e-05,0.0926434,0.000443016,-0.0434857,2.64751e-05,0.486522,-14.9425,-0.56967,-5.11467,1.04943,-57.0262,1.5251,0.0281425,-20,-0.554629,-0.444192,-0.0399356,-2.80843,0.0419621,-0.000149749,0.0164724,-0.000113064,0.494653,0.00128343,0.07538,0.0355792,0.000277027,0.0108712,1.91973,-0.000356677,0.005,1.69574,-0.000570334,-0.00528406,-0.444675,47.2125,-0.330717,0.183238,19.1979,0.641842,1.2316,0.436093,-2.81987,-0.0465609,0.209628,-2.05451,0.0889885,0.265869,0.0281982,0.443188,-0.0967636,23.4648,23.3087,23.1385,23.2804,23.1952,23.252,23.1101,
125,6.2729,1.37466,3.15331,4.12479,6.27436,1.97506,1.55582,-1.75966e-05,-0.0391641,-2.11639e-05,0.0915305,0.000448595,-0.0453764,2.64751e-05,0.486541,-14.9413,-0.569725,-5.11475,1.0494,-57.0249,1.52503,0.0281311,-20,-0.554639,-0.442493,-0.0399328,-2.80862,0.0419606,-0.000149749,0.0164724,-0.000113064,0.494653,0.00128343,0.07538,0.034654,0.000266021,0.00952538,1.91973,-0.000356677,0.005,1.69574,-0.000570334,-0.00528406,-0.444675,47.2125,-0.330717,0.182628,19.2199,0.630971,1.17095,0.430765,-2.82124,-0.0446329,0.193359,-2.11896,0.105046,0.233643,0.0322266,0.435059,-0.104814,23.4648,23.3229,23.1385,23.2804,23.1952,23.2662,23.1101,
126,6.2729,1.37463,3.15331,4.12488,6.27436,1.97501,1.55582,-1.70002e-05,-0.0378136,-2.11639e-05,0.0923733,0.000440972,-0.0466429,2.64749e-05,0.486801,-14.9623,-0.570521,-5.13056,1.04932,-57.0982,1.52846,0.028186,-20,-0.555006,-0.443625,-0.0399398,-2.81569,0.0422312,-0.000151138,0.0165635,-0.000114003,0.494653,0.00128343,0.07538,0.0346202,0.000262029,0.00884573,1.91901,-0.000362143,0.005,1.69592,-0.000565348,-0.00407284,-0.447323,47.2805,-0.332185,0.184186,19.2195,0.620817,1.15682,0.434354,-2.82001,-0.0561087,0.177977,-2.14345,0.0889885,0.265869,0.0362549,0.435133,-0.104736,23.4506,23.3229,23.1385,23.2804,23.1952,23.252,23.0959,
127,6.2729,1.37459,3.15331,4.12497,6.27436,1.97496,1.55582,-3.40003e-05,-0.0372735,-2.11801e-05,0.0921032,0.000454312,-0.0491577,2.64549e-05,0.487317,-15.0062,-0.571005,-5.16593,1.05258,-57.2663,1.53295,0.0283098,-20,-0.555657,-0.448378,-0.0399332,-2.83266,0.0425038,-0.000152255,0.0166423,-0.000114311,0.494653,0.00128343,0.07538,0.0344343,0.000264464,0.00837243,1.91832,-0.000366099,0.005,1.69533,-0.000565316,-0.00346116,-0.450043,47.4401,-0.332517,0.192764,19.2058,0.593648,1.12036,0.442885,-2.82432,-0.0464883,0.177246,-2.12697,0.0980133,0.22573,0.0362549,0.435077,-0.104814,23.4364,23.3087,23.1243,23.2662,23.1952,23.252,23.1101,
128,6.2729,1.37459,3.15331,4.12497,6.27436,1.97496,1.55582,-3.40003e-05,-0.0372735,-2.11801e-05,0.0921032,0.000454312,-0.0491577,2.64549e-05,0.487746,-15.0384,-0.572547,-5.19105,1.0516,-57.3868,1.53829,0.0284232,-20,-0.556197,-0.45284,-0.0399488,-2.84463,0.0429183,-0.000153781,0.0167212,-0.00011561,0.494653,0.00128343,0.07538,0.0344343,0.000264464,0.00837243,1.91765,-0.000372127,0.005,1.69489,-0.000572932,-0.00303519,-0.454092,47.5535,-0.335693,0.192764,19.2058,0.593648,1.12036,0.442885,-2.82432,-0.0464883,0.177246,-2.12697,0.0980133,0.22573,0.0362549,0.435077,-0.104814,23.4364,23.3087,23.1243,23.2662,23.1952,23.252,23.1101,
129,6.2729,1.37455,3.15331,4.12506,6.27436,1.97491,1.55582,-3.2963e-05,-0.0381168,-2.11799e-05,0.0926434,0.000460634,-0.0539648,2.64749e-05,0.48775,-15.0366,-0.572582,-5.19093,1.05151,-57.3851,1.53814,0.028412,-20,-0.556207,-0.451317,-0.039947,-2.84475,0.042915,-0.000153781,0.0167212,-0.00011561,0.494653,0.00128343,0.07538,0.0347728,0.000260109,0.00819696,1.91765,-0.000372127,0.005,1.69489,-0.000572932,-0.00303519,-0.454092,47.5535,-0.335693,0.199197,19.1959,0.585045,1.06373,0.448227,-2.84043,-0.0451834,0.177246,-2.11891,0.0809682,0.218125,0.0485074,0.443134,-0.100789,23.4506,23.3229,23.1385,23.2804,23.1952,23.2804,23.0959,
130,6.2729,1.37451,3.15331,4.12515,6.27436,1.97485,1.55582,-3.2963e-05,-0.0385848,-2.11641e-05,0.0917401,0.000452522,-0.0556706,2.64749e-05,0.488137,-15.0651,-0.57348,-5.21601,1.05226,-57.4979,1.54406,0.0285007,-20,-0.556677,-0.454456,-0.0399468,-2.85647,0.0433954,-0.000155349,0.0167998,-0.000116845,0.494653,0.00128343,0.07538,0.0346118,0.000255719,0.00822024,1.91695,-0.000378192,0.005,1.69396,-0.00057447,-0.00287726,-0.458806,47.6629,-0.337221,0.24973,19.136,0.586618,1.00305,0.453187,-2.84993,-0.0531039,0.177246,-2.07861,0.0889885,0.210091,0.0443115,0.471313,-0.0966797,23.4506,23.3229,23.1385,23.2662,23.1811,23.252,23.1101,
131,6.2729,1.37447,3.15331,4.12525,6.27436,1.97479,1.55582,-3.19142e-05,-0.0391641,-2.11639e-05,0.087769,0.000459592,-0.0550999,2.64749e-05,0.488517,-15.0981,-0.573399,-5.24267,1.05606,-57.628,1.54831,0.0285861,-20,-0.557131,-0.45765,-0.0399329,-2.86978,0.0436814,-0.000156472,0.0168694,-0.000117004,0.494653,0.00128343,0.07538,0.0335832,0.000249592,0.00857154,1.91626,-0.000381865,0.005,1.69349,-0.000573826,-0.00289822,-0.461679,47.7867,-0.336357,0.230176,19.1059,0.593572,0.958767,0.456157,-2.86061,-0.0489022,0.185478,-2.03835,0.088623,0.209628,0.0485074,0.471382,-0.0966797,23.4364,23.3371,23.1385,23.2804,23.1952,23.2662,23.1243,
132,6.2729,1.37447,3.15331,4.12525,6.27436,1.97479,1.55582,-3.19142e-05,-0.0391641,-2.11639e-05,0.087769,0.000459592,-0.0550999,2.64749e-05,0.488963,-15.1323,-0.574661,-5.26679,1.0562,-57.763,1.5533,0.0287041,-20,-0.557678,-0.461689,-0.0399417,-2.88313,0.0440419,-0.000158036,0.016947,-0.000118247,0.494653,0.00128343,0.07538,0.0335832,0.000249592,0.00857154,1.91556,-0.000387903,0.005,1.69378,-0.000573745,-0.00321438,-0.465201,47.9116,-0.338767,0.230176,19.1059,0.593572,0.958767,0.456157,-2.86061,-0.0489022,0.185478,-2.03835,0.088623,0.209628,0.0485074,0.471382,-0.0966797,23.4364,23.3371,23.1385,23.2804,23.1952,23.2662,23.1243,
133,6.2729,1.37443,3.15331,4.12533,6.27436,1.97474,1.55582,-3.19152e-05,-0.0388691,-2.11799e-05,0.0856209,0.00047374,-0.0550999,2.64549e-05,0.488976,-15.1314,-0.574713,-5.26681,1.05613,-57.762,1.55319,0.0286927,-20,-0.557689,-0.46023,-0.0399397,-2.88325,0.0440388,-0.000158036,0.016947,-0.000118247,0.494653,0.00128343,0.07538,0.0329014,0.000245748,0.00848796,1.91556,-0.000387903,0.005,1.69378,-0.000573745,-0.00321438,-0.465201,47.9116,-0.338767,0.26928,19.1014,0.602409,0.838866,0.45971,-2.84623,-0.0578546,0.169189,-1.99805,0.090076,0.282442,0.0485074,0.443115,-0.100708,23.4648,23.3371,23.1385,23.2804,23.1952,23.252,23.1243,
134,6.2729,1.37443,3.15331,4.12533,6.27436,1.97474,1.55582,-3.19152e-05,-0.0388691,-2.11799e-05,0.0856209,0.00047374,-0.0550999,2.64549e-05,0.489414,-15.1648,-0.5761,-5.29134,1.0558,-57.8907,1.55824,0.0288085,-20,-0.558236,-0.464431,-0.0399515,-2.89597,0.0444133,-0.000159556,0.0170185,-0.000119389,0.494653,0.00128343,0.07538,0.0329014,0.000245748,0.00848796,1.9149,-0.000393675,0.005,1.6938,-0.00057548,-0.00313916,-0.468858,48.0313,-0.341507,0.26928,19.1014,0.602409,0.838866,0.45971,-2.84623,-0.0578546,0.169189,-1.99805,0.090076,0.282442,0.0485074,0.443115,-0.100708,23.4648,23.3371,23.1385,23.2804,23.1952,23.252,23.1243,
135,6.2729,1.37439,3.15331,4.12542,6.27436,1.97468,1.55582,-3.09985e-05,-0.0372735,-2.11799e-05,0.0861611,0.000479208,-0.0559102,2.64749e-05,0.489426,-15.1637,-0.576146,-5.29136,1.05573,-57.8896,1.55816,0.0287977,-20,-0.558248,-0.462989,-0.0399492,-2.89607,0.0444124,-0.000159556,0.0170185,-0.000119389,0.494653,0.00128343,0.07538,0.0327288,0.000242447,0.00776242,1.9149,-0.000393675,0.005,1.6938,-0.00057548,-0.00313916,-0.468858,48.0313,-0.341507,0.300709,19.1315,0.588339,0.80011,0.451375,-2.84815,-0.0642422,0.161334,-2.00612,0.0889885,0.322266,0.0525229,0.427021,-0.104736,23.4506,23.3229,23.1385,23.2662,23.1811,23.2804,23.1243,
136,6.2729,1.37439,3.15331,4.12542,6.27436,1.97468,1.55582,-3.09985e-05,-0.0372735,-2.11799e-05,0.0861611,0.000479208,-0.0559102,2.64749e-05,0.489853,-15.1994,-0.577096,-5.31901,1.05669,-58.0214,1.56275,0.0289108,-20,-0.558794,-0.467868,-0.0399552,-2.90909,0.044732,-0.000160827,0.0170851,-0.000120033,0.494653,0.00128343,0.07538,0.0327288,0.000242447,0.00776242,1.91426,-0.000398212,0.005,1.69338,-0.000576593,-0.00248618,-0.47199,48.1551,-0.343198,0.300709,19.1315,0.588339,0.80011,0.451375,-2.84815,-0.0642422,0.161334,-2.00612,0.0889885,0.322266,0.0525229,0.427021,-0.104736,23.4506,23.3229,23.1385,23.2662,23.1811,23.2804,23.1243,
137,6.2729,1.37436,3.15331,4.1255,6.27436,1.97463,1.55582,-3.10672e-05,-0.0353828,-2.11639e-05,0.0848106,0.000486247,-0.0578009,2.64749e-05,0.489867,-15.1984,-0.577143,-5.31889,1.05662,-58.0205,1.56263,0.0289001,-20,-0.558803,-0.466392,-0.0399533,-2.90921,0.0447288,-0.000160827,0.0170851,-0.000120033,0.494653,0.00128343,0.07538,0.0319498,0.000233283,0.00683053,1.91426,-0.000398212,0.005,1.69338,-0.000576593,-0.00248618,-0.47199,48.1551,-0.343198,0.362727,19.0886,0.577444,0.812958,0.449229,-2.84209,-0.0659807,0.169189,-2.01416,0.105046,0.273926,0.0616214,0.410908,-0.108839,23.4506,23.3229,23.1527,23.2662,23.1952,23.2804,23.1243,
138,6.2729,1.37433,3.15331,4.12559,6.27436,1.97456,1.55582,-3.01339e-05,-0.0345725,-2.11639e-05,0.0821747,0.000478039,-0.0601278,2.64749e-05,0.48996,-15.203,-0.577982,-5.3223,1.05481,-58.0335,1.56581,0.0289102,-20,-0.558944,-0.46546,-0.039964,-2.9104,0.0450447,-0.000162275,0.0171464,-0.000121123,0.494653,0.00128343,0.07538,0.0310235,0.000221075,0.00630101,1.91363,-0.000403587,0.005,1.69351,-0.000573183,-0.00164748,-0.475078,48.1668,-0.345034,0.350574,19.0599,0.56159,0.834664,0.435118,-2.8302,-0.0708556,0.177429,-2.03835,0.0809682,0.298096,0.0645789,0.414917,-0.104814,23.4648,23.3513,23.1527,23.252,23.1952,23.2804,23.1243,
139,6.2729,1.37433,3.15331,4.12559,6.27436,1.97456,1.55582,-3.01339e-05,-0.0345725,-2.11639e-05,0.0821747,0.000478039,-0.0601278,2.64749e-05,0.489856,-15.1996,-0.57707,-5.31891,1.05681,-58.0155,1.56755,0.0288827,-20,-0.558835,-0.464788,-0.0399532,-2.90839,0.0452303,-0.00016333,0.017204,-0.000121175,0.494653,0.00128343,0.07538,0.0310235,0.000221075,0.00630101,1.91298,-0.0004068,0.005,1.69376,-0.000565087,-0.00117091,-0.47696,48.149,-0.342977,0.350574,19.0599,0.56159,0.834664,0.435118,-2.8302,-0.0708556,0.177429,-2.03835,0.0809682,0.298096,0.0645789,0.414917,-0.104814,23.4648,23.3513,23.1527,23.252,23.1952,23.2804,23.1243,
140,6.2729,1.37429,3.15331,4.12567,6.27436,1.9745,1.55582,-3.01339e-05,-0.0350746,-2.12117e-05,0.0818395,0.000478039,-0.0615822,2.64549e-05,0.489863,-15.1985,-0.577108,-5.31878,1.05672,-58.0146,1.56741,0.0288719,-20,-0.558846,-0.463426,-0.0399517,-2.90848,0.0452273,-0.00016333,0.017204,-0.000121175,0.494653,0.00128343,0.07538,0.0310335,0.000219184,0.00635579,1.91298,-0.0004068,0.005,1.69376,-0.000565087,-0.00117091,-0.47696,48.149,-0.342977,0.350953,19.0427,0.550781,0.835311,0.427631,-2.80147,-0.0721036,0.153288,-2.02223,0.0889885,0.354584,0.0645789,0.414937,-0.0966797,23.4648,23.3371,23.1527,23.2662,23.1811,23.2804,23.1243,
141,6.2729,1.37429,3.15331,4.12567,6.27436,1.9745,1.55582,-3.01339e-05,-0.0350746,-2.12117e-05,0.0818395,0.000478039,-0.0615822,2.64549e-05,0.490269,-15.2298,-0.57815,-5.3438,1.05718,-58.1364,1.57275,0.0289795,-20,-0.559339,-0.467908,-0.0399568,-2.92078,0.0456344,-0.00016478,0.0172611,-0.000122175,0.494653,0.00128343,0.07538,0.0310335,0.000219184,0.00635579,1.91236,-0.000412035,0.005,1.69319,-0.000568097,-0.00122021,-0.480953,48.2645,-0.344919,0.350953,19.0427,0.550781,0.835311,0.427631,-2.80147,-0.0721036,0.153288,-2.02223,0.0889885,0.354584,0.0645789,0.414937,-0.0966797,23.4648,23.3371,23.1527,23.2662,23.1811,23.2804,23.1243,
142,6.2729,1.37425,3.15331,4.12575,6.27436,1.97444,1.55582,-2.93162e-05,-0.0348426,-2.1212e-05,0.0823797,0.000486254,-0.0656337,2.64749e-05,0.490274,-15.2285,-0.578183,-5.34349,1.05708,-58.1354,1.5726,0.0289689,-20,-0.559349,-0.466502,-0.0399552,-2.92087,0.0456315,-0.00016478,0.0172611,-0.000122175,0.494653,0.00128343,0.07538,0.0311484,0.000214003,0.00583059,1.91236,-0.000412035,0.005,1.69319,-0.000568097,-0.00122021,-0.480953,48.2645,-0.344919,0.34835,18.9854,0.532942,0.82006,0.426836,-2.78105,-0.0599215,0.153288,-2.00612,0.0725098,0.322366,0.0645789,0.40686,-0.10103,23.4506,23.3371,23.1669,23.2946,23.1811,23.2662,23.0959,
143,6.2729,1.37422,3.15331,4.12583,6.27437,1.97437,1.55582,-2.93154e-05,-0.0361931,-2.11959e-05,0.0840003,0.000492977,-0.066444,2.64749e-05,0.49038,-15.2347,-0.578746,-5.35114,1.0563,-58.159,1.57677,0.0289863,-20,-0.559501,-0.466736,-0.0399585,-2.92348,0.0460372,-0.000166203,0.0173119,-0.000123124,0.494653,0.00128343,0.07538,0.0318991,0.000219792,0.00626565,1.91174,-0.000417047,0.005,1.69253,-0.000567945,-0.000747527,-0.484964,48.2895,-0.346071,0.389567,18.8703,0.552318,0.779812,0.423718,-2.73932,-0.0556972,0.153288,-1.99001,0.105046,0.306152,0.072956,0.422993,-0.112865,23.4506,23.3513,23.1527,23.2804,23.1952,23.2662,23.1243,
144,6.2729,1.37418,3.15331,4.12592,6.27437,1.9743,1.55582,-2.92543e-05,-0.0372735,-2.11959e-05,0.0842582,0.00050043,-0.0661406,2.64749e-05,0.49107,-15.2889,-0.57987,-5.39614,1.05912,-58.3761,1.58335,0.0291567,-20,-0.560332,-0.473458,-0.0399537,-2.94574,0.0464722,-0.000167448,0.0173649,-0.000123587,0.494653,0.00128343,0.07538,0.0321981,0.000223866,0.00672978,1.91111,-0.000421125,0.005,1.69129,-0.000576826,-0.00113908,-0.489209,48.4974,-0.347708,0.36595,18.7863,0.552545,0.77356,0.436999,-2.72155,-0.0509232,0.161133,-1.94167,0.088623,0.258316,0.076961,0.402852,-0.100789,23.4648,23.3513,23.1527,23.2946,23.1811,23.2804,23.1101,
145,6.2729,1.37418,3.15331,4.12592,6.27437,1.9743,1.55582,-2.92543e-05,-0.0372735,-2.11959e-05,0.0842582,0.00050043,-0.0661406,2.64749e-05,0.491703,-15.3425,-0.580402,-5.4386,1.06329,-58.5874,1.58915,0.0293243,-20,-0.561086,-0.481023,-0.0399446,-2.96713,0.046823,-0.00016855,0.0174208,-0.000123566,0.494653,0.00128343,0.07538,0.0321981,0.000223866,0.00672978,1.91044,-0.000424347,0.005,1.69042,-0.000583392,-0.0015568,-0.492661,48.6976,-0.348082,0.36595,18.7863,0.552545,0.77356,0.436999,-2.72155,-0.0509232,0.161133,-1.94167,0.088623,0.258316,0.076961,0.402852,-0.100789,23.4648,23.3513,23.1527,23.2946,23.1811,23.2804,23.1101,
146,6.2729,1.37414,3.15331,4.126,6.27437,1.97424,1.55582,-2.92543e-05,-0.0372735,-2.1212e-05,0.0823797,0.000506998,-0.066444,2.64549e-05,0.491713,-15.3417,-0.580447,-5.43845,1.0632,-58.5867,1.58903,0.0293131,-20,-0.561097,-0.479625,-0.0399431,-2.96722,0.0468202,-0.00016855,0.0174208,-0.000123566,0.494653,0.00128343,0.07538,0.0316559,0.000220013,0.00672708,1.91044,-0.000424347,0.005,1.69042,-0.000583392,-0.0015568,-0.492661,48.6976,-0.348082,0.360405,18.6858,0.542873,0.711856,0.439816,-2.6626,-0.0664335,0.161133,-1.91748,0.088623,0.242236,0.0805664,0.374634,-0.0966797,23.4648,23.3371,23.1527,23.2946,23.1811,23.2804,23.1243,
147,6.2729,1.3741,3.15331,4.12608,6.27437,1.97417,1.55582,-2.8483e-05,-0.0371137,-2.1212e-05,0.0823797,0.000514884,-0.0648234,2.64749e-05,0.492003,-15.3618,-0.581451,-5.45415,1.06269,-58.6669,1.59331,0.0293764,-20,-0.561461,-0.480974,-0.0399494,-2.97535,0.0471775,-0.000169998,0.0174731,-0.000124502,0.494653,0.00128343,0.07538,0.0316212,0.000222717,0.00683902,1.90982,-0.000429435,0.005,1.69034,-0.000584503,-0.00155437,-0.496194,48.7734,-0.350012,0.320687,18.5413,0.548558,0.669092,0.415942,-2.63568,-0.0521951,0.153076,-1.90138,0.0889885,0.257938,0.080667,0.350464,-0.104814,23.4648,23.3513,23.1527,23.2804,23.2094,23.2946,23.1243,
148,6.2729,1.37407,3.15331,4.12617,6.27437,1.97411,1.55582,-2.85418e-05,-0.0340323,-2.11957e-05,0.084185,0.00053826,-0.0626626,2.64749e-05,0.492714,-15.415,-0.58337,-5.49583,1.06313,-58.8757,1.59949,0.0295507,-20,-0.562331,-0.486891,-0.039959,-2.99642,0.0475869,-0.000171473,0.01753,-0.000125465,0.494653,0.00128343,0.07538,0.0315027,0.000225792,0.00581733,1.90918,-0.000434695,0.005,1.6898,-0.000591671,-0.00165512,-0.500206,48.9707,-0.353534,0.305497,18.3636,0.571679,0.586263,0.398198,-2.61437,-0.0562542,0.161133,-1.90944,0.088623,0.257812,0.0846906,0.310207,-0.100708,23.4506,23.3371,23.1527,23.2946,23.1952,23.2946,23.1243,
149,6.2729,1.37407,3.15331,4.12617,6.27437,1.97411,1.55582,-2.85418e-05,-0.0340323,-2.11957e-05,0.084185,0.00053826,-0.0626626,2.64749e-05,0.493376,-15.4654,-0.585804,-5.53441,1.06151,-59.0622,1.60509,0.0297261,-20,-0.563182,-0.493649,-0.0399846,-3.01478,0.0479595,-0.000172902,0.0175848,-0.00012648,0.494653,0.00128343,0.07538,0.0315027,0.000225792,0.00581733,1.90856,-0.00043985,0.005,1.68935,-0.000599078,-0.0007356,-0.503801,49.1453,-0.358511,0.305497,18.3636,0.571679,0.586263,0.398198,-2.61437,-0.0562542,0.161133,-1.90944,0.088623,0.257812,0.0846906,0.310207,-0.100708,23.4506,23.3371,23.1527,23.2946,23.1952,23.2946,23.1243,
150,6.2729,1.37404,3.15331,4.12625,6.27437,1.97404,1.55582,-2.78072e-05,-0.0312996,-2.11639e-05,0.0835059,0.000563685,-0.061689,2.64751e-05,0.49339,-15.4646,-0.585856,-5.53445,1.06143,-59.0614,1.60497,0.0297154,-20,-0.563196,-0.492184,-0.0399824,-3.01488,0.0479563,-0.000172902,0.0175848,-0.00012648,0.494653,0.00128343,0.07538,0.0307394,0.000222255,0.0048425,1.90856,-0.00043985,0.005,1.68935,-0.000599078,-0.0007356,-0.503801,49.1453,-0.358511,0.300259,18.2206,0.598018,0.54995,0.414499,-2.58725,-0.0523953,0.145243,-1.97388,0.0809682,0.193359,0.0889885,0.269897,-0.104814,23.479,23.3513,23.1527,23.2946,23.1952,23.2804,23.1243,
151,6.2729,1.37401,3.15331,4.12634,6.27437,1.97397,1.55582,-2.77521e-05,-0.0289004,-2.11639e-05,0.0815694,0.000573508,-0.0611332,2.64549e-05,0.493714,-15.4865,-0.587577,-5.55037,1.05891,-59.1394,1.6089,0.0297874,-20,-0.563629,-0.49352,-0.0400027,-3.02244,0.0482831,-0.000174349,0.0176386,-0.000127502,0.494653,0.00128343,0.07538,0.029682,0.000214809,0.00397289,1.90792,-0.000445008,0.005,1.68946,-0.000600537,0.000141754,-0.50698,49.2174,-0.362157,0.335893,18.0405,0.584995,0.515656,0.401441,-2.55777,-0.0577854,0.153288,-2.03029,0.0805664,0.20206,0.0849775,0.233781,-0.0926514,23.4648,23.3371,23.1669,23.2946,23.2094,23.2662,23.1385,
152,6.2729,1.37398,3.15331,4.12641,6.27437,1.97391,1.55582,-2.77514e-05,-0.027083,-1.85605e-05,0.0796788,0.000582884,-0.0615198,2.64749e-05,0.493713,-15.4864,-0.587953,-5.5492,1.05775,-59.1335,1.61073,0.0297739,-20,-0.563673,-0.491859,-0.0400103,-3.02161,0.0484837,-0.000175499,0.017678,-0.000127881,0.494653,0.00128343,0.07538,0.0287597,0.00020646,0.00323482,1.90733,-0.000448554,0.005,1.68988,-0.000597026,0.000924397,-0.508989,49.2104,-0.363034,0.28953,17.8081,0.561279,0.51774,0.414534,-2.54217,-0.0617336,0.153288,-2.07056,0.0821619,0.233643,0.0927389,0.205484,-0.0966797,23.4648,23.3513,23.1527,23.3087,23.1952,23.2662,23.0959,
153,6.2729,1.37398,3.15331,4.12641,6.27437,1.97391,1.55582,-2.77514e-05,-0.027083,-1.85605e-05,0.0796788,0.000582884,-0.0615198,2.64749e-05,0.493769,-15.4893,-0.588781,-5.55021,1.05567,-59.1383,1.61271,0.0297885,-20,-0.563773,-0.491927,-0.0400239,-3.02178,0.0486822,-0.000176583,0.0177246,-0.000128808,0.494653,0.00128343,0.07538,0.0287597,0.00020646,0.00323482,1.90675,-0.000451848,0.005,1.69019,-0.000592477,0.00158867,-0.510928,49.2133,-0.364964,0.28953,17.8081,0.561279,0.51774,0.414534,-2.54217,-0.0617336,0.153288,-2.07056,0.0821619,0.233643,0.0927389,0.205484,-0.0966797,23.4648,23.3513,23.1527,23.3087,23.1952,23.2662,23.0959,
154,6.2729,1.37396,3.15331,4.12649,6.27437,1.97386,1.55582,-4.16271e-05,-0.0270097,-1.85464e-05,0.0799489,0.000593332,-0.0616295,3.70648e-05,0.493773,-15.4883,-0.588809,-5.55031,1.0556,-59.1372,1.61255,0.0297796,-20,-0.563786,-0.490722,-0.0400231,-3.02184,0.0486759,-0.000176583,0.0177246,-0.000128808,0.494653,0.00128343,0.07538,0.0288237,0.000213322,0.00319355,1.90675,-0.000451848,0.005,1.69019,-0.000592477,0.00158867,-0.510928,49.2133,-0.364964,0.26778,17.5972,0.570165,0.521153,0.414761,-2.53134,-0.0525783,0.169955,-2.09479,0.0889885,0.258943,0.0849775,0.177292,-0.100708,23.4506,23.3087,23.1385,23.2804,23.2094,23.2946,23.1385,
155,6.2729,1.37393,3.15331,4.12658,6.27437,1.97378,1.55582,-4.05846e-05,-0.0270097,-1.85464e-05,0.0799199,0.000603383,-0.0642756,3.70648e-05,0.49436,-15.5278,-0.591312,-5.58188,1.05294,-59.2938,1.61747,0.0299241,-20,-0.564519,-0.495002,-0.0400477,-3.0377,0.0490294,-0.000177911,0.0177786,-0.000130462,0.494653,0.00128343,0.07538,0.0288202,0.000209709,0.00291709,1.90619,-0.000461108,0.005,1.68963,-0.000606987,0.0016258,-0.514354,49.3619,-0.370178,0.269804,17.446,0.587508,0.572679,0.417195,-2.55736,-0.0596902,0.153076,-2.1028,0.0809682,0.241833,0.100789,0.161183,-0.0966797,23.4648,23.3229,23.1385,23.2662,23.1811,23.2804,23.1385,
156,6.2729,1.37393,3.15331,4.12658,6.27437,1.97378,1.55582,-4.05846e-05,-0.0270097,-1.85464e-05,0.0799199,0.000603383,-0.0642756,3.70648e-05,0.494421,-15.5308,-0.591835,-5.58589,1.05185,-59.303,1.6214,0.0299402,-20,-0.564596,-0.495872,-0.0400534,-3.03875,0.0494173,-0.000179285,0.0178122,-0.000131257,0.494653,0.00128343,0.07538,0.0288202,0.000209709,0.00291709,1.90558,-0.000465543,0.005,1.68909,-0.000607727,0.00187462,-0.518182,49.3722,-0.371389,0.269804,17.446,0.587508,0.572679,0.417195,-2.55736,-0.0596902,0.153076,-2.1028,0.0809682,0.241833,0.100789,0.161183,-0.0966797,23.4648,23.3229,23.1385,23.2662,23.1811,23.2804,23.1385,
